;FLAVOR:Marlin
M117 Time Left 1h28m18s
;TIME:5298
;Filament used: 17.9624m
;Layer height: 0.32
;MINX:87.79
;MINY:87.79
;MINZ:0.32
;MAXX:147.21
;MAXY:147.21
;MAXZ:37.12
;POSTPROCESSED
;Generated with Cura_SteamEngine 5.2.1
M140 S60
M105
M190 S60
M104 S215
M105
M109 S215
M82 ;absolute extrusion mode
; Ender 3 Custom Start G-code
G92 E0 ; Reset Extruder
G28 ; Home all axes
G1 Z2.0 F3000 ; Move Z Axis up little to prevent scratching of Heat Bed
G1 X0.1 Y20 Z0.3 F5000.0 ; Move to start position
G1 X0.1 Y200.0 Z0.3 F1500.0 E15 ; Draw the first line
G1 X0.4 Y200.0 Z0.3 F5000.0 ; Move to side a little
G1 X0.4 Y20 Z0.3 F1500.0 E30 ; Draw the second line
G92 E0 ; Reset Extruder
G1 Z2.0 F3000 ; Move Z Axis up little to prevent scratching of Heat Bed
G1 X5 Y20 Z0.3 F5000.0 ; Move over to prevent blob squish
G92 E0
G92 E0
G1 F2700 E-5
;LAYER_COUNT:116
;LAYER:0
M106 S127.5
M204 S500
M205 X11 Y11
;MESH:pata_35.stl
G0 F8100 X93.58 Y89.786 Z0.32
M205 X12 Y12
;TYPE:WALL-INNER
G1 F2700 E0
G1 F2123.8 X94.085 Y90.164 E0.07757
G1 F2520 X94.876 Y90.863 E0.18696
G1 X95.073 Y91.099 E0.21882
G1 X95.18 Y91.341 E0.24624
G1 X95.508 Y92.456 E0.36668
G1 X95.492 Y92.836 E0.4061
G1 X95.127 Y94.063 E0.53876
G1 X94.934 Y94.322 E0.57224
G1 X94.047 Y95.108 E0.69506
G1 X93.759 Y95.286 E0.73014
G1 X92.407 Y95.495 E0.87192
G1 X92.079 Y95.461 E0.90609
G1 X90.982 Y94.963 E1.03094
G1 X90.752 Y94.82 E1.05901
G1 X90.547 Y94.589 E1.09101
G1 F2428.1 X89.888 Y93.567 E1.22181
G1 F2121.3 X89.703 Y93.255 E1.26646
G1 F1942.4 X89.703 Y92.489 E1.36945
G1 F1961.5 X89.72 Y91.955 E1.44058
G1 F1963.7 X89.885 Y91.488 E1.50645
G1 F1932 X90.219 Y90.944 E1.59274
G1 F1923.7 X90.524 Y90.501 E1.66575
G1 F1948.8 X90.883 Y90.21 E1.72768
G1 F1936.2 X91.472 Y89.93 E1.81565
G1 F1953 X92.014 Y89.71 E1.89386
G1 F1998.6 X92.454 Y89.663 E1.95169
G1 F1915.5 X93.58 Y89.786 E2.10611
M205 X11 Y11
G0 F8100 X92.236 Y89.805
G0 X92.319 Y90.431
M205 X12 Y12
;TYPE:WALL-OUTER
G1 F2520 X93.457 Y90.601 E2.21766
G1 X93.628 Y90.681 E2.23596
G1 X94.49 Y91.443 E2.3475
G1 X94.82 Y92.563 E2.4607
G1 X94.818 Y92.677 E2.47175
G1 X94.508 Y93.733 E2.57845
G1 X94.428 Y93.852 E2.59235
G1 X93.552 Y94.626 E2.70567
G1 X92.316 Y94.811 E2.82683
G1 X91.178 Y94.295 E2.94797
G1 X90.603 Y93.411 E3.0502
G1 X90.567 Y93.337 E3.05818
G1 X90.502 Y93.134 E3.07885
G1 X90.5 Y92.13 E3.17618
G1 X90.588 Y91.855 E3.20417
G1 X91.153 Y90.99 E3.30434
G1 X91.251 Y90.912 E3.31648
G1 X92.319 Y90.431 E3.43003
M205 X11 Y11
G0 F8100 X92.516 Y90.46
G1 F2700 E-1.56997
G0 F8100 X92.613 Y89.812
G0 X93.614 Y89.293
G0 X94.642 Y88.994
G0 X140.397 Y88.994
G0 X141.454 Y89.043
G0 X141.89 Y89.219
G0 X141.929 Y89.671
M205 X12 Y12
;TYPE:WALL-INNER
G1 F2700 E3.43003
G1 F1989.8 X142.289 Y89.668 E3.47728
G1 F1963.7 X143.046 Y89.768 E3.57883
G1 F1957.3 X143.334 Y89.822 E3.61793
G1 F1985.4 X143.579 Y89.89 E3.65138
G1 F1968 X143.907 Y90.073 E3.70122
G1 F1925.8 X144.473 Y90.566 E3.80301
G1 X144.811 Y90.888 E3.86631
G1 F1950.9 X145.043 Y91.314 E3.93125
G1 F1946.7 X145.248 Y92.008 E4.02833
G1 F1959.4 X145.355 Y92.442 E4.0879
G1 F1998.6 X145.348 Y92.811 E4.13613
G1 F2084.4 X145.287 Y92.925 E4.15233
G1 F2324.4 X144.938 Y93.9 E4.26868
G1 F2520 X144.634 Y94.378 E4.32738
G1 X143.843 Y95.077 E4.43678
G1 X143.574 Y95.249 E4.46987
G1 X143.318 Y95.322 E4.49745
G1 X142.276 Y95.478 E4.60664
G1 X141.993 Y95.481 E4.63597
G1 X141.783 Y95.431 E4.65834
G1 X140.654 Y94.923 E4.78664
G1 X140.395 Y94.725 E4.82043
G1 X139.725 Y93.695 E4.94777
G1 X139.568 Y93.232 E4.99843
G1 X139.569 Y92.043 E5.12165
G1 X139.675 Y91.68 E5.16084
G1 X139.786 Y91.451 E5.18721
G1 X140.308 Y90.649 E5.28638
G1 X140.743 Y90.276 E5.34576
G1 F2437.9 X141.689 Y89.82 E5.45826
G1 F2157 X141.929 Y89.671 E5.49246
M205 X11 Y11
G1 F2700 E0.49246
G0 F8100 X140.758 Y90.305
G1 F2700 E5.49246
G0 F8100 X141.028 Y90.904
M205 X12 Y12
;TYPE:WALL-OUTER
G1 F2520 X142.076 Y90.429 E5.60401
G1 X143.265 Y90.611 E5.72062
G1 X143.375 Y90.669 E5.73268
G1 X144.254 Y91.452 E5.8468
G1 X144.569 Y92.524 E5.95512
G1 X144.578 Y92.677 E5.96998
G1 X144.277 Y93.705 E6.07382
G1 X144.178 Y93.861 E6.09173
G1 X143.313 Y94.625 E6.20362
G1 X142.174 Y94.796 E6.31528
G1 X142.013 Y94.781 E6.33095
G1 X140.942 Y94.297 E6.44489
G1 X140.351 Y93.391 E6.54976
G1 X140.26 Y93.136 E6.57601
G1 X140.262 Y92.112 E6.67528
G1 X140.364 Y91.828 E6.70454
G1 X140.886 Y91.026 E6.79731
G1 X141.028 Y90.904 E6.81546
M205 X11 Y11
G0 F8100 X141.21 Y90.822
G1 F2700 E1.81546
G0 F8100 X140.94 Y90.223
G0 X140.434 Y90.627
G0 X139.752 Y91.728
G0 X139.663 Y92.122
G0 X139.686 Y93.291
G0 X139.824 Y93.674
G0 X140.433 Y94.612
G0 X142.126 Y95.805
G0 X144.84 Y94.619
G0 X145.652 Y93.024
G0 X146.007 Y94.097
G0 X146.007 Y140.905
G0 X145.771 Y141.972
G0 X145.358 Y142.378
M205 X12 Y12
;TYPE:WALL-INNER
G1 F2700 E6.81546
G1 F2025.7 X145.326 Y142.676 E6.8541
G1 F1974.5 X145.249 Y142.987 E6.89647
G1 F1948.8 X145 Y143.811 E7.01183
G1 F1953 X144.801 Y144.121 E7.06109
G1 F1927.9 X144.476 Y144.432 E7.12202
G1 F1934.1 X143.912 Y144.914 E7.2222
G1 F1961.5 X143.573 Y145.134 E7.276
G1 F1948.8 X143.053 Y145.231 E7.34689
G1 F1953 X142.148 Y145.35 E7.46895
G1 F2212.8 X141.701 Y145.158 E7.52637
G1 F2520 X140.742 Y144.723 E7.6355
G1 X140.307 Y144.35 E7.69488
G1 X139.785 Y143.548 E7.79405
G1 X139.674 Y143.319 E7.82042
G1 X139.568 Y142.954 E7.85981
G1 X139.569 Y141.767 E7.98282
G1 X139.726 Y141.303 E8.03358
G1 X140.342 Y140.36 E8.15031
G1 X140.584 Y140.111 E8.18629
G1 X141.78 Y139.569 E8.32237
G1 X141.99 Y139.519 E8.34474
G1 X142.275 Y139.522 E8.37428
G1 X143.32 Y139.679 E8.48379
G1 X143.575 Y139.752 E8.51128
G1 X143.845 Y139.924 E8.54445
G1 X144.636 Y140.623 E8.65385
G1 X144.94 Y141.101 E8.71255
G1 F2354.9 X145.134 Y141.581 E8.76997
G1 F2082 X145.328 Y142.061 E8.83491
G1 F2003.1 X145.358 Y142.378 E8.87642
M205 X11 Y11
G0 F8100 X143.882 Y145.966
M205 X12 Y12
G1 F1985.4 X144.125 Y145.84 E8.91243
G1 F1968 X144.581 Y145.571 E8.98268
G1 F1917.6 X145.121 Y145.119 E9.07859
G1 F1944.5 X145.584 Y144.585 E9.17351
G1 F1994.2 X145.729 Y144.329 E9.21204
G1 F1974.5 X145.937 Y143.913 E9.27356
G1 F1942.4 X146.151 Y143.208 E9.37261
G1 F1968 X146.244 Y142.486 E9.46921
G1 F1983.2 X146.223 Y141.933 E9.54209
G1 F2082 X146.273 Y141.418 E9.60699
G1 F2354.9 X146.324 Y140.902 E9.66449
G1 F2520 X146.324 Y94.099 E14.51479
G1 F2324.4 X146.264 Y93.065 E14.63116
G1 F2084.4 X146.234 Y92.887 E14.65378
G1 F2023.4 X146.238 Y92.484 E14.70579
G1 F1983.2 X146.149 Y91.787 E14.79832
G1 F1940.3 X145.94 Y91.094 E14.89574
G1 F1974.5 X145.728 Y90.671 E14.95833
G1 F1992 X145.581 Y90.412 E14.99737
G1 F1942.4 X145.119 Y89.879 E15.0922
G1 F1917.6 X144.58 Y89.428 E15.18792
G1 F1944.5 X143.965 Y89.066 E15.28376
G1 F1946.7 X143.205 Y88.85 E15.38975
G1 F1950.9 X142.529 Y88.777 E15.48077
G1 F1989.8 X142.121 Y88.767 E15.53434
G1 F1998.6 X141.851 Y88.772 E15.56962
G1 F2157 X141.447 Y88.701 E15.61929
G1 F2437.9 X140.397 Y88.677 E15.73179
G1 F2520 X94.647 Y88.677 E20.47297
G1 F2306.5 X94.15 Y88.744 E20.52975
G1 F1968 X93.652 Y88.812 E20.59645
G1 F1915.5 X92.491 Y88.768 E20.75485
G1 F2018.8 X92.173 Y88.791 E20.79609
G1 F2012 X91.787 Y88.838 E20.84656
G1 F1953 X91.096 Y89.066 E20.94386
G1 F1936.2 X90.414 Y89.422 E21.04763
G1 F1978.8 X90.125 Y89.65 E21.09621
G1 F1981 X89.868 Y89.87 E21.14081
G1 F1938.3 X89.432 Y90.423 E21.23569
G1 F1932 X89.052 Y91.099 E21.34052
G1 F1963.7 X88.842 Y91.757 E21.43237
G1 F1959.4 X88.781 Y92.467 E21.52735
G1 F1936.2 X88.787 Y93.352 E21.64673
G1 F2113.8 X88.703 Y93.763 E21.69855
G1 F2428.1 X88.676 Y94.188 E21.74436
G1 F2520 X88.677 Y140.811 E26.576
G1 F2141.5 X88.803 Y141.398 E26.64922
G1 F1905.4 X88.782 Y141.921 E26.72096
G1 F1950.9 X88.782 Y142.536 E26.80328
G1 F1957.3 X88.833 Y143.22 E26.8948
G1 F1961.5 X89.057 Y143.908 E26.99113
G1 F1932 X89.432 Y144.577 E27.0948
G1 F1936.2 X89.868 Y145.13 E27.18979
G1 F1981 X90.123 Y145.351 E27.23427
G1 F1976.6 X90.416 Y145.578 E27.28324
G1 F1936.2 X91.089 Y145.93 E27.38568
G1 F1950.9 X91.792 Y146.163 E27.48482
G1 F2012 X92.173 Y146.211 E27.53467
G1 F2018.8 X92.47 Y146.232 E27.57318
G1 F1913.5 X93.691 Y146.188 E27.73993
G1 F1963.7 X94.168 Y146.256 E27.80401
G1 F2303.5 X94.646 Y146.324 E27.85875
G1 F2520 X141.449 Y146.323 E32.70905
G1 F2237.6 X142.125 Y146.233 E32.78864
G1 F1989.8 X142.529 Y146.223 E32.84168
G1 F1950.9 X143.211 Y146.149 E32.93352
G1 F1948.8 X143.882 Y145.966 E33.02672
M205 X11 Y11
G1 F2700 E28.02672
G0 F8100 X140.7 Y144.602
G0 X140.433 Y144.372
G0 X139.882 Y143.481
G0 X139.614 Y142.978
G1 F2700 E33.02672
G0 F8100 X140.261 Y142.887
M205 X12 Y12
;TYPE:WALL-OUTER
G1 F2520 X140.261 Y141.881 E33.12425
G1 X140.34 Y141.633 E33.14948
G1 X140.908 Y140.756 E33.25078
G1 X140.989 Y140.685 E33.26122
G1 X142.073 Y140.19 E33.37675
G1 X143.314 Y140.376 E33.4984
G1 X144.179 Y141.14 E33.61029
G1 X144.278 Y141.296 E33.6282
G1 X144.587 Y142.347 E33.7344
G1 X144.571 Y142.468 E33.74623
G1 X144.252 Y143.552 E33.85578
G1 X143.317 Y144.382 E33.97699
G1 X142.125 Y144.559 E34.09381
G1 X141.986 Y144.53 E34.10758
G1 X141.027 Y144.095 E34.20967
G1 X140.885 Y143.973 E34.22782
G1 X140.363 Y143.171 E34.32059
G1 X140.261 Y142.887 E34.34984
M205 X11 Y11
G0 F8100 X140.261 Y142.687
G1 F2700 E29.34984
G0 F8100 X139.602 Y142.686
G0 X140.039 Y144.518
G0 X142.164 Y145.791
G0 X141.454 Y146.006
G0 X94.641 Y146.007
G0 X90.336 Y145.692
G1 F2700 E34.34984
G0 F8100 X89.971 Y146.239
M205 X12 Y12
G1 F2520 X90.778 Y146.676 E34.43881
G1 X91.638 Y146.937 E34.52594
G1 X92.432 Y147.014 E34.60328
G1 X142.567 Y147.013 E39.46368
G1 X143.366 Y146.936 E39.5415
G1 X144.215 Y146.679 E39.6275
G1 X145.03 Y146.238 E39.71733
G1 X145.694 Y145.692 E39.80067
G1 X146.241 Y145.027 E39.88415
G1 X146.676 Y144.222 E39.97286
G1 X146.937 Y143.364 E40.0598
G1 X147.014 Y142.571 E40.13704
G1 X147.014 Y92.484 E44.99279
G1 X146.935 Y91.631 E45.07584
G1 X146.679 Y90.785 E45.16153
G1 X146.238 Y89.97 E45.25137
G1 X145.692 Y89.306 E45.33471
G1 X145.029 Y88.761 E45.41791
G1 X144.222 Y88.325 E45.50683
G1 X143.361 Y88.063 E45.59408
G1 X142.567 Y87.987 E45.67141
G1 X92.433 Y87.987 E50.53172
G1 X91.634 Y88.064 E50.60954
G1 X90.785 Y88.321 E50.69553
G1 X89.97 Y88.762 E50.78537
G1 X89.306 Y89.308 E50.86871
G1 X88.761 Y89.972 E50.95199
G1 X88.316 Y90.793 E51.04252
G1 X88.063 Y91.638 E51.12803
G1 X87.986 Y92.429 E51.20508
G1 X87.988 Y142.574 E56.06645
G1 X88.065 Y143.369 E56.14389
G1 X88.321 Y144.215 E56.22958
G1 X88.76 Y145.028 E56.31915
G1 X89.306 Y145.692 E56.40249
G1 X89.971 Y146.239 E56.48597
M205 X11 Y11
G0 F8100 X90.147 Y146.334
G0 X90.459 Y145.757
G0 X90.009 Y143.425
G0 X89.749 Y141.497
M205 X12 Y12
;TYPE:WALL-INNER
G1 F2315.4 X90.026 Y141.211 E56.53087
G1 F2520 X90.548 Y140.409 E56.63004
G1 X90.753 Y140.179 E56.66197
G1 X90.983 Y140.036 E56.69004
G1 X92.076 Y139.54 E56.81443
G1 X92.406 Y139.505 E56.84882
G1 X93.76 Y139.715 E56.99081
G1 X94.048 Y139.893 E57.0259
G1 X94.99 Y140.725 E57.15614
G1 X95.151 Y141.017 E57.1907
G1 X95.492 Y142.161 E57.31441
G1 X95.506 Y142.492 E57.34874
G1 X95.471 Y142.668 E57.36734
G1 X95.179 Y143.66 E57.4745
G1 X95.072 Y143.902 E57.50193
G1 X94.875 Y144.138 E57.53378
G1 X94.084 Y144.837 E57.64318
G1 F2118.8 X93.607 Y145.212 E57.71796
G1 F1913.5 X92.451 Y145.339 E57.87668
G1 F1998.6 X92.018 Y145.29 E57.93362
G1 F1950.9 X91.465 Y145.068 E58.01339
G1 F1938.3 X90.851 Y144.77 E58.10535
G1 F1950.9 X90.52 Y144.492 E58.16321
G1 F1921.7 X90.218 Y144.056 E58.23529
G1 F1932 X89.887 Y143.517 E58.32079
G1 F1965.8 X89.72 Y143.048 E58.38693
G1 F1963.7 X89.704 Y142.514 E58.45798
G1 F1950.9 X89.704 Y141.921 E58.53736
G1 F2041.8 X89.749 Y141.497 E58.5919
M205 X11 Y11
G1 F2700 E53.5919
G0 F8100 X89.991 Y143.271
G0 X90.722 Y144.493
G1 F2700 E58.5919
G0 F8100 X91.147 Y144.003
M205 X12 Y12
;TYPE:WALL-OUTER
G1 F2520 X90.577 Y143.132 E58.69281
G1 X90.499 Y142.869 E58.7194
G1 X90.499 Y141.859 E58.81732
G1 X90.604 Y141.588 E58.8455
G1 X91.18 Y140.704 E58.94778
G1 X92.314 Y140.189 E59.06853
G1 X93.551 Y140.375 E59.1898
G1 X94.438 Y141.158 E59.3045
G1 X94.509 Y141.268 E59.31719
G1 X94.818 Y142.321 E59.42358
G1 X94.82 Y142.416 E59.43279
G1 X94.809 Y142.474 E59.43852
G1 X94.491 Y143.557 E59.54794
G1 X93.627 Y144.32 E59.65969
G1 X93.464 Y144.399 E59.67725
G1 X92.39 Y144.559 E59.78252
G1 X92.261 Y144.543 E59.79512
G1 X91.24 Y144.081 E59.90377
G1 X91.147 Y144.003 E59.91553
M205 X11 Y11
G0 F8100 X91.038 Y143.836
G1 F2700 E54.91553
G0 F8100 X90.486 Y144.194
G0 X90.94 Y144.602
G0 X92.07 Y145.111
G0 X93.653 Y145.705
G0 X94.641 Y146.007
G0 X141.454 Y146.006
G0 X142.164 Y145.791
G1 F2700 E59.91553
G0 F8100 X141.914 Y145.762
M205 X12 Y12
;TYPE:SKIN
G1 F2520 X141.489 Y145.537 E59.94762
G1 X140.554 Y145.112 E60.01613
G1 X139.95 Y144.592 E60.06931
G1 X139.428 Y143.794 E60.13292
G1 X139.257 Y143.433 E60.15957
G1 X139.136 Y143.007 E60.18912
G1 X139.14 Y141.784 E60.27071
G1 X139.19 Y141.515 E60.28896
G1 X139.337 Y141.114 E60.31745
G1 X140 Y140.096 E60.3985
G1 X140.316 Y139.754 E60.42957
G1 X141.629 Y139.164 E60.5256
G1 X141.933 Y139.09 E60.54647
G1 X142.351 Y139.096 E60.57436
G1 X143.375 Y139.249 E60.64344
G1 X143.747 Y139.353 E60.66921
G1 X144.113 Y139.586 E60.69815
G1 X144.932 Y140.306 E60.7709
G1 X145.349 Y140.966 E60.82299
G1 X145.732 Y141.702 E60.87834
G1 X145.892 Y140.892 E60.93342
G1 X145.892 Y94.119 E64.05384
G1 X145.765 Y93.06 E64.125
G1 X145.355 Y94.019 E64.19458
G1 X144.928 Y94.694 E64.24787
G1 X144.14 Y95.392 E64.3181
G1 X143.746 Y95.647 E64.34941
G1 X143.402 Y95.746 E64.37329
G1 X142.183 Y95.929 E64.45552
G1 X141.718 Y95.873 E64.48677
G1 X140.359 Y95.256 E64.58634
G1 X140.037 Y94.954 E64.61579
G1 X139.314 Y93.851 E64.70378
G1 X139.179 Y93.428 E64.7334
G1 X139.137 Y93.091 E64.75606
G1 X139.137 Y91.981 E64.83011
G1 X139.272 Y91.529 E64.86158
G1 X139.416 Y91.23 E64.88372
G1 X139.95 Y90.407 E64.94917
G1 X140.554 Y89.886 E65.00239
G1 X141.487 Y89.41 E65.07226
G1 X141.693 Y89.25 E65.08967
G1 X141.434 Y89.158 E65.108
G1 X140.386 Y89.109 E65.17799
G1 X94.661 Y89.109 E68.2285
G1 X93.807 Y89.34 E68.28752
G1 X95.176 Y90.553 E68.40955
G1 X95.442 Y90.873 E68.43731
G1 X95.596 Y91.225 E68.46294
G1 X95.941 Y92.387 E68.54381
G1 X95.92 Y92.916 E68.57913
G1 X95.54 Y94.198 E68.66833
G1 X95.268 Y94.603 E68.70088
G1 X94.311 Y95.452 E68.78623
G1 X94.024 Y95.627 E68.80865
G1 X93.749 Y95.729 E68.82822
G1 X92.428 Y95.929 E68.91736
G1 X92.052 Y95.886 E68.9426
G1 X91.747 Y95.786 E68.96402
G1 X90.791 Y95.35 E69.03412
G1 X90.47 Y95.149 E69.05938
G1 X90.196 Y94.842 E69.08684
G1 X89.66 Y94.025 E69.15202
G1 X89.458 Y93.731 E69.17582
G1 X89.273 Y93.505 E69.19531
G1 X89.162 Y93.779 E69.21503
G1 X89.108 Y94.194 E69.24295
G1 X89.109 Y140.793 E72.35176
G1 X89.305 Y141.258 E72.38543
G1 X89.672 Y140.962 E72.41688
G1 X90.174 Y140.186 E72.47854
G1 X90.47 Y139.849 E72.50847
G1 X90.819 Y139.635 E72.53578
G1 X91.744 Y139.214 E72.60358
G1 X92.05 Y139.113 E72.62508
G1 X92.422 Y139.071 E72.65005
G1 X93.759 Y139.274 E72.74027
G1 X94.252 Y139.503 E72.77654
G1 X95.25 Y140.382 E72.86526
G1 X95.417 Y140.594 E72.88326
G1 X95.586 Y140.946 E72.90931
G1 X95.92 Y142.081 E72.98824
G1 X95.94 Y142.61 E73.02356
G1 X95.587 Y143.802 E73.1065
G1 X95.441 Y144.13 E73.13045
G1 X95.181 Y144.443 E73.1576
G1 X94.367 Y145.165 E73.23019
G1 X93.844 Y145.659 E73.27818
G1 X94.66 Y145.892 E73.3348
G1 X141.436 Y145.891 E76.45542
G1 X141.914 Y145.762 E76.48845
M205 X11 Y11
G1 F2700 E71.48845
G0 F8100 X141.998 Y145.606
G0 X140.433 Y144.372
G0 X139.751 Y143.271
G0 X139.662 Y142.876
G0 X139.687 Y141.708
G0 X139.825 Y141.325
G0 X140.434 Y140.387
G0 X140.701 Y140.158
G0 X142.503 Y139.235
G0 X144.842 Y140.381
G0 X145.771 Y141.972
G0 X145.983 Y141.012
G0 X146.068 Y94.381
G1 F2700 E76.48845
G0 F8100 X145.662 Y94.381
M205 X12 Y12
G1 F2520 X145.497 Y94.216 E76.50402
M205 X11 Y11
G0 F8100 X145.246 Y94.615
M205 X12 Y12
G1 F2520 X145.662 Y95.03 E76.54322
M205 X11 Y11
G0 F8100 X145.662 Y95.68
M205 X12 Y12
G1 F2520 X144.956 Y94.974 E76.60983
M205 X11 Y11
G0 F8100 X144.612 Y95.279
M205 X12 Y12
G1 F2520 X145.662 Y96.329 E76.70889
M205 X11 Y11
G0 F8100 X145.662 Y96.978
M205 X12 Y12
G1 F2520 X144.265 Y95.581 E76.8407
M205 X11 Y11
G0 F8100 X143.873 Y95.838
M205 X12 Y12
G1 F2520 X145.662 Y97.627 E77.00949
M205 X11 Y11
G0 F8100 X145.662 Y98.276
