;FLAVOR:Marlin
M117 Time Left 1h32m59s
;TIME:5579
;Filament used: 5.38455m
;Layer height: 0.28
;MINX:58.814
;MINY:86.535
;MINZ:0.28
;MAXX:167.784
;MAXY:148.424
;MAXZ:11.76
;POSTPROCESSED
;Generated with Cura_SteamEngine 4.8.0
M140 S70
M105
M190 S70
M104 S230
M105
M109 S230
M82 ;absolute extrusion mode
; Ender 3 Custom Start G-code
G92 E0 ; Reset Extruder
G28 ; Home all axes
; ***SET NEW E STEP *** (93 is factory value - 95 mine - start)
G90                          ; Force coordinates to be absolute relative to the origin
M92 E95 ;					 ; ***SET NEW E STEP *** (93 is factory value - 95 mine - end)
G90                          ; Force coordinates to be absolute relative to the origin
G28                          ; Home X/Y/Z axis
G92 E0 ; Reset Extruder
G28 ; Home all axes
G1 Z2.0 F3000 ; Move Z Axis up little to prevent scratching of Heat Bed
G1 X0.1 Y20 Z0.3 F5000.0 ; Move to start position
G1 X0.1 Y200.0 Z0.3 F1500.0 E15 ; Draw the first line
G1 X0.4 Y200.0 Z0.3 F5000.0 ; Move to side a little
G1 X0.4 Y20 Z0.3 F1500.0 E30 ; Draw the second line
G92 E0 ; Reset Extruder
G1 Z2.0 F3000 ; Move Z Axis up little to prevent scratching of Heat Bed
G1 X5 Y20 Z0.3 F5000.0 ; Move over to prevent blob squish
G92 E0
G92 E0
G1 F2700 E-5
;LAYER_COUNT:42
;LAYER:0
M107
G0 F6000 X70.909 Y92.944 Z0.28
;TYPE:SKIRT
G1 F2700 E0
G1 F900 X71.101 Y92.802 E0.01112
G1 X71.542 Y92.488 E0.03633
G1 X72.834 Y91.6 E0.10933
G1 X73.124 Y91.406 E0.12558
G1 X73.458 Y91.191 E0.14407
G1 X73.984 Y90.866 E0.17286
G1 X74.847 Y90.385 E0.21887
G1 X75.502 Y90.059 E0.25294
G1 X77.267 Y89.204 E0.34426
G1 X77.89 Y88.914 E0.37625
G1 X78.438 Y88.677 E0.40406
G1 X78.63 Y88.6 E0.41369
G1 X79.522 Y88.286 E0.45772
G1 X79.877 Y88.178 E0.475
G1 X82.362 Y87.476 E0.59524
G1 X82.534 Y87.428 E0.60356
G1 X83.332 Y87.217 E0.64199
G1 X84.248 Y87.017 E0.68565
G1 X85.151 Y86.897 E0.72807
G1 X86.166 Y86.805 E0.77552
G1 X86.366 Y86.789 E0.78487
G1 X89.069 Y86.594 E0.91106
G1 X89.76 Y86.554 E0.94329
G1 X90.134 Y86.539 E0.96071
G1 X90.302 Y86.535 E0.96854
G1 X91.24 Y86.553 E1.01222
G1 X91.869 Y86.61 E1.04163
G1 X92.987 Y86.745 E1.09407
G1 X95.364 Y87.074 E1.20581
G1 X96.108 Y87.188 E1.24086
G1 X97.139 Y87.397 E1.28984
G1 X97.226 Y87.419 E1.29402
G1 X97.672 Y87.542 E1.31556
G1 X98.669 Y87.84 E1.36402
G1 X99.816 Y88.196 E1.41994
G1 X102.266 Y88.882 E1.53841
G1 X104.7 Y89.49 E1.65523
G1 X107.157 Y90.031 E1.77238
G1 X109.637 Y90.501 E1.88991
G1 X112.11 Y90.9 E2.00655
G1 X114.623 Y91.232 E2.12459
G1 X117.106 Y91.49 E2.24083
G1 X119.623 Y91.679 E2.35836
G1 X122.141 Y91.797 E2.47574
G1 X124.665 Y91.843 E2.59328
G1 X127.154 Y91.819 E2.70919
G1 X129.685 Y91.722 E2.82713
G1 X132.186 Y91.556 E2.94384
G1 X134.723 Y91.315 E3.06251
G1 X136.793 Y91.065 E3.1596
G1 X137.27 Y91.002 E3.182
G1 X138.499 Y90.858 E3.23962
G1 X139.153 Y90.789 E3.27024
G1 X140.034 Y90.731 E3.31135
G1 X140.276 Y90.725 E3.32262
G1 X140.896 Y90.727 E3.35149
G1 X141.57 Y90.75 E3.3829
G1 X142.857 Y90.807 E3.44288
G1 X143.412 Y90.839 E3.46877
G1 X144.109 Y90.902 E3.50136
G1 X144.347 Y90.931 E3.51252
G1 X145.083 Y91.046 E3.54721
G1 X146.176 Y91.255 E3.59903
G1 X146.393 Y91.299 E3.60934
G1 X147.257 Y91.483 E3.65047
G1 X147.85 Y91.619 E3.6788
G1 X148.46 Y91.778 E3.70815
G1 X148.756 Y91.864 E3.7225
G1 X149.374 Y92.063 E3.75274
G1 X149.781 Y92.213 E3.77293
G1 X150.175 Y92.367 E3.79263
G1 X151.504 Y92.896 E3.85924
G1 X152.251 Y93.206 E3.8969
G1 X152.962 Y93.532 E3.93332
G1 X153.131 Y93.617 E3.94213
G1 X153.815 Y93.992 E3.97845
G1 X154.562 Y94.438 E4.01896
G1 X155.514 Y95.024 E4.07102
G1 X156.252 Y95.494 E4.11176
G1 X157.07 Y96.069 E4.15832
G1 X157.274 Y96.227 E4.17033
G1 X157.654 Y96.535 E4.19311
G1 X158.11 Y96.923 E4.22099
G1 X158.972 Y97.671 E4.27413
G1 X159.477 Y98.12 E4.3056
G1 X159.98 Y98.597 E4.33787
G1 X160.095 Y98.713 E4.34548
G1 X160.387 Y99.019 E4.36518
G1 X160.633 Y99.287 E4.38211
G1 X160.838 Y99.516 E4.39643
G1 X161.505 Y100.287 E4.4439
G1 X161.854 Y100.702 E4.46915
G1 X162.145 Y101.063 E4.49074
G1 X162.587 Y101.66 E4.52533
G1 X163.248 Y102.62 E4.5796
G1 X163.502 Y103.001 E4.60092
G1 X163.987 Y103.757 E4.64275
G1 X164.303 Y104.284 E4.67136
G1 X164.47 Y104.586 E4.68743
G1 X164.712 Y105.045 E4.71159
G1 X164.882 Y105.383 E4.72921
G1 X164.998 Y105.621 E4.74153
G1 X165.422 Y106.517 E4.78769
G1 X165.715 Y107.193 E4.822
G1 X166.098 Y108.166 E4.87069
G1 X166.227 Y108.513 E4.88793
G1 X166.389 Y108.969 E4.91046
G1 X166.598 Y109.618 E4.94221
G1 X166.847 Y110.486 E4.98426
G1 X166.94 Y110.834 E5.00103
G1 X167.054 Y111.287 E5.02278
G1 X167.132 Y111.617 E5.03857
G1 X167.228 Y112.055 E5.05945
G1 X167.345 Y112.672 E5.08869
G1 X167.51 Y113.703 E5.13731
G1 X167.567 Y114.105 E5.15622
G1 X167.625 Y114.579 E5.17845
G1 X167.662 Y114.928 E5.19479
G1 X167.712 Y115.483 E5.22074
G1 X167.744 Y115.955 E5.24277
G1 X167.765 Y116.403 E5.26366
G1 X167.774 Y116.659 E5.27558
G1 X167.782 Y116.999 E5.29142
G1 X167.784 Y117.381 E5.30921
G1 X167.776 Y118.096 E5.3425
G1 X167.764 Y118.516 E5.36207
G1 X167.729 Y119.224 E5.39507
G1 X167.704 Y119.599 E5.41258
G1 X167.687 Y119.802 E5.42206
G1 X167.651 Y120.156 E5.43863
G1 X167.551 Y121.015 E5.4789
G1 X167.496 Y121.421 E5.49798
G1 X167.425 Y121.881 E5.51965
G1 X167.375 Y122.18 E5.53377
G1 X167.278 Y122.711 E5.5589
G1 X167.154 Y123.296 E5.58675
G1 X166.994 Y123.964 E5.61873
G1 X166.918 Y124.266 E5.63323
G1 X166.791 Y124.737 E5.65595
G1 X166.588 Y125.402 E5.68832
G1 X166.193 Y126.568 E5.74565
G1 X166.075 Y126.901 E5.7621
G1 X165.946 Y127.245 E5.7792
G1 X165.806 Y127.598 E5.79689
G1 X165.611 Y128.068 E5.82058
G1 X165.372 Y128.605 E5.84795
G1 X165.107 Y129.155 E5.87638
G1 X164.87 Y129.63 E5.9011
G1 X164.61 Y130.138 E5.92767
G1 X164.424 Y130.486 E5.94604
G1 X164.217 Y130.857 E5.96583
G1 X163.902 Y131.386 E5.99449
G1 X163.522 Y131.984 E6.02749
G1 X163.268 Y132.37 E6.049
G1 X162.988 Y132.786 E6.07235
G1 X162.789 Y133.072 E6.08858
G1 X162.542 Y133.415 E6.10826
G1 X162.136 Y133.945 E6.13935
G1 X161.631 Y134.561 E6.17644
G1 X161.24 Y135.024 E6.20465
G1 X160.771 Y135.565 E6.23799
G1 X159.986 Y136.381 E6.29072
G1 X159.055 Y137.253 E6.35012
G1 X158.677 Y137.596 E6.37388
G1 X158.254 Y137.968 E6.40011
G1 X157.991 Y138.191 E6.41617
G1 X157.524 Y138.574 E6.44429
G1 X156.811 Y139.112 E6.48588
G1 X156.384 Y139.406 E6.51002
G1 X155.499 Y139.999 E6.55963
G1 X155.08 Y140.272 E6.58291
G1 X154.778 Y140.462 E6.59953
G1 X154.491 Y140.636 E6.61516
G1 X153.625 Y141.109 E6.6611
G1 X152.71 Y141.556 E6.70852
G1 X151.891 Y141.941 E6.75066
G1 X151.463 Y142.135 E6.77254
G1 X151.13 Y142.279 E6.78944
G1 X150.63 Y142.486 E6.81464
G1 X149.673 Y142.832 E6.86202
G1 X149.088 Y143.013 E6.89053
G1 X148.004 Y143.331 E6.94314
G1 X147.4 Y143.5 E6.97234
G1 X146.832 Y143.643 E6.99962
G1 X146.608 Y143.693 E7.0103
G1 X145.783 Y143.844 E7.04936
G1 X145.033 Y143.951 E7.08463
G1 X143.784 Y144.113 E7.14328
G1 X143.147 Y144.187 E7.17314
G1 X142.656 Y144.232 E7.1961
G1 X142.529 Y144.241 E7.20203
G1 X141.499 Y144.266 E7.25
G1 X140.394 Y144.239 E7.30147
G1 X139.193 Y144.19 E7.35744
G1 X138.57 Y144.156 E7.38649
G1 X137.923 Y144.101 E7.41673
G1 X136.862 Y143.98 E7.46646
G1 X136.651 Y143.954 E7.47635
G1 X135.575 Y143.81 E7.5269
G1 X133.095 Y143.551 E7.64301
G1 X130.564 Y143.358 E7.76121
G1 X128.079 Y143.239 E7.87705
G1 X125.557 Y143.19 E7.99451
G1 X122.996 Y143.214 E8.11377
G1 X120.509 Y143.306 E8.22965
G1 X118.016 Y143.47 E8.34599
G1 X115.493 Y143.706 E8.46398
G1 X112.988 Y144.014 E8.5815
G1 X110.516 Y144.388 E8.69792
G1 X108.017 Y144.84 E8.81617
G1 X105.593 Y145.347 E8.93148
G1 X103.121 Y145.94 E9.04986
G1 X100.674 Y146.6 E9.16787
G1 X99.021 Y147.093 E9.24819
G1 X98.645 Y147.199 E9.26638
G1 X98.052 Y147.349 E9.29486
G1 X97.053 Y147.57 E9.34251
G1 X94.744 Y148.04 E9.45223
G1 X93.985 Y148.183 E9.48819
G1 X93.192 Y148.302 E9.52553
G1 X93.069 Y148.316 E9.5313
G1 X92.096 Y148.384 E9.57671
G1 X91.19 Y148.405 E9.61891
G1 X88.848 Y148.424 E9.72797
G1 X88.101 Y148.42 E9.76275
G1 X86.995 Y148.358 E9.81433
G1 X86.704 Y148.327 E9.82796
G1 X85.977 Y148.225 E9.86214
G1 X85.372 Y148.119 E9.89074
G1 X82.996 Y147.676 E10.00329
G1 X82.218 Y147.52 E10.04024
G1 X81.567 Y147.368 E10.07136
G1 X81.296 Y147.296 E10.08442
G1 X80.46 Y147.038 E10.12516
G1 X80.048 Y146.886 E10.14561
G1 X79.429 Y146.643 E10.17657
G1 X76.908 Y145.623 E10.30321
G1 X76.307 Y145.369 E10.33359
G1 X75.763 Y145.122 E10.36141
G1 X74.786 Y144.589 E10.41323
G1 X73.773 Y143.968 E10.46856
G1 X73.58 Y143.847 E10.47916
G1 X72.206 Y142.964 E10.55522
G1 X71.633 Y142.585 E10.58721
G1 X70.948 Y142.093 E10.62648
G1 X70.705 Y141.904 E10.64081
G1 X70.261 Y141.54 E10.66755
G1 X69.837 Y141.172 E10.69369
G1 X68.749 Y140.21 E10.76131
G1 X68.305 Y139.806 E10.78927
G1 X68.078 Y139.594 E10.80373
G1 X67.97 Y139.49 E10.81071
G1 X67.463 Y138.968 E10.84459
G1 X66.778 Y138.215 E10.89199
G1 X66.238 Y137.601 E10.93007
G1 X65.68 Y136.948 E10.97006
G1 X65.39 Y136.593 E10.99141
G1 X65.087 Y136.19 E11.01489
G1 X64.513 Y135.389 E11.06077
G1 X64.134 Y134.843 E11.09172
G1 X63.688 Y134.183 E11.12881
G1 X63.229 Y133.442 E11.1694
G1 X62.729 Y132.556 E11.21677
G1 X62.501 Y132.138 E11.23894
G1 X62.061 Y131.303 E11.28289
G1 X61.76 Y130.685 E11.3149
G1 X61.413 Y129.913 E11.35431
G1 X61.273 Y129.587 E11.37083
G1 X60.907 Y128.697 E11.41564
G1 X60.768 Y128.343 E11.43335
G1 X60.626 Y127.954 E11.45263
G1 X60.48 Y127.533 E11.47338
G1 X60.342 Y127.121 E11.49362
G1 X60.231 Y126.778 E11.5104
G1 X60.048 Y126.173 E11.53983
G1 X59.966 Y125.886 E11.55373
G1 X59.864 Y125.508 E11.57196
G1 X59.79 Y125.221 E11.58576
G1 X59.62 Y124.516 E11.61953
G1 X59.538 Y124.146 E11.63718
G1 X59.365 Y123.302 E11.6773
G1 X59.292 Y122.909 E11.69591
G1 X59.173 Y122.198 E11.72948
G1 X59.123 Y121.868 E11.74502
G1 X59.054 Y121.362 E11.7688
G1 X59.015 Y121.045 E11.78367
G1 X58.956 Y120.493 E11.80952
G1 X58.927 Y120.181 E11.82411
G1 X58.882 Y119.605 E11.85101
G1 X58.861 Y119.269 E11.86669
G1 X58.837 Y118.763 E11.89028
G1 X58.827 Y118.465 E11.90416
G1 X58.815 Y117.872 E11.93178
G1 X58.814 Y117.532 E11.94761
G1 X58.822 Y116.78 E11.98263
G1 X58.831 Y116.427 E11.99907
G1 X58.855 Y115.866 E12.02522
G1 X58.873 Y115.555 E12.03973
G1 X58.908 Y115.063 E12.06269
G1 X58.935 Y114.743 E12.07765
G1 X59.003 Y114.067 E12.10928
G1 X59.042 Y113.735 E12.12485
G1 X59.111 Y113.21 E12.1495
G1 X59.161 Y112.867 E12.16564
G1 X59.275 Y112.17 E12.19853
G1 X59.336 Y111.831 E12.21457
G1 X59.422 Y111.392 E12.2354
G1 X59.491 Y111.068 E12.25083
G1 X59.662 Y110.316 E12.28674
G1 X59.768 Y109.887 E12.30731
G1 X60 Y109.028 E12.34874
G1 X60.111 Y108.646 E12.36727
G1 X60.329 Y107.941 E12.40163
G1 X60.435 Y107.618 E12.41746
G1 X60.593 Y107.158 E12.44011
G1 X60.776 Y106.664 E12.46464
G1 X61.162 Y105.694 E12.51325
G1 X61.343 Y105.264 E12.53497
G1 X61.808 Y104.226 E12.58793
G1 X62.111 Y103.604 E12.62015
G1 X62.399 Y103.057 E12.64894
G1 X62.535 Y102.806 E12.66223
G1 X62.647 Y102.605 E12.67294
G1 X63.264 Y101.521 E12.73102
G1 X63.65 Y100.893 E12.76535
G1 X64.244 Y99.998 E12.81537
G1 X64.496 Y99.634 E12.83598
G1 X64.925 Y99.029 E12.87052
G1 X65.433 Y98.367 E12.90937
G1 X66.033 Y97.644 E12.95312
G1 X66.164 Y97.489 E12.96257
G1 X66.718 Y96.848 E13.00202
G1 X67.112 Y96.404 E13.02966
G1 X67.79 Y95.705 E13.07501
G1 X68.714 Y94.833 E13.13417
G1 X68.883 Y94.677 E13.14487
G1 X69.494 Y94.126 E13.18319
G1 X70.105 Y93.59 E13.22103
G1 X70.592 Y93.186 E13.2505
G1 X70.909 Y92.944 E13.26907
G0 F6000 X71.147 Y93.266
G1 F900 X71.534 Y92.983 E13.29139
G1 X71.769 Y92.818 E13.30476
G1 X73.056 Y91.933 E13.37749
G1 X73.346 Y91.739 E13.39374
G1 X73.668 Y91.531 E13.41159
G1 X74.194 Y91.206 E13.44038
G1 X75.026 Y90.743 E13.48471
G1 X75.676 Y90.419 E13.51853
G1 X77.436 Y89.567 E13.60958
G1 X78.059 Y89.277 E13.64158
G1 X78.586 Y89.049 E13.66832
G1 X78.778 Y88.972 E13.67795
G1 X79.639 Y88.669 E13.72045
G1 X79.994 Y88.561 E13.73773
G1 X80.203 Y88.5 E13.74787
G1 X82.636 Y87.815 E13.86557
G1 X83.434 Y87.604 E13.904
G1 X84.334 Y87.408 E13.94689
G1 X85.187 Y87.295 E13.98696
G1 X86.202 Y87.203 E14.03441
G1 X88.941 Y87.004 E14.16229
G1 X89.783 Y86.954 E14.20156
G1 X90.144 Y86.939 E14.21839
G1 X90.312 Y86.935 E14.22621
G1 X91.232 Y86.953 E14.26906
G1 X91.821 Y87.007 E14.2966
G1 X92.932 Y87.141 E14.34871
G1 X95.303 Y87.469 E14.46017
G1 X96.047 Y87.583 E14.49521
G1 X97.041 Y87.784 E14.54243
G1 X97.128 Y87.806 E14.54661
G1 X97.558 Y87.925 E14.56739
G1 X98.551 Y88.222 E14.61565
G1 X99.705 Y88.58 E14.67191
G1 X102.166 Y89.269 E14.79091
G1 X104.589 Y89.874 E14.9072
G1 X107.095 Y90.427 E15.0267
G1 X109.571 Y90.896 E15.14404
G1 X112.066 Y91.298 E15.26172
G1 X114.566 Y91.629 E15.37914
G1 X117.071 Y91.889 E15.49641
G1 X119.608 Y92.079 E15.61488
G1 X122.116 Y92.197 E15.73179
G1 X124.662 Y92.243 E15.85036
G1 X127.172 Y92.219 E15.96724
G1 X129.692 Y92.122 E16.08467
G1 X132.249 Y91.953 E16.204
G1 X134.769 Y91.713 E16.32187
G1 X136.739 Y91.475 E16.41427
G1 X137.317 Y91.4 E16.44141
G1 X138.541 Y91.256 E16.4988
G1 X139.195 Y91.187 E16.52942
G1 X140.044 Y91.131 E16.56904
G1 X140.286 Y91.125 E16.58031
G1 X140.884 Y91.127 E16.60815
G1 X141.553 Y91.149 E16.63932
G1 X142.69 Y91.199 E16.69232
G1 X143.389 Y91.239 E16.72492
G1 X144.061 Y91.299 E16.75633
G1 X144.299 Y91.328 E16.7675
G1 X145.008 Y91.439 E16.80091
G1 X146.101 Y91.648 E16.85273
G1 X146.31 Y91.69 E16.86266
G1 X147.168 Y91.873 E16.90351
G1 X147.761 Y92.009 E16.93184
G1 X148.348 Y92.162 E16.96008
G1 X148.644 Y92.248 E16.97444
G1 X149.24 Y92.44 E17.00359
G1 X149.636 Y92.586 E17.02325
G1 X150.027 Y92.739 E17.0428
G1 X151.514 Y93.332 E17.11734
G1 X152.097 Y93.575 E17.14675
G1 X152.782 Y93.889 E17.18184
G1 X152.951 Y93.974 E17.19065
G1 X153.611 Y94.336 E17.2257
G1 X154.352 Y94.779 E17.2659
G1 X155.451 Y95.457 E17.32603
G1 X156.037 Y95.831 E17.3584
G1 X156.825 Y96.386 E17.40328
G1 X157.029 Y96.544 E17.41529
G1 X157.395 Y96.84 E17.43721
G1 X157.848 Y97.226 E17.46493
G1 X158.706 Y97.97 E17.51781
G1 X159.211 Y98.419 E17.54927
G1 X159.696 Y98.878 E17.58037
G1 X159.811 Y98.994 E17.58797
G1 X160.092 Y99.289 E17.60694
G1 X160.338 Y99.557 E17.62388
G1 X160.536 Y99.778 E17.6377
G1 X161.093 Y100.42 E17.67728
G1 X161.548 Y100.96 E17.71016
G1 X161.74 Y101.195 E17.72429
G1 X161.832 Y101.311 E17.73118
G1 X162.258 Y101.887 E17.76454
G1 X162.919 Y102.847 E17.81881
G1 X163.168 Y103.221 E17.83973
G1 X163.65 Y103.973 E17.88133
G1 X163.955 Y104.48 E17.90888
G1 X164.117 Y104.774 E17.92451
G1 X164.355 Y105.225 E17.94825
G1 X164.525 Y105.563 E17.96587
G1 X164.636 Y105.792 E17.97772
G1 X165.06 Y106.688 E18.02388
G1 X165.342 Y107.339 E18.05691
G1 X165.725 Y108.312 E18.1056
G1 X165.85 Y108.646 E18.12221
G1 X166.012 Y109.102 E18.14474
G1 X166.213 Y109.728 E18.17536
G1 X166.462 Y110.596 E18.2174
G1 X166.552 Y110.932 E18.2336
G1 X166.666 Y111.385 E18.25535
G1 X166.741 Y111.703 E18.27057
G1 X166.837 Y112.141 E18.29145
G1 X166.95 Y112.735 E18.3196
G1 X167.115 Y113.766 E18.36822
G1 X167.17 Y114.154 E18.38647
G1 X167.228 Y114.628 E18.4087
G1 X167.263 Y114.964 E18.42443
G1 X167.313 Y115.519 E18.45038
G1 X167.344 Y115.974 E18.47162
G1 X167.365 Y116.422 E18.4925
G1 X167.374 Y116.669 E18.50401
G1 X167.382 Y117.009 E18.51985
G1 X167.384 Y117.377 E18.53698
G1 X167.376 Y118.092 E18.57028
G1 X167.364 Y118.496 E18.5891
G1 X167.329 Y119.204 E18.62211
G1 X167.305 Y119.566 E18.639
G1 X167.288 Y119.769 E18.64848
G1 X167.254 Y120.11 E18.66444
G1 X167.154 Y120.969 E18.70471
G1 X167.101 Y121.36 E18.72308
G1 X167.03 Y121.82 E18.74476
G1 X166.981 Y122.108 E18.75836
G1 X166.884 Y122.639 E18.78349
G1 X166.765 Y123.203 E18.81033
G1 X166.605 Y123.871 E18.84232
G1 X166.531 Y124.162 E18.8563
G1 X166.404 Y124.633 E18.87902
G1 X166.21 Y125.274 E18.9102
G1 X165.815 Y126.44 E18.96753
G1 X165.7 Y126.761 E18.9834
G1 X165.571 Y127.105 E19.00051
G1 X165.437 Y127.445 E19.01753
G1 X165.242 Y127.915 E19.04122
G1 X165.011 Y128.432 E19.06759
G1 X164.748 Y128.977 E19.09577
G1 X164.514 Y129.447 E19.12021
G1 X164.254 Y129.955 E19.14679
G1 X164.075 Y130.291 E19.16451
G1 X163.868 Y130.662 E19.1843
G1 X163.564 Y131.172 E19.21194
G1 X163.187 Y131.765 E19.24466
G1 X162.937 Y132.147 E19.26592
G1 X162.657 Y132.563 E19.28927
G1 X162.465 Y132.838 E19.30489
G1 X162.218 Y133.181 E19.32457
