;FLAVOR:Marlin
;TIME:777
;Filament used: 0.252304m
;Layer height: 0.12
;MINX:101.3
;MINY:101.064
;MINZ:0.12
;MAXX:133.7
;MAXY:140.928
;MAXZ:4.92
;Generated with Cura_SteamEngine 4.3.0
M140 S50
M105
M190 S50
M104 S205
M105
M109 S205
M82 ;absolute extrusion mode
; Ender 3 Custom Start G-code
M201 X500.00 Y500.00 Z100.00 E5000.00 ;Setup machine max acceleration
M203 X500.00 Y500.00 Z10.00 E50.00 ;Setup machine max feedrate
M204 P500.00 R1000.00 T500.00 ;Setup Print/Retract/Travel acceleration
M205 X8.00 Y8.00 Z0.40 E5.00 ;Setup Jerk
M220 S100 ;Reset Feedrate
M221 S100 ;Reset Flowrate
M117 Clean ; Indicate nozzle clean in progress on LCD
M107 ; Turn layer fan off
G21 ; Set to metric [change to G20 if you want Imperial]
G28 ; Home all axes
G90                          ; Force coordinates to be absolute relative to the origin
M92 E95 ;
G90                          ; Force coordinates to be absolute relative to the origin
G28                          ; Home X/Y/Z axis
G92 E0 ; Reset Extruder
G1 Z2.0 F3000 ;Move Z Axis up
G1 X10.1 Y20 Z0.28 F5000.0 ;Move to start position
G1 X10.1 Y200.0 Z0.28 F1500.0 E15 ;Draw the first line
G1 X10.4 Y200.0 Z0.28 F5000.0 ;Move to side a little
G1 X10.4 Y20 Z0.28 F1500.0 E30 ;Draw the second line
G92 E0 ; Reset Extruder
G1 Z2.0 F3000 ; Move Z Axis up little to prevent scratching of Heat Bed
M117 Printing ; Indicate printing on LCD
G92 E0
G92 E0
G1 F1500 E-6
;LAYER_COUNT:41
;LAYER:0
M107
M205 X20 Y20
G0 F7500 X105.998 Y105.86 Z0.12
;TYPE:SKIRT
G1 F1500 E0
G1 X106.616 Y105.283 E0.02025
G1 X107.014 Y104.939 E0.03284
G1 X107.35 Y104.66 E0.0433
G1 X107.722 Y104.363 E0.0547
G1 X108.486 Y103.805 E0.07736
G1 X109.229 Y103.349 E0.09824
G1 X109.646 Y103.115 E0.10969
G1 X109.974 Y102.938 E0.11861
G1 X110.414 Y102.71 E0.13048
G1 X111.272 Y102.31 E0.15315
G1 X112.009 Y102.034 E0.172
G1 X112.412 Y101.899 E0.18217
G1 X112.833 Y101.767 E0.19274
G1 X113.378 Y101.608 E0.20633
G1 X114.297 Y101.382 E0.229
G1 X115.237 Y101.233 E0.25179
G1 X115.742 Y101.175 E0.26396
G1 X116.043 Y101.145 E0.27121
G1 X116.477 Y101.107 E0.28164
G1 X117.422 Y101.064 E0.30429
G1 X118.202 Y101.089 E0.32298
G1 X118.665 Y101.12 E0.33409
G1 X119.12 Y101.16 E0.34503
G1 X119.657 Y101.218 E0.35797
G1 X120.592 Y101.359 E0.38061
G1 X121.525 Y101.582 E0.40358
G1 X122.002 Y101.718 E0.41546
G1 X122.299 Y101.807 E0.42288
G1 X122.762 Y101.953 E0.43451
G1 X123.652 Y102.276 E0.45718
G1 X124.48 Y102.656 E0.479
G1 X124.892 Y102.866 E0.49007
G1 X125.195 Y103.027 E0.49829
G1 X125.645 Y103.274 E0.51058
G1 X126.455 Y103.764 E0.53325
G1 X127.169 Y104.28 E0.55435
G1 X127.545 Y104.575 E0.5658
G1 X127.832 Y104.808 E0.57465
G1 X128.193 Y105.111 E0.58593
G1 X128.892 Y105.75 E0.60861
G1 X129.467 Y106.366 E0.62879
G1 X129.811 Y106.764 E0.64139
G1 X130.09 Y107.1 E0.65185
G1 X130.387 Y107.472 E0.66325
G1 X130.945 Y108.236 E0.68591
G1 X131.401 Y108.979 E0.70678
G1 X131.635 Y109.396 E0.71823
G1 X131.812 Y109.724 E0.72716
G1 X132.04 Y110.164 E0.73903
G1 X132.44 Y111.022 E0.7617
G1 X132.716 Y111.759 E0.78054
G1 X132.847 Y112.15 E0.79042
G1 X132.975 Y112.557 E0.80063
G1 X133.138 Y113.113 E0.81451
G1 X133.365 Y114.032 E0.83718
G1 X133.517 Y114.989 E0.86038
G1 X133.575 Y115.495 E0.87258
G1 X133.605 Y115.791 E0.8797
G1 X133.643 Y116.224 E0.89011
G1 X133.68 Y116.838 E0.90484
G1 X133.691 Y117.175 E0.91292
G1 X133.697 Y117.537 E0.92159
G1 X133.7 Y127.584 E1.16219
G1 X133.699 Y127.739 E1.1659
G1 X133.691 Y128.328 E1.18
G1 X133.636 Y129.296 E1.20322
G1 X133.598 Y129.674 E1.21232
G1 X133.463 Y130.611 E1.23499
G1 X133.251 Y131.533 E1.25765
G1 X133.064 Y132.143 E1.27293
G1 X132.949 Y132.483 E1.28152
G1 X132.608 Y133.365 E1.30417
G1 X132.194 Y134.216 E1.32683
G1 X131.707 Y135.033 E1.34961
G1 X131.477 Y135.384 E1.35965
G1 X130.925 Y136.152 E1.3823
G1 X130.311 Y136.872 E1.40496
G1 X129.511 Y137.651 E1.4317
G1 X129.285 Y137.85 E1.43892
G1 X128.549 Y138.445 E1.46158
G1 X127.765 Y138.975 E1.48424
G1 X127.331 Y139.229 E1.49628
G1 X126.97 Y139.43 E1.50618
G1 X126.125 Y139.855 E1.52883
G1 X125.246 Y140.208 E1.55151
G1 X124.208 Y140.518 E1.57746
G1 X123.872 Y140.601 E1.58574
G1 X122.944 Y140.789 E1.60842
G1 X122.004 Y140.898 E1.63108
G1 X121.105 Y140.928 E1.65262
G1 X120.005 Y140.92 E1.67896
G1 X119.757 Y140.915 E1.6849
G1 X118.737 Y140.885 E1.70934
G1 X114.939 Y140.906 E1.80029
G1 X114.146 Y140.927 E1.81929
G1 X113.2 Y140.912 E1.84195
G1 X112.258 Y140.816 E1.86462
G1 X111.4 Y140.658 E1.88551
G1 X111.053 Y140.58 E1.89403
G1 X110.139 Y140.334 E1.9167
G1 X109.249 Y140.011 E1.93937
G1 X108.563 Y139.702 E1.95739
G1 X108.24 Y139.543 E1.96601
G1 X107.409 Y139.089 E1.98869
G1 X106.619 Y138.567 E2.01136
G1 X105.942 Y138.036 E2.03197
G1 X105.646 Y137.785 E2.04126
G1 X104.951 Y137.143 E2.06392
G1 X104.312 Y136.445 E2.08658
G1 X103.73 Y135.688 E2.10945
G1 X103.552 Y135.435 E2.11685
G1 X103.041 Y134.638 E2.13953
G1 X102.598 Y133.802 E2.16218
G1 X102.322 Y133.173 E2.17863
G1 X102.165 Y132.783 E2.1887
G1 X101.849 Y131.89 E2.21138
G1 X101.61 Y130.975 E2.23403
G1 X101.451 Y130.066 E2.25613
G1 X101.411 Y129.763 E2.26345
G1 X101.318 Y128.544 E2.29273
G1 X101.303 Y127.865 E2.30899
G1 X101.3 Y127.618 E2.31491
G1 X101.3 Y117.957 E2.54626
G1 X101.301 Y117.788 E2.55031
G1 X101.309 Y117.257 E2.56302
G1 X101.341 Y116.567 E2.57957
G1 X101.409 Y115.683 E2.6008
G1 X101.443 Y115.32 E2.60953
G1 X101.471 Y115.065 E2.61567
G1 X101.614 Y114.129 E2.63835
G1 X101.834 Y113.214 E2.66088
G1 X101.949 Y112.811 E2.67092
G1 X102.037 Y112.517 E2.67827
G1 X102.205 Y111.984 E2.69165
G1 X102.527 Y111.094 E2.71432
G1 X102.916 Y110.25 E2.73657
G1 X103.137 Y109.818 E2.74819
G1 X103.296 Y109.519 E2.7563
G1 X103.531 Y109.092 E2.76797
G1 X104.022 Y108.283 E2.79064
G1 X104.54 Y107.567 E2.8118
G1 X104.835 Y107.192 E2.82322
G1 X105.057 Y106.919 E2.83165
G1 X105.359 Y106.559 E2.8429
G1 X105.998 Y105.86 E2.86558
G0 F7500 X106.352 Y106.184
G1 F1500 X106.93 Y105.647 E2.88448
G1 X107.328 Y105.303 E2.89707
G1 X107.65 Y105.035 E2.90711
G1 X108.022 Y104.738 E2.91851
G1 X108.769 Y104.193 E2.94065
G1 X109.464 Y103.767 E2.96017
G1 X109.881 Y103.533 E2.97162
G1 X110.195 Y103.364 E2.98016
G1 X110.635 Y103.136 E2.99203
G1 X111.475 Y102.746 E3.01421
G1 X112.162 Y102.489 E3.03177
G1 X112.565 Y102.354 E3.04195
G1 X112.968 Y102.228 E3.05206
G1 X113.513 Y102.069 E3.06566
G1 X114.412 Y101.848 E3.08783
G1 X115.292 Y101.71 E3.10916
G1 X115.797 Y101.652 E3.12133
G1 X116.085 Y101.623 E3.12826
G1 X116.519 Y101.585 E3.13869
G1 X117.444 Y101.544 E3.16087
G1 X118.17 Y101.568 E3.17826
G1 X118.633 Y101.599 E3.18938
G1 X119.068 Y101.637 E3.19983
G1 X119.605 Y101.695 E3.21277
G1 X120.52 Y101.834 E3.23493
G1 X121.393 Y102.044 E3.25643
G1 X121.87 Y102.18 E3.26831
G1 X122.155 Y102.265 E3.27543
G1 X122.618 Y102.411 E3.28706
G1 X123.488 Y102.728 E3.30923
G1 X124.262 Y103.084 E3.32963
G1 X124.674 Y103.294 E3.34071
G1 X124.964 Y103.448 E3.34857
G1 X125.414 Y103.695 E3.36086
G1 X126.206 Y104.175 E3.38304
G1 X126.873 Y104.658 E3.40276
G1 X127.249 Y104.953 E3.41421
G1 X127.524 Y105.176 E3.42269
G1 X127.885 Y105.479 E3.43397
G1 X128.568 Y106.104 E3.45614
G1 X129.103 Y106.68 E3.47497
G1 X129.447 Y107.078 E3.48757
G1 X129.715 Y107.4 E3.4976
G1 X130.012 Y107.772 E3.509
G1 X130.557 Y108.519 E3.53114
G1 X130.983 Y109.214 E3.55066
G1 X131.217 Y109.631 E3.56211
G1 X131.386 Y109.945 E3.57065
G1 X131.614 Y110.385 E3.58252
G1 X132.004 Y111.225 E3.6047
G1 X132.261 Y111.911 E3.62224
G1 X132.392 Y112.302 E3.63212
G1 X132.514 Y112.692 E3.6419
G1 X132.677 Y113.248 E3.65578
G1 X132.899 Y114.147 E3.67795
G1 X133.04 Y115.043 E3.69967
G1 X133.098 Y115.549 E3.71187
G1 X133.127 Y115.833 E3.71871
G1 X133.165 Y116.266 E3.72912
G1 X133.2 Y116.853 E3.7432
G1 X133.211 Y117.19 E3.75127
G1 X133.217 Y117.537 E3.75958
G1 X133.22 Y127.584 E4.00018
G1 X133.219 Y127.733 E4.00375
G1 X133.211 Y128.322 E4.01786
G1 X133.158 Y129.248 E4.04007
G1 X133.12 Y129.626 E4.04916
G1 X132.988 Y130.543 E4.07135
G1 X132.777 Y131.444 E4.09351
G1 X132.609 Y131.989 E4.10717
G1 X132.494 Y132.329 E4.11576
G1 X132.16 Y133.192 E4.13792
G1 X131.752 Y134.023 E4.16009
G1 X131.305 Y134.769 E4.18092
G1 X131.075 Y135.12 E4.19097
G1 X130.535 Y135.872 E4.21314
G1 X129.932 Y136.575 E4.23532
G1 X129.193 Y137.291 E4.25996
G1 X128.967 Y137.49 E4.26717
G1 X128.247 Y138.071 E4.28933
G1 X127.098 Y138.81 E4.32204
G1 X126.737 Y139.011 E4.33194
G1 X125.909 Y139.426 E4.35412
G1 X125.049 Y139.768 E4.37628
G1 X124.093 Y140.052 E4.40016
G1 X123.757 Y140.135 E4.40845
G1 X122.849 Y140.318 E4.43063
G1 X121.929 Y140.422 E4.4528
G1 X121.108 Y140.448 E4.47247
G1 X120.008 Y140.44 E4.49882
G1 X119.771 Y140.435 E4.50449
G1 X118.748 Y140.405 E4.529
G1 X114.923 Y140.427 E4.6206
G1 X114.133 Y140.447 E4.63953
G1 X113.208 Y140.431 E4.66168
G1 X112.287 Y140.336 E4.68385
G1 X111.505 Y140.19 E4.7029
G1 X111.158 Y140.112 E4.71142
G1 X110.264 Y139.87 E4.7336
G1 X109.395 Y139.552 E4.75576
G1 X108.775 Y139.271 E4.77206
G1 X108.452 Y139.112 E4.78068
G1 X107.639 Y138.667 E4.80288
G1 X106.868 Y138.155 E4.82504
G1 X106.253 Y137.67 E4.8438
G1 X105.957 Y137.419 E4.85309
G1 X105.277 Y136.79 E4.87527
G1 X104.654 Y136.105 E4.89745
G1 X104.123 Y135.411 E4.91837
G1 X103.945 Y135.158 E4.92578
G1 X103.445 Y134.379 E4.94795
G1 X103.015 Y133.559 E4.97012
G1 X102.768 Y132.993 E4.98491
G1 X102.611 Y132.603 E4.99498
G1 X102.302 Y131.73 E5.01715
G1 X102.07 Y130.834 E5.03932
G1 X101.927 Y130.003 E5.05951
G1 X101.887 Y129.7 E5.06683
G1 X101.798 Y128.534 E5.09483
G1 X101.783 Y127.855 E5.1111
G1 X101.78 Y127.618 E5.11677
G1 X101.78 Y117.957 E5.34813
G1 X101.781 Y117.796 E5.35198
G1 X101.789 Y117.265 E5.3647
G1 X101.82 Y116.604 E5.38055
G1 X101.888 Y115.72 E5.40178
G1 X101.92 Y115.372 E5.41015
G1 X101.948 Y115.117 E5.41629
G1 X102.089 Y114.202 E5.43846
G1 X102.295 Y113.345 E5.45957
G1 X102.41 Y112.942 E5.46961
G1 X102.495 Y112.661 E5.47664
G1 X102.663 Y112.128 E5.49002
G1 X102.979 Y111.258 E5.51219
G1 X103.343 Y110.469 E5.53299
G1 X103.564 Y110.037 E5.54461
G1 X103.716 Y109.75 E5.55239
G1 X103.951 Y109.323 E5.56406
G1 X104.432 Y108.532 E5.58623
G1 X104.918 Y107.864 E5.60602
G1 X105.213 Y107.489 E5.61744
G1 X105.425 Y107.227 E5.62551
G1 X105.727 Y106.867 E5.63677
G1 X106.352 Y106.184 E5.65894
G0 F7500 X106.707 Y106.509
G1 F1500 X107.244 Y106.01 E5.67649
G1 X107.642 Y105.666 E5.68909
G1 X107.949 Y105.411 E5.69865
G1 X108.321 Y105.114 E5.71004
G1 X109.052 Y104.581 E5.73171
G1 X109.699 Y104.186 E5.74986
G1 X110.116 Y103.952 E5.76131
G1 X110.416 Y103.79 E5.76948
G1 X110.856 Y103.562 E5.78135
G1 X111.677 Y103.182 E5.80301
G1 X112.314 Y102.944 E5.81929
G1 X112.717 Y102.809 E5.82947
G1 X113.102 Y102.689 E5.83913
G1 X113.647 Y102.53 E5.85272
G1 X114.526 Y102.315 E5.8744
G1 X115.347 Y102.187 E5.89429
G1 X115.852 Y102.129 E5.90647
G1 X116.127 Y102.101 E5.91309
G1 X116.561 Y102.063 E5.92352
G1 X117.465 Y102.024 E5.94519
G1 X118.138 Y102.047 E5.96131
G1 X118.601 Y102.078 E5.97243
G1 X119.017 Y102.114 E5.98242
G1 X119.554 Y102.172 E5.99536
G1 X120.448 Y102.309 E6.01702
G1 X121.262 Y102.505 E6.03707
G1 X121.739 Y102.641 E6.04895
G1 X122.011 Y102.723 E6.05575
G1 X122.474 Y102.869 E6.06738
G1 X123.324 Y103.179 E6.08904
G1 X124.044 Y103.512 E6.10804
G1 X124.456 Y103.722 E6.11911
G1 X124.733 Y103.868 E6.12661
G1 X125.183 Y104.115 E6.1389
G1 X125.956 Y104.585 E6.16057
G1 X126.577 Y105.036 E6.17895
G1 X126.953 Y105.331 E6.19039
G1 X127.215 Y105.544 E6.19848
G1 X127.576 Y105.847 E6.20977
G1 X128.243 Y106.458 E6.23143
G1 X128.74 Y106.994 E6.24893
G1 X129.084 Y107.392 E6.26153
G1 X129.339 Y107.699 E6.27109
G1 X129.636 Y108.071 E6.28249
G1 X130.169 Y108.802 E6.30415
G1 X130.564 Y109.449 E6.3223
G1 X130.798 Y109.866 E6.33375
G1 X130.96 Y110.166 E6.34192
G1 X131.188 Y110.606 E6.35379
G1 X131.568 Y111.427 E6.37545
G1 X131.806 Y112.064 E6.39174
G1 X131.937 Y112.455 E6.40161
G1 X132.053 Y112.827 E6.41094
G1 X132.216 Y113.383 E6.42482
G1 X132.432 Y114.262 E6.44649
G1 X132.563 Y115.098 E6.46676
G1 X132.621 Y115.604 E6.47895
G1 X132.649 Y115.875 E6.48548
G1 X132.687 Y116.308 E6.49589
G1 X132.721 Y116.869 E6.50935
G1 X132.732 Y117.206 E6.51742
G1 X132.737 Y117.537 E6.52535
G1 X132.74 Y127.584 E6.76595
G1 X132.739 Y127.726 E6.76935
G1 X132.731 Y128.315 E6.78345
G1 X132.681 Y129.2 E6.80468
G1 X132.643 Y129.578 E6.81378
G1 X132.512 Y130.474 E6.83546
G1 X132.304 Y131.354 E6.85712
G1 X132.154 Y131.835 E6.86918
G1 X132.039 Y132.175 E6.87778
G1 X131.712 Y133.018 E6.89943
G1 X131.311 Y133.83 E6.92112
G1 X130.904 Y134.506 E6.94001
G1 X130.674 Y134.857 E6.95006
G1 X130.145 Y135.592 E6.97175
G1 X129.553 Y136.276 E6.99341
G1 X128.876 Y136.93 E7.01595
G1 X128.65 Y137.129 E7.02317
G1 X127.945 Y137.697 E7.04485
G1 X126.864 Y138.391 E7.07561
G1 X126.503 Y138.592 E7.0855
G1 X125.694 Y138.997 E7.10717
G1 X124.852 Y139.328 E7.12883
G1 X123.978 Y139.586 E7.15066
G1 X123.642 Y139.669 E7.15895
G1 X122.755 Y139.847 E7.18061
G1 X121.855 Y139.946 E7.20229
G1 X121.112 Y139.968 E7.22009
G1 X120.012 Y139.96 E7.24644
G1 X119.785 Y139.956 E7.25187
G1 X118.731 Y139.925 E7.27712
G1 X114.958 Y139.946 E7.36748
G1 X114.121 Y139.968 E7.38753
G1 X113.216 Y139.951 E7.40921
G1 X112.317 Y139.855 E7.43086
G1 X111.61 Y139.722 E7.44808
G1 X111.263 Y139.644 E7.4566
G1 X110.39 Y139.406 E7.47827
G1 X109.541 Y139.093 E7.49994
G1 X108.987 Y138.84 E7.51452
G1 X108.664 Y138.681 E7.52315
G1 X107.87 Y138.246 E7.54483
G1 X107.118 Y137.743 E7.56649
G1 X106.563 Y137.304 E7.58344
G1 X106.267 Y137.053 E7.59273
G1 X105.604 Y136.438 E7.61439
G1 X104.997 Y135.767 E7.63606
G1 X104.515 Y135.135 E7.65509
G1 X104.337 Y134.882 E7.6625
G1 X103.85 Y134.12 E7.68415
G1 X103.431 Y133.317 E7.70584
G1 X103.213 Y132.814 E7.71897
G1 X103.056 Y132.424 E7.72904
G1 X102.755 Y131.571 E7.7507
G1 X102.531 Y130.694 E7.77238
G1 X102.403 Y129.94 E7.79069
G1 X102.363 Y129.637 E7.79801
G1 X102.277 Y128.523 E7.82477
G1 X102.262 Y127.844 E7.84103
G1 X102.26 Y127.618 E7.84644
G1 X102.26 Y117.957 E8.0778
G1 X102.261 Y117.803 E8.08149
G1 X102.269 Y117.272 E8.0942
G1 X102.298 Y116.641 E8.10933
G1 X102.366 Y115.757 E8.13056
G1 X102.397 Y115.424 E8.13857
G1 X102.425 Y115.169 E8.14472
G1 X102.564 Y114.275 E8.16638
G1 X102.757 Y113.477 E8.18604
G1 X102.872 Y113.074 E8.19608
G1 X102.953 Y112.806 E8.20278
G1 X103.121 Y112.273 E8.21617
G1 X103.431 Y111.423 E8.23783
G1 X103.771 Y110.687 E8.25725
G1 X103.992 Y110.255 E8.26887
G1 X104.137 Y109.982 E8.27627
G1 X104.372 Y109.555 E8.28794
G1 X104.843 Y108.782 E8.30962
G1 X105.295 Y108.161 E8.32801
G1 X105.59 Y107.786 E8.33944
G1 X105.793 Y107.536 E8.34715
G1 X106.095 Y107.176 E8.3584
G1 X106.707 Y106.509 E8.38008
G1 F1500 E2.38008
;MESH:colgador.stl
G0 F7500 X121.944 Y129.083
;TYPE:WALL-OUTER
G1 F1500 E8.38008
G1 X121.715 Y129.284 E8.38738
G1 X121.449 Y129.425 E8.39459
G1 X121.146 Y129.5 E8.40206
G1 X120.852 Y129.5 E8.4091
G1 X120.56 Y129.429 E8.4163
G1 X120.291 Y129.288 E8.42357
G1 X120.062 Y129.088 E8.43085
G1 X119.891 Y128.841 E8.43805
G1 X119.781 Y128.558 E8.44532
G1 X119.742 Y128.245 E8.45287
G1 X119.74 Y124.735 E8.53693
G1 X119.677 Y124.213 E8.54952
G1 X119.49 Y123.721 E8.56212
G1 X119.186 Y123.275 E8.57505
G1 X118.783 Y122.915 E8.58799
G1 X118.307 Y122.66 E8.60092
G1 X117.784 Y122.529 E8.61383
G1 X117.244 Y122.525 E8.62676
G1 X116.719 Y122.649 E8.63968
G1 X116.239 Y122.898 E8.65263
G1 X115.832 Y123.254 E8.66558
G1 X115.523 Y123.698 E8.67853
G1 X115.329 Y124.2 E8.69142
G1 X115.262 Y124.723 E8.70405
G1 X115.26 Y128.238 E8.78822
G1 X115.223 Y128.548 E8.7957
G1 X115.116 Y128.833 E8.80299
G1 X114.944 Y129.083 E8.81026
G1 X114.716 Y129.284 E8.81754
G1 X114.45 Y129.425 E8.82475
G1 X114.157 Y129.497 E8.83197
G1 X113.852 Y129.5 E8.83927
G1 X113.566 Y129.43 E8.84633
G1 X113.286 Y129.286 E8.85387
G1 X113.062 Y129.089 E8.86101
G1 X112.888 Y128.837 E8.86834
G1 X112.78 Y128.555 E8.87557
G1 X112.741 Y128.24 E8.88318
G1 X112.74 Y128.118 E8.8861
G1 X112.74 Y117.261 E9.14609
G1 X112.831 Y116.334 E9.1684
G1 X113.101 Y115.439 E9.19079
G1 X113.536 Y114.618 E9.21304
G1 X114.127 Y113.894 E9.23542
G1 X114.846 Y113.302 E9.25772
G1 X115.671 Y112.86 E9.28013
G1 X116.559 Y112.587 E9.30238
G1 X117.488 Y112.493 E9.32474
G1 X118.416 Y112.581 E9.34706
G1 X119.311 Y112.851 E9.36945
