;FLAVOR:Marlin
M117 Time Left 1h33m54s
;TIME:5634
;Filament used: 4.18272m
;Layer height: 0.2
;MINX:66.6
;MINY:81.1
;MINZ:0.2
;MAXX:168.4
;MAXY:136.4
;MAXZ:5.6
;POSTPROCESSED
;Generated with Cura_SteamEngine 4.12.1
M140 S70
M105
M190 S70
M104 S230
M105
M109 S230
M82 ;absolute extrusion mode
; Ender 3 Custom Start G-code
G92 E0 ; Reset Extruder
G28 ; Home all axes
G1 Z2.0 F3000 ; Move Z Axis up little to prevent scratching of Heat Bed
G1 X0.1 Y20 Z0.3 F5000.0 ; Move to start position
G1 X0.1 Y200.0 Z0.3 F1500.0 E15 ; Draw the first line
G1 X0.4 Y200.0 Z0.3 F5000.0 ; Move to side a little
G1 X0.4 Y20 Z0.3 F1500.0 E30 ; Draw the second line
G92 E0 ; Reset Extruder
G1 Z2.0 F3000 ; Move Z Axis up little to prevent scratching of Heat Bed
G1 X5 Y20 Z0.3 F5000.0 ; Move over to prevent blob squish
G92 E0
G92 E0
G1 F2700 E-6
;LAYER_COUNT:28
;LAYER:0
M107
M204 S500
M205 X8 Y8
G0 F7500 X70.482 Y83.73 Z0.2
;TYPE:SKIRT
G1 F2700 E0
G1 F1500 X71.221 Y83.154 E0.02961
G1 X72.007 Y82.642 E0.05925
G1 X72.834 Y82.199 E0.08889
G1 X73.696 Y81.829 E0.11853
G1 X74.586 Y81.533 E0.14816
G1 X75.498 Y81.314 E0.1778
G1 X76.425 Y81.173 E0.20743
G1 X77.301 Y81.113 E0.23517
G1 X77.622 Y81.104 E0.24532
G1 X77.93 Y81.1 E0.25505
G1 X148.494 Y81.1 E2.48467
G1 X148.713 Y81.102 E2.49159
G1 X150.171 Y81.131 E2.53767
G1 X150.755 Y81.158 E2.55614
G1 X151.192 Y81.19 E2.56999
G1 X151.909 Y81.267 E2.59277
G1 X152.081 Y81.291 E2.59826
G1 X152.416 Y81.342 E2.60897
G1 X152.796 Y81.407 E2.62115
G1 X153.093 Y81.462 E2.63069
G1 X153.464 Y81.536 E2.64264
G1 X154.374 Y81.759 E2.67225
G1 X154.995 Y81.939 E2.69268
G1 X155.348 Y82.048 E2.70435
G1 X155.645 Y82.145 E2.71422
G1 X156.554 Y82.486 E2.7449
G1 X157.202 Y82.763 E2.76717
G1 X157.547 Y82.918 E2.77912
G1 X157.771 Y83.023 E2.78693
G1 X158.619 Y83.467 E2.81718
G1 X159.271 Y83.845 E2.84099
G1 X159.706 Y84.111 E2.8571
G1 X159.95 Y84.268 E2.86627
G1 X160.575 Y84.701 E2.8903
G1 X160.819 Y84.883 E2.89991
G1 X161.155 Y85.143 E2.91334
G1 X161.613 Y85.513 E2.93194
G1 X162.329 Y86.146 E2.96214
G1 X162.598 Y86.405 E2.97394
G1 X162.911 Y86.718 E2.98792
G1 X163.464 Y87.295 E3.01318
G1 X164.099 Y88.019 E3.04361
G1 X164.205 Y88.151 E3.04895
G1 X164.39 Y88.388 E3.05845
G1 X164.73 Y88.836 E3.07622
G1 X165.282 Y89.634 E3.10688
G1 X165.62 Y90.172 E3.12696
G1 X165.857 Y90.566 E3.14149
G1 X166.023 Y90.861 E3.15218
G1 X166.179 Y91.146 E3.16245
G1 X166.497 Y91.775 E3.18472
G1 X166.673 Y92.152 E3.19787
G1 X166.823 Y92.487 E3.20946
G1 X166.995 Y92.89 E3.22331
G1 X167.273 Y93.61 E3.2477
G1 X167.381 Y93.922 E3.25813
G1 X167.522 Y94.359 E3.27264
G1 X167.642 Y94.759 E3.28583
G1 X167.834 Y95.487 E3.30962
G1 X167.978 Y96.122 E3.33019
G1 X168.096 Y96.721 E3.34948
G1 X168.167 Y97.141 E3.36294
G1 X168.287 Y98.109 E3.39376
G1 X168.337 Y98.742 E3.41383
G1 X168.359 Y99.095 E3.425
G1 X168.373 Y99.395 E3.43449
G1 X168.376 Y100.361 E3.46502
G1 X168.355 Y100.874 E3.48124
G1 X168.282 Y103.478 E3.56355
G1 X168.284 Y106.003 E3.64333
G1 X168.355 Y108.501 E3.72229
G1 X168.368 Y108.754 E3.7303
G1 X168.395 Y109.6 E3.75704
G1 X168.4 Y109.93 E3.76747
G1 X168.399 Y124.815 E4.23779
G1 X168.389 Y125.542 E4.26077
G1 X168.336 Y126.479 E4.29042
G1 X168.204 Y127.407 E4.32004
G1 X167.993 Y128.321 E4.34968
G1 X167.704 Y129.213 E4.37931
G1 X167.341 Y130.078 E4.40895
G1 X166.906 Y130.909 E4.43858
G1 X166.401 Y131.699 E4.46821
G1 X165.831 Y132.444 E4.49785
G1 X165.2 Y133.138 E4.52749
G1 X164.511 Y133.775 E4.55713
G1 X163.771 Y134.351 E4.58677
G1 X162.985 Y134.862 E4.61639
G1 X162.158 Y135.304 E4.64602
G1 X161.296 Y135.674 E4.67566
G1 X160.406 Y135.969 E4.70528
G1 X159.494 Y136.188 E4.73492
G1 X158.567 Y136.328 E4.76454
G1 X157.699 Y136.387 E4.79203
G1 X157.379 Y136.396 E4.80215
G1 X157.07 Y136.4 E4.81191
G1 X86.462 Y136.4 E7.04292
G1 X86.26 Y136.398 E7.0493
G1 X84.901 Y136.373 E7.09225
G1 X84.279 Y136.344 E7.11193
G1 X83.773 Y136.306 E7.12796
G1 X83.078 Y136.232 E7.15004
G1 X82.87 Y136.203 E7.15668
G1 X82.536 Y136.151 E7.16736
G1 X82.22 Y136.097 E7.17749
G1 X81.938 Y136.045 E7.18655
G1 X81.569 Y135.972 E7.19843
G1 X80.631 Y135.743 E7.22894
G1 X79.978 Y135.553 E7.25043
G1 X79.628 Y135.445 E7.262
G1 X79.347 Y135.353 E7.27135
G1 X78.427 Y135.005 E7.30243
G1 X77.794 Y134.733 E7.3242
G1 X77.5 Y134.602 E7.33437
G1 X77.244 Y134.483 E7.34329
G1 X76.354 Y134.019 E7.375
G1 X75.707 Y133.643 E7.39864
G1 X75.29 Y133.388 E7.41409
G1 X75.086 Y133.257 E7.42175
G1 X74.525 Y132.871 E7.44327
G1 X74.285 Y132.695 E7.45267
G1 X73.886 Y132.389 E7.46856
G1 X73.396 Y131.994 E7.48844
G1 X72.657 Y131.341 E7.5196
G1 X72.215 Y130.914 E7.53902
G1 X71.982 Y130.683 E7.54939
G1 X71.747 Y130.442 E7.56003
G1 X71.274 Y129.924 E7.58219
G1 X71.099 Y129.72 E7.59068
G1 X70.849 Y129.418 E7.60307
G1 X70.62 Y129.125 E7.61482
G1 X70.319 Y128.729 E7.63054
G1 X69.774 Y127.944 E7.66073
G1 X69.353 Y127.277 E7.68566
G1 X68.984 Y126.646 E7.70875
G1 X68.738 Y126.192 E7.72507
G1 X68.41 Y125.538 E7.74819
G1 X68.263 Y125.211 E7.75951
G1 X68.064 Y124.754 E7.77526
G1 X67.704 Y123.812 E7.80713
G1 X67.485 Y123.149 E7.82919
G1 X67.376 Y122.799 E7.84077
G1 X67.292 Y122.513 E7.85019
G1 X67.094 Y121.736 E7.87553
G1 X67.016 Y121.375 E7.8872
G1 X66.919 Y120.87 E7.90344
G1 X66.83 Y120.339 E7.92046
G1 X66.714 Y119.393 E7.95057
G1 X66.663 Y118.752 E7.97089
G1 X66.641 Y118.409 E7.98175
G1 X66.627 Y118.118 E7.99095
G1 X66.624 Y117.125 E8.02233
G1 X66.644 Y116.646 E8.03748
G1 X66.718 Y114.01 E8.1208
G1 X66.716 Y111.485 E8.20058
G1 X66.644 Y108.967 E8.28018
G1 X66.623 Y108.504 E8.29482
G1 X66.605 Y107.895 E8.31407
G1 X66.6 Y107.57 E8.32434
G1 X66.601 Y92.654 E8.79565
G1 X66.61 Y91.965 E8.81742
G1 X66.662 Y91.029 E8.84704
G1 X66.794 Y90.1 E8.87669
G1 X67.004 Y89.186 E8.90632
G1 X67.292 Y88.294 E8.93594
G1 X67.654 Y87.429 E8.96557
G1 X68.089 Y86.598 E8.9952
G1 X68.593 Y85.807 E9.02484
G1 X69.163 Y85.062 E9.05448
G1 X69.794 Y84.368 E9.08412
G1 X70.482 Y83.73 E9.11376
G0 F7500 X70.871 Y83.927
G1 F1500 X71.606 Y83.373 E9.14285
G1 X72.387 Y82.885 E9.17194
G1 X73.207 Y82.466 E9.20104
G1 X74.06 Y82.121 E9.23011
G1 X74.94 Y81.85 E9.25921
G1 X75.84 Y81.658 E9.28829
G1 X76.754 Y81.544 E9.31739
G1 X77.312 Y81.513 E9.33505
G1 X77.633 Y81.504 E9.34519
G1 X77.93 Y81.5 E9.35458
G1 X148.494 Y81.5 E11.5842
G1 X148.705 Y81.502 E11.59087
G1 X150.163 Y81.531 E11.63694
G1 X150.726 Y81.557 E11.65475
G1 X151.163 Y81.589 E11.6686
G1 X151.854 Y81.663 E11.69056
G1 X152.026 Y81.687 E11.69604
G1 X152.348 Y81.737 E11.70634
G1 X152.728 Y81.802 E11.71852
G1 X153.014 Y81.855 E11.72771
G1 X153.385 Y81.929 E11.73966
G1 X154.263 Y82.143 E11.76822
G1 X154.884 Y82.323 E11.78865
G1 X155.224 Y82.428 E11.79989
G1 X155.521 Y82.525 E11.80976
G1 X156.396 Y82.854 E11.8393
G1 X157.044 Y83.131 E11.86157
G1 X157.377 Y83.28 E11.8731
G1 X157.601 Y83.385 E11.88091
G1 X158.419 Y83.813 E11.91008
G1 X159.071 Y84.191 E11.9339
G1 X159.49 Y84.447 E11.94941
G1 X159.734 Y84.604 E11.95858
G1 X160.336 Y85.021 E11.98172
G1 X160.58 Y85.203 E11.99134
G1 X160.903 Y85.455 E12.00428
G1 X161.361 Y85.825 E12.02288
G1 X162.052 Y86.434 E12.05199
G1 X162.321 Y86.693 E12.06379
G1 X162.622 Y86.995 E12.07726
G1 X163.175 Y87.572 E12.10251
G1 X163.787 Y88.269 E12.13182
G1 X164.072 Y88.63 E12.14635
G1 X164.412 Y89.078 E12.16412
G1 X164.944 Y89.847 E12.19367
G1 X165.282 Y90.385 E12.21374
G1 X165.509 Y90.765 E12.22773
G1 X165.672 Y91.053 E12.23819
G1 X165.828 Y91.338 E12.24845
G1 X166.135 Y91.944 E12.26992
G1 X166.311 Y92.321 E12.28306
G1 X166.455 Y92.644 E12.29424
G1 X166.627 Y93.047 E12.30808
G1 X166.895 Y93.741 E12.33159
G1 X167.003 Y94.053 E12.34202
G1 X167.139 Y94.474 E12.356
G1 X167.259 Y94.874 E12.3692
G1 X167.444 Y95.576 E12.39214
G1 X167.588 Y96.211 E12.41271
G1 X167.702 Y96.788 E12.43129
G1 X167.773 Y97.208 E12.44475
G1 X167.888 Y98.14 E12.47442
G1 X167.938 Y98.773 E12.49449
G1 X167.959 Y99.114 E12.50528
G1 X167.973 Y99.414 E12.51477
G1 X167.976 Y100.345 E12.54419
G1 X167.955 Y100.847 E12.56006
G1 X167.882 Y103.467 E12.64288
G1 X167.884 Y105.979 E12.72225
G1 X167.958 Y108.581 E12.8045
G1 X167.976 Y108.979 E12.81709
G1 X167.995 Y109.612 E12.8371
G1 X168 Y109.93 E12.84715
G1 X167.999 Y124.81 E13.31731
G1 X167.989 Y125.537 E13.34029
G1 X167.936 Y126.456 E13.36937
G1 X167.804 Y127.367 E13.39846
G1 X167.593 Y128.263 E13.42754
G1 X167.306 Y129.138 E13.45664
G1 X166.943 Y129.984 E13.48573
G1 X166.509 Y130.796 E13.51482
G1 X166.005 Y131.567 E13.54393
G1 X165.437 Y132.291 E13.573
G1 X164.808 Y132.963 E13.60209
G1 X164.123 Y133.578 E13.63117
G1 X163.387 Y134.131 E13.66026
G1 X162.606 Y134.619 E13.68936
G1 X161.786 Y135.037 E13.71844
G1 X160.932 Y135.382 E13.74754
G1 X160.052 Y135.651 E13.77662
G1 X159.151 Y135.844 E13.80573
G1 X158.238 Y135.957 E13.8348
G1 X157.688 Y135.987 E13.85221
G1 X157.368 Y135.996 E13.86232
G1 X157.07 Y136 E13.87174
G1 X86.462 Y136 E16.10275
G1 X84.908 Y135.973 E16.15186
G1 X84.309 Y135.945 E16.17081
G1 X83.803 Y135.907 E16.18684
G1 X83.133 Y135.835 E16.20813
G1 X82.925 Y135.806 E16.21477
G1 X82.603 Y135.757 E16.22506
G1 X82.287 Y135.703 E16.23519
G1 X82.016 Y135.652 E16.2439
G1 X81.647 Y135.579 E16.25579
G1 X80.743 Y135.359 E16.28518
G1 X80.09 Y135.169 E16.30667
G1 X79.753 Y135.065 E16.31782
G1 X79.472 Y134.973 E16.32716
G1 X78.585 Y134.638 E16.35712
G1 X77.952 Y134.366 E16.37889
G1 X77.669 Y134.239 E16.38869
G1 X77.413 Y134.12 E16.39761
G1 X76.555 Y133.673 E16.42818
G1 X75.908 Y133.297 E16.45182
G1 X75.506 Y133.051 E16.46671
G1 X75.302 Y132.92 E16.47437
G1 X74.762 Y132.549 E16.49508
G1 X74.522 Y132.373 E16.50448
G1 X74.137 Y132.078 E16.5198
G1 X73.647 Y131.683 E16.53969
G1 X72.935 Y131.054 E16.56971
G1 X72.493 Y130.627 E16.58913
G1 X72.269 Y130.403 E16.59914
G1 X72.034 Y130.162 E16.60977
G1 X71.578 Y129.664 E16.63111
G1 X71.403 Y129.46 E16.6396
G1 X71.162 Y129.168 E16.65156
G1 X70.938 Y128.883 E16.66302
G1 X70.637 Y128.487 E16.67874
G1 X70.112 Y127.731 E16.70782
G1 X69.691 Y127.064 E16.73274
G1 X69.335 Y126.456 E16.755
G1 X69.089 Y126.002 E16.77132
G1 X68.774 Y125.371 E16.7936
G1 X68.629 Y125.051 E16.8047
G1 X68.43 Y124.594 E16.82045
G1 X68.084 Y123.687 E16.85112
G1 X67.865 Y123.024 E16.87319
G1 X67.76 Y122.686 E16.88437
G1 X67.676 Y122.4 E16.89379
G1 X67.485 Y121.652 E16.91818
G1 X67.407 Y121.291 E16.92985
G1 X67.314 Y120.804 E16.94552
G1 X67.225 Y120.273 E16.96253
G1 X67.112 Y119.362 E16.99154
G1 X67.061 Y118.721 E17.01185
G1 X67.04 Y118.389 E17.02236
G1 X67.026 Y118.098 E17.03157
G1 X67.023 Y117.142 E17.06178
G1 X67.046 Y116.605 E17.07876
G1 X67.118 Y114.021 E17.16044
G1 X67.116 Y111.509 E17.23981
G1 X67.041 Y108.901 E17.32225
G1 X67.023 Y108.492 E17.33519
G1 X67.005 Y107.883 E17.35444
G1 X67 Y107.57 E17.36433
G1 X67.001 Y92.66 E17.83544
G1 X67.01 Y91.971 E17.85721
G1 X67.062 Y91.051 E17.88633
G1 X67.193 Y90.14 E17.91541
G1 X67.404 Y89.244 E17.9445
G1 X67.691 Y88.369 E17.97359
G1 X68.053 Y87.523 E18.00267
G1 X68.487 Y86.711 E18.03176
G1 X68.989 Y85.939 E18.06086
G1 X69.557 Y85.215 E18.08993
G1 X70.186 Y84.542 E18.11904
G1 X70.871 Y83.927 E18.14813
G0 F7500 X71.259 Y84.127
G1 F1500 X71.99 Y83.597 E18.17666
G1 X72.764 Y83.133 E18.20517
G1 X73.577 Y82.74 E18.2337
G1 X74.422 Y82.42 E18.26225
G1 X75.292 Y82.176 E18.2908
G1 X76.179 Y82.01 E18.31932
G1 X77.323 Y81.913 E18.35559
G1 X77.644 Y81.904 E18.36574
G1 X77.93 Y81.9 E18.37478
G1 X148.494 Y81.9 E20.6044
G1 X148.697 Y81.902 E20.61081
G1 X150.155 Y81.931 E20.65689
G1 X150.697 Y81.956 E20.67403
G1 X151.134 Y81.988 E20.68788
G1 X151.799 Y82.059 E20.70901
G1 X151.971 Y82.083 E20.7145
G1 X152.281 Y82.131 E20.72441
G1 X152.661 Y82.196 E20.73659
G1 X152.936 Y82.247 E20.74543
G1 X153.307 Y82.321 E20.75738
G1 X154.152 Y82.527 E20.78486
G1 X154.773 Y82.707 E20.80529
G1 X155.1 Y82.808 E20.81611
G1 X155.397 Y82.905 E20.82598
G1 X156.239 Y83.222 E20.85441
G1 X156.887 Y83.499 E20.87667
G1 X157.207 Y83.642 E20.88775
G1 X157.431 Y83.747 E20.89556
G1 X158.218 Y84.159 E20.92363
G1 X158.87 Y84.537 E20.94745
G1 X159.273 Y84.783 E20.96236
G1 X159.517 Y84.94 E20.97153
G1 X160.097 Y85.342 E20.99383
G1 X160.341 Y85.524 E21.00345
G1 X160.652 Y85.766 E21.0159
G1 X161.11 Y86.136 E21.0345
G1 X161.775 Y86.722 E21.06251
G1 X162.044 Y86.981 E21.07431
G1 X162.333 Y87.271 E21.08724
G1 X162.886 Y87.848 E21.1125
G1 X163.475 Y88.519 E21.14071
G1 X163.581 Y88.651 E21.14606
G1 X163.753 Y88.872 E21.15491
G1 X164.093 Y89.32 E21.17268
G1 X164.605 Y90.06 E21.20111
G1 X164.943 Y90.598 E21.22119
G1 X165.162 Y90.963 E21.23463
G1 X165.321 Y91.246 E21.24489
G1 X165.477 Y91.531 E21.25516
G1 X165.772 Y92.113 E21.27577
G1 X165.948 Y92.49 E21.28892
G1 X166.087 Y92.801 E21.29968
G1 X166.259 Y93.204 E21.31353
G1 X166.517 Y93.871 E21.33613
G1 X166.625 Y94.183 E21.34656
G1 X166.756 Y94.589 E21.36004
G1 X166.876 Y94.989 E21.37323
G1 X167.053 Y95.664 E21.39528
G1 X167.197 Y96.299 E21.41586
G1 X167.307 Y96.855 E21.43376
G1 X167.378 Y97.275 E21.44722
G1 X167.489 Y98.172 E21.47578
G1 X167.539 Y98.805 E21.49585
G1 X167.56 Y99.133 E21.50623
G1 X167.574 Y99.433 E21.51572
G1 X167.576 Y100.328 E21.544
G1 X167.556 Y100.818 E21.5595
G1 X167.482 Y103.456 E21.64288
G1 X167.484 Y105.991 E21.72298
G1 X167.558 Y108.564 E21.80431
G1 X167.576 Y108.991 E21.81782
G1 X167.595 Y109.624 E21.83783
G1 X167.6 Y109.93 E21.8475
G1 X167.599 Y124.804 E22.31747
G1 X167.589 Y125.531 E22.34045
G1 X167.537 Y126.433 E22.36899
G1 X167.405 Y127.326 E22.39752
G1 X167.194 Y128.205 E22.42608
G1 X166.907 Y129.061 E22.45461
G1 X166.545 Y129.888 E22.48313
G1 X166.111 Y130.68 E22.51167
G1 X165.609 Y131.431 E22.54021
G1 X165.043 Y132.134 E22.56873
G1 X164.416 Y132.785 E22.59729
G1 X163.735 Y133.377 E22.6258
G1 X163.004 Y133.907 E22.65433
G1 X162.228 Y134.37 E22.68288
G1 X161.415 Y134.763 E22.71141
G1 X160.57 Y135.083 E22.73996
G1 X159.701 Y135.326 E22.76847
G1 X158.813 Y135.491 E22.79701
G1 X157.677 Y135.587 E22.83303
G1 X157.357 Y135.596 E22.84315
G1 X157.07 Y135.6 E22.85222
G1 X86.462 Y135.6 E25.08323
G1 X84.915 Y135.573 E25.13212
G1 X84.339 Y135.546 E25.15034
G1 X83.833 Y135.508 E25.16637
G1 X83.189 Y135.439 E25.18683
G1 X82.981 Y135.41 E25.19347
G1 X82.671 Y135.362 E25.20338
G1 X82.355 Y135.308 E25.21351
G1 X82.093 Y135.26 E25.22193
G1 X81.724 Y135.187 E25.23381
G1 X80.854 Y134.975 E25.26211
G1 X80.201 Y134.785 E25.2836
G1 X79.877 Y134.685 E25.29431
G1 X79.596 Y134.593 E25.30365
G1 X78.743 Y134.27 E25.33247
G1 X78.11 Y133.998 E25.35424
G1 X77.837 Y133.877 E25.36368
G1 X77.581 Y133.758 E25.3726
G1 X76.756 Y133.327 E25.40201
G1 X76.109 Y132.951 E25.42565
G1 X75.723 Y132.715 E25.43995
G1 X75.519 Y132.584 E25.44761
G1 X74.998 Y132.226 E25.46758
G1 X74.758 Y132.05 E25.47699
G1 X74.389 Y131.766 E25.4917
G1 X73.899 Y131.371 E25.51158
G1 X73.213 Y130.766 E25.54049
G1 X72.771 Y130.339 E25.5599
G1 X72.555 Y130.124 E25.56953
G1 X72.32 Y129.883 E25.58017
G1 X71.881 Y129.403 E25.60072
G1 X71.706 Y129.199 E25.60922
G1 X71.474 Y128.919 E25.62071
G1 X71.257 Y128.641 E25.63185
G1 X70.956 Y128.245 E25.64757
G1 X70.45 Y127.517 E25.67558
G1 X70.029 Y126.85 E25.7005
G1 X69.687 Y126.265 E25.72191
G1 X69.441 Y125.811 E25.73823
G1 X69.138 Y125.204 E25.75966
G1 X68.996 Y124.891 E25.77052
G1 X68.797 Y124.434 E25.78627
G1 X68.464 Y123.561 E25.8158
G1 X68.245 Y122.898 E25.83786
G1 X68.143 Y122.573 E25.84862
G1 X68.059 Y122.287 E25.85804
G1 X67.876 Y121.567 E25.88151
G1 X67.798 Y121.206 E25.89318
G1 X67.708 Y120.738 E25.90824
G1 X67.619 Y120.207 E25.92525
G1 X67.511 Y119.33 E25.95317
G1 X67.46 Y118.689 E25.97349
G1 X67.44 Y118.37 E25.98359
G1 X67.426 Y118.079 E25.9928
G1 X67.423 Y117.159 E26.02187
G1 X67.445 Y116.633 E26.0385
G1 X67.518 Y114.032 E26.12072
G1 X67.516 Y111.497 E26.20082
G1 X67.442 Y108.915 E26.28243
G1 X67.422 Y108.48 E26.29619
G1 X67.404 Y107.871 E26.31544
G1 X67.4 Y107.57 E26.32495
G1 X67.401 Y92.665 E26.79591
G1 X67.41 Y91.976 E26.81768
G1 X67.462 Y91.074 E26.84623
G1 X67.593 Y90.181 E26.87475
G1 X67.803 Y89.302 E26.9033
G1 X68.089 Y88.446 E26.93182
G1 X68.451 Y87.618 E26.96037
G1 X68.884 Y86.826 E26.98889
G1 X69.385 Y86.075 E27.01742
G1 X69.951 Y85.371 E27.04596
G1 X70.577 Y84.72 E27.0745
G1 X71.259 Y84.127 E27.10305
G1 F2700 E21.10305
;MESH:add2.stl
G0 F7500 X147.768 Y101.305
G0 X146.214 Y102.322
G0 X147.553 Y103.327
