;FLAVOR:Marlin
M117 Time Left 0h06m05s
;TIME:365
;Filament used: 0.302528m
;Layer height: 0.28
;MINX:89.523
;MINY:99.5
;MINZ:0.28
;MAXX:145.477
;MAXY:135.5
;MAXZ:1.96
;POSTPROCESSED
;Generated with Cura_SteamEngine 4.12.1
M140 S70
M105
M190 S70
M104 S230
M105
M109 S230
M82 ;absolute extrusion mode
; Ender 3 Custom Start G-code
G92 E0 ; Reset Extruder
G28 ; Home all axes
G1 Z2.0 F3000 ; Move Z Axis up little to prevent scratching of Heat Bed
G1 X0.1 Y20 Z0.3 F5000.0 ; Move to start position
G1 X0.1 Y200.0 Z0.3 F1500.0 E15 ; Draw the first line
G1 X0.4 Y200.0 Z0.3 F5000.0 ; Move to side a little
G1 X0.4 Y20 Z0.3 F1500.0 E30 ; Draw the second line
G92 E0 ; Reset Extruder
G1 Z2.0 F3000 ; Move Z Axis up little to prevent scratching of Heat Bed
G1 X5 Y20 Z0.3 F5000.0 ; Move over to prevent blob squish
G92 E0
G92 E0
G1 F2700 E-6
;LAYER_COUNT:7
;LAYER:0
M107
M204 S500
M205 X8 Y8
G0 F7500 X95.425 Y104.181 Z0.28
;TYPE:SKIRT
G1 F2700 E0
G1 F1500 X95.824 Y103.827 E0.0236
G1 X96.361 Y103.379 E0.05453
G1 X96.556 Y103.227 E0.06547
G1 X97.029 Y102.879 E0.09144
G1 X97.343 Y102.664 E0.10828
G1 X97.58 Y102.507 E0.12085
G1 X97.803 Y102.363 E0.1326
G1 X98.263 Y102.074 E0.15663
G1 X98.927 Y101.688 E0.1906
G1 X99.099 Y101.596 E0.19923
G1 X99.803 Y101.251 E0.23391
G1 X100.269 Y101.043 E0.25649
G1 X100.555 Y100.92 E0.27026
G1 X101.037 Y100.721 E0.29333
G1 X101.988 Y100.379 E0.33803
G1 X102.166 Y100.324 E0.34627
G1 X102.664 Y100.183 E0.36917
G1 X103.063 Y100.08 E0.3874
G1 X103.325 Y100.016 E0.39933
G1 X103.799 Y99.906 E0.42085
G1 X104.527 Y99.763 E0.45367
G1 X104.743 Y99.728 E0.46335
G1 X105.498 Y99.632 E0.49702
G1 X105.967 Y99.589 E0.51785
G1 X106.295 Y99.564 E0.5324
G1 X106.831 Y99.531 E0.55616
G1 X107.169 Y99.515 E0.57113
G1 X107.638 Y99.503 E0.59188
G1 X107.938 Y99.5 E0.60515
G1 X126.98 Y99.502 E1.4475
G1 X127.688 Y99.512 E1.47882
G1 X128.013 Y99.521 E1.4932
G1 X128.415 Y99.541 E1.511
G1 X128.545 Y99.549 E1.51677
G1 X128.881 Y99.575 E1.53167
G1 X129.563 Y99.638 E1.56197
G1 X130.479 Y99.761 E1.60285
G1 X130.67 Y99.795 E1.61144
G1 X131.254 Y99.916 E1.63782
G1 X131.659 Y100.011 E1.65622
G1 X131.929 Y100.078 E1.66853
G1 X132.434 Y100.21 E1.69162
G1 X133.368 Y100.499 E1.73487
G1 X133.616 Y100.588 E1.74652
G1 X134.133 Y100.788 E1.77104
G1 X134.464 Y100.926 E1.78691
G1 X134.725 Y101.039 E1.79949
G1 X135.174 Y101.24 E1.82125
G1 X135.816 Y101.553 E1.85284
G1 X136.03 Y101.666 E1.86355
G1 X136.513 Y101.936 E1.88803
G1 X136.809 Y102.116 E1.90335
G1 X137.064 Y102.276 E1.91667
G1 X137.332 Y102.45 E1.9308
G1 X137.842 Y102.791 E1.95794
G1 X138.544 Y103.301 E1.99633
G1 X138.62 Y103.361 E2.00061
G1 X139.096 Y103.76 E2.02808
G1 X139.55 Y104.162 E2.05491
G1 X139.791 Y104.381 E2.06931
G1 X140.073 Y104.646 E2.08643
G1 X140.616 Y105.194 E2.12056
G1 X140.751 Y105.34 E2.12935
G1 X141.22 Y105.881 E2.16103
G1 X141.541 Y106.277 E2.18358
G1 X141.771 Y106.571 E2.20009
G1 X142.096 Y107.001 E2.22393
G1 X142.637 Y107.785 E2.26607
G1 X142.718 Y107.914 E2.27281
G1 X142.983 Y108.359 E2.29572
G1 X143.199 Y108.742 E2.31517
G1 X143.351 Y109.021 E2.32922
G1 X143.589 Y109.473 E2.35182
G1 X143.979 Y110.295 E2.39207
G1 X144.084 Y110.542 E2.40394
G1 X144.32 Y111.145 E2.43259
G1 X144.445 Y111.495 E2.44903
G1 X144.535 Y111.756 E2.46124
G1 X144.693 Y112.236 E2.48359
G1 X144.869 Y112.828 E2.51091
G1 X144.91 Y112.981 E2.51792
G1 X145.106 Y113.85 E2.55733
G1 X145.206 Y114.397 E2.58192
G1 X145.259 Y114.716 E2.59623
G1 X145.331 Y115.188 E2.61735
G1 X145.432 Y116.103 E2.65807
G1 X145.448 Y116.339 E2.66854
G1 X145.472 Y116.938 E2.69505
G1 X145.477 Y117.316 E2.71178
G1 X145.477 Y117.592 E2.72399
G1 X145.471 Y118.094 E2.74619
G1 X145.433 Y118.884 E2.78118
G1 X145.413 Y119.122 E2.79175
G1 X145.326 Y119.863 E2.82475
G1 X145.265 Y120.262 E2.84261
G1 X145.217 Y120.55 E2.85552
G1 X145.128 Y121.044 E2.87773
G1 X144.982 Y121.726 E2.90858
G1 X144.93 Y121.937 E2.91819
G1 X144.774 Y122.505 E2.94425
G1 X144.643 Y122.926 E2.96375
G1 X144.57 Y123.147 E2.97405
G1 X144.465 Y123.45 E2.98823
G1 X144.257 Y124.023 E3.0152
G1 X143.882 Y124.928 E3.05853
G1 X143.796 Y125.112 E3.06752
G1 X143.56 Y125.586 E3.09094
G1 X143.368 Y125.95 E3.10915
G1 X143.211 Y126.237 E3.12362
G1 X142.95 Y126.698 E3.14705
G1 X142.432 Y127.526 E3.19026
G1 X142.294 Y127.726 E3.201
G1 X141.982 Y128.155 E3.22447
G1 X141.759 Y128.447 E3.24072
G1 X141.588 Y128.666 E3.25301
G1 X141.267 Y129.065 E3.27567
G1 X140.697 Y129.718 E3.31401
G1 X140.547 Y129.877 E3.32368
G1 X140.289 Y130.142 E3.34004
G1 X139.986 Y130.438 E3.35878
G1 X139.825 Y130.59 E3.36857
G1 X139.576 Y130.818 E3.38351
G1 X139.176 Y131.173 E3.40716
G1 X138.646 Y131.614 E3.43766
G1 X138.454 Y131.764 E3.44844
G1 X137.99 Y132.108 E3.47399
G1 X137.684 Y132.319 E3.49044
G1 X137.447 Y132.477 E3.50304
G1 X137.182 Y132.647 E3.51696
G1 X136.722 Y132.935 E3.54097
G1 X136.097 Y133.299 E3.57297
G1 X135.926 Y133.391 E3.58156
G1 X135.19 Y133.752 E3.61782
G1 X134.723 Y133.96 E3.64043
G1 X134.445 Y134.08 E3.65383
G1 X133.963 Y134.279 E3.67689
G1 X133.012 Y134.621 E3.7216
G1 X132.834 Y134.676 E3.72984
G1 X132.336 Y134.817 E3.75274
G1 X131.937 Y134.92 E3.77097
G1 X131.675 Y134.984 E3.7829
G1 X131.201 Y135.094 E3.80442
G1 X130.473 Y135.237 E3.83724
G1 X130.257 Y135.272 E3.84692
G1 X129.844 Y135.331 E3.86538
G1 X129.416 Y135.378 E3.88442
G1 X128.996 Y135.415 E3.90307
G1 X128.712 Y135.436 E3.91567
G1 X128.18 Y135.469 E3.93925
G1 X127.835 Y135.485 E3.95453
G1 X127.38 Y135.496 E3.97466
G1 X126.97 Y135.5 E3.9928
G1 X108.019 Y135.498 E4.83111
G1 X107.312 Y135.488 E4.86239
G1 X106.99 Y135.479 E4.87664
G1 X106.585 Y135.459 E4.89458
G1 X106.455 Y135.451 E4.90034
G1 X106.119 Y135.425 E4.91525
G1 X105.437 Y135.362 E4.94555
G1 X104.521 Y135.239 E4.98643
G1 X104.33 Y135.205 E4.99501
G1 X103.746 Y135.084 E5.02139
G1 X103.341 Y134.989 E5.0398
G1 X103.071 Y134.922 E5.0521
G1 X102.566 Y134.79 E5.07519
G1 X101.632 Y134.501 E5.11844
G1 X101.384 Y134.412 E5.1301
G1 X100.867 Y134.212 E5.15462
G1 X100.536 Y134.074 E5.17048
G1 X100.271 Y133.959 E5.18326
G1 X99.809 Y133.752 E5.20566
G1 X99.176 Y133.444 E5.2368
G1 X98.975 Y133.338 E5.24685
G1 X98.286 Y132.942 E5.282
G1 X97.962 Y132.74 E5.29889
G1 X97.668 Y132.55 E5.31438
G1 X97.158 Y132.209 E5.34151
G1 X96.441 Y131.687 E5.38075
G1 X96.364 Y131.626 E5.38509
G1 X95.904 Y131.241 E5.41163
G1 X95.451 Y130.84 E5.43839
G1 X95.17 Y130.582 E5.45527
G1 X94.836 Y130.265 E5.47563
G1 X94.162 Y129.567 E5.51856
G1 X94.079 Y129.473 E5.5241
G1 X93.769 Y129.106 E5.54536
G1 X93.449 Y128.71 E5.56788
G1 X93.251 Y128.457 E5.58209
G1 X92.971 Y128.089 E5.60254
G1 X92.606 Y127.579 E5.63029
G1 X92.492 Y127.41 E5.6393
G1 X92.036 Y126.673 E5.67764
G1 X91.807 Y126.268 E5.69822
G1 X91.651 Y125.983 E5.7126
G1 X91.408 Y125.522 E5.73565
G1 X90.998 Y124.654 E5.77811
G1 X90.898 Y124.416 E5.78953
G1 X90.68 Y123.855 E5.81616
G1 X90.555 Y123.505 E5.8326
G1 X90.461 Y123.231 E5.84541
G1 X90.303 Y122.749 E5.86785
G1 X90.12 Y122.129 E5.89645
G1 X90.077 Y121.966 E5.9039
G1 X89.893 Y121.142 E5.94125
G1 X89.795 Y120.607 E5.96531
G1 X89.741 Y120.284 E5.9798
G1 X89.669 Y119.812 E6.00092
G1 X89.568 Y118.897 E6.04164
G1 X89.552 Y118.661 E6.0521
G1 X89.528 Y118.062 E6.07862
G1 X89.523 Y117.684 E6.09535
G1 X89.523 Y117.408 E6.10755
G1 X89.529 Y116.906 E6.12976
G1 X89.568 Y116.098 E6.16555
G1 X89.589 Y115.853 E6.17642
G1 X89.676 Y115.128 E6.20873
G1 X89.736 Y114.736 E6.22627
G1 X89.783 Y114.45 E6.23909
G1 X89.872 Y113.956 E6.26129
G1 X90.024 Y113.249 E6.29328
G1 X90.081 Y113.02 E6.30372
G1 X90.23 Y112.48 E6.3285
G1 X90.367 Y112.04 E6.34889
G1 X90.439 Y111.824 E6.35896
G1 X90.533 Y111.557 E6.37148
G1 X90.717 Y111.049 E6.39538
G1 X90.97 Y110.411 E6.42574
G1 X91.063 Y110.197 E6.43606
G1 X91.413 Y109.468 E6.47184
G1 X91.623 Y109.068 E6.49182
G1 X91.791 Y108.759 E6.50738
G1 X92.051 Y108.3 E6.53071
G1 X92.554 Y107.496 E6.57267
G1 X92.692 Y107.295 E6.58345
G1 X93.018 Y106.845 E6.60803
G1 X93.241 Y106.553 E6.62429
G1 X93.414 Y106.331 E6.63674
G1 X93.736 Y105.931 E6.65945
G1 X94.277 Y105.309 E6.69592
G1 X94.425 Y105.151 E6.70549
G1 X94.822 Y104.749 E6.73049
G1 X95.094 Y104.487 E6.74719
G1 X95.425 Y104.181 E6.76713
G0 F7500 X95.69 Y104.48
G1 F1500 X96.089 Y104.126 E6.79073
G1 X96.607 Y103.695 E6.82054
G1 X96.802 Y103.543 E6.83148
G1 X97.258 Y103.207 E6.85653
G1 X97.564 Y102.997 E6.87295
G1 X97.801 Y102.84 E6.88552
G1 X98.016 Y102.701 E6.89685
G1 X98.476 Y102.412 E6.92088
G1 X99.115 Y102.041 E6.95357
G1 X99.287 Y101.949 E6.9622
G1 X99.967 Y101.616 E6.99569
G1 X100.433 Y101.408 E7.01826
G1 X100.708 Y101.29 E7.0315
G1 X101.19 Y101.091 E7.05457
G1 X102.106 Y100.761 E7.09764
G1 X102.284 Y100.706 E7.10588
G1 X102.764 Y100.57 E7.12795
G1 X103.163 Y100.467 E7.14618
G1 X103.416 Y100.405 E7.1577
G1 X103.89 Y100.295 E7.17922
G1 X104.591 Y100.157 E7.21083
G1 X104.807 Y100.122 E7.22051
G1 X105.534 Y100.03 E7.25293
G1 X106.003 Y99.987 E7.27376
G1 X106.32 Y99.963 E7.28782
G1 X106.856 Y99.93 E7.31158
G1 X107.181 Y99.915 E7.32597
G1 X107.642 Y99.903 E7.34637
G1 X107.938 Y99.9 E7.35946
G1 X126.975 Y99.902 E8.20158
G1 X127.683 Y99.912 E8.23291
G1 X127.996 Y99.921 E8.24676
G1 X128.39 Y99.94 E8.26421
G1 X128.52 Y99.948 E8.26997
G1 X128.844 Y99.973 E8.28434
G1 X129.526 Y100.036 E8.31464
G1 X130.409 Y100.155 E8.35405
G1 X130.6 Y100.189 E8.36264
G1 X131.163 Y100.305 E8.38806
G1 X131.568 Y100.4 E8.40647
G1 X131.828 Y100.465 E8.41832
G1 X132.333 Y100.597 E8.44141
G1 X133.232 Y100.875 E8.48304
G1 X133.48 Y100.964 E8.49469
G1 X133.979 Y101.157 E8.51836
G1 X134.31 Y101.295 E8.53422
G1 X134.562 Y101.404 E8.54637
G1 X135.011 Y101.605 E8.56813
G1 X135.63 Y101.907 E8.5986
G1 X135.844 Y102.02 E8.6093
G1 X136.309 Y102.28 E8.63287
G1 X136.597 Y102.455 E8.64778
G1 X136.852 Y102.615 E8.66109
G1 X137.11 Y102.782 E8.67469
G1 X137.62 Y103.123 E8.70183
G1 X138.296 Y103.615 E8.73881
G1 X138.372 Y103.675 E8.7431
G1 X138.831 Y104.059 E8.76957
G1 X139.285 Y104.461 E8.79639
G1 X139.517 Y104.672 E8.81027
G1 X139.799 Y104.937 E8.82738
G1 X140.323 Y105.466 E8.86032
G1 X140.458 Y105.612 E8.86912
G1 X140.909 Y106.133 E8.8996
G1 X141.23 Y106.529 E8.92215
G1 X141.452 Y106.813 E8.9381
G1 X141.777 Y107.243 E8.96194
G1 X142.298 Y107.997 E9.00248
G1 X142.379 Y108.126 E9.00922
G1 X142.635 Y108.556 E9.03136
G1 X142.851 Y108.939 E9.05081
G1 X142.997 Y109.207 E9.06431
G1 X143.235 Y109.659 E9.08691
G1 X143.611 Y110.451 E9.12569
G1 X143.716 Y110.698 E9.13756
G1 X143.943 Y111.28 E9.1652
G1 X144.068 Y111.63 E9.18164
G1 X144.155 Y111.881 E9.19339
G1 X144.313 Y112.361 E9.21574
G1 X144.483 Y112.931 E9.24205
G1 X144.524 Y113.084 E9.24906
G1 X144.712 Y113.922 E9.28705
G1 X144.812 Y114.469 E9.31165
G1 X144.864 Y114.777 E9.32547
G1 X144.936 Y115.249 E9.34659
G1 X145.033 Y116.13 E9.38579
G1 X145.049 Y116.366 E9.39626
G1 X145.072 Y116.943 E9.4218
G1 X145.077 Y117.321 E9.43853
G1 X145.077 Y117.588 E9.45034
G1 X145.071 Y118.09 E9.47254
G1 X145.035 Y118.851 E9.50625
G1 X145.015 Y119.089 E9.51681
G1 X144.93 Y119.803 E9.54862
G1 X144.869 Y120.202 E9.56647
G1 X144.823 Y120.479 E9.5789
G1 X144.734 Y120.973 E9.6011
G1 X144.594 Y121.63 E9.63081
G1 X144.542 Y121.841 E9.64043
G1 X144.391 Y122.389 E9.66557
G1 X144.263 Y122.801 E9.68466
G1 X144.19 Y123.022 E9.69495
G1 X144.089 Y123.314 E9.70862
G1 X143.881 Y123.887 E9.73559
G1 X143.52 Y124.758 E9.77729
G1 X143.434 Y124.942 E9.78628
G1 X143.207 Y125.399 E9.80885
G1 X143.015 Y125.763 E9.82706
G1 X142.863 Y126.04 E9.84103
G1 X142.602 Y126.501 E9.86447
G1 X142.103 Y127.299 E9.9061
G1 X141.965 Y127.499 E9.91685
G1 X141.664 Y127.913 E9.93949
G1 X141.441 Y128.205 E9.95574
G1 X141.276 Y128.415 E9.96756
G1 X140.955 Y128.814 E9.99021
G1 X140.406 Y129.444 E10.02718
G1 X140.256 Y129.603 E10.03685
G1 X140.007 Y129.858 E10.05261
G1 X139.712 Y130.147 E10.07088
G1 X139.551 Y130.299 E10.08068
G1 X139.31 Y130.519 E10.09511
G1 X138.91 Y130.874 E10.11877
G1 X138.4 Y131.299 E10.14814
G1 X138.208 Y131.449 E10.15891
G1 X137.761 Y131.78 E10.18352
G1 X137.462 Y131.986 E10.19958
G1 X137.225 Y132.144 E10.21218
G1 X136.97 Y132.308 E10.22559
G1 X136.51 Y132.596 E10.2496
G1 X135.907 Y132.947 E10.28046
G1 X135.736 Y133.039 E10.28905
G1 X135.027 Y133.387 E10.32399
G1 X134.56 Y133.595 E10.34661
G1 X134.292 Y133.71 E10.35951
G1 X133.81 Y133.909 E10.38257
G1 X132.894 Y134.239 E10.42564
G1 X132.716 Y134.294 E10.43388
G1 X132.236 Y134.43 E10.45595
G1 X131.837 Y134.533 E10.47418
G1 X131.584 Y134.595 E10.48571
G1 X131.11 Y134.705 E10.50723
G1 X130.409 Y134.843 E10.53883
G1 X130.193 Y134.878 E10.54851
G1 X129.793 Y134.935 E10.56639
G1 X129.381 Y134.979 E10.58472
G1 X128.961 Y135.016 E10.60337
G1 X128.687 Y135.037 E10.61552
G1 X128.155 Y135.07 E10.6391
G1 X127.823 Y135.085 E10.6538
G1 X127.376 Y135.096 E10.67358
G1 X126.97 Y135.1 E10.69154
G1 X108.025 Y135.098 E11.52959
G1 X107.318 Y135.088 E11.56087
G1 X107.008 Y135.079 E11.57459
G1 X106.61 Y135.06 E11.59222
G1 X106.48 Y135.052 E11.59798
G1 X106.156 Y135.027 E11.61235
G1 X105.474 Y134.964 E11.64265
G1 X104.591 Y134.845 E11.68206
G1 X104.4 Y134.811 E11.69065
G1 X103.837 Y134.695 E11.71607
G1 X103.432 Y134.6 E11.73448
G1 X103.172 Y134.535 E11.74633
G1 X102.667 Y134.403 E11.76942
G1 X101.768 Y134.125 E11.81105
G1 X101.52 Y134.036 E11.8227
G1 X101.021 Y133.843 E11.84637
G1 X100.69 Y133.705 E11.86223
G1 X100.435 Y133.594 E11.87454
G1 X99.973 Y133.387 E11.89693
G1 X99.362 Y133.09 E11.92698
G1 X99.161 Y132.984 E11.93704
G1 X98.498 Y132.603 E11.97086
G1 X98.174 Y132.401 E11.98775
G1 X97.89 Y132.218 E12.0027
G1 X97.38 Y131.877 E12.02984
G1 X96.69 Y131.374 E12.06761
G1 X96.613 Y131.313 E12.07195
G1 X96.169 Y130.941 E12.09758
G1 X95.716 Y130.54 E12.12434
G1 X95.445 Y130.291 E12.14062
G1 X95.111 Y129.974 E12.16099
G1 X94.462 Y129.302 E12.20232
G1 X94.379 Y129.208 E12.20786
G1 X94.08 Y128.854 E12.22836
G1 X93.76 Y128.458 E12.25088
G1 X93.569 Y128.215 E12.26455
G1 X93.289 Y127.847 E12.28501
G1 X92.937 Y127.356 E12.31173
G1 X92.823 Y127.187 E12.32075
G1 X92.384 Y126.476 E12.35772
G1 X92.155 Y126.071 E12.3783
G1 X92.005 Y125.797 E12.39212
G1 X91.762 Y125.336 E12.41517
G1 X91.367 Y124.499 E12.45611
G1 X91.267 Y124.261 E12.46753
G1 X91.057 Y123.72 E12.4932
G1 X90.932 Y123.37 E12.50964
G1 X90.841 Y123.107 E12.52195
G1 X90.683 Y122.625 E12.54439
G1 X90.507 Y122.027 E12.57196
G1 X90.464 Y121.864 E12.57942
G1 X90.286 Y121.07 E12.61542
G1 X90.188 Y120.535 E12.63948
G1 X90.136 Y120.223 E12.65347
G1 X90.064 Y119.751 E12.67459
G1 X89.967 Y118.87 E12.7138
G1 X89.951 Y118.634 E12.72426
G1 X89.928 Y118.057 E12.74981
G1 X89.923 Y117.679 E12.76653
G1 X89.923 Y117.412 E12.77834
G1 X89.929 Y116.91 E12.80055
G1 X89.967 Y116.132 E12.835
G1 X89.988 Y115.887 E12.84588
G1 X90.071 Y115.188 E12.87702
G1 X90.131 Y114.796 E12.89456
G1 X90.177 Y114.521 E12.9069
G1 X90.266 Y114.027 E12.9291
G1 X90.412 Y113.346 E12.95991
G1 X90.469 Y113.117 E12.97035
G1 X90.613 Y112.596 E12.99426
G1 X90.747 Y112.167 E13.01414
G1 X90.819 Y111.951 E13.02421
G1 X90.909 Y111.693 E13.0363
G1 X91.093 Y111.185 E13.0602
G1 X91.337 Y110.57 E13.08947
G1 X91.43 Y110.356 E13.09979
G1 X91.767 Y109.654 E13.13424
G1 X91.977 Y109.254 E13.15422
G1 X92.139 Y108.957 E13.16919
G1 X92.399 Y108.498 E13.19252
G1 X92.883 Y107.722 E13.23298
G1 X93.021 Y107.521 E13.24377
G1 X93.336 Y107.087 E13.26749
G1 X93.559 Y106.795 E13.28374
G1 X93.726 Y106.582 E13.29571
G1 X94.048 Y106.182 E13.31843
G1 X94.569 Y105.582 E13.35358
G1 X94.717 Y105.424 E13.36316
G1 X95.099 Y105.037 E13.38721
G1 X95.371 Y104.775 E13.40392
G1 X95.69 Y104.48 E13.42314
G0 F7500 X95.956 Y104.779
G1 F1500 X96.355 Y104.425 E13.44673
G1 X96.853 Y104.01 E13.47541
G1 X97.048 Y103.858 E13.48635
G1 X97.487 Y103.535 E13.51046
G1 X97.785 Y103.331 E13.52643
G1 X98.229 Y103.04 E13.54991
G1 X98.689 Y102.751 E13.57395
G1 X99.304 Y102.394 E13.6054
G1 X99.476 Y102.302 E13.61403
G1 X100.13 Y101.982 E13.64624
G1 X100.596 Y101.774 E13.66881
G1 X100.86 Y101.66 E13.68153
G1 X101.342 Y101.461 E13.7046
G1 X102.224 Y101.144 E13.74606
G1 X102.402 Y101.089 E13.7543
G1 X102.863 Y100.958 E13.7755
G1 X103.262 Y100.855 E13.79373
G1 X103.506 Y100.795 E13.80485
G1 X103.98 Y100.685 E13.82637
G1 X104.655 Y100.552 E13.8568
G1 X104.871 Y100.517 E13.86648
G1 X105.571 Y100.429 E13.89769
