;FLAVOR:Marlin
;TIME:3213
;Filament used: 2.9039m
;Layer height: 0.2
;MINX:91.333
;MINY:94.825
;MINZ:0.2
;MAXX:143.663
;MAXY:147.175
;MAXZ:17.2
;Generated with Cura_SteamEngine 4.3.0
M140 S50
M105
M190 S50
M104 S205
M105
M109 S205
M82 ;absolute extrusion mode
; Ender 3 Custom Start G-code
M201 X500.00 Y500.00 Z100.00 E5000.00 ;Setup machine max acceleration
M203 X500.00 Y500.00 Z10.00 E50.00 ;Setup machine max feedrate
M204 P500.00 R1000.00 T500.00 ;Setup Print/Retract/Travel acceleration
M205 X8.00 Y8.00 Z0.40 E5.00 ;Setup Jerk
M220 S100 ;Reset Feedrate
M221 S100 ;Reset Flowrate
M117 Clean ; Indicate nozzle clean in progress on LCD
M107 ; Turn layer fan off
G21 ; Set to metric [change to G20 if you want Imperial]
G28 ; Home all axes
G90                          ; Force coordinates to be absolute relative to the origin
M92 E95 ;
G90                          ; Force coordinates to be absolute relative to the origin
G28                          ; Home X/Y/Z axis
G92 E0 ; Reset Extruder
G1 Z2.0 F3000 ;Move Z Axis up
G1 X10.1 Y20 Z0.28 F5000.0 ;Move to start position
G1 X10.1 Y200.0 Z0.28 F1500.0 E15 ;Draw the first line
G1 X10.4 Y200.0 Z0.28 F5000.0 ;Move to side a little
G1 X10.4 Y20 Z0.28 F1500.0 E30 ;Draw the second line
G92 E0 ; Reset Extruder
G1 Z2.0 F3000 ; Move Z Axis up little to prevent scratching of Heat Bed
M117 Printing ; Indicate printing on LCD
G92 E0
G92 E0
G1 F1500 E-6
;LAYER_COUNT:86
;LAYER:0
M107
M204 S500
M205 X20 Y20
G0 F7500 X98.614 Y102.868 Z0.2
;TYPE:SKIRT
G1 F1500 E0
G1 X98.778 Y102.708 E0.00914
G1 X98.835 Y102.653 E0.01231
G1 X99.752 Y101.771 E0.06309
G1 X99.87 Y101.659 E0.06958
G1 X100.327 Y101.232 E0.09454
G1 X101.194 Y100.501 E0.13981
G1 X101.386 Y100.355 E0.14943
G1 X101.706 Y100.12 E0.16528
G1 X101.961 Y99.94 E0.17774
G1 X102.054 Y99.875 E0.18226
G1 X103.044 Y99.191 E0.23029
G1 X103.178 Y99.1 E0.23676
G1 X103.738 Y98.725 E0.26366
G1 X104.75 Y98.122 E0.31067
G1 X104.955 Y98.014 E0.31992
G1 X105.286 Y97.847 E0.33472
G1 X105.523 Y97.732 E0.34523
G1 X105.609 Y97.69 E0.34905
G1 X106.738 Y97.154 E0.39893
G1 X106.864 Y97.095 E0.40449
G1 X107.482 Y96.811 E0.43163
G1 X108.713 Y96.331 E0.48437
G1 X108.914 Y96.266 E0.4928
G1 X109.152 Y96.192 E0.50275
G1 X109.443 Y96.105 E0.51487
G1 X109.528 Y96.08 E0.5184
G1 X110.675 Y95.747 E0.56607
G1 X110.827 Y95.704 E0.57238
G1 X111.503 Y95.518 E0.60036
G1 X112.725 Y95.254 E0.65026
G1 X112.94 Y95.22 E0.65895
G1 X113.216 Y95.18 E0.67008
G1 X113.51 Y95.141 E0.68192
G1 X113.626 Y95.126 E0.68658
G1 X114.855 Y94.976 E0.736
G1 X115.026 Y94.957 E0.74287
G1 X115.674 Y94.888 E0.76888
G1 X116.86 Y94.825 E0.81628
G1 X117.115 Y94.825 E0.82646
G1 X117.534 Y94.833 E0.84318
G1 X119.029 Y94.889 E0.90289
G1 X119.198 Y94.896 E0.90964
G1 X119.845 Y94.93 E0.9355
G1 X120.991 Y95.05 E0.98149
G1 X121.208 Y95.084 E0.99026
G1 X121.602 Y95.153 E1.00622
G1 X121.881 Y95.207 E1.01757
G1 X121.985 Y95.228 E1.0218
G1 X123.16 Y95.467 E1.06966
G1 X123.324 Y95.501 E1.07634
G1 X124.041 Y95.658 E1.10564
G1 X125.401 Y96.047 E1.16209
G1 X125.873 Y96.215 E1.18209
G1 X126.086 Y96.294 E1.19116
G1 X127.218 Y96.723 E1.23947
G1 X127.364 Y96.779 E1.24572
G1 X128.012 Y97.035 E1.27352
G1 X129.061 Y97.513 E1.31953
G1 X129.24 Y97.606 E1.32758
G1 X129.573 Y97.787 E1.34271
G1 X129.889 Y97.965 E1.35719
G1 X129.991 Y98.023 E1.36187
G1 X130.994 Y98.602 E1.40809
G1 X131.115 Y98.673 E1.41369
G1 X131.711 Y99.027 E1.44136
G1 X132.503 Y99.544 E1.47911
G1 X132.902 Y99.842 E1.49899
G1 X133.305 Y100.158 E1.51943
G1 X133.475 Y100.294 E1.52811
G1 X134.366 Y101.021 E1.57401
G1 X134.478 Y101.114 E1.57982
G1 X135.058 Y101.6 E1.61002
G1 X135.757 Y102.238 E1.6478
G1 X136.115 Y102.61 E1.6684
G1 X136.452 Y102.977 E1.68829
G1 X136.583 Y103.123 E1.69612
G1 X137.387 Y104.03 E1.74449
G1 X137.481 Y104.137 E1.75018
G1 X137.932 Y104.659 E1.77771
G1 X138.708 Y105.668 E1.82851
G1 X138.852 Y105.879 E1.83871
G1 X139.051 Y106.181 E1.85315
G1 X139.848 Y107.434 E1.91241
G1 X139.949 Y107.596 E1.92003
G1 X140.295 Y108.161 E1.94648
G1 X140.85 Y109.183 E1.99289
G1 X140.946 Y109.384 E2.00178
G1 X141.097 Y109.712 E2.0162
G1 X141.215 Y109.981 E2.02792
G1 X141.26 Y110.087 E2.03252
G1 X141.744 Y111.222 E2.08176
G1 X141.804 Y111.364 E2.08792
G1 X142.06 Y111.988 E2.11484
G1 X142.382 Y112.878 E2.15261
G1 X142.516 Y113.339 E2.17177
G1 X142.657 Y113.865 E2.19351
G1 X142.711 Y114.076 E2.2022
G1 X142.99 Y115.204 E2.24858
G1 X143.026 Y115.353 E2.2547
G1 X143.186 Y116.04 E2.28285
G1 X143.404 Y117.298 E2.33381
G1 X143.429 Y117.515 E2.34252
G1 X143.455 Y117.766 E2.3526
G1 X143.477 Y118.004 E2.36214
G1 X143.488 Y118.131 E2.36722
G1 X143.589 Y119.378 E2.41716
G1 X143.601 Y119.534 E2.4234
G1 X143.647 Y120.221 E2.45088
G1 X143.663 Y121.407 E2.49822
G1 X143.654 Y121.637 E2.50741
G1 X143.636 Y121.975 E2.52092
G1 X143.613 Y122.306 E2.53416
G1 X143.605 Y122.412 E2.53841
G1 X143.515 Y123.551 E2.58401
G1 X143.501 Y123.711 E2.59042
G1 X143.434 Y124.428 E2.61916
G1 X143.307 Y125.366 E2.65694
G1 X143.211 Y125.841 E2.67628
G1 X143.089 Y126.384 E2.69849
G1 X143.036 Y126.608 E2.70768
G1 X142.766 Y127.704 E2.75273
G1 X142.728 Y127.853 E2.75887
G1 X142.543 Y128.562 E2.78811
G1 X142.164 Y129.742 E2.83758
G1 X142.077 Y129.969 E2.84728
G1 X141.935 Y130.321 E2.86243
G1 X141.361 Y131.679 E2.92127
G1 X141.29 Y131.845 E2.92848
G1 X141.013 Y132.472 E2.95584
G1 X140.594 Y133.321 E2.99363
G1 X140.355 Y133.737 E3.01277
G1 X140.085 Y134.184 E3.03362
G1 X139.971 Y134.369 E3.04229
G1 X139.337 Y135.374 E3.08972
G1 X139.246 Y135.515 E3.09641
G1 X138.86 Y136.107 E3.12462
G1 X138.103 Y137.134 E3.17554
G1 X137.939 Y137.332 E3.1858
G1 X137.717 Y137.593 E3.19948
G1 X136.737 Y138.705 E3.25864
G1 X136.624 Y138.831 E3.26539
G1 X136.187 Y139.312 E3.29133
G1 X135.371 Y140.123 E3.33725
G1 X135.198 Y140.278 E3.34652
G1 X134.898 Y140.537 E3.36234
G1 X134.675 Y140.723 E3.37393
G1 X134.59 Y140.793 E3.37832
G1 X133.653 Y141.559 E3.42663
G1 X133.537 Y141.652 E3.43256
G1 X132.984 Y142.092 E3.46077
G1 X131.935 Y142.833 E3.51203
G1 X131.72 Y142.967 E3.52214
G1 X131.412 Y143.152 E3.53648
G1 X130.13 Y143.895 E3.59562
G1 X129.981 Y143.98 E3.60246
G1 X129.407 Y144.301 E3.62871
G1 X128.388 Y144.805 E3.67409
G1 X128.18 Y144.895 E3.68313
G1 X127.836 Y145.037 E3.69799
G1 X127.577 Y145.139 E3.7091
G1 X127.457 Y145.186 E3.71424
G1 X126.293 Y145.629 E3.76395
G1 X126.127 Y145.69 E3.77101
G1 X125.49 Y145.921 E3.79805
G1 X124.343 Y146.269 E3.84589
G1 X124.115 Y146.325 E3.85526
G1 X123.818 Y146.394 E3.86743
G1 X123.569 Y146.448 E3.8776
G1 X123.44 Y146.475 E3.88286
G1 X122.233 Y146.722 E3.93203
G1 X122.067 Y146.754 E3.93878
G1 X121.379 Y146.884 E3.96673
G1 X120.134 Y147.048 E4.01685
G1 X119.866 Y147.068 E4.02757
G1 X119.503 Y147.089 E4.04208
G1 X118.055 Y147.15 E4.09993
G1 X117.892 Y147.156 E4.10644
G1 X117.201 Y147.175 E4.13403
G1 X116.255 Y147.161 E4.17179
G1 X115.76 Y147.122 E4.19161
G1 X115.219 Y147.067 E4.21331
G1 X115.008 Y147.043 E4.22179
G1 X113.825 Y146.9 E4.26935
G1 X113.666 Y146.88 E4.27574
G1 X113.016 Y146.792 E4.30192
G1 X111.88 Y146.578 E4.34806
G1 X111.616 Y146.514 E4.3589
G1 X111.25 Y146.418 E4.374
G1 X111.031 Y146.357 E4.38308
G1 X110.918 Y146.325 E4.38776
G1 X109.714 Y145.976 E4.4378
G1 X109.581 Y145.937 E4.44333
G1 X108.925 Y145.738 E4.47069
G1 X107.672 Y145.274 E4.52402
G1 X107.458 Y145.18 E4.53335
G1 X107.175 Y145.052 E4.54574
G1 X105.836 Y144.419 E4.60486
G1 X105.706 Y144.356 E4.61062
G1 X105.088 Y144.054 E4.63808
G1 X103.944 Y143.409 E4.69049
G1 X103.742 Y143.279 E4.70008
G1 X103.513 Y143.128 E4.71103
G1 X103.292 Y142.978 E4.72169
G1 X103.232 Y142.937 E4.72459
G1 X102.247 Y142.259 E4.77231
G1 X102.111 Y142.164 E4.77894
G1 X101.524 Y141.747 E4.80767
G1 X100.776 Y141.166 E4.84548
G1 X100.399 Y140.833 E4.86555
G1 X99.979 Y140.444 E4.8884
G1 X99.839 Y140.312 E4.89608
G1 X99.063 Y139.568 E4.93899
G1 X98.945 Y139.453 E4.94556
G1 X98.397 Y138.912 E4.9763
G1 X97.52 Y137.939 E5.02858
G1 X97.384 Y137.769 E5.03727
G1 X97.233 Y137.575 E5.04708
G1 X97.064 Y137.354 E5.05819
G1 X97.014 Y137.289 E5.06146
G1 X96.282 Y136.317 E5.11002
G1 X96.177 Y136.175 E5.11707
G1 X95.785 Y135.637 E5.14364
G1 X95.167 Y134.692 E5.18871
G1 X95.032 Y134.461 E5.19939
G1 X94.834 Y134.108 E5.21554
G1 X94.732 Y133.918 E5.22415
G1 X94.682 Y133.824 E5.2284
G1 X94.098 Y132.711 E5.27856
G1 X94.031 Y132.58 E5.28443
G1 X93.714 Y131.956 E5.31237
G1 X93.216 Y130.825 E5.36169
G1 X93.128 Y130.591 E5.37167
G1 X92.99 Y130.204 E5.38807
G1 X92.523 Y128.809 E5.44678
G1 X92.475 Y128.663 E5.45292
G1 X92.267 Y128.012 E5.48019
G1 X91.953 Y126.8 E5.53016
G1 X91.907 Y126.57 E5.53953
G1 X91.848 Y126.247 E5.55263
G1 X91.801 Y125.97 E5.56385
G1 X91.79 Y125.903 E5.56655
G1 X91.594 Y124.704 E5.61504
G1 X91.569 Y124.548 E5.62135
G1 X91.469 Y123.877 E5.64843
G1 X91.354 Y122.621 E5.69877
G1 X91.345 Y122.366 E5.70895
G1 X91.339 Y122.113 E5.71905
G1 X91.336 Y121.876 E5.72851
G1 X91.335 Y121.752 E5.73346
G1 X91.333 Y120.493 E5.78371
G1 X91.334 Y120.336 E5.78998
G1 X91.342 Y119.692 E5.81568
G1 X91.42 Y118.501 E5.86332
G1 X91.445 Y118.292 E5.87172
G1 X91.491 Y117.956 E5.88526
G1 X91.548 Y117.577 E5.90055
G1 X91.569 Y117.441 E5.90604
G1 X91.748 Y116.343 E5.95045
G1 X91.772 Y116.199 E5.95627
G1 X91.899 Y115.479 E5.98545
G1 X92.223 Y114.136 E6.04059
G1 X92.36 Y113.69 E6.05922
G1 X92.441 Y113.437 E6.06982
G1 X92.84 Y112.24 E6.12018
G1 X92.892 Y112.088 E6.12659
G1 X93.117 Y111.444 E6.15382
G1 X93.562 Y110.356 E6.20073
G1 X93.664 Y110.14 E6.21027
G1 X93.822 Y109.82 E6.22451
G1 X93.931 Y109.607 E6.23406
G1 X93.986 Y109.5 E6.23886
G1 X94.546 Y108.434 E6.28692
G1 X94.623 Y108.29 E6.29344
G1 X94.981 Y107.632 E6.32334
G1 X95.615 Y106.603 E6.37158
G1 X95.753 Y106.404 E6.38124
G1 X95.992 Y106.072 E6.39757
G1 X96.872 Y104.897 E6.45616
G1 X96.982 Y104.753 E6.46339
G1 X97.401 Y104.212 E6.4907
G1 X98.207 Y103.282 E6.53982
G1 X98.386 Y103.097 E6.5501
G1 X98.614 Y102.868 E6.56299
G0 F7500 X98.949 Y103.212
G1 F1500 X99.113 Y103.052 E6.57214
G1 X99.168 Y102.999 E6.57519
G1 X100.085 Y102.117 E6.62597
G1 X100.197 Y102.01 E6.63215
G1 X100.654 Y101.583 E6.65711
G1 X101.484 Y100.883 E6.70045
G1 X101.676 Y100.737 E6.71008
G1 X101.983 Y100.512 E6.72527
G1 X102.238 Y100.332 E6.73772
G1 X102.326 Y100.27 E6.74202
G1 X103.316 Y99.586 E6.79005
G1 X103.445 Y99.499 E6.79626
G1 X104.005 Y99.124 E6.82316
G1 X104.973 Y98.547 E6.86814
G1 X105.178 Y98.439 E6.87738
G1 X105.495 Y98.278 E6.89157
G1 X105.732 Y98.163 E6.90209
G1 X105.814 Y98.124 E6.90571
G1 X106.943 Y97.588 E6.95559
G1 X107.065 Y97.531 E6.96097
G1 X107.683 Y97.247 E6.98811
G1 X108.861 Y96.788 E7.03857
G1 X109.062 Y96.723 E7.047
G1 X109.289 Y96.652 E7.0565
G1 X109.58 Y96.565 E7.06862
G1 X109.662 Y96.541 E7.07203
G1 X110.809 Y96.208 E7.1197
G1 X110.954 Y96.167 E7.12571
G1 X111.63 Y95.981 E7.1537
G1 X112.8 Y95.729 E7.20146
G1 X113.015 Y95.695 E7.21015
G1 X113.279 Y95.656 E7.2208
G1 X113.573 Y95.617 E7.23264
G1 X113.684 Y95.603 E7.23711
G1 X114.913 Y95.453 E7.28652
G1 X115.077 Y95.434 E7.29311
G1 X115.725 Y95.365 E7.31912
G1 X116.86 Y95.305 E7.36448
G1 X117.115 Y95.305 E7.37466
G1 X117.516 Y95.313 E7.39067
G1 X119.011 Y95.369 E7.45038
G1 X119.173 Y95.376 E7.45685
G1 X119.82 Y95.41 E7.48271
G1 X120.916 Y95.524 E7.52669
G1 X121.133 Y95.558 E7.53546
G1 X121.511 Y95.624 E7.55077
G1 X121.79 Y95.678 E7.56211
G1 X121.89 Y95.698 E7.56618
G1 X123.065 Y95.937 E7.61404
G1 X123.221 Y95.97 E7.62041
G1 X123.938 Y96.127 E7.6497
G1 X125.24 Y96.5 E7.70376
G1 X125.712 Y96.668 E7.72375
G1 X125.916 Y96.743 E7.73243
G1 X127.048 Y97.172 E7.78074
G1 X127.188 Y97.226 E7.78673
G1 X127.836 Y97.482 E7.81454
G1 X128.839 Y97.939 E7.85853
G1 X129.018 Y98.032 E7.86658
G1 X129.337 Y98.205 E7.88107
G1 X129.653 Y98.383 E7.89554
G1 X129.751 Y98.439 E7.90005
G1 X130.754 Y99.018 E7.94627
G1 X130.869 Y99.085 E7.95158
G1 X131.465 Y99.439 E7.97925
G1 X132.606 Y100.22 E8.03444
G1 X133.009 Y100.536 E8.05488
G1 X133.171 Y100.666 E8.06317
G1 X134.062 Y101.393 E8.10906
G1 X134.17 Y101.482 E8.11465
G1 X134.75 Y101.968 E8.14485
G1 X135.433 Y102.593 E8.1818
G1 X135.761 Y102.934 E8.20069
G1 X136.098 Y103.301 E8.22057
G1 X136.224 Y103.441 E8.22809
G1 X137.028 Y104.348 E8.27647
G1 X137.118 Y104.451 E8.28192
G1 X137.569 Y104.973 E8.30946
G1 X138.311 Y105.938 E8.35804
G1 X138.455 Y106.149 E8.36824
G1 X138.646 Y106.439 E8.3821
G1 X139.443 Y107.692 E8.44137
G1 X139.54 Y107.847 E8.44867
G1 X139.886 Y108.412 E8.47511
G1 X140.417 Y109.39 E8.51952
G1 X140.513 Y109.591 E8.52841
G1 X140.657 Y109.905 E8.5422
G1 X140.775 Y110.174 E8.55393
G1 X140.819 Y110.275 E8.55832
G1 X141.303 Y111.41 E8.60757
G1 X141.36 Y111.546 E8.61346
G1 X141.616 Y112.17 E8.64038
G1 X142.052 Y113.463 E8.69484
G1 X142.193 Y113.989 E8.71657
G1 X142.245 Y114.191 E8.7249
G1 X142.524 Y115.319 E8.77127
G1 X142.559 Y115.461 E8.77711
G1 X142.719 Y116.148 E8.80527
G1 X142.928 Y117.353 E8.85408
G1 X142.953 Y117.57 E8.8628
G1 X142.977 Y117.81 E8.87242
G1 X142.999 Y118.048 E8.88196
G1 X143.01 Y118.17 E8.88685
G1 X143.111 Y119.417 E8.93678
G1 X143.122 Y119.566 E8.94275
G1 X143.168 Y120.253 E8.97023
G1 X143.184 Y121.388 E9.01553
G1 X143.175 Y121.618 E9.02472
G1 X143.157 Y121.942 E9.03767
G1 X143.134 Y122.273 E9.05091
G1 X143.127 Y122.374 E9.05496
G1 X143.037 Y123.513 E9.10056
G1 X143.024 Y123.666 E9.10669
G1 X142.957 Y124.383 E9.13543
G1 X142.742 Y125.736 E9.19011
G1 X142.62 Y126.279 E9.21232
G1 X142.57 Y126.493 E9.22109
G1 X142.3 Y127.589 E9.26614
G1 X142.264 Y127.732 E9.27203
G1 X142.079 Y128.441 E9.30127
G1 X141.716 Y129.57 E9.3486
G1 X141.629 Y129.797 E9.35831
G1 X141.493 Y130.135 E9.37285
G1 X140.919 Y131.493 E9.43169
G1 X140.851 Y131.651 E9.43856
G1 X140.574 Y132.278 E9.46592
G1 X139.944 Y133.489 E9.5204
G1 X139.674 Y133.936 E9.54124
G1 X139.565 Y134.113 E9.54954
G1 X138.931 Y135.118 E9.59696
G1 X138.844 Y135.253 E9.60337
G1 X138.458 Y135.845 E9.63158
G1 X137.734 Y136.828 E9.68031
G1 X137.57 Y137.026 E9.69057
G1 X137.356 Y137.276 E9.7037
G1 X136.376 Y138.388 E9.76286
G1 X136.268 Y138.509 E9.76934
G1 X135.831 Y138.99 E9.79527
G1 X135.05 Y139.765 E9.83919
G1 X134.877 Y139.92 E9.84846
G1 X134.59 Y140.168 E9.8636
G1 X134.367 Y140.354 E9.87519
G1 X134.286 Y140.422 E9.87941
G1 X133.349 Y141.188 E9.92771
G1 X133.239 Y141.277 E9.93336
G1 X132.686 Y141.717 E9.96156
G1 X131.681 Y142.426 E10.01065
G1 X131.466 Y142.56 E10.02076
G1 X131.171 Y142.737 E10.0345
G1 X129.889 Y143.48 E10.09364
G1 X129.746 Y143.561 E10.10019
G1 X129.172 Y143.882 E10.12644
G1 X128.197 Y144.364 E10.16985
G1 X127.989 Y144.454 E10.1789
G1 X127.66 Y144.59 E10.19311
G1 X127.401 Y144.692 E10.20422
G1 X127.286 Y144.737 E10.20915
G1 X126.122 Y145.18 E10.25886
G1 X125.964 Y145.239 E10.26559
G1 X125.327 Y145.47 E10.29263
G1 X124.229 Y145.803 E10.33843
G1 X124.001 Y145.859 E10.3478
G1 X123.716 Y145.924 E10.35946
G1 X123.467 Y145.978 E10.36963
G1 X123.344 Y146.004 E10.37465
G1 X122.137 Y146.251 E10.42382
G1 X121.978 Y146.283 E10.4303
G1 X121.29 Y146.413 E10.45824
G1 X120.098 Y146.569 E10.50622
G1 X119.83 Y146.589 E10.51695
G1 X119.483 Y146.61 E10.53082
G1 X118.035 Y146.671 E10.58867
G1 X117.879 Y146.676 E10.5949
G1 X117.188 Y146.695 E10.62249
G1 X115.809 Y146.644 E10.67756
G1 X115.268 Y146.589 E10.69927
G1 X115.066 Y146.567 E10.70738
G1 X113.883 Y146.424 E10.75494
G1 X113.731 Y146.404 E10.76106
G1 X113.081 Y146.316 E10.78723
G1 X111.993 Y146.111 E10.83142
G1 X111.729 Y146.047 E10.84227
G1 X111.379 Y145.956 E10.8567
G1 X111.16 Y145.895 E10.86577
G1 X111.051 Y145.864 E10.8703
G1 X109.847 Y145.515 E10.92033
G1 X109.72 Y145.477 E10.92562
G1 X109.064 Y145.278 E10.95298
G1 X107.865 Y144.835 E11.004
G1 X107.651 Y144.741 E11.01332
G1 X107.38 Y144.618 E11.0252
G1 X106.041 Y143.985 E11.08432
G1 X105.916 Y143.925 E11.08985
G1 X105.298 Y143.623 E11.1173
G1 X104.204 Y143.006 E11.16743
G1 X104.002 Y142.876 E11.17702
G1 X103.783 Y142.731 E11.1875
G1 X103.562 Y142.581 E11.19816
G1 X103.504 Y142.541 E11.20098
G1 X102.519 Y141.863 E11.2487
G1 X102.389 Y141.772 E11.25504
G1 X101.802 Y141.355 E11.28377
G1 X100.726 Y140.481 E11.3391
G1 X100.306 Y140.092 E11.36195
G1 X100.171 Y139.965 E11.36935
G1 X99.395 Y139.221 E11.41226
G1 X99.283 Y139.112 E11.41849
G1 X98.735 Y138.571 E11.44923
