;FLAVOR:Marlin
;TIME:4193
;Filament used: 2.39765m
;Layer height: 0.2
;MINX:96.27
;MINY:96.3
;MINZ:0.2
;MAXX:138.725
;MAXY:145.7
;MAXZ:21.4
;Generated with Cura_SteamEngine 4.3.0
M140 S50
M105
M190 S50
M104 S205
M105
M109 S205
M82 ;absolute extrusion mode
; Ender 3 Custom Start G-code
M201 X500.00 Y500.00 Z100.00 E5000.00 ;Setup machine max acceleration
M203 X500.00 Y500.00 Z10.00 E50.00 ;Setup machine max feedrate
M204 P500.00 R1000.00 T500.00 ;Setup Print/Retract/Travel acceleration
M205 X8.00 Y8.00 Z0.40 E5.00 ;Setup Jerk
M220 S100 ;Reset Feedrate
M221 S100 ;Reset Flowrate
M117 Clean ; Indicate nozzle clean in progress on LCD
M107 ; Turn layer fan off
G21 ; Set to metric [change to G20 if you want Imperial]
G28 ; Home all axes
G90                          ; Force coordinates to be absolute relative to the origin
M92 E95 ;
G90                          ; Force coordinates to be absolute relative to the origin
G28                          ; Home X/Y/Z axis
G92 E0 ; Reset Extruder
G1 Z2.0 F3000 ;Move Z Axis up
G1 X10.1 Y20 Z0.28 F5000.0 ;Move to start position
G1 X10.1 Y200.0 Z0.28 F1500.0 E15 ;Draw the first line
G1 X10.4 Y200.0 Z0.28 F5000.0 ;Move to side a little
G1 X10.4 Y20 Z0.28 F1500.0 E30 ;Draw the second line
G92 E0 ; Reset Extruder
G1 Z2.0 F3000 ; Move Z Axis up little to prevent scratching of Heat Bed
M117 Printing ; Indicate printing on LCD
G92 E0
G92 E0
G1 F1500 E-6
;LAYER_COUNT:107
;LAYER:0
M107
M204 S500
M205 X20 Y20
G0 F7500 X102.401 Y99.797 Z0.2
;TYPE:SKIRT
G1 F1500 E0
G1 X103.081 Y99.139 E0.03777
G1 X103.814 Y98.541 E0.07552
G1 X104.596 Y98.007 E0.11332
G1 X105.419 Y97.541 E0.15106
G1 X106.279 Y97.146 E0.18884
G1 X107.17 Y96.825 E0.22664
G1 X108.084 Y96.58 E0.2644
G1 X109.015 Y96.414 E0.30215
G1 X110.347 Y96.313 E0.35546
G1 X111.124 Y96.301 E0.38648
G1 X111.297 Y96.3 E0.39338
G1 X123.775 Y96.3 E0.89141
G1 X123.935 Y96.301 E0.89779
G1 X124.633 Y96.311 E0.92566
G1 X125.578 Y96.365 E0.96343
G1 X126.515 Y96.498 E1.00121
G1 X127.438 Y96.709 E1.039
G1 X128.339 Y96.998 E1.07676
G1 X129.212 Y97.362 E1.11451
G1 X130.052 Y97.799 E1.1523
G1 X130.852 Y98.304 E1.19006
G1 X131.607 Y98.876 E1.22787
G1 X132.31 Y99.509 E1.26562
G1 X133.071 Y100.333 E1.31039
G1 X133.273 Y100.575 E1.32297
G1 X133.574 Y100.951 E1.3422
G1 X133.856 Y101.32 E1.36073
G1 X134.182 Y101.769 E1.38288
G1 X134.507 Y102.241 E1.40575
G1 X134.833 Y102.743 E1.42964
G1 X134.98 Y102.983 E1.44087
G1 X135.255 Y103.459 E1.46281
G1 X135.424 Y103.768 E1.47687
G1 X135.492 Y103.893 E1.48255
G1 X135.962 Y104.779 E1.52258
G1 X136.045 Y104.939 E1.52977
G1 X136.348 Y105.533 E1.55639
G1 X136.861 Y106.698 E1.60719
G1 X137.173 Y107.532 E1.64273
G1 X137.287 Y107.853 E1.65633
G1 X137.532 Y108.574 E1.68672
G1 X137.689 Y109.072 E1.70756
G1 X137.762 Y109.325 E1.71807
G1 X137.877 Y109.756 E1.73588
G1 X137.951 Y110.057 E1.74825
G1 X138.037 Y110.436 E1.76376
G1 X138.131 Y110.885 E1.78207
G1 X138.19 Y111.186 E1.79431
G1 X138.228 Y111.396 E1.80283
G1 X138.251 Y111.528 E1.80818
G1 X138.367 Y112.216 E1.83602
G1 X138.454 Y112.835 E1.86097
G1 X138.5 Y113.247 E1.87752
G1 X138.528 Y113.534 E1.88903
G1 X138.562 Y113.931 E1.90493
G1 X138.588 Y114.308 E1.92001
G1 X138.603 Y114.598 E1.9316
G1 X138.617 Y115.012 E1.94814
G1 X138.629 Y115.828 E1.98071
G1 X138.618 Y116.505 E2.00773
G1 X138.559 Y117.803 E2.05959
G1 X138.503 Y119.168 E2.11412
G1 X138.457 Y121.708 E2.21551
G1 X138.481 Y124.184 E2.31434
G1 X138.578 Y126.713 E2.41535
G1 X138.648 Y127.757 E2.45711
G1 X138.657 Y127.908 E2.46315
G1 X138.705 Y128.803 E2.49892
G1 X138.721 Y129.393 E2.52248
G1 X138.725 Y133.754 E2.69654
G1 X138.724 Y133.918 E2.70308
G1 X138.714 Y134.645 E2.7321
G1 X138.661 Y135.59 E2.76988
G1 X138.528 Y136.527 E2.80765
G1 X138.317 Y137.449 E2.8454
G1 X138.029 Y138.351 E2.88319
G1 X137.666 Y139.225 E2.92096
G1 X137.23 Y140.065 E2.95874
G1 X136.724 Y140.865 E2.99652
G1 X136.153 Y141.62 E3.0343
G1 X135.521 Y142.323 E3.07203
G1 X134.831 Y142.971 E3.10981
G1 X134.089 Y143.559 E3.14759
G1 X133.3 Y144.081 E3.18535
G1 X132.47 Y144.535 E3.22311
G1 X131.604 Y144.918 E3.26091
G1 X130.709 Y145.226 E3.29868
G1 X129.792 Y145.457 E3.33643
G1 X128.858 Y145.61 E3.3742
G1 X127.83 Y145.687 E3.41535
G1 X127.51 Y145.696 E3.42812
G1 X127.195 Y145.7 E3.4407
G1 X108.182 Y145.7 E4.19955
G1 X108.035 Y145.699 E4.20541
G1 X107.35 Y145.69 E4.23276
G1 X106.405 Y145.638 E4.27053
G1 X105.468 Y145.506 E4.3083
G1 X104.545 Y145.295 E4.34609
G1 X103.644 Y145.007 E4.38384
G1 X102.77 Y144.644 E4.42161
G1 X101.929 Y144.209 E4.4594
G1 X101.129 Y143.704 E4.49716
G1 X100.374 Y143.134 E4.53492
G1 X99.67 Y142.502 E4.57268
G1 X99.021 Y141.812 E4.61048
G1 X98.433 Y141.071 E4.64824
G1 X97.91 Y140.282 E4.68602
G1 X97.456 Y139.452 E4.72378
G1 X97.073 Y138.587 E4.76154
G1 X96.764 Y137.692 E4.79933
G1 X96.532 Y136.774 E4.83712
G1 X96.379 Y135.841 E4.87485
G1 X96.3 Y134.741 E4.91887
G1 X96.277 Y133.711 E4.95999
G1 X96.274 Y133.474 E4.96945
G1 X96.27 Y130.108 E5.10379
G1 X96.271 Y129.946 E5.11026
G1 X96.28 Y129.269 E5.13728
G1 X96.306 Y128.639 E5.16245
G1 X96.322 Y128.414 E5.17145
G1 X96.469 Y125.788 E5.27643
G1 X96.538 Y123.276 E5.37672
G1 X96.536 Y120.798 E5.47562
G1 X96.443 Y117.803 E5.59522
G1 X96.383 Y116.518 E5.64656
G1 X96.371 Y115.903 E5.67111
G1 X96.375 Y115.428 E5.69007
G1 X96.383 Y115.111 E5.70273
G1 X96.406 Y114.485 E5.72773
G1 X96.422 Y114.17 E5.74032
G1 X96.437 Y113.939 E5.74956
G1 X96.481 Y113.437 E5.76967
G1 X96.542 Y112.884 E5.79188
G1 X96.627 Y112.266 E5.81677
G1 X96.745 Y111.56 E5.84534
G1 X96.805 Y111.232 E5.85865
G1 X96.861 Y110.949 E5.87016
G1 X96.944 Y110.566 E5.88581
G1 X97.148 Y109.696 E5.92147
G1 X97.429 Y108.703 E5.96266
G1 X97.696 Y107.904 E5.99628
G1 X97.804 Y107.597 E6.00927
G1 X98.071 Y106.869 E6.04022
G1 X98.591 Y105.672 E6.09231
G1 X98.946 Y104.97 E6.12371
G1 X99.026 Y104.814 E6.1307
G1 X99.377 Y104.146 E6.16082
G1 X99.456 Y103.999 E6.16748
G1 X99.718 Y103.518 E6.18934
G1 X100.058 Y102.937 E6.21621
G1 X100.315 Y102.526 E6.23556
G1 X100.56 Y102.15 E6.25347
G1 X100.775 Y101.835 E6.26869
G1 X100.988 Y101.534 E6.28341
G1 X101.16 Y101.299 E6.29503
G1 X101.457 Y100.912 E6.3145
G1 X101.779 Y100.51 E6.33506
G1 X102.401 Y99.797 E6.37282
G0 F7500 X102.763 Y100.113
G1 F1500 X103.43 Y99.471 E6.40977
G1 X104.15 Y98.89 E6.4467
G1 X104.918 Y98.372 E6.48367
G1 X105.727 Y97.923 E6.5206
G1 X106.573 Y97.545 E6.55758
G1 X107.447 Y97.242 E6.5945
G1 X108.345 Y97.015 E6.63147
G1 X109.259 Y96.866 E6.66843
G1 X110.354 Y96.793 E6.71223
G1 X111.131 Y96.781 E6.74325
G1 X111.297 Y96.78 E6.74988
G1 X123.775 Y96.78 E7.2479
G1 X123.929 Y96.781 E7.25405
G1 X124.627 Y96.791 E7.28191
G1 X125.551 Y96.844 E7.31885
G1 X126.467 Y96.977 E7.35579
G1 X127.369 Y97.188 E7.39276
G1 X128.248 Y97.477 E7.42969
G1 X129.1 Y97.84 E7.46666
G1 X129.917 Y98.275 E7.5036
G1 X130.694 Y98.779 E7.54056
G1 X131.424 Y99.349 E7.57753
G1 X132.102 Y99.979 E7.61447
G1 X132.703 Y100.641 E7.65015
G1 X132.905 Y100.883 E7.66274
G1 X133.192 Y101.243 E7.68111
G1 X133.474 Y101.612 E7.69965
G1 X133.786 Y102.041 E7.72082
G1 X134.111 Y102.513 E7.74369
G1 X134.424 Y102.994 E7.7666
G1 X134.571 Y103.234 E7.77783
G1 X134.834 Y103.689 E7.7988
G1 X135.003 Y103.998 E7.81286
G1 X135.068 Y104.118 E7.81831
G1 X135.538 Y105.004 E7.85834
G1 X135.617 Y105.157 E7.86521
G1 X135.92 Y105.751 E7.89182
G1 X136.411 Y106.866 E7.94045
G1 X136.723 Y107.7 E7.97599
G1 X136.833 Y108.007 E7.98901
G1 X137.078 Y108.728 E8.0194
G1 X137.228 Y109.205 E8.03936
G1 X137.301 Y109.458 E8.04986
G1 X137.411 Y109.871 E8.06692
G1 X137.485 Y110.172 E8.07929
G1 X137.568 Y110.534 E8.09412
G1 X137.662 Y110.983 E8.11243
G1 X137.718 Y111.271 E8.12414
G1 X137.756 Y111.481 E8.13265
G1 X137.778 Y111.608 E8.1378
G1 X137.894 Y112.296 E8.16565
G1 X137.977 Y112.888 E8.1895
G1 X138.023 Y113.3 E8.20605
G1 X138.05 Y113.575 E8.21708
G1 X138.084 Y113.972 E8.23298
G1 X138.109 Y114.333 E8.24743
G1 X138.124 Y114.623 E8.25902
G1 X138.137 Y115.019 E8.27483
G1 X138.149 Y115.835 E8.3074
G1 X138.139 Y116.483 E8.33327
G1 X138.077 Y117.837 E8.38736
G1 X138.024 Y119.139 E8.43937
G1 X137.977 Y121.704 E8.54177
G1 X138.001 Y124.208 E8.64171
G1 X138.098 Y126.727 E8.74232
G1 X138.169 Y127.789 E8.7848
G1 X138.178 Y127.934 E8.7906
G1 X138.226 Y128.829 E8.82638
G1 X138.241 Y129.393 E8.84889
G1 X138.245 Y133.754 E9.02295
G1 X138.244 Y133.911 E9.02922
G1 X138.234 Y134.638 E9.05824
G1 X138.181 Y135.563 E9.09522
G1 X138.049 Y136.479 E9.13215
G1 X137.838 Y137.381 E9.16913
G1 X137.55 Y138.261 E9.20608
G1 X137.188 Y139.112 E9.24299
G1 X136.753 Y139.93 E9.27997
G1 X136.249 Y140.707 E9.31693
G1 X135.68 Y141.437 E9.35388
G1 X135.05 Y142.116 E9.39084
G1 X134.364 Y142.738 E9.4278
G1 X133.627 Y143.298 E9.46475
G1 X132.845 Y143.792 E9.50166
G1 X132.022 Y144.217 E9.53863
G1 X131.166 Y144.57 E9.57559
G1 X130.283 Y144.848 E9.61254
G1 X129.379 Y145.048 E9.64949
G1 X128.461 Y145.169 E9.68645
G1 X127.816 Y145.207 E9.71223
G1 X127.496 Y145.216 E9.72501
G1 X127.195 Y145.22 E9.73702
G1 X108.182 Y145.22 E10.49587
G1 X108.041 Y145.219 E10.5015
G1 X107.356 Y145.21 E10.52884
G1 X106.432 Y145.158 E10.56578
G1 X105.515 Y145.026 E10.60276
G1 X104.614 Y144.816 E10.63968
G1 X103.734 Y144.529 E10.67663
G1 X102.881 Y144.166 E10.71363
G1 X102.064 Y143.732 E10.75055
G1 X101.287 Y143.229 E10.78749
G1 X100.556 Y142.66 E10.82447
G1 X99.877 Y142.031 E10.86141
G1 X99.255 Y141.345 E10.89837
G1 X98.694 Y140.609 E10.9353
G1 X98.199 Y139.826 E10.97227
G1 X97.773 Y139.004 E11.00923
G1 X97.42 Y138.148 E11.04618
G1 X97.142 Y137.265 E11.08313
G1 X96.941 Y136.361 E11.12009
G1 X96.819 Y135.443 E11.15705
G1 X96.78 Y134.73 E11.18555
G1 X96.757 Y133.7 E11.22667
G1 X96.754 Y133.474 E11.23569
G1 X96.75 Y130.108 E11.37004
G1 X96.751 Y129.953 E11.37622
G1 X96.76 Y129.276 E11.40325
G1 X96.785 Y128.673 E11.42733
G1 X96.804 Y128.403 E11.43814
G1 X96.948 Y125.829 E11.54103
G1 X97.018 Y123.289 E11.64245
G1 X97.016 Y120.783 E11.74247
G1 X96.923 Y117.783 E11.86226
G1 X96.863 Y116.495 E11.91372
G1 X96.851 Y115.907 E11.9372
G1 X96.855 Y115.432 E11.95616
G1 X96.862 Y115.128 E11.96829
G1 X96.885 Y114.502 E11.99329
G1 X96.901 Y114.201 E12.00532
G1 X96.916 Y113.97 E12.01456
G1 X96.958 Y113.49 E12.0338
G1 X97.019 Y112.937 E12.056
G1 X97.101 Y112.345 E12.07985
G1 X97.219 Y111.639 E12.10842
G1 X97.276 Y111.325 E12.12116
G1 X97.332 Y111.042 E12.13267
G1 X97.411 Y110.676 E12.14762
G1 X97.615 Y109.806 E12.18328
G1 X97.885 Y108.855 E12.22274
G1 X98.152 Y108.056 E12.25636
G1 X98.255 Y107.763 E12.26876
G1 X98.522 Y107.035 E12.29971
G1 X99.02 Y105.888 E12.34962
G1 X99.375 Y105.186 E12.38101
G1 X99.451 Y105.038 E12.38765
G1 X99.802 Y104.37 E12.41777
G1 X99.878 Y104.228 E12.4242
G1 X100.14 Y103.747 E12.44606
G1 X100.465 Y103.191 E12.47176
G1 X100.722 Y102.78 E12.49111
G1 X100.957 Y102.421 E12.50824
G1 X101.172 Y102.106 E12.52346
G1 X101.375 Y101.818 E12.53752
G1 X101.547 Y101.583 E12.54915
G1 X101.831 Y101.212 E12.56779
G1 X102.153 Y100.81 E12.58835
G1 X102.763 Y100.113 E12.62532
G0 F7500 X103.124 Y100.43
G1 F1500 X103.778 Y99.804 E12.66145
G1 X104.485 Y99.239 E12.69757
G1 X105.239 Y98.739 E12.73368
G1 X106.034 Y98.307 E12.76979
G1 X106.864 Y97.947 E12.8059
G1 X107.723 Y97.661 E12.84204
G1 X108.603 Y97.453 E12.87813
G1 X109.499 Y97.323 E12.91426
G1 X110.362 Y97.273 E12.94877
G1 X111.139 Y97.261 E12.97978
G1 X111.297 Y97.26 E12.98609
G1 X123.775 Y97.26 E13.48411
G1 X123.922 Y97.261 E13.48998
G1 X124.62 Y97.271 E13.51784
G1 X125.523 Y97.324 E13.55394
G1 X126.418 Y97.456 E13.59005
G1 X127.298 Y97.667 E13.62617
G1 X128.156 Y97.955 E13.66229
G1 X128.985 Y98.318 E13.69841
G1 X129.779 Y98.752 E13.73453
G1 X130.531 Y99.255 E13.77064
G1 X131.237 Y99.822 E13.80678
G1 X131.889 Y100.449 E13.84288
G1 X132.334 Y100.948 E13.86957
G1 X132.536 Y101.19 E13.88215
G1 X132.811 Y101.534 E13.89972
G1 X133.093 Y101.903 E13.91826
G1 X133.391 Y102.314 E13.93852
G1 X133.716 Y102.786 E13.96139
G1 X134.014 Y103.245 E13.98324
G1 X134.161 Y103.485 E13.99447
G1 X134.413 Y103.919 E14.0145
G1 X134.582 Y104.228 E14.02856
G1 X134.644 Y104.343 E14.03377
G1 X135.114 Y105.229 E14.0738
G1 X135.19 Y105.375 E14.08037
G1 X135.493 Y105.969 E14.10698
G1 X135.962 Y107.034 E14.15343
G1 X136.274 Y107.868 E14.18897
G1 X136.379 Y108.161 E14.20139
G1 X136.624 Y108.882 E14.23178
G1 X136.767 Y109.338 E14.25086
G1 X136.84 Y109.591 E14.26137
G1 X136.945 Y109.985 E14.27764
G1 X137.019 Y110.286 E14.29001
G1 X137.098 Y110.633 E14.30422
G1 X137.192 Y111.082 E14.32253
G1 X137.245 Y111.357 E14.3337
G1 X137.283 Y111.567 E14.34222
G1 X137.304 Y111.688 E14.34712
G1 X137.42 Y112.376 E14.37497
G1 X137.5 Y112.942 E14.39779
G1 X137.546 Y113.354 E14.41433
G1 X137.572 Y113.616 E14.42484
G1 X137.606 Y114.013 E14.44074
G1 X137.629 Y114.358 E14.45454
G1 X137.644 Y114.648 E14.46613
G1 X137.657 Y115.026 E14.48123
G1 X137.669 Y115.842 E14.5138
G1 X137.659 Y116.461 E14.53851
G1 X137.599 Y117.764 E14.59057
G1 X137.6 Y117.764 E14.59061
G1 X137.543 Y119.157 E14.64625
G1 X137.497 Y121.699 E14.74773
G1 X137.521 Y124.196 E14.84739
G1 X137.62 Y126.778 E14.95052
G1 X137.69 Y127.821 E14.99224
G1 X137.698 Y127.96 E14.9978
G1 X137.746 Y128.855 E15.03357
G1 X137.761 Y129.394 E15.0551
G1 X137.765 Y133.755 E15.22915
G1 X137.764 Y133.905 E15.23514
G1 X137.754 Y134.632 E15.26416
G1 X137.702 Y135.535 E15.30026
G1 X137.57 Y136.43 E15.33637
G1 X137.359 Y137.31 E15.37248
G1 X137.072 Y138.169 E15.40863
G1 X136.71 Y138.998 E15.44474
G1 X136.276 Y139.792 E15.48085
G1 X135.774 Y140.545 E15.51697
G1 X135.207 Y141.25 E15.55308
G1 X134.581 Y141.903 E15.58919
G1 X133.899 Y142.498 E15.62531
G1 X133.167 Y143.03 E15.66143
G1 X132.391 Y143.496 E15.69755
G1 X131.577 Y143.891 E15.73366
G1 X130.731 Y144.213 E15.76979
G1 X129.861 Y144.459 E15.80588
G1 X128.971 Y144.627 E15.84203
G1 X127.803 Y144.727 E15.88881
G1 X127.483 Y144.736 E15.90159
G1 X127.195 Y144.74 E15.91309
G1 X108.182 Y144.74 E16.67194
G1 X108.047 Y144.739 E16.67733
G1 X107.362 Y144.73 E16.70467
G1 X106.459 Y144.678 E16.74077
G1 X105.564 Y144.547 E16.77687
G1 X104.684 Y144.337 E16.81298
G1 X103.825 Y144.05 E16.84913
G1 X102.996 Y143.689 E16.88521
G1 X102.201 Y143.255 E16.92137
G1 X101.448 Y142.754 E16.95746
G1 X100.743 Y142.187 E16.99357
G1 X100.089 Y141.561 E17.02971
G1 X99.494 Y140.88 E17.0658
G1 X98.962 Y140.148 E17.10192
G1 X98.495 Y139.373 E17.13803
G1 X98.1 Y138.559 E17.17414
G1 X97.777 Y137.713 E17.21028
G1 X97.531 Y136.843 E17.24637
G1 X97.362 Y135.954 E17.28249
G1 X97.26 Y134.72 E17.33191
G1 X97.237 Y133.69 E17.37303
G1 X97.234 Y133.473 E17.38169
G1 X97.23 Y130.107 E17.51603
G1 X97.231 Y129.959 E17.52194
G1 X97.24 Y129.282 E17.54896
G1 X97.264 Y128.706 E17.57197
G1 X97.281 Y128.461 E17.58177
G1 X97.428 Y125.833 E17.68683
G1 X97.498 Y123.303 E17.78784
G1 X97.496 Y120.767 E17.88906
G1 X97.405 Y117.822 E18.00666
G1 X97.342 Y116.473 E18.06056
G1 X97.331 Y115.911 E18.08299
G1 X97.335 Y115.436 E18.10195
G1 X97.342 Y115.146 E18.11353
G1 X97.365 Y114.52 E18.13853
G1 X97.38 Y114.232 E18.15004
G1 X97.395 Y114.001 E18.15928
G1 X97.435 Y113.542 E18.17767
G1 X97.496 Y112.989 E18.19987
G1 X97.574 Y112.424 E18.22264
G1 X97.692 Y111.718 E18.25121
G1 X97.747 Y111.418 E18.26338
G1 X97.803 Y111.135 E18.2749
G1 X97.878 Y110.785 E18.28918
G1 X98.082 Y109.915 E18.32485
G1 X98.34 Y109.008 E18.36248
G1 X98.607 Y108.209 E18.39611
G1 X98.705 Y107.928 E18.40798
G1 X98.972 Y107.2 E18.43893
G1 X99.448 Y106.105 E18.48659
G1 X99.803 Y105.403 E18.51798
G1 X99.876 Y105.261 E18.52436
G1 X100.227 Y104.593 E18.55448
G1 X100.299 Y104.458 E18.56058
G1 X100.561 Y103.977 E18.58244
G1 X100.872 Y103.446 E18.607
G1 X101.129 Y103.035 E18.62635
G1 X101.353 Y102.691 E18.64273
G1 X101.568 Y102.376 E18.65796
G1 X101.763 Y102.101 E18.67141
G1 X101.935 Y101.866 E18.68303
G1 X102.206 Y101.512 E18.70083
G1 X102.528 Y101.11 E18.72139
G1 X103.124 Y100.43 E18.75748
G1 F1500 E12.75748
;MESH:puerta_2_iman_fuerte_interno.stl
G0 F7500 X127.286 Y134.26
;TYPE:WALL-OUTER
G1 F1500 E18.75748
G1 X107.715 Y134.26 E19.5386
G1 X107.709 Y129.45 E19.73057
G1 X107.762 Y129.251 E19.73879
G1 X107.786 Y129.222 E19.7403
G1 X108.12 Y128.746 E19.7635
G1 X111.14 Y124.393 E19.97496
G1 X110.748 Y123.935 E19.99902
G1 X110.537 Y123.673 E20.01245
