;FLAVOR:Marlin
;TIME:3441
;Filament used: 2.84091m
;Layer height: 0.2
;MINX:97.292
;MINY:94.369
;MINZ:0.2
;MAXX:137.503
;MAXY:147.647
;MAXZ:17.4
;Generated with Cura_SteamEngine 4.2.1
M140 S55
M105
M190 S55
M104 S200
M105
M109 S200
M82 ;absolute extrusion mode
; Ender 3 Custom Start G-code
M201 X500.00 Y500.00 Z100.00 E5000.00 ;Setup machine max acceleration
M203 X500.00 Y500.00 Z10.00 E50.00 ;Setup machine max feedrate
M204 P500.00 R1000.00 T500.00 ;Setup Print/Retract/Travel acceleration
M205 X8.00 Y8.00 Z0.40 E5.00 ;Setup Jerk
M220 S100 ;Reset Feedrate
M221 S100 ;Reset Flowrate
;
M117 Clean ; Indicate nozzle clean in progress on LCD
M107 ; Turn layer fan off
G21 ; Set to metric [change to G20 if you want Imperial]
G28 ; Home all axes
; ***SET NEW E STEP *** (93 is factory value - 95 mine - start)
G90                          ; Force coordinates to be absolute relative to the origin
M92 E95 ;
; ***SET NEW E STEP *** (93 is factory value - 95 mine - end)
G90                          ; Force coordinates to be absolute relative to the origin
G28                          ; Home X/Y/Z axis
;
G92 E0 ; Reset Extruder
G1 Z2.0 F3000 ;Move Z Axis up
G1 X10.1 Y20 Z0.28 F5000.0 ;Move to start position
G1 X10.1 Y200.0 Z0.28 F1500.0 E15 ;Draw the first line
G1 X10.4 Y200.0 Z0.28 F5000.0 ;Move to side a little
G1 X10.4 Y20 Z0.28 F1500.0 E30 ;Draw the second line
G92 E0 ; Reset Extruder
G1 Z2.0 F3000 ; Move Z Axis up little to prevent scratching of Heat Bed
M117 Printing ; Indicate printing on LCD
; End of custom start GCode
M141 S28
G92 E0
G92 E0
G1 F1500 E-7
;LAYER_COUNT:86
;LAYER:0
M107
M204 S500
M205 X20 Y20
G0 F7500 X100.527 Y100.666 Z0.2
;TYPE:SKIRT
G1 F1500 E0
G1 X101.196 Y99.969 E0.03856
G1 X101.921 Y99.329 E0.07716
G1 X102.696 Y98.752 E0.11572
G1 X103.578 Y98.206 E0.15712
G1 X103.982 Y97.98 E0.1756
G1 X104.165 Y97.879 E0.18394
G1 X105.286 Y97.278 E0.23471
G1 X105.427 Y97.204 E0.24106
G1 X106.015 Y96.899 E0.2675
G1 X106.891 Y96.49 E0.30609
G1 X107.357 Y96.306 E0.32608
G1 X107.873 Y96.116 E0.34803
G1 X108.144 Y96.021 E0.35949
G1 X109.301 Y95.627 E0.40827
G1 X109.454 Y95.575 E0.41472
G1 X110.106 Y95.363 E0.44209
G1 X111.037 Y95.103 E0.48067
G1 X111.558 Y94.992 E0.50193
G1 X112.1 Y94.89 E0.52394
G1 X112.326 Y94.85 E0.5331
G1 X113.511 Y94.651 E0.58106
G1 X113.67 Y94.626 E0.58748
G1 X114.34 Y94.523 E0.61454
G1 X115.301 Y94.415 E0.65313
G1 X115.807 Y94.391 E0.67335
G1 X116.337 Y94.377 E0.69451
G1 X116.607 Y94.373 E0.70529
G1 X117.836 Y94.369 E0.75434
G1 X118.006 Y94.37 E0.76113
G1 X118.712 Y94.378 E0.78931
G1 X119.677 Y94.429 E0.82788
G1 X120.212 Y94.492 E0.84938
G1 X120.701 Y94.561 E0.86909
G1 X120.929 Y94.595 E0.87829
G1 X122.181 Y94.797 E0.92891
G1 X122.362 Y94.828 E0.93623
G1 X123.027 Y94.946 E0.96319
G1 X123.97 Y95.154 E1.00173
G1 X124.451 Y95.292 E1.02171
G1 X124.95 Y95.447 E1.04256
G1 X125.198 Y95.527 E1.05296
G1 X126.4 Y95.93 E1.10356
G1 X126.566 Y95.987 E1.11056
G1 X127.1 Y96.175 E1.13316
G1 X128.067 Y96.565 E1.17478
G1 X128.863 Y96.928 E1.20969
G1 X129.212 Y97.094 E1.22512
G1 X129.659 Y97.316 E1.24504
G1 X130.255 Y97.633 E1.27198
G1 X130.77 Y97.927 E1.29565
G1 X131.028 Y98.08 E1.30762
G1 X131.578 Y98.413 E1.33328
G1 X132.384 Y98.947 E1.37187
G1 X133.142 Y99.546 E1.41043
G1 X133.848 Y100.206 E1.449
G1 X134.498 Y100.922 E1.4876
G1 X135.085 Y101.689 E1.52615
G1 X135.608 Y102.502 E1.56473
G1 X136.061 Y103.355 E1.60328
G1 X136.443 Y104.243 E1.64186
G1 X136.749 Y105.16 E1.68045
G1 X136.979 Y106.098 E1.71899
G1 X137.131 Y107.053 E1.75759
G1 X137.203 Y108.017 E1.79617
G1 X137.195 Y108.983 E1.83473
G1 X137.144 Y109.635 E1.86083
G1 X137.078 Y110.262 E1.88599
G1 X136.841 Y112.82 E1.98853
G1 X136.682 Y115.296 E2.08755
G1 X136.592 Y117.815 E2.18816
G1 X136.573 Y120.332 E2.28862
G1 X136.624 Y122.786 E2.38658
G1 X136.748 Y125.3 E2.48704
G1 X136.942 Y127.793 E2.58685
G1 X137.205 Y130.284 E2.68682
G1 X137.374 Y131.562 E2.73827
G1 X137.398 Y131.762 E2.74631
G1 X137.433 Y132.068 E2.7586
G1 X137.503 Y133.032 E2.79718
G1 X137.493 Y133.998 E2.83574
G1 X137.404 Y134.96 E2.8743
G1 X137.235 Y135.912 E2.91289
G1 X136.988 Y136.846 E2.95145
G1 X136.664 Y137.757 E2.99004
G1 X136.266 Y138.638 E3.02862
G1 X135.797 Y139.483 E3.06719
G1 X135.26 Y140.286 E3.10575
G1 X134.658 Y141.042 E3.14432
G1 X133.995 Y141.746 E3.18292
G1 X133.277 Y142.392 E3.22147
G1 X132.508 Y142.977 E3.26003
G1 X131.768 Y143.452 E3.29513
G1 X131.26 Y143.752 E3.31867
G1 X131.082 Y143.855 E3.32688
G1 X130.082 Y144.422 E3.37276
G1 X129.952 Y144.495 E3.37871
G1 X129.345 Y144.829 E3.40637
G1 X128.479 Y145.26 E3.44497
G1 X127.967 Y145.474 E3.46712
G1 X127.481 Y145.664 E3.48795
G1 X127.264 Y145.747 E3.49722
G1 X126.069 Y146.187 E3.54805
G1 X125.877 Y146.255 E3.55618
G1 X125.286 Y146.461 E3.58116
G1 X123.93 Y146.844 E3.6374
G1 X123.352 Y146.97 E3.66101
G1 X123.064 Y147.029 E3.67274
G1 X121.901 Y147.252 E3.72
G1 X121.737 Y147.282 E3.72666
G1 X121.059 Y147.402 E3.75414
G1 X119.748 Y147.558 E3.80683
G1 X119.539 Y147.571 E3.81519
G1 X119.291 Y147.584 E3.8251
G1 X119.022 Y147.595 E3.83585
G1 X118.854 Y147.601 E3.84256
G1 X117.571 Y147.635 E3.89378
G1 X117.416 Y147.638 E3.89997
G1 X116.734 Y147.647 E3.92719
G1 X115.768 Y147.62 E3.96576
G1 X115.184 Y147.564 E3.98918
G1 X114.561 Y147.489 E4.01422
G1 X114.362 Y147.464 E4.02223
G1 X113.259 Y147.312 E4.06667
G1 X113.09 Y147.287 E4.07349
G1 X112.383 Y147.179 E4.10203
G1 X111.435 Y146.994 E4.14058
G1 X110.91 Y146.855 E4.16226
G1 X110.442 Y146.72 E4.1817
G1 X110.236 Y146.659 E4.19027
G1 X109.03 Y146.287 E4.24064
G1 X108.861 Y146.234 E4.24771
G1 X108.209 Y146.022 E4.27508
G1 X107.022 Y145.563 E4.32587
G1 X106.221 Y145.202 E4.36094
G1 X105.934 Y145.068 E4.37358
G1 X105.26 Y144.742 E4.40346
G1 X104.493 Y144.335 E4.43812
G1 X103.987 Y144.042 E4.46145
G1 X103.745 Y143.898 E4.47269
G1 X103.454 Y143.72 E4.48631
G1 X103.369 Y143.667 E4.49031
G1 X102.79 Y143.306 E4.51754
G1 X101.992 Y142.762 E4.55609
G1 X101.242 Y142.153 E4.59465
G1 X100.544 Y141.484 E4.63323
G1 X99.904 Y140.759 E4.67183
G1 X99.326 Y139.985 E4.71039
G1 X98.815 Y139.165 E4.74895
G1 X98.372 Y138.306 E4.78753
G1 X98.003 Y137.413 E4.82609
G1 X97.708 Y136.492 E4.86469
G1 X97.491 Y135.551 E4.90323
G1 X97.352 Y134.594 E4.94183
G1 X97.292 Y133.63 E4.98038
G1 X97.313 Y132.663 E5.01898
G1 X97.372 Y132.015 E5.04495
G1 X97.483 Y131.082 E5.08245
G1 X97.504 Y130.913 E5.08925
G1 X97.61 Y130.119 E5.12122
G1 X97.871 Y127.628 E5.22119
G1 X98.059 Y125.152 E5.32029
G1 X98.178 Y122.691 E5.41863
G1 X98.227 Y120.177 E5.51899
G1 X98.205 Y117.646 E5.62001
G1 X98.114 Y115.18 E5.7185
G1 X97.953 Y112.715 E5.8171
G1 X97.65 Y109.59 E5.94241
G1 X97.597 Y108.625 E5.98098
G1 X97.618 Y107.747 E6.01603
G1 X97.622 Y107.682 E6.01863
G1 X97.721 Y106.72 E6.05723
G1 X97.9 Y105.77 E6.09581
G1 X98.156 Y104.839 E6.13435
G1 X98.488 Y103.931 E6.17294
G1 X98.895 Y103.054 E6.21153
G1 X99.372 Y102.214 E6.25008
G1 X99.917 Y101.416 E6.28865
G1 X100.527 Y100.666 E6.32724
G0 F7500 X100.991 Y100.867
G1 F1500 X101.657 Y100.194 E6.36503
G1 X102.377 Y99.579 E6.40282
G1 X103.146 Y99.028 E6.44058
G1 X103.812 Y98.624 E6.47167
G1 X104.216 Y98.398 E6.49014
G1 X104.392 Y98.302 E6.49814
G1 X105.513 Y97.701 E6.54891
G1 X105.648 Y97.63 E6.555
G1 X106.236 Y97.325 E6.58143
G1 X107.523 Y96.757 E6.63758
G1 X108.039 Y96.567 E6.65953
G1 X108.299 Y96.475 E6.67054
G1 X109.456 Y96.081 E6.71932
G1 X109.603 Y96.032 E6.7255
G1 X110.255 Y95.82 E6.75287
G1 X111.166 Y95.566 E6.79061
G1 X111.647 Y95.464 E6.81024
G1 X112.189 Y95.362 E6.83225
G1 X112.405 Y95.324 E6.841
G1 X113.59 Y95.125 E6.88896
G1 X113.743 Y95.1 E6.89515
G1 X114.413 Y94.997 E6.9222
G1 X115.819 Y94.871 E6.97855
G1 X116.349 Y94.857 E6.99971
G1 X116.609 Y94.853 E7.01009
G1 X117.838 Y94.849 E7.05914
G1 X118.001 Y94.85 E7.06564
G1 X118.707 Y94.858 E7.09382
G1 X119.652 Y94.908 E7.13159
G1 X120.145 Y94.967 E7.15141
G1 X120.634 Y95.036 E7.17112
G1 X120.853 Y95.069 E7.17996
G1 X122.105 Y95.271 E7.23058
G1 X122.278 Y95.3 E7.23758
G1 X122.943 Y95.418 E7.26453
G1 X124.308 Y95.75 E7.3206
G1 X124.807 Y95.905 E7.34146
G1 X125.045 Y95.982 E7.35144
G1 X126.247 Y96.385 E7.40204
G1 X126.406 Y96.44 E7.40875
G1 X126.94 Y96.628 E7.43135
G1 X127.868 Y97.002 E7.47128
G1 X128.664 Y97.365 E7.5062
G1 X128.999 Y97.524 E7.521
G1 X129.446 Y97.746 E7.54092
G1 X130.017 Y98.05 E7.56674
G1 X130.532 Y98.344 E7.59041
G1 X130.78 Y98.49 E7.60189
G1 X131.33 Y98.823 E7.62756
G1 X132.118 Y99.347 E7.66533
G1 X132.859 Y99.936 E7.70311
G1 X133.548 Y100.585 E7.74088
G1 X134.179 Y101.29 E7.77865
G1 X134.749 Y102.045 E7.8164
G1 X135.253 Y102.846 E7.85417
G1 X135.687 Y103.687 E7.89195
G1 X136.049 Y104.561 E7.9297
G1 X136.336 Y105.463 E7.96748
G1 X136.546 Y106.386 E8.00526
G1 X136.677 Y107.323 E8.04302
G1 X136.728 Y108.268 E8.0808
G1 X136.667 Y109.584 E8.13338
G1 X136.594 Y110.273 E8.16103
G1 X136.362 Y112.781 E8.26156
G1 X136.202 Y115.283 E8.36162
G1 X136.112 Y117.795 E8.46195
G1 X136.093 Y120.308 E8.56225
G1 X136.146 Y122.844 E8.66349
G1 X136.268 Y125.328 E8.76275
G1 X136.461 Y127.809 E8.86207
G1 X136.73 Y130.352 E8.96413
G1 X136.898 Y131.625 E9.01538
G1 X136.921 Y131.816 E9.02306
G1 X136.956 Y132.122 E9.03535
G1 X137.024 Y133.066 E9.07313
G1 X137.012 Y134.012 E9.11089
G1 X136.92 Y134.954 E9.14866
G1 X136.749 Y135.885 E9.18644
G1 X136.499 Y136.798 E9.22422
G1 X136.174 Y137.687 E9.262
G1 X135.775 Y138.545 E9.29977
G1 X135.305 Y139.366 E9.33753
G1 X134.767 Y140.145 E9.37531
G1 X134.165 Y140.875 E9.41308
G1 X133.504 Y141.552 E9.45084
G1 X132.788 Y142.171 E9.48862
G1 X132.022 Y142.727 E9.52639
G1 X131.524 Y143.039 E9.54985
G1 X131.016 Y143.339 E9.5734
G1 X130.845 Y143.438 E9.58128
G1 X129.845 Y144.005 E9.62716
G1 X129.72 Y144.075 E9.63288
G1 X129.113 Y144.409 E9.66053
G1 X128.266 Y144.829 E9.69827
G1 X127.792 Y145.027 E9.71877
G1 X127.306 Y145.217 E9.7396
G1 X127.098 Y145.296 E9.74848
G1 X125.903 Y145.736 E9.7993
G1 X125.719 Y145.802 E9.80711
G1 X125.128 Y146.008 E9.83209
G1 X123.827 Y146.375 E9.88604
G1 X123.249 Y146.501 E9.90965
G1 X122.973 Y146.558 E9.9209
G1 X121.81 Y146.781 E9.96816
G1 X121.653 Y146.81 E9.97453
G1 X120.975 Y146.93 E10.00201
G1 X119.718 Y147.079 E10.05253
G1 X119.509 Y147.092 E10.06089
G1 X119.272 Y147.105 E10.07037
G1 X119.003 Y147.116 E10.08111
G1 X118.842 Y147.121 E10.08754
G1 X117.559 Y147.155 E10.13877
G1 X117.41 Y147.158 E10.14471
G1 X116.728 Y147.167 E10.17194
G1 X115.782 Y147.14 E10.20971
G1 X115.241 Y147.088 E10.2314
G1 X114.618 Y147.013 E10.25644
G1 X114.428 Y146.988 E10.26409
G1 X113.325 Y146.836 E10.30853
G1 X113.163 Y146.813 E10.31506
G1 X112.456 Y146.705 E10.34361
G1 X111.527 Y146.522 E10.3814
G1 X111.043 Y146.394 E10.40138
G1 X110.575 Y146.259 E10.42082
G1 X110.378 Y146.2 E10.42903
G1 X109.172 Y145.828 E10.4794
G1 X109.01 Y145.777 E10.48618
G1 X108.358 Y145.565 E10.51354
G1 X107.219 Y145.125 E10.56228
G1 X106.418 Y144.764 E10.59734
G1 X106.143 Y144.636 E10.60945
G1 X105.469 Y144.31 E10.63933
G1 X104.734 Y143.919 E10.67256
G1 X104.228 Y143.626 E10.6959
G1 X103.996 Y143.488 E10.70667
G1 X103.705 Y143.31 E10.72029
G1 X103.623 Y143.26 E10.72412
G1 X103.044 Y142.899 E10.75135
G1 X102.263 Y142.365 E10.78911
G1 X101.53 Y141.767 E10.82687
G1 X100.85 Y141.109 E10.86464
G1 X100.227 Y140.396 E10.90243
G1 X99.668 Y139.633 E10.94018
G1 X99.174 Y138.825 E10.97798
G1 X98.751 Y137.979 E11.01573
G1 X98.4 Y137.1 E11.0535
G1 X98.125 Y136.194 E11.09129
G1 X97.928 Y135.269 E11.12904
G1 X97.809 Y134.33 E11.16682
G1 X97.77 Y133.384 E11.20461
G1 X97.848 Y132.072 E11.25706
G1 X97.959 Y131.139 E11.29457
G1 X97.98 Y130.977 E11.30108
G1 X98.084 Y130.2 E11.33237
G1 X98.345 Y127.708 E11.43238
G1 X98.538 Y125.178 E11.53365
G1 X98.658 Y122.689 E11.63311
G1 X98.707 Y120.154 E11.7343
G1 X98.685 Y117.63 E11.83504
G1 X98.594 Y115.165 E11.9335
G1 X98.431 Y112.669 E12.03333
G1 X98.128 Y109.544 E12.15864
G1 X98.077 Y108.599 E12.19641
G1 X98.097 Y107.776 E12.22927
G1 X98.101 Y107.711 E12.23187
G1 X98.199 Y106.77 E12.26963
G1 X98.376 Y105.84 E12.30741
G1 X98.631 Y104.929 E12.34517
G1 X98.962 Y104.042 E12.38296
G1 X99.367 Y103.187 E12.42072
G1 X99.842 Y102.368 E12.4585
G1 X100.385 Y101.593 E12.49627
G1 X100.991 Y100.867 E12.53402
G0 F7500 X101.455 Y101.071
G1 F1500 X102.117 Y100.424 E12.57096
G1 X102.832 Y99.835 E12.60794
G1 X103.595 Y99.311 E12.64488
G1 X104.046 Y99.043 E12.66582
G1 X104.45 Y98.817 E12.68429
G1 X104.619 Y98.725 E12.69197
G1 X105.74 Y98.124 E12.74274
G1 X105.869 Y98.056 E12.74856
G1 X106.457 Y97.751 E12.775
G1 X107.689 Y97.207 E12.82875
G1 X108.205 Y97.017 E12.8507
G1 X108.453 Y96.929 E12.8612
G1 X109.61 Y96.535 E12.90998
G1 X109.751 Y96.488 E12.91591
G1 X110.403 Y96.276 E12.94328
G1 X111.735 Y95.936 E12.99814
G1 X112.277 Y95.834 E13.02016
G1 X112.485 Y95.797 E13.02859
G1 X113.67 Y95.598 E13.07655
G1 X113.816 Y95.574 E13.08245
G1 X114.486 Y95.471 E13.10951
G1 X115.832 Y95.351 E13.16344
G1 X116.362 Y95.337 E13.1846
G1 X116.61 Y95.333 E13.1945
G1 X117.839 Y95.329 E13.24355
G1 X117.995 Y95.33 E13.24978
G1 X118.701 Y95.338 E13.27796
G1 X120.078 Y95.442 E13.33308
G1 X120.567 Y95.511 E13.35279
G1 X120.777 Y95.543 E13.36126
G1 X122.029 Y95.745 E13.41188
G1 X122.194 Y95.773 E13.41856
G1 X122.859 Y95.891 E13.44552
G1 X124.166 Y96.209 E13.4992
G1 X124.665 Y96.364 E13.52006
G1 X124.893 Y96.437 E13.52961
G1 X126.095 Y96.84 E13.58021
G1 X126.247 Y96.892 E13.58662
G1 X126.781 Y97.08 E13.60922
G1 X127.669 Y97.438 E13.64743
G1 X128.465 Y97.801 E13.68235
G1 X128.785 Y97.954 E13.69651
G1 X129.232 Y98.176 E13.71643
G1 X129.779 Y98.467 E13.74116
G1 X130.294 Y98.761 E13.76483
G1 X130.531 Y98.901 E13.77581
G1 X131.081 Y99.234 E13.80147
G1 X131.852 Y99.747 E13.83844
G1 X132.575 Y100.325 E13.87538
G1 X133.246 Y100.963 E13.91233
G1 X133.859 Y101.657 E13.94929
G1 X134.41 Y102.401 E13.98624
G1 X134.895 Y103.189 E14.02317
G1 X135.31 Y104.017 E14.06014
G1 X135.652 Y104.877 E14.09708
G1 X135.919 Y105.764 E14.13405
G1 X136.108 Y106.67 E14.17099
G1 X136.218 Y107.59 E14.20797
G1 X136.248 Y108.515 E14.24491
G1 X136.189 Y109.533 E14.28561
G1 X136.124 Y110.145 E14.31017
G1 X135.884 Y112.738 E14.4141
G1 X135.721 Y115.272 E14.51545
G1 X135.632 Y117.774 E14.61537
G1 X135.613 Y120.314 E14.71675
G1 X135.666 Y122.853 E14.81811
G1 X135.789 Y125.354 E14.91805
G1 X135.986 Y127.892 E15.01966
G1 X136.251 Y130.392 E15.11999
G1 X136.422 Y131.687 E15.17213
G1 X136.445 Y131.871 E15.17953
G1 X136.48 Y132.177 E15.19182
G1 X136.545 Y133.1 E15.22875
G1 X136.53 Y134.026 E15.26572
G1 X136.436 Y134.947 E15.30267
G1 X136.263 Y135.857 E15.33964
G1 X136.011 Y136.748 E15.37659
G1 X135.684 Y137.614 E15.41354
G1 X135.283 Y138.448 E15.45047
G1 X134.812 Y139.245 E15.48742
G1 X134.274 Y139.999 E15.52439
G1 X133.672 Y140.703 E15.56136
G1 X133.013 Y141.352 E15.59828
G1 X132.299 Y141.942 E15.63525
G1 X131.28 Y142.626 E15.68423
G1 X130.772 Y142.926 E15.70778
G1 X130.608 Y143.02 E15.71532
G1 X129.608 Y143.587 E15.7612
G1 X129.489 Y143.654 E15.76665
G1 X128.882 Y143.988 E15.79431
G1 X128.052 Y144.399 E15.83127
G1 X127.617 Y144.58 E15.85008
G1 X127.131 Y144.77 E15.8709
G1 X126.932 Y144.846 E15.87941
G1 X125.737 Y145.286 E15.93023
G1 X125.561 Y145.349 E15.93769
G1 X124.97 Y145.555 E15.96267
G1 X123.725 Y145.906 E16.0143
G1 X123.147 Y146.032 E16.03791
G1 X122.883 Y146.086 E16.04867
G1 X121.72 Y146.309 E16.09593
G1 X121.569 Y146.337 E16.10206
G1 X120.891 Y146.457 E16.12954
G1 X119.689 Y146.6 E16.17785
G1 X119.48 Y146.613 E16.18621
G1 X119.252 Y146.625 E16.19532
G1 X118.983 Y146.636 E16.20607
G1 X118.829 Y146.641 E16.21222
G1 X117.546 Y146.675 E16.26344
G1 X117.403 Y146.678 E16.26915
G1 X116.721 Y146.687 E16.29637
G1 X115.796 Y146.659 E16.33331
G1 X115.299 Y146.611 E16.35324
G1 X114.676 Y146.536 E16.37828
G1 X114.494 Y146.513 E16.38561
G1 X113.391 Y146.361 E16.43004
G1 X113.235 Y146.338 E16.43634
G1 X112.528 Y146.23 E16.46488
G1 X111.176 Y145.933 E16.52013
G1 X110.708 Y145.798 E16.53957
G1 X110.519 Y145.742 E16.54744
G1 X109.313 Y145.37 E16.59781
G1 X109.158 Y145.321 E16.6043
G1 X108.506 Y145.109 E16.63166
G1 X107.416 Y144.687 E16.67831
G1 X106.615 Y144.326 E16.71338
G1 X106.352 Y144.203 E16.72497
G1 X105.678 Y143.877 E16.75485
G1 X104.974 Y143.504 E16.78665
G1 X104.468 Y143.211 E16.80999
