;FLAVOR:Marlin
M117 Time Left 1h21m10s
;TIME:4870
;Filament used: 7.81851m
;Layer height: 0.28
;MINX:62.761
;MINY:99.33
;MINZ:0.28
;MAXX:172.1
;MAXY:135.973
;MAXZ:33.04
;POSTPROCESSED
;Generated with Cura_SteamEngine 5.2.1
M140 S70
M105
M190 S70
M104 S225
M105
M109 S225
M82 ;absolute extrusion mode
; Ender 3 Custom Start G-code
G92 E0 ; Reset Extruder
G28 ; Home all axes
G1 Z2.0 F3000 ; Move Z Axis up little to prevent scratching of Heat Bed
G1 X0.1 Y20 Z0.3 F5000.0 ; Move to start position
G1 X0.1 Y200.0 Z0.3 F1500.0 E15 ; Draw the first line
G1 X0.4 Y200.0 Z0.3 F5000.0 ; Move to side a little
G1 X0.4 Y20 Z0.3 F1500.0 E30 ; Draw the second line
G92 E0 ; Reset Extruder
G1 Z2.0 F3000 ; Move Z Axis up little to prevent scratching of Heat Bed
G1 X5 Y20 Z0.3 F5000.0 ; Move over to prevent blob squish
G92 E0
G92 E0
G1 F3300 E-6
;LAYER_COUNT:118
;LAYER:0
M107
M204 S500
M205 X5 Y5
G0 F7500 X66.998 Y100.644 Z0.28
M205 X8 Y8
;TYPE:SKIRT
G1 F3300 E0
G1 F1500 X67.678 Y100.239 E0.0449
G1 X68.395 Y99.904 E0.0898
G1 X69.142 Y99.644 E0.13467
G1 X69.912 Y99.461 E0.17957
G1 X70.696 Y99.356 E0.22445
G1 X71.487 Y99.33 E0.26935
G1 X72.276 Y99.385 E0.31422
G1 X72.405 Y99.404 E0.32162
G1 X73.223 Y99.356 E0.3681
G1 X74.014 Y99.392 E0.41303
G1 X74.663 Y99.482 E0.4502
G1 X92.396 Y102.703 E1.4727
G1 X156.398 Y102.7 E5.1037
G1 X157.188 Y102.74 E5.14858
G1 X157.97 Y102.859 E5.19345
G1 X158.736 Y103.057 E5.23834
G1 X159.478 Y103.331 E5.28321
G1 X160.189 Y103.679 E5.32812
G1 X160.861 Y104.096 E5.37299
G1 X161.488 Y104.58 E5.41793
G1 X162.062 Y105.124 E5.46279
G1 X162.663 Y105.833 E5.51552
G1 X168.729 Y113.923 E6.08918
G1 X169.28 Y114.491 E6.13408
G1 X169.771 Y115.112 E6.17899
G1 X169.907 Y115.33 E6.19357
G1 X170.143 Y115.617 E6.21465
G1 X170.582 Y116.276 E6.25957
G1 X170.8 Y116.666 E6.28492
G1 X171.113 Y117.267 E6.32336
G1 X171.442 Y117.987 E6.36827
G1 X171.697 Y118.735 E6.41311
G1 X171.892 Y119.599 E6.46336
G1 X171.999 Y120.242 E6.50034
G1 X172.089 Y121.028 E6.54522
G1 X172.1 Y121.819 E6.5901
G1 X172.03 Y122.607 E6.63498
G1 X171.882 Y123.384 E6.67985
G1 X171.532 Y124.467 E6.74442
G1 X171.406 Y124.778 E6.76346
G1 X171.072 Y125.496 E6.80839
G1 X170.668 Y126.176 E6.85326
G1 X170.197 Y126.811 E6.89811
G1 X169.664 Y127.396 E6.94301
G1 X169.075 Y127.924 E6.98789
G1 X168.338 Y128.453 E7.03936
G1 X167.978 Y128.681 E7.06353
G1 X167.29 Y129.07 E7.10837
G1 X166.565 Y129.387 E7.15326
G1 X165.588 Y129.687 E7.21124
G1 X165.283 Y129.759 E7.22902
G1 X164.505 Y129.901 E7.27389
G1 X163.716 Y129.965 E7.3188
G1 X162.925 Y129.948 E7.36368
G1 X162.14 Y129.852 E7.40855
G1 X161.774 Y129.769 E7.42984
G1 X99.175 Y129.769 E10.98125
G1 X99.091 Y130.068 E10.99887
G1 X98.802 Y130.804 E11.04373
G1 X98.472 Y131.452 E11.08498
G1 X98.29 Y131.772 E11.10587
G1 X97.865 Y132.439 E11.15074
G1 X97.374 Y133.06 E11.19565
G1 X96.824 Y133.628 E11.24051
G1 X96.218 Y134.138 E11.28544
G1 X95.565 Y134.584 E11.3303
G1 X94.87 Y134.961 E11.37516
G1 X94.14 Y135.267 E11.42007
G1 X93.383 Y135.497 E11.46495
G1 X92.607 Y135.65 E11.50982
G1 X91.879 Y135.721 E11.55132
G1 X87.11 Y135.962 E11.82222
G1 X86.717 Y135.972 E11.84453
G1 X81.956 Y135.973 E12.11463
G1 X81.165 Y135.933 E12.15957
G1 X80.383 Y135.814 E12.20444
G1 X79.617 Y135.616 E12.24933
G1 X78.875 Y135.342 E12.2942
G1 X78.164 Y134.995 E12.33908
G1 X77.492 Y134.577 E12.38398
G1 X76.865 Y134.094 E12.42888
G1 X76.417 Y133.68 E12.46349
G1 X76.215 Y133.478 E12.4797
G1 X75.685 Y132.891 E12.52457
G1 X75.216 Y132.253 E12.56949
G1 X74.975 Y131.842 E12.59652
G1 X68.12 Y126.907 E13.07572
G1 X67.502 Y126.413 E13.1206
G1 X66.937 Y125.859 E13.1655
G1 X66.587 Y125.452 E13.19595
G1 X66.421 Y125.245 E13.211
G1 X65.957 Y124.603 E13.25594
G1 X65.561 Y123.918 E13.30083
G1 X65.316 Y123.394 E13.33365
G1 X64.405 Y121.238 E13.46643
G1 X64.135 Y120.494 E13.51134
G1 X63.88 Y119.384 E13.57595
G1 X62.844 Y112.667 E13.96153
G1 X62.763 Y111.88 E14.00641
G1 X62.761 Y111.088 E14.05135
G1 X62.87 Y110.116 E14.10684
G1 X63.629 Y105.802 E14.35534
G1 X63.806 Y105.031 E14.40022
G1 X64.059 Y104.281 E14.44512
G1 X64.387 Y103.561 E14.49001
G1 X64.785 Y102.878 E14.53486
G1 X65.251 Y102.238 E14.57977
G1 X65.778 Y101.648 E14.62465
G1 X66.363 Y101.115 E14.66955
G1 X66.998 Y100.644 E14.7144
M205 X5 Y5
G0 F7500 X67.478 Y100.977
M205 X8 Y8
G1 F1500 X68.146 Y100.607 E14.75773
G1 X68.848 Y100.308 E14.80101
G1 X69.579 Y100.085 E14.84437
G1 X70.328 Y99.94 E14.88765
G1 X71.088 Y99.873 E14.93094
G1 X71.852 Y99.887 E14.97429
G1 X72.4 Y99.956 E15.00562
G1 X72.918 Y99.904 E15.03516
G1 X73.682 Y99.908 E15.0785
G1 X74.567 Y100.013 E15.12906
G1 X92.35 Y103.243 E16.15445
G1 X156.398 Y103.24 E19.78806
G1 X157.16 Y103.28 E19.83135
G1 X157.914 Y103.399 E19.87466
G1 X158.651 Y103.597 E19.91795
G1 X159.364 Y103.871 E19.96129
G1 X160.044 Y104.217 E20.00457
G1 X160.684 Y104.633 E20.04788
G1 X161.278 Y105.114 E20.09124
G1 X161.817 Y105.654 E20.13452
G1 X162.231 Y106.157 E20.17148
G1 X168.334 Y114.296 E20.74862
G1 X168.381 Y114.336 E20.75212
G1 X168.909 Y114.887 E20.79542
G1 X169.377 Y115.491 E20.83877
G1 X169.487 Y115.67 E20.85069
G1 X169.725 Y115.96 E20.87197
G1 X170.321 Y116.916 E20.93589
G1 X170.634 Y117.517 E20.97433
G1 X170.95 Y118.211 E21.01759
G1 X171.193 Y118.935 E21.06092
G1 X171.359 Y119.687 E21.10461
G1 X171.466 Y120.33 E21.14159
G1 X171.552 Y121.089 E21.18492
G1 X171.558 Y121.852 E21.22821
G1 X171.484 Y122.612 E21.27153
G1 X171.331 Y123.36 E21.31485
G1 X171.032 Y124.264 E21.36887
G1 X170.906 Y124.575 E21.3879
G1 X170.582 Y125.267 E21.43125
G1 X170.188 Y125.921 E21.47457
G1 X169.728 Y126.53 E21.51787
G1 X169.207 Y127.088 E21.56118
G1 X168.63 Y127.588 E21.60449
G1 X168.05 Y127.997 E21.64476
G1 X167.69 Y128.225 E21.66893
G1 X167.024 Y128.599 E21.71226
G1 X166.323 Y128.901 E21.75557
G1 X165.464 Y129.161 E21.80648
G1 X165.159 Y129.233 E21.82426
G1 X164.408 Y129.369 E21.86756
G1 X163.646 Y129.426 E21.91091
G1 X162.883 Y129.403 E21.95422
G1 X162.127 Y129.301 E21.9975
G1 X161.833 Y129.229 E22.01467
G1 X98.767 Y129.229 E25.59257
G1 X98.553 Y129.972 E25.63644
G1 X98.265 Y130.68 E25.6798
G1 X98.003 Y131.185 E25.71208
G1 X97.821 Y131.505 E25.73296
G1 X97.409 Y132.148 E25.77629
G1 X96.933 Y132.744 E25.81956
G1 X96.396 Y133.288 E25.86293
G1 X95.806 Y133.772 E25.90622
G1 X95.168 Y134.191 E25.94952
G1 X94.49 Y134.542 E25.99284
G1 X93.779 Y134.82 E26.03615
G1 X93.043 Y135.022 E26.07945
G1 X92.29 Y135.146 E26.12274
G1 X91.852 Y135.182 E26.14768
G1 X87.083 Y135.423 E26.41858
G1 X86.717 Y135.432 E26.43935
G1 X81.956 Y135.433 E26.70945
G1 X81.193 Y135.393 E26.7528
G1 X80.439 Y135.274 E26.79611
G1 X79.702 Y135.076 E26.8394
G1 X78.989 Y134.803 E26.88271
G1 X78.309 Y134.456 E26.92603
G1 X77.669 Y134.04 E26.96933
G1 X76.799 Y133.298 E27.0342
G1 X76.597 Y133.096 E27.05041
G1 X76.086 Y132.528 E27.09375
G1 X75.638 Y131.911 E27.13701
G1 X75.385 Y131.473 E27.16571
G1 X68.435 Y126.469 E27.65157
G1 X67.84 Y125.991 E27.69487
G1 X67.298 Y125.454 E27.73815
G1 X67.008 Y125.114 E27.76351
G1 X66.842 Y124.907 E27.77856
G1 X66.396 Y124.287 E27.82189
G1 X66.018 Y123.624 E27.86519
G1 X65.814 Y123.183 E27.89275
G1 X64.903 Y121.027 E28.02554
G1 X64.643 Y120.31 E28.06881
G1 X64.413 Y119.301 E28.12752
G1 X63.377 Y112.584 E28.5131
G1 X63.3 Y111.825 E28.55638
G1 X63.304 Y111.061 E28.59972
G1 X63.402 Y110.21 E28.64832
G1 X64.161 Y105.896 E28.89683
G1 X64.333 Y105.152 E28.94015
G1 X64.581 Y104.43 E28.98346
G1 X64.904 Y103.738 E29.02678
G1 X65.297 Y103.084 E29.07007
G1 X65.756 Y102.474 E29.11338
G1 X66.277 Y101.915 E29.15673
G1 X66.853 Y101.415 E29.20001
G1 X67.478 Y100.977 E29.2433
M205 X5 Y5
G0 F7500 X67.954 Y101.32
M205 X8 Y8
G1 F1500 X68.609 Y100.987 E29.28499
G1 X69.296 Y100.726 E29.32668
G1 X70.007 Y100.542 E29.36835
G1 X70.734 Y100.436 E29.41003
G1 X71.468 Y100.41 E29.4517
G1 X72.387 Y100.503 E29.5041
G1 X72.654 Y100.464 E29.51941
G1 X73.388 Y100.437 E29.56108
G1 X74.47 Y100.545 E29.62277
G1 X92.297 Y103.783 E30.65069
G1 X156.398 Y103.78 E34.28731
G1 X157.131 Y103.82 E34.32896
G1 X157.856 Y103.939 E34.37064
G1 X158.564 Y104.137 E34.41235
G1 X159.245 Y104.41 E34.45397
G1 X159.894 Y104.756 E34.49569
G1 X160.5 Y105.17 E34.53733
G1 X161.059 Y105.647 E34.57902
G1 X161.562 Y106.183 E34.62072
G1 X161.799 Y106.481 E34.64232
G1 X167.941 Y114.673 E35.2232
G1 X168.031 Y114.749 E35.22988
G1 X168.536 Y115.282 E35.27154
G1 X168.981 Y115.867 E35.31324
G1 X169.068 Y116.01 E35.32273
G1 X169.307 Y116.303 E35.34418
G1 X169.842 Y117.165 E35.40174
G1 X170.155 Y117.766 E35.44018
G1 X170.458 Y118.435 E35.48185
G1 X170.687 Y119.133 E35.52353
G1 X170.826 Y119.776 E35.56085
G1 X170.933 Y120.419 E35.59783
G1 X171.014 Y121.149 E35.6395
G1 X171.016 Y121.884 E35.6812
G1 X170.937 Y122.614 E35.72285
G1 X170.779 Y123.331 E35.76451
G1 X170.531 Y124.062 E35.8083
G1 X170.405 Y124.373 E35.82734
G1 X170.093 Y125.037 E35.86896
G1 X169.71 Y125.664 E35.91064
G1 X169.261 Y126.246 E35.95234
G1 X168.752 Y126.775 E35.99399
G1 X168.188 Y127.246 E36.03568
G1 X167.761 Y127.541 E36.06512
G1 X167.401 Y127.769 E36.0893
G1 X166.76 Y128.127 E36.13095
G1 X166.083 Y128.414 E36.17267
G1 X165.34 Y128.635 E36.21664
G1 X165.035 Y128.707 E36.23442
G1 X164.312 Y128.837 E36.2761
G1 X163.579 Y128.887 E36.31778
G1 X162.845 Y128.858 E36.35945
G1 X162.119 Y128.748 E36.40111
G1 X161.895 Y128.689 E36.41425
G1 X98.315 Y128.689 E40.02132
G1 X98.226 Y129.17 E40.04907
G1 X98.015 Y129.874 E40.09076
G1 X97.728 Y130.55 E40.13243
G1 X97.533 Y130.918 E40.15605
G1 X97.351 Y131.238 E40.17694
G1 X96.954 Y131.856 E40.21861
G1 X96.492 Y132.427 E40.26028
G1 X95.97 Y132.944 E40.30196
G1 X95.396 Y133.402 E40.34362
G1 X94.775 Y133.794 E40.38529
G1 X94.115 Y134.117 E40.42697
G1 X93.424 Y134.366 E40.46864
G1 X92.71 Y134.539 E40.51032
G1 X91.825 Y134.642 E40.56087
G1 X87.056 Y134.883 E40.83177
G1 X86.716 Y134.892 E40.85107
G1 X81.955 Y134.893 E41.12117
G1 X81.222 Y134.853 E41.16282
G1 X80.497 Y134.734 E41.2045
G1 X79.79 Y134.537 E41.24614
G1 X79.108 Y134.263 E41.28784
G1 X78.459 Y133.918 E41.32954
G1 X77.853 Y133.504 E41.37117
G1 X77.181 Y132.916 E41.42183
G1 X76.979 Y132.714 E41.43804
G1 X76.489 Y132.167 E41.4797
G1 X76.061 Y131.57 E41.52137
G1 X75.799 Y131.106 E41.55161
G1 X68.751 Y126.031 E42.04433
G1 X68.179 Y125.57 E42.08601
G1 X67.429 Y124.776 E42.14797
G1 X67.263 Y124.569 E42.16303
G1 X66.835 Y123.972 E42.2047
G1 X66.475 Y123.332 E42.24636
G1 X66.311 Y122.973 E42.26875
G1 X65.4 Y120.817 E42.40154
G1 X65.152 Y120.126 E42.44319
G1 X64.947 Y119.219 E42.49594
G1 X63.911 Y112.502 E42.88152
G1 X63.839 Y111.771 E42.92319
G1 X63.846 Y111.036 E42.96489
G1 X63.934 Y110.303 E43.00678
G1 X64.693 Y105.989 E43.25528
G1 X64.86 Y105.274 E43.29694
G1 X65.103 Y104.581 E43.3386
G1 X65.42 Y103.918 E43.38029
G1 X65.807 Y103.294 E43.42195
G1 X66.26 Y102.715 E43.46366
G1 X66.773 Y102.19 E43.5053
G1 X67.34 Y101.723 E43.54697
G1 X67.954 Y101.32 E43.58864
M205 X5 Y5
G0 F7500 X68.427 Y101.675
M205 X8 Y8
G1 F1500 X69.066 Y101.381 E43.62855
G1 X69.736 Y101.16 E43.66857
G1 X70.426 Y101.017 E43.70855
G1 X71.127 Y100.953 E43.74848
G1 X71.832 Y100.968 E43.78849
G1 X72.384 Y101.041 E43.82008
G1 X73.134 Y100.977 E43.86278
G1 X73.838 Y101.003 E43.90275
G1 X74.374 Y101.076 E43.93344
G1 X92.25 Y104.323 E44.96419
G1 X156.398 Y104.32 E48.60347
G1 X157.101 Y104.36 E48.64342
G1 X157.796 Y104.479 E48.68342
G1 X158.472 Y104.677 E48.72338
G1 X159.122 Y104.949 E48.76336
G1 X159.736 Y105.294 E48.80331
G1 X160.308 Y105.705 E48.84327
G1 X160.829 Y106.179 E48.88323
G1 X161.366 Y106.805 E48.93003
G1 X167.543 Y115.044 E49.51422
G1 X167.681 Y115.161 E49.52449
G1 X168.162 Y115.676 E49.56447
G1 X168.581 Y116.242 E49.60442
G1 X168.639 Y116.338 E49.61078
G1 X168.888 Y116.645 E49.63321
G1 X169.363 Y117.415 E49.68454
G1 X169.676 Y118.016 E49.72298
G1 X169.965 Y118.658 E49.76292
G1 X170.18 Y119.329 E49.80289
G1 X170.294 Y119.865 E49.83398
G1 X170.401 Y120.508 E49.87096
G1 X170.477 Y121.208 E49.91091
G1 X170.473 Y121.913 E49.95091
G1 X170.389 Y122.612 E49.99085
G1 X170.227 Y123.298 E50.03084
G1 X170.031 Y123.859 E50.06455
G1 X169.905 Y124.17 E50.08359
G1 X169.603 Y124.807 E50.12358
G1 X169.232 Y125.406 E50.16356
G1 X168.795 Y125.958 E50.2035
G1 X168.299 Y126.458 E50.24345
G1 X167.472 Y127.084 E50.3023
G1 X167.112 Y127.312 E50.32647
G1 X166.496 Y127.655 E50.36647
G1 X165.846 Y127.926 E50.40643
G1 X165.216 Y128.11 E50.44366
G1 X164.911 Y128.182 E50.46144
G1 X164.217 Y128.305 E50.50143
G1 X163.514 Y128.348 E50.54138
G1 X162.81 Y128.311 E50.58138
G1 X162.115 Y128.195 E50.62135
G1 X161.954 Y128.149 E50.63085
G1 X97.841 Y128.149 E54.26815
G1 X97.821 Y128.407 E54.28283
G1 X97.688 Y129.099 E54.32281
G1 X97.477 Y129.771 E54.36277
G1 X97.064 Y130.651 E54.41792
G1 X96.882 Y130.971 E54.43881
G1 X96.5 Y131.563 E54.47878
G1 X96.052 Y132.107 E54.51876
G1 X95.547 Y132.598 E54.55872
G1 X94.988 Y133.028 E54.59873
G1 X94.385 Y133.392 E54.63869
G1 X93.745 Y133.685 E54.67862
G1 X93.075 Y133.904 E54.71861
G1 X92.385 Y134.045 E54.75856
G1 X91.797 Y134.103 E54.79208
G1 X87.028 Y134.344 E55.06299
G1 X86.716 Y134.352 E55.08069
G1 X81.955 Y134.353 E55.3508
G1 X81.252 Y134.313 E55.39075
G1 X80.557 Y134.194 E55.43075
G1 X79.881 Y133.997 E55.4707
G1 X79.231 Y133.724 E55.51069
G1 X78.617 Y133.38 E55.55062
G1 X78.045 Y132.968 E55.59061
G1 X77.563 Y132.534 E55.62741
G1 X77.361 Y132.332 E55.64362
G1 X76.892 Y131.806 E55.6836
G1 X76.485 Y131.231 E55.72356
G1 X76.216 Y130.741 E55.75528
G1 X69.066 Y125.593 E56.25512
G1 X68.519 Y125.149 E56.29509
G1 X67.85 Y124.438 E56.35047
G1 X67.684 Y124.231 E56.36553
G1 X67.275 Y123.657 E56.40551
G1 X66.809 Y122.763 E56.46271
G1 X65.898 Y120.607 E56.59549
G1 X65.661 Y119.944 E56.63544
G1 X65.481 Y119.137 E56.68235
G1 X64.445 Y112.42 E57.06793
G1 X64.377 Y111.718 E57.10794
G1 X64.389 Y111.014 E57.14788
G1 X64.466 Y110.397 E57.18316
G1 X65.225 Y106.083 E57.43166
G1 X65.386 Y105.397 E57.47164
G1 X65.624 Y104.734 E57.5116
G1 X65.936 Y104.102 E57.55159
G1 X66.317 Y103.509 E57.59158
G1 X66.762 Y102.964 E57.6315
G1 X67.267 Y102.472 E57.67149
G1 X67.824 Y102.041 E57.71145
G1 X68.427 Y101.675 E57.75147
M205 X5 Y5
G0 F7500 X68.894 Y102.044
M205 X8 Y8
G1 F1500 X69.517 Y101.79 E57.78964
G1 X70.167 Y101.612 E57.82787
G1 X70.832 Y101.512 E57.86602
G1 X71.505 Y101.491 E57.90422
G1 X72.401 Y101.589 E57.95536
G1 X72.921 Y101.526 E57.98507
G1 X73.594 Y101.526 E58.02326
G1 X74.277 Y101.607 E58.06228
G1 X92.203 Y104.863 E59.0959
G1 X156.398 Y104.86 E62.73786
G1 X157.07 Y104.9 E62.77605
G1 X157.732 Y105.019 E62.81421
G1 X158.376 Y105.216 E62.85241
G1 X158.992 Y105.488 E62.89062
G1 X159.571 Y105.831 E62.9288
G1 X160.106 Y106.24 E62.967
G1 X160.588 Y106.71 E63.0052
G1 X160.934 Y107.129 E63.03602
G1 X167.149 Y115.417 E63.62374
G1 X167.329 Y115.572 E63.63722
G1 X167.785 Y116.068 E63.67544
G1 X168.179 Y116.614 E63.71364
G1 X168.21 Y116.668 E63.71717
G1 X168.467 Y116.985 E63.74032
G1 X168.884 Y117.664 E63.78553
G1 X169.197 Y118.265 E63.82397
G1 X169.472 Y118.879 E63.86214
G1 X169.672 Y119.522 E63.90034
G1 X169.761 Y119.953 E63.92531
G1 X169.868 Y120.596 E63.96229
G1 X169.939 Y121.266 E64.00052
G1 X169.93 Y121.939 E64.0387
G1 X169.841 Y122.606 E64.07688
G1 X169.674 Y123.258 E64.11506
G1 X169.53 Y123.656 E64.13907
G1 X169.404 Y123.967 E64.15811
G1 X169.115 Y124.575 E64.1963
G1 X168.755 Y125.144 E64.2345
G1 X168.331 Y125.667 E64.2727
G1 X167.848 Y126.135 E64.31085
G1 X167.183 Y126.628 E64.35782
G1 X166.823 Y126.856 E64.38199
G1 X166.234 Y127.182 E64.42018
G1 X165.61 Y127.436 E64.45841
G1 X165.092 Y127.584 E64.48897
G1 X164.787 Y127.656 E64.50675
G1 X164.123 Y127.772 E64.54499
G1 X163.451 Y127.808 E64.58317
G1 X162.779 Y127.764 E64.62137
G1 X162.118 Y127.641 E64.65952
G1 X162.025 Y127.609 E64.6651
G1 X97.337 Y127.609 E68.33502
G1 X97.282 Y128.365 E68.37802
G1 X97.149 Y129.025 E68.41622
G1 X96.939 Y129.665 E68.45443
G1 X96.595 Y130.384 E68.49965
G1 X96.413 Y130.704 E68.52054
G1 X96.046 Y131.269 E68.55876
G1 X95.614 Y131.785 E68.59694
G1 X95.125 Y132.248 E68.63514
G1 X94.584 Y132.648 E68.67331
G1 X94 Y132.982 E68.71148
G1 X93.38 Y133.245 E68.74969
G1 X92.733 Y133.432 E68.7879
G1 X91.77 Y133.564 E68.84304
G1 X87.001 Y133.805 E69.11395
G1 X86.716 Y133.812 E69.13012
