;FLAVOR:Marlin
M117 Time Left 1h59m57s
;TIME:7197
;Filament used: 8.5264m
;Layer height: 0.2
;MINX:52.428
;MINY:78.284
;MINZ:0.28
;MAXX:183.988
;MAXY:149.69
;MAXZ:25.28
;POSTPROCESSED
;Generated with Cura_SteamEngine 5.2.1
M140 S70
M105
M190 S70
M104 S225
M105
M109 S225
M82 ;absolute extrusion mode
; Ender 3 Custom Start G-code
G92 E0 ; Reset Extruder
G28 ; Home all axes
G1 Z2.0 F3000 ; Move Z Axis up little to prevent scratching of Heat Bed
G1 X0.1 Y20 Z0.3 F5000.0 ; Move to start position
G1 X0.1 Y200.0 Z0.3 F1500.0 E15 ; Draw the first line
G1 X0.4 Y200.0 Z0.3 F5000.0 ; Move to side a little
G1 X0.4 Y20 Z0.3 F1500.0 E30 ; Draw the second line
G92 E0 ; Reset Extruder
G1 Z2.0 F3000 ; Move Z Axis up little to prevent scratching of Heat Bed
G1 X5 Y20 Z0.3 F5000.0 ; Move over to prevent blob squish
G92 E0
G92 E0
G1 F3300 E-6
;LAYER_COUNT:126
;LAYER:0
M107
M204 S500
M205 X5 Y5
G0 F7500 X106.894 Y111.136 Z0.28
M205 X8 Y8
;TYPE:SKIRT
G1 F3300 E0
G1 F1500 X107.369 Y111.584 E0.03087
G1 X107.889 Y112.183 E0.06837
G1 X108.345 Y112.832 E0.10587
G1 X108.734 Y113.524 E0.1434
G1 X109.052 Y114.251 E0.18092
G1 X109.183 Y114.659 E0.20117
G1 X151.085 Y114.659 E2.18218
G1 X150.469 Y114.301 E2.21587
G1 X150.204 Y114.109 E2.23134
G1 X133.856 Y111.137 E3.01689
G1 X106.894 Y111.136 E4.29158
M205 X5 Y5
G0 F7500 X106.618 Y111.485
M205 X8 Y8
G1 F1500 X107.167 Y112.026 E4.32802
G1 X107.656 Y112.621 E4.36443
G1 X108.081 Y113.263 E4.40083
G1 X108.438 Y113.946 E4.43727
G1 X108.721 Y114.663 E4.47371
G1 X108.846 Y115.109 E4.49561
G1 X154.009 Y115.109 E6.63079
G1 X153.481 Y115.016 E6.65614
G1 X152.73 Y114.843 E6.69257
G1 X152.001 Y114.593 E6.72901
G1 X151.302 Y114.269 E6.76543
G1 X150.64 Y113.875 E6.80185
G1 X150.384 Y113.684 E6.81695
G1 X133.899 Y110.687 E7.60909
G1 X105.522 Y110.686 E8.95068
G1 X106.017 Y111.003 E8.97847
G1 X106.618 Y111.485 E9.01489
M205 X5 Y5
G0 F7500 X106.438 Y111.929
M205 X8 Y8
G1 F1500 X106.957 Y112.467 E9.05023
G1 X107.415 Y113.056 E9.08551
G1 X107.807 Y113.692 E9.12083
G1 X108.129 Y114.365 E9.1561
G1 X108.378 Y115.07 E9.19145
G1 X108.493 Y115.559 E9.2152
G1 X159.167 Y115.559 E11.61092
G1 X153.559 Y114.572 E11.88013
G1 X152.832 Y114.404 E11.9154
G1 X152.126 Y114.158 E11.95075
G1 X151.451 Y113.839 E11.98604
G1 X150.814 Y113.449 E12.02136
G1 X150.57 Y113.261 E12.03592
G1 X133.935 Y110.237 E12.83526
G1 X103.232 Y110.236 E14.28682
G1 X103.888 Y110.416 E14.31898
G1 X104.583 Y110.689 E14.35428
G1 X105.244 Y111.036 E14.38957
G1 X105.865 Y111.45 E14.42486
G1 X106.438 Y111.929 E14.46017
M205 X5 Y5
G0 F7500 X106.252 Y112.373
M205 X8 Y8
G1 F1500 X106.739 Y112.906 E14.4943
G1 X107.164 Y113.49 E14.52845
G1 X107.522 Y114.117 E14.56258
G1 X107.808 Y114.78 E14.59672
G1 X108.02 Y115.471 E14.63089
G1 X108.122 Y116.009 E14.65678
G1 X164.319 Y116.009 E17.31361
G1 X153.637 Y114.129 E17.82639
G1 X152.934 Y113.965 E17.86052
G1 X152.253 Y113.724 E17.89467
G1 X151.603 Y113.409 E17.92882
G1 X150.992 Y113.024 E17.96296
G1 X150.758 Y112.838 E17.9771
G1 X133.977 Y109.787 E18.78346
G1 X69.941 Y109.784 E21.8109
G1 X69.22 Y109.744 E21.84504
G1 X68.507 Y109.625 E21.87922
G1 X67.653 Y109.37 E21.92135
G1 X67.223 Y109.209 E21.94306
G1 X66.562 Y108.918 E21.97721
G1 X65.937 Y108.557 E22.01133
G1 X65.355 Y108.128 E22.04551
G1 X64.825 Y107.638 E22.07964
G1 X64.289 Y107.01 E22.11867
G1 X63.211 Y105.571 E22.20367
G1 X62.81 Y104.97 E22.23783
G1 X62.479 Y104.328 E22.27198
G1 X62.22 Y103.654 E22.30612
G1 X62.038 Y102.955 E22.34027
G1 X61.934 Y102.241 E22.37438
G1 X61.91 Y101.519 E22.40853
G1 X61.965 Y100.799 E22.44267
G1 X62.1 Y100.089 E22.47684
G1 X62.194 Y99.784 E22.49193
G1 X61.411 Y99.744 E22.52899
G1 X60.699 Y99.625 E22.56312
G1 X60.004 Y99.427 E22.59729
G1 X59.335 Y99.154 E22.63145
G1 X58.701 Y98.809 E22.66557
G1 X58.109 Y98.396 E22.6997
G1 X57.565 Y97.92 E22.73387
G1 X56.909 Y97.171 E22.78094
G1 X56.551 Y96.693 E22.80918
G1 X56.151 Y96.091 E22.84335
G1 X55.82 Y95.45 E22.87745
G1 X55.561 Y94.775 E22.91164
G1 X55.379 Y94.076 E22.94578
G1 X55.274 Y93.356 E22.98018
G1 X55.232 Y92.881 E23.00273
G1 X55.209 Y92.159 E23.03688
G1 X55.265 Y91.439 E23.07102
G1 X55.4 Y90.729 E23.10519
G1 X55.613 Y90.039 E23.13933
G1 X55.899 Y89.381 E23.17325
G1 X56.064 Y89.052 E23.19065
G1 X56.423 Y88.425 E23.22481
G1 X56.849 Y87.842 E23.25895
G1 X57.513 Y87.144 E23.30449
G1 X57.728 Y86.949 E23.31821
G1 X58.289 Y86.494 E23.35236
G1 X58.897 Y86.104 E23.38651
G1 X59.771 Y85.691 E23.43221
G1 X60.091 Y85.568 E23.44842
G1 X60.778 Y85.347 E23.48254
G1 X61.486 Y85.203 E23.5167
G1 X62.432 Y85.134 E23.56154
G1 X128.298 Y85.134 E26.6755
G1 X128.366 Y84.726 E26.69506
G1 X128.564 Y84.031 E26.72922
G1 X128.837 Y83.362 E26.76338
G1 X129.182 Y82.728 E26.79751
G1 X129.595 Y82.136 E26.83163
G1 X130.071 Y81.592 E26.86581
G1 X130.604 Y81.105 E26.89994
G1 X131.188 Y80.68 E26.93409
G1 X131.815 Y80.322 E26.96822
G1 X132.478 Y80.036 E27.00236
G1 X133.169 Y79.824 E27.03653
G1 X133.879 Y79.69 E27.07069
G1 X134.732 Y79.634 E27.1111
G1 X148.112 Y79.634 E27.74367
G1 X148.833 Y79.674 E27.77781
G1 X149.545 Y79.793 E27.81194
G1 X149.956 Y79.9 E27.83202
G1 X150.231 Y79.981 E27.84557
G1 X150.911 Y80.223 E27.8797
G1 X151.561 Y80.539 E27.91386
G1 X152.412 Y81.104 E27.96216
G1 X152.634 Y81.278 E27.97549
G1 X153.177 Y81.755 E28.00966
G1 X153.664 Y82.288 E28.0438
G1 X153.94 Y82.652 E28.06539
G1 X155.242 Y84.497 E28.17215
G1 X155.625 Y85.109 E28.20628
G1 X155.938 Y85.76 E28.24043
G1 X156.178 Y86.441 E28.27457
G1 X156.34 Y87.145 E28.30872
G1 X156.424 Y87.862 E28.34285
G1 X156.428 Y88.585 E28.37704
G1 X156.352 Y89.303 E28.41117
G1 X156.197 Y90.008 E28.4453
G1 X155.965 Y90.692 E28.47944
G1 X155.659 Y91.346 E28.51358
G1 X155.283 Y91.963 E28.54774
G1 X154.841 Y92.534 E28.58188
G1 X154.338 Y93.052 E28.61601
G1 X153.781 Y93.512 E28.65017
G1 X153.177 Y93.908 E28.68431
G1 X152.533 Y94.234 E28.71844
G1 X151.856 Y94.487 E28.75261
G1 X151.156 Y94.664 E28.78674
G1 X150.441 Y94.762 E28.82086
G1 X149.911 Y94.784 E28.84594
G1 X141.972 Y94.784 E29.22127
G1 X141.8 Y95.387 E29.25092
G1 X141.495 Y96.134 E29.28906
G1 X155.666 Y96.134 E29.95903
G1 X156.387 Y96.174 E29.99317
G1 X157.099 Y96.293 E30.0273
G1 X157.251 Y96.336 E30.03477
G1 X176.667 Y99.754 E30.96681
G1 X177.37 Y99.918 E31.00094
G1 X178.051 Y100.159 E31.03509
G1 X178.638 Y100.433 E31.06572
G1 X179.335 Y100.843 E31.10395
G1 X179.913 Y101.276 E31.1381
G1 X180.292 Y101.621 E31.16233
G1 X180.527 Y101.852 E31.1779
G1 X181.013 Y102.386 E31.21204
G1 X181.438 Y102.97 E31.24619
G1 X181.795 Y103.598 E31.28034
G1 X181.976 Y103.995 E31.30097
G1 X182.136 Y104.379 E31.32063
G1 X182.377 Y105.06 E31.35479
G1 X182.54 Y105.764 E31.38895
G1 X182.625 Y106.481 E31.42309
G1 X182.63 Y107.203 E31.45722
G1 X182.54 Y108.018 E31.49599
G1 X182.157 Y110.199 E31.60068
G1 X182.073 Y110.601 E31.62009
G1 X182.01 Y110.862 E31.63279
G1 X181.748 Y111.696 E31.67411
G1 X181.636 Y111.984 E31.68872
G1 X181.334 Y112.648 E31.72321
G1 X181.204 Y112.896 E31.73645
G1 X180.733 Y113.662 E31.77896
G1 X180.56 Y113.904 E31.79302
G1 X180.047 Y114.534 E31.83143
G1 X179.856 Y114.741 E31.84475
G1 X179.261 Y115.309 E31.88364
G1 X179.028 Y115.505 E31.89803
G1 X178.378 Y115.987 E31.93629
G1 X178.142 Y116.14 E31.94959
G1 X177.379 Y116.565 E31.99088
G1 X177.031 Y116.724 E32.00897
G1 X177.472 Y116.962 E32.03266
G1 X177.879 Y117.21 E32.05519
G1 X178.474 Y117.619 E32.08933
G1 X179.02 Y118.092 E32.12348
G1 X179.511 Y118.622 E32.15764
G1 X179.94 Y119.203 E32.19178
G1 X180.32 Y119.864 E32.22783
G1 X180.487 Y120.198 E32.24548
G1 X180.774 Y120.861 E32.27964
G1 X180.986 Y121.551 E32.31376
G1 X181.146 Y122.494 E32.35898
G1 X181.18 Y122.849 E32.37584
G1 X181.209 Y123.571 E32.41001
G1 X181.158 Y124.291 E32.44413
G1 X181.028 Y125.001 E32.47826
G1 X180.774 Y125.816 E32.51861
G1 X180.67 Y126.086 E32.53229
G1 X180.373 Y126.745 E32.56647
G1 X180.006 Y127.367 E32.60061
G1 X179.793 Y127.667 E32.618
G1 X179.497 Y128.06 E32.64127
G1 X179.031 Y128.612 E32.67542
G1 X178.507 Y129.109 E32.70956
G1 X177.932 Y129.545 E32.74368
G1 X177.311 Y129.915 E32.77785
G1 X176.654 Y130.214 E32.81198
G1 X175.968 Y130.438 E32.8461
G1 X175.261 Y130.586 E32.88025
G1 X174.223 Y130.659 E32.92944
G1 X174.319 Y130.971 E32.94487
G1 X174.453 Y131.681 E32.97903
G1 X174.508 Y132.401 E33.01317
G1 X174.482 Y133.123 E33.04733
G1 X174.378 Y133.837 E33.08144
G1 X174.194 Y134.536 E33.11561
G1 X173.935 Y135.21 E33.14975
G1 X173.603 Y135.851 E33.18388
G1 X173.204 Y136.449 E33.21787
G1 X172.124 Y137.889 E33.30296
G1 X171.659 Y138.442 E33.33712
G1 X171.136 Y138.94 E33.37127
G1 X170.562 Y139.377 E33.40537
G1 X169.942 Y139.749 E33.43956
G1 X169.251 Y140.062 E33.47542
G1 X168.836 Y140.222 E33.49645
G1 X168.149 Y140.444 E33.53058
G1 X167.441 Y140.589 E33.56475
G1 X166.489 Y140.659 E33.60988
G1 X102.439 Y140.662 E36.63798
G1 X85.66 Y143.712 E37.44424
G1 X85.499 Y143.844 E37.45409
G1 X84.893 Y144.238 E37.48826
G1 X84.248 Y144.562 E37.52239
G1 X83.571 Y144.813 E37.55652
G1 X82.777 Y145.004 E37.59513
G1 X64.481 Y148.224 E38.47341
G1 X63.879 Y148.301 E38.5021
G1 X63.449 Y148.336 E38.5225
G1 X62.476 Y148.343 E38.5685
G1 X62.212 Y148.325 E38.58101
G1 X61.425 Y148.223 E38.61853
G1 X61.149 Y148.17 E38.63181
G1 X60.366 Y147.968 E38.67004
G1 X60.061 Y147.869 E38.6852
G1 X59.192 Y147.516 E38.72955
G1 X58.922 Y147.383 E38.74378
G1 X58.235 Y146.992 E38.78115
G1 X58.004 Y146.841 E38.7942
G1 X57.366 Y146.366 E38.8318
G1 X57.142 Y146.177 E38.84566
G1 X56.521 Y145.578 E38.88645
G1 X56.322 Y145.359 E38.90044
G1 X55.815 Y144.727 E38.93874
G1 X55.651 Y144.494 E38.95221
G1 X55.221 Y143.793 E38.99109
G1 X55.088 Y143.542 E39.00452
G1 X54.76 Y142.819 E39.04206
G1 X54.654 Y142.542 E39.05608
G1 X54.406 Y141.744 E39.09559
G1 X54.339 Y141.467 E39.10906
G1 X54.255 Y141.065 E39.12848
G1 X53.874 Y138.903 E39.23226
G1 X53.788 Y138.186 E39.26641
G1 X53.782 Y137.464 E39.30054
G1 X53.856 Y136.746 E39.33467
G1 X54.009 Y136.04 E39.36882
G1 X54.279 Y135.256 E39.40802
G1 X54.444 Y134.861 E39.42826
G1 X54.759 Y134.211 E39.46241
G1 X55.144 Y133.6 E39.49655
G1 X55.594 Y133.035 E39.5307
G1 X55.903 Y132.711 E39.55186
G1 X56.128 Y132.491 E39.56674
G1 X56.672 Y132.015 E39.60092
G1 X57.265 Y131.602 E39.63508
G1 X57.899 Y131.258 E39.66918
G1 X58.32 Y131.076 E39.69087
G1 X58.633 Y130.954 E39.70675
G1 X59.32 Y130.73 E39.74091
G1 X59.872 Y130.608 E39.76764
G1 X79.157 Y127.214 E40.69339
G1 X79.706 Y127.093 E40.71997
G1 X80.751 Y127.009 E40.76953
G1 X94.93 Y127.009 E41.43988
G1 X94.662 Y126.388 E41.47185
G1 X94.443 Y125.659 E41.50784
G1 X86.506 Y125.659 E41.88308
G1 X85.785 Y125.619 E41.91722
G1 X85.073 Y125.5 E41.95135
G1 X84.378 Y125.302 E41.98551
G1 X83.709 Y125.029 E42.01967
G1 X83.075 Y124.684 E42.0538
G1 X82.483 Y124.271 E42.08792
G1 X81.939 Y123.795 E42.1221
G1 X81.452 Y123.262 E42.15623
G1 X81.027 Y122.678 E42.19038
G1 X80.669 Y122.051 E42.22451
G1 X80.383 Y121.388 E42.25865
G1 X80.171 Y120.697 E42.29282
G1 X80.037 Y119.987 E42.32698
G1 X79.982 Y119.267 E42.36112
G1 X80.008 Y118.545 E42.39527
G1 X80.112 Y117.831 E42.42939
G1 X80.296 Y117.132 E42.46356
G1 X80.555 Y116.458 E42.4977
G1 X80.887 Y115.817 E42.53182
G1 X81.175 Y115.372 E42.55688
G1 X82.535 Y113.445 E42.66839
G1 X82.983 Y112.878 E42.70255
G1 X83.492 Y112.365 E42.73672
G1 X84.054 Y111.912 E42.77085
G1 X84.662 Y111.523 E42.80497
G1 X85.445 Y111.148 E42.84602
G1 X85.878 Y110.975 E42.86806
G1 X86.563 Y110.744 E42.90224
G1 X87.268 Y110.591 E42.93634
G1 X88.299 Y110.509 E42.98524
G1 X101.685 Y110.509 E43.61809
G1 X102.406 Y110.549 E43.65223
G1 X103.118 Y110.668 E43.68636
G1 X103.813 Y110.866 E43.72053
G1 X104.482 Y111.139 E43.75469
G1 X105.116 Y111.484 E43.78881
G1 X105.708 Y111.897 E43.82294
G1 X106.252 Y112.373 E43.85711
M205 X5 Y5
G0 F7500 X106.057 Y112.816
M205 X8 Y8
G1 F1500 X106.512 Y113.345 E43.8901
G1 X106.902 Y113.922 E43.92302
G1 X107.224 Y114.54 E43.95597
G1 X107.474 Y115.191 E43.98894
G1 X107.647 Y115.866 E44.02188
G1 X107.728 Y116.459 E44.05018
G1 X169.471 Y116.459 E46.96921
G1 X153.715 Y113.686 E47.72556
G1 X153.037 Y113.526 E47.7585
G1 X152.381 Y113.29 E47.79146
G1 X151.757 Y112.979 E47.82442
G1 X151.173 Y112.6 E47.85733
G1 X150.949 Y112.415 E47.87107
G1 X134.019 Y109.337 E48.68459
G1 X69.941 Y109.334 E51.71402
G1 X69.245 Y109.294 E51.74698
G1 X68.558 Y109.175 E51.77994
G1 X67.811 Y108.948 E51.81685
G1 X67.381 Y108.787 E51.83856
G1 X66.743 Y108.506 E51.87152
G1 X66.142 Y108.153 E51.90447
G1 X65.585 Y107.734 E51.93742
G1 X65.08 Y107.254 E51.97036
G1 X64.649 Y106.74 E52.00208
G1 X63.571 Y105.301 E52.08708
G1 X63.186 Y104.721 E52.11999
G1 X62.87 Y104.099 E52.15298
G1 X62.627 Y103.446 E52.18592
G1 X62.46 Y102.77 E52.21884
G1 X62.372 Y102.078 E52.25182
G1 X62.364 Y101.382 E52.28472
G1 X62.436 Y100.688 E52.31771
G1 X62.587 Y100.008 E52.35064
G1 X62.821 Y99.334 E52.38437
G1 X62.132 Y99.334 E52.41695
G1 X61.436 Y99.294 E52.44991
G1 X60.75 Y99.175 E52.48282
G1 X60.081 Y98.977 E52.51581
G1 X59.44 Y98.705 E52.54873
G1 X58.834 Y98.361 E52.58167
G1 X58.271 Y97.95 E52.61463
G1 X57.76 Y97.477 E52.64755
G1 X57.27 Y96.901 E52.6833
G1 X56.912 Y96.423 E52.71153
G1 X56.527 Y95.842 E52.74448
G1 X56.21 Y95.221 E52.77745
G1 X55.968 Y94.568 E52.81037
G1 X55.801 Y93.891 E52.84334
G1 X55.723 Y93.316 E52.87077
G1 X55.681 Y92.841 E52.89331
G1 X55.659 Y92.145 E52.92623
G1 X55.718 Y91.45 E52.95921
G1 X55.855 Y90.767 E52.99214
G1 X56.07 Y90.104 E53.0251
G1 X56.302 Y89.583 E53.05206
G1 X56.467 Y89.254 E53.06946
G1 X56.814 Y88.65 E53.10239
G1 X57.229 Y88.089 E53.13538
G1 X57.816 Y87.477 E53.17547
G1 X58.031 Y87.282 E53.1892
G1 X58.573 Y86.844 E53.22214
G1 X59.162 Y86.472 E53.25508
G1 X59.932 Y86.111 E53.29528
G1 X60.252 Y85.988 E53.31149
G1 X60.916 Y85.776 E53.34444
G1 X61.6 Y85.641 E53.37741
G1 X62.432 Y85.584 E53.41683
G1 X128.676 Y85.584 E56.54866
G1 X128.816 Y84.777 E56.58739
G1 X129.014 Y84.108 E56.62037
G1 X129.286 Y83.467 E56.65329
G1 X129.63 Y82.861 E56.68624
G1 X130.041 Y82.298 E56.71919
G1 X130.514 Y81.787 E56.75211
G1 X131.043 Y81.332 E56.7851
G1 X131.62 Y80.942 E56.81802
G1 X132.238 Y80.62 E56.85097
G1 X132.889 Y80.37 E56.88394
G1 X133.564 Y80.197 E56.91688
G1 X134.254 Y80.103 E56.9498
G1 X134.732 Y80.084 E56.97242
G1 X148.112 Y80.084 E57.60499
G1 X148.808 Y80.124 E57.63795
G1 X149.828 Y80.332 E57.68716
G1 X150.103 Y80.413 E57.70072
G1 X150.76 Y80.647 E57.73369
G1 X151.384 Y80.956 E57.76661
G1 X152.135 Y81.459 E57.80934
G1 X152.357 Y81.633 E57.82268
G1 X152.879 Y82.093 E57.85557
G1 X153.346 Y82.611 E57.88854
G1 X153.573 Y82.911 E57.90633
G1 X154.875 Y84.756 E58.01309
G1 X155.243 Y85.348 E58.04604
G1 X155.541 Y85.978 E58.07899
G1 X155.766 Y86.637 E58.11191
G1 X155.913 Y87.318 E58.14485
G1 X155.981 Y88.012 E58.17782
G1 X155.969 Y88.709 E58.21078
G1 X155.878 Y89.4 E58.24373
G1 X155.708 Y90.075 E58.27664
G1 X155.462 Y90.727 E58.30958
G1 X155.143 Y91.347 E58.34255
G1 X154.755 Y91.926 E58.3755
G1 X154.303 Y92.456 E58.40843
G1 X153.793 Y92.931 E58.44138
G1 X153.233 Y93.345 E58.4743
G1 X152.628 Y93.692 E58.50728
G1 X151.988 Y93.968 E58.54023
G1 X151.321 Y94.168 E58.57315
G1 X150.635 Y94.291 E58.6061
G1 X149.911 Y94.334 E58.64039
G1 X141.601 Y94.334 E59.03326
G1 X141.548 Y94.641 E59.04799
G1 X141.35 Y95.31 E59.08097
G1 X141.078 Y95.951 E59.11389
G1 X140.714 Y96.584 E59.14841
G1 X155.666 Y96.584 E59.8553
G1 X156.362 Y96.624 E59.88826
G1 X157.048 Y96.743 E59.92118
G1 X157.167 Y96.778 E59.92704
G1 X176.589 Y100.197 E60.85938
G1 X177.267 Y100.357 E60.89231
G1 X177.923 Y100.594 E60.92529
G1 X178.435 Y100.834 E60.95202
G1 X179.106 Y101.231 E60.98888
G1 X179.661 Y101.652 E61.02182
G1 X179.977 Y101.942 E61.04209
G1 X180.212 Y102.173 E61.05767
G1 X180.68 Y102.689 E61.09061
G1 X181.086 Y103.255 E61.12354
G1 X181.561 Y104.168 E61.1722
G1 X181.721 Y104.552 E61.19186
G1 X181.951 Y105.21 E61.22482
G1 X182.105 Y105.89 E61.25778
G1 X182.18 Y106.582 E61.29069
G1 X182.175 Y107.279 E61.32364
G1 X182.096 Y107.94 E61.35511
G1 X181.713 Y110.121 E61.4598
G1 X181.572 Y110.756 E61.49055
G1 X181.329 Y111.533 E61.52904
G1 X181.217 Y111.821 E61.54365
G1 X180.936 Y112.439 E61.57575
G1 X180.806 Y112.687 E61.58899
G1 X180.367 Y113.4 E61.62857
G1 X180.194 Y113.642 E61.64264
G1 X179.717 Y114.229 E61.67839
