;FLAVOR:Marlin
M117 Time Left 0h11m08s
;TIME:668
;Filament used: 1.00635m
;Layer height: 0.28
;MINX:85.923
;MINY:100.185
;MINZ:0.28
;MAXX:149.156
;MAXY:136.046
;MAXZ:5.6
;POSTPROCESSED
;Generated with Cura_SteamEngine 5.2.1
M140 S70
M105
M190 S70
M104 S225
M105
M109 S225
M82 ;absolute extrusion mode
; Ender 3 Custom Start G-code
G92 E0 ; Reset Extruder
G28 ; Home all axes
G1 Z2.0 F3000 ; Move Z Axis up little to prevent scratching of Heat Bed
G1 X0.1 Y20 Z0.3 F5000.0 ; Move to start position
G1 X0.1 Y200.0 Z0.3 F1500.0 E15 ; Draw the first line
G1 X0.4 Y200.0 Z0.3 F5000.0 ; Move to side a little
G1 X0.4 Y20 Z0.3 F1500.0 E30 ; Draw the second line
G92 E0 ; Reset Extruder
G1 Z2.0 F3000 ; Move Z Axis up little to prevent scratching of Heat Bed
G1 X5 Y20 Z0.3 F5000.0 ; Move over to prevent blob squish
G92 E0
G92 E0
G1 F3300 E-6
;LAYER_COUNT:20
;LAYER:0
M107
M204 S500
M205 X5 Y5
G0 F7500 X94.641 Y102.12 Z0.28
M205 X8 Y8
;TYPE:SKIRT
G1 F3300 E0
G1 F1500 X95.262 Y101.63 E0.04488
G1 X95.93 Y101.205 E0.0898
G1 X96.636 Y100.85 E0.13463
G1 X97.376 Y100.568 E0.17955
G1 X98.14 Y100.362 E0.22445
G1 X98.92 Y100.234 E0.26929
G1 X99.794 Y100.185 E0.31895
G1 X135.071 Y100.186 E2.32031
G1 X135.861 Y100.226 E2.36518
G1 X136.644 Y100.346 E2.41013
G1 X137.41 Y100.543 E2.455
G1 X138.152 Y100.818 E2.49989
G1 X138.863 Y101.165 E2.54477
G1 X139.535 Y101.583 E2.58967
G1 X140.161 Y102.066 E2.63453
G1 X140.734 Y102.609 E2.67932
G1 X144.471 Y106.523 E2.98633
G1 X144.988 Y107.122 E3.03122
G1 X145.442 Y107.77 E3.0761
G1 X145.828 Y108.461 E3.12101
G1 X146.071 Y109.006 E3.15486
G1 X146.226 Y109.391 E3.17841
G1 X146.484 Y110.139 E3.2233
G1 X146.666 Y110.909 E3.26818
G1 X146.768 Y111.693 E3.31304
G1 X146.793 Y112.272 E3.34592
G1 X146.828 Y118.629 E3.70657
G1 X147.254 Y119.157 E3.74506
G1 X147.734 Y119.853 E3.79303
G1 X148.149 Y120.526 E3.83788
G1 X148.495 Y121.238 E3.88279
G1 X148.767 Y121.981 E3.92768
G1 X148.963 Y122.747 E3.97254
G1 X149.098 Y123.741 E4.02945
G1 X149.14 Y124.33 E4.06295
G1 X149.156 Y125.121 E4.10783
G1 X149.093 Y125.91 E4.15274
G1 X148.95 Y126.688 E4.19761
G1 X148.729 Y127.448 E4.24252
G1 X148.433 Y128.181 E4.28737
G1 X148.064 Y128.881 E4.33226
G1 X147.57 Y129.616 E4.3825
G1 X146.941 Y130.446 E4.44158
G1 X146.277 Y131.214 E4.49918
G1 X145.517 Y131.985 E4.5606
G1 X144.934 Y132.519 E4.60545
G1 X144.3 Y132.993 E4.65036
G1 X143.621 Y133.399 E4.69524
G1 X142.905 Y133.735 E4.74011
G1 X142.158 Y133.997 E4.78502
G1 X141.389 Y134.183 E4.82991
G1 X140.605 Y134.29 E4.8748
G1 X139.815 Y134.317 E4.91965
G1 X139.025 Y134.264 E4.96457
G1 X138.245 Y134.132 E5.00945
G1 X137.582 Y133.95 E5.04845
G1 X134.885 Y133.965 E5.20146
G1 X134.094 Y133.929 E5.24638
G1 X133.924 Y133.904 E5.25613
G1 X133.408 Y133.961 E5.28558
G1 X132.982 Y133.975 E5.30976
G1 X124.814 Y134.02 E5.77316
G1 X124.437 Y134.348 E5.80151
G1 X123.791 Y134.805 E5.84641
G1 X123.102 Y135.194 E5.8913
G1 X122.378 Y135.512 E5.93616
G1 X121.625 Y135.755 E5.98105
G1 X120.851 Y135.92 E6.02594
G1 X120.065 Y136.007 E6.07081
G1 X119.646 Y136.021 E6.09459
G1 X115.347 Y136.046 E6.33849
G1 X114.556 Y136.01 E6.38341
G1 X113.773 Y135.896 E6.4283
G1 X113.006 Y135.702 E6.47319
G1 X112.262 Y135.432 E6.51809
G1 X111.55 Y135.089 E6.56293
G1 X110.875 Y134.675 E6.60785
G1 X110.123 Y134.102 E6.66149
G1 X101.984 Y134.148 E7.12324
G1 X101.193 Y134.112 E7.16816
G1 X101.024 Y134.087 E7.17785
G1 X100.509 Y134.144 E7.20725
G1 X100.083 Y134.158 E7.23143
G1 X96.637 Y134.177 E7.42693
G1 X96.197 Y134.272 E7.45247
G1 X95.411 Y134.359 E7.49734
G1 X94.619 Y134.366 E7.54227
G1 X93.831 Y134.294 E7.58716
G1 X93.055 Y134.142 E7.63202
G1 X92.298 Y133.913 E7.67689
G1 X91.567 Y133.609 E7.72181
G1 X90.694 Y133.121 E7.77855
G1 X90.028 Y132.691 E7.82352
G1 X89.386 Y132.229 E7.86839
G1 X88.793 Y131.704 E7.91333
G1 X88.301 Y131.174 E7.95435
G1 X87.963 Y130.775 E7.98402
G1 X87.482 Y130.146 E8.02894
G1 X87.043 Y129.426 E8.07679
G1 X86.882 Y129.127 E8.09605
G1 X86.542 Y128.413 E8.14092
G1 X86.277 Y127.667 E8.18583
G1 X86.088 Y126.899 E8.2307
G1 X85.98 Y126.169 E8.27257
G1 X85.923 Y125.38 E8.31745
G1 X85.946 Y124.589 E8.36234
G1 X86.028 Y123.922 E8.40047
G1 X86.177 Y123.03 E8.45177
G1 X86.447 Y121.921 E8.51653
G1 X86.55 Y121.601 E8.5356
G1 X86.83 Y120.861 E8.58048
G1 X87.183 Y120.153 E8.62537
G1 X87.509 Y119.625 E8.66057
G1 X87.969 Y118.942 E8.70729
G1 X87.934 Y112.727 E9.05989
G1 X87.97 Y111.936 E9.10481
G1 X88.066 Y111.25 E9.14411
G1 X88.128 Y110.917 E9.16332
G1 X88.312 Y110.147 E9.20824
G1 X88.573 Y109.4 E9.25313
G1 X88.886 Y108.712 E9.29601
G1 X89.325 Y107.942 E9.3463
G1 X89.785 Y107.297 E9.39124
G1 X90.2 Y106.815 E9.42733
G1 X94.072 Y102.67 E9.74912
G1 X94.641 Y102.12 E9.79402
M205 X5 Y5
G0 F7500 X95.016 Y102.509
M205 X8 Y8
G1 F1500 X95.618 Y102.039 E9.83735
G1 X96.266 Y101.635 E9.88067
G1 X96.953 Y101.301 E9.92401
G1 X97.67 Y101.041 E9.96728
G1 X98.411 Y100.857 E10.01059
G1 X99.167 Y100.752 E10.05389
G1 X99.794 Y100.725 E10.0895
G1 X135.071 Y100.726 E12.09086
G1 X135.834 Y100.766 E12.1342
G1 X136.588 Y100.885 E12.17751
G1 X137.325 Y101.083 E12.2208
G1 X138.038 Y101.357 E12.26414
G1 X138.718 Y101.704 E12.30745
G1 X139.358 Y102.12 E12.35075
G1 X139.951 Y102.6 E12.39404
G1 X140.344 Y102.982 E12.42513
G1 X144.081 Y106.896 E12.73214
G1 X144.578 Y107.475 E12.77543
G1 X145.012 Y108.103 E12.81874
G1 X145.379 Y108.772 E12.86203
G1 X145.571 Y109.207 E12.889
G1 X145.726 Y109.592 E12.91255
G1 X145.973 Y110.315 E12.95589
G1 X146.144 Y111.059 E12.9992
G1 X146.236 Y111.816 E13.04247
G1 X146.253 Y112.275 E13.06852
G1 X146.289 Y118.801 E13.43877
G1 X146.809 Y119.463 E13.48653
G1 X147.289 Y120.159 E13.53449
G1 X147.689 Y120.81 E13.57784
G1 X148.019 Y121.498 E13.62113
G1 X148.275 Y122.217 E13.66443
G1 X148.454 Y122.959 E13.70773
G1 X148.56 Y123.779 E13.75464
G1 X148.602 Y124.368 E13.78814
G1 X148.616 Y125.132 E13.83149
G1 X148.55 Y125.892 E13.87477
G1 X148.406 Y126.642 E13.9181
G1 X148.183 Y127.372 E13.9614
G1 X147.886 Y128.075 E14.0047
G1 X147.516 Y128.743 E14.04802
G1 X147.14 Y129.29 E14.08568
G1 X146.511 Y130.12 E14.14476
G1 X145.893 Y130.835 E14.19837
G1 X145.133 Y131.606 E14.25979
G1 X144.569 Y132.121 E14.30312
G1 X143.955 Y132.574 E14.34641
G1 X143.296 Y132.96 E14.38974
G1 X142.601 Y133.275 E14.43303
G1 X141.877 Y133.516 E14.47632
G1 X141.131 Y133.68 E14.51965
G1 X140.372 Y133.765 E14.56298
G1 X139.609 Y133.77 E14.60627
G1 X138.849 Y133.696 E14.64959
G1 X138.101 Y133.542 E14.69292
G1 X137.682 Y133.409 E14.71786
G1 X134.882 Y133.425 E14.87671
G1 X134.119 Y133.389 E14.92005
G1 X133.927 Y133.36 E14.93106
G1 X133.736 Y133.391 E14.94204
G1 X132.979 Y133.435 E14.98506
G1 X124.632 Y133.481 E15.45861
G1 X123.911 Y134.069 E15.5114
G1 X123.273 Y134.488 E15.5547
G1 X122.594 Y134.838 E15.59804
G1 X121.883 Y135.114 E15.64131
G1 X121.146 Y135.315 E15.68465
G1 X120.393 Y135.438 E15.72793
G1 X119.642 Y135.481 E15.77061
G1 X115.343 Y135.506 E16.01451
G1 X114.581 Y135.47 E16.05778
G1 X113.826 Y135.355 E16.10111
G1 X113.088 Y135.162 E16.14439
G1 X112.373 Y134.892 E16.18775
G1 X111.691 Y134.55 E16.23103
G1 X111.049 Y134.137 E16.27434
G1 X110.329 Y133.561 E16.32665
G1 X101.981 Y133.608 E16.80026
G1 X101.218 Y133.572 E16.8436
G1 X101.027 Y133.543 E16.85456
G1 X100.837 Y133.574 E16.86548
G1 X100.08 Y133.618 E16.9085
G1 X96.598 Y133.637 E17.10604
G1 X96.492 Y133.666 E17.11228
G1 X95.738 Y133.789 E17.15562
G1 X94.976 Y133.833 E17.19892
G1 X94.214 Y133.797 E17.2422
G1 X93.459 Y133.681 E17.28554
G1 X92.721 Y133.487 E17.32883
G1 X92.007 Y133.216 E17.37215
G1 X91.325 Y132.873 E17.41546
G1 X90.987 Y132.667 E17.43792
G1 X90.321 Y132.237 E17.48289
G1 X89.702 Y131.79 E17.52621
G1 X89.133 Y131.281 E17.56952
G1 X88.713 Y130.825 E17.60469
G1 X88.375 Y130.426 E17.63436
G1 X87.912 Y129.819 E17.67767
G1 X87.518 Y129.17 E17.72075
G1 X87.357 Y128.871 E17.74001
G1 X87.031 Y128.181 E17.78331
G1 X86.779 Y127.46 E17.82664
G1 X86.603 Y126.718 E17.8699
G1 X86.516 Y126.103 E17.90514
G1 X86.462 Y125.342 E17.94842
G1 X86.489 Y124.579 E17.99174
G1 X86.561 Y124.011 E18.02422
G1 X86.71 Y123.119 E18.07552
G1 X86.961 Y122.086 E18.13583
G1 X87.064 Y121.766 E18.15491
G1 X87.335 Y121.053 E18.19818
G1 X87.68 Y120.372 E18.24149
G1 X87.957 Y119.926 E18.27127
G1 X88.304 Y119.411 E18.30651
G1 X88.51 Y119.138 E18.32591
G1 X88.474 Y112.724 E18.6898
G1 X88.51 Y111.961 E18.73313
G1 X88.597 Y111.349 E18.7682
G1 X88.659 Y111.016 E18.78742
G1 X88.838 Y110.273 E18.83078
G1 X89.093 Y109.554 E18.87406
G1 X89.371 Y108.948 E18.91188
G1 X89.795 Y108.21 E18.96017
G1 X90.242 Y107.591 E19.00349
G1 X90.595 Y107.184 E19.03405
G1 X94.467 Y103.039 E19.35585
G1 X95.016 Y102.509 E19.39914
M205 X5 Y5
G0 F7500 X95.391 Y102.899
M205 X8 Y8
G1 F1500 X95.973 Y102.45 E19.44084
G1 X96.601 Y102.068 E19.48254
G1 X97.266 Y101.756 E19.52422
G1 X97.961 Y101.519 E19.56587
G1 X98.678 Y101.358 E19.60757
G1 X99.408 Y101.276 E19.64924
G1 X99.794 Y101.265 E19.67115
G1 X135.071 Y101.266 E21.67251
G1 X135.805 Y101.306 E21.71421
G1 X136.529 Y101.425 E21.75583
G1 X137.237 Y101.623 E21.79754
G1 X137.919 Y101.896 E21.83922
G1 X138.567 Y102.242 E21.88089
G1 X139.174 Y102.656 E21.92258
G1 X139.953 Y103.355 E21.98196
G1 X143.69 Y107.269 E22.28897
G1 X144.168 Y107.827 E22.33065
G1 X144.582 Y108.434 E22.37233
G1 X145.07 Y109.409 E22.43419
G1 X145.225 Y109.794 E22.45774
G1 X145.461 Y110.489 E22.49938
G1 X145.621 Y111.206 E22.54105
G1 X145.713 Y112.278 E22.60209
G1 X145.75 Y119.019 E22.98454
G1 X145.974 Y119.258 E23.00312
G1 X146.365 Y119.77 E23.03967
G1 X146.845 Y120.466 E23.08763
G1 X147.228 Y121.092 E23.12927
G1 X147.541 Y121.757 E23.17096
G1 X147.78 Y122.451 E23.21261
G1 X147.943 Y123.168 E23.25432
G1 X148.021 Y123.818 E23.29146
G1 X148.063 Y124.407 E23.32496
G1 X148.075 Y125.141 E23.36661
G1 X148.008 Y125.873 E23.40831
G1 X147.861 Y126.593 E23.45
G1 X147.637 Y127.292 E23.49164
G1 X147.338 Y127.963 E23.53332
G1 X146.968 Y128.598 E23.57502
G1 X146.71 Y128.964 E23.60042
G1 X146.081 Y129.794 E23.6595
G1 X145.508 Y130.456 E23.70917
G1 X144.748 Y131.227 E23.77059
G1 X144.205 Y131.721 E23.81224
G1 X143.611 Y132.153 E23.85391
G1 X142.974 Y132.518 E23.89556
G1 X142.3 Y132.812 E23.93728
G1 X141.599 Y133.031 E23.97894
G1 X140.878 Y133.173 E24.02063
G1 X140.146 Y133.235 E24.06231
G1 X139.412 Y133.217 E24.10396
G1 X138.684 Y133.12 E24.14563
G1 X137.971 Y132.944 E24.18729
G1 X137.764 Y132.869 E24.19979
G1 X134.879 Y132.885 E24.36346
G1 X134.145 Y132.849 E24.40515
G1 X133.932 Y132.815 E24.41739
G1 X132.976 Y132.895 E24.47182
G1 X124.385 Y132.942 E24.95921
G1 X123.973 Y133.333 E24.99144
G1 X123.388 Y133.778 E25.03314
G1 X122.758 Y134.156 E25.07482
G1 X122.092 Y134.464 E25.11645
G1 X121.395 Y134.698 E25.15816
G1 X120.677 Y134.854 E25.19984
G1 X119.639 Y134.941 E25.25894
G1 X115.34 Y134.966 E25.50284
G1 X114.607 Y134.93 E25.54447
G1 X113.881 Y134.815 E25.58617
G1 X113.172 Y134.622 E25.62786
G1 X112.489 Y134.352 E25.66953
G1 X111.839 Y134.01 E25.7112
G1 X111.23 Y133.6 E25.75285
G1 X110.544 Y133.02 E25.80381
G1 X101.978 Y133.068 E26.28979
G1 X101.244 Y133.032 E26.33148
G1 X101.032 Y132.998 E26.34366
G1 X100.077 Y133.078 E26.39803
G1 X96.519 Y133.097 E26.59989
G1 X96.023 Y133.206 E26.6287
G1 X95.292 Y133.284 E26.67041
G1 X94.558 Y133.282 E26.71205
G1 X93.828 Y133.201 E26.75372
G1 X93.111 Y133.04 E26.79541
G1 X92.415 Y132.803 E26.83712
G1 X91.75 Y132.491 E26.87879
G1 X91.28 Y132.214 E26.90974
G1 X90.614 Y131.784 E26.95472
G1 X90.019 Y131.352 E26.99643
G1 X89.475 Y130.859 E27.03809
G1 X89.125 Y130.476 E27.06752
G1 X88.787 Y130.077 E27.09719
G1 X88.343 Y129.491 E27.1389
G1 X87.994 Y128.914 E27.17715
G1 X87.833 Y128.615 E27.19642
G1 X87.52 Y127.95 E27.23812
G1 X87.282 Y127.256 E27.27974
G1 X87.06 Y126.156 E27.3434
G1 X87.002 Y125.304 E27.39185
G1 X87.032 Y124.57 E27.43353
G1 X87.093 Y124.1 E27.46042
G1 X87.242 Y123.208 E27.51172
G1 X87.475 Y122.252 E27.56755
G1 X87.578 Y121.932 E27.58662
G1 X87.84 Y121.246 E27.62828
G1 X88.176 Y120.593 E27.66994
G1 X88.405 Y120.228 E27.69439
G1 X88.752 Y119.713 E27.72962
G1 X89.051 Y119.318 E27.75772
G1 X89.014 Y112.721 E28.132
G1 X89.05 Y111.987 E28.17369
G1 X89.128 Y111.447 E28.20464
G1 X89.19 Y111.114 E28.22386
G1 X89.364 Y110.401 E28.2655
G1 X89.614 Y109.71 E28.30718
G1 X89.897 Y109.116 E28.34451
G1 X90.264 Y108.479 E28.38622
G1 X90.697 Y107.886 E28.42788
G1 X90.989 Y107.552 E28.45305
G1 X94.861 Y103.407 E28.77484
G1 X95.391 Y102.899 E28.81649
M205 X5 Y5
G0 F7500 X95.765 Y103.289
M205 X8 Y8
G1 F1500 X96.327 Y102.863 E28.8565
G1 X96.932 Y102.504 E28.89641
G1 X97.575 Y102.215 E28.93641
G1 X98.246 Y102.001 E28.97636
G1 X98.938 Y101.864 E29.01638
G1 X99.794 Y101.805 E29.06506
G1 X135.071 Y101.806 E31.06642
G1 X135.775 Y101.846 E31.10642
G1 X136.469 Y101.965 E31.14637
G1 X137.145 Y102.163 E31.18633
G1 X137.795 Y102.435 E31.22631
G1 X138.41 Y102.78 E31.26631
G1 X138.981 Y103.192 E31.30626
G1 X139.563 Y103.728 E31.35115
G1 X143.3 Y107.642 E31.65816
G1 X143.756 Y108.178 E31.69808
G1 X144.15 Y108.763 E31.7381
G1 X144.569 Y109.611 E31.79176
G1 X144.724 Y109.996 E31.8153
G1 X144.949 Y110.663 E31.85524
G1 X145.098 Y111.352 E31.89523
G1 X145.173 Y112.281 E31.94811
G1 X145.211 Y119.223 E32.34195
G1 X145.688 Y119.761 E32.38274
G1 X145.92 Y120.076 E32.40494
G1 X146.4 Y120.772 E32.4529
G1 X146.767 Y121.374 E32.4929
G1 X147.063 Y122.014 E32.53291
G1 X147.284 Y122.682 E32.57282
G1 X147.429 Y123.372 E32.61283
G1 X147.482 Y123.856 E32.64045
G1 X147.524 Y124.445 E32.67395
G1 X147.534 Y125.15 E32.71395
G1 X147.465 Y125.851 E32.75391
G1 X147.316 Y126.54 E32.7939
G1 X147.09 Y127.207 E32.83386
G1 X146.79 Y127.845 E32.87385
G1 X146.279 Y128.638 E32.92737
G1 X145.65 Y129.468 E32.98646
G1 X145.124 Y130.076 E33.03207
G1 X144.364 Y130.847 E33.09349
G1 X143.841 Y131.32 E33.13349
G1 X143.269 Y131.731 E33.17345
G1 X142.654 Y132.074 E33.2134
G1 X142.003 Y132.346 E33.25343
G1 X141.327 Y132.541 E33.29334
G1 X140.632 Y132.659 E33.33334
G1 X139.928 Y132.698 E33.37334
G1 X139.225 Y132.657 E33.41329
G1 X138.531 Y132.536 E33.45326
G1 X137.834 Y132.328 E33.49452
G1 X134.875 Y132.345 E33.6624
G1 X134.172 Y132.309 E33.70233
G1 X133.919 Y132.267 E33.71688
G1 X133.563 Y132.324 E33.73734
G1 X132.973 Y132.355 E33.77085
G1 X124.15 Y132.403 E34.27141
G1 X123.972 Y132.601 E34.28652
G1 X123.445 Y133.068 E34.32647
G1 X122.868 Y133.472 E34.36643
G1 X122.248 Y133.808 E34.40643
G1 X121.595 Y134.072 E34.44639
G1 X120.916 Y134.26 E34.48636
G1 X120.22 Y134.37 E34.52634
G1 X119.636 Y134.401 E34.55952
G1 X115.337 Y134.426 E34.80342
G1 X114.633 Y134.39 E34.84341
G1 X113.938 Y134.275 E34.88337
G1 X113.261 Y134.081 E34.92333
G1 X112.61 Y133.812 E34.96329
G1 X111.993 Y133.472 E35.00326
G1 X111.419 Y133.063 E35.04324
G1 X110.769 Y132.479 E35.09282
G1 X101.975 Y132.528 E35.59173
G1 X101.271 Y132.492 E35.63172
G1 X101.02 Y132.45 E35.64616
G1 X100.664 Y132.507 E35.66662
G1 X100.074 Y132.538 E35.70013
G1 X96.453 Y132.558 E35.90557
G1 X96.261 Y132.611 E35.91687
G1 X95.565 Y132.722 E35.95685
G1 X94.861 Y132.752 E35.99683
G1 X94.158 Y132.703 E36.03681
G1 X93.465 Y132.575 E36.07679
G1 X92.792 Y132.369 E36.11672
G1 X92.146 Y132.088 E36.15668
G1 X91.573 Y131.76 E36.19414
G1 X90.907 Y131.33 E36.23912
G1 X90.337 Y130.915 E36.27912
G1 X89.819 Y130.438 E36.31906
G1 X89.537 Y130.127 E36.34288
G1 X89.199 Y129.728 E36.37255
G1 X88.774 Y129.165 E36.41257
G1 X88.469 Y128.658 E36.44614
G1 X88.308 Y128.359 E36.4654
G1 X88.01 Y127.721 E36.50535
G1 X87.786 Y127.053 E36.54532
G1 X87.596 Y126.086 E36.60123
G1 X87.541 Y125.268 E36.64774
G1 X87.575 Y124.564 E36.68773
G1 X87.626 Y124.189 E36.7092
G1 X87.775 Y123.297 E36.76051
G1 X87.989 Y122.417 E36.81189
G1 X88.092 Y122.097 E36.83096
G1 X88.345 Y121.44 E36.8709
G1 X88.853 Y120.53 E36.93003
G1 X89.2 Y120.015 E36.96526
G1 X89.592 Y119.499 E37.00202
G1 X89.554 Y112.718 E37.38673
G1 X89.59 Y112.014 E37.42672
G1 X89.659 Y111.546 E37.45356
G1 X89.721 Y111.213 E37.47278
G1 X89.889 Y110.529 E37.51274
G1 X90.315 Y109.469 E37.57755
G1 X90.732 Y108.75 E37.6247
G1 X91.384 Y107.921 E37.68454
G1 X95.256 Y103.776 E38.00633
G1 X95.765 Y103.289 E38.0463
M205 X5 Y5
G0 F7500 X96.139 Y103.681
M205 X8 Y8
G1 F1500 X96.678 Y103.278 E38.08448
G1 X97.261 Y102.942 E38.12265
