;FLAVOR:Marlin
M117 Time Left 0h11m53s
;TIME:713
;Filament used: 0.211539m
;Layer height: 0.12
;MINX:88.45
;MINY:90.95
;MINZ:0.12
;MAXX:146.55
;MAXY:144.05
;MAXZ:1.56
;POSTPROCESSED
;Generated with Cura_SteamEngine 5.2.1
M140 S70
M105
M190 S70
M104 S225
M105
M109 S225
M82 ;absolute extrusion mode
; Ender 3 Custom Start G-code
G92 E0 ; Reset Extruder
G28 ; Home all axes
G1 Z2.0 F3000 ; Move Z Axis up little to prevent scratching of Heat Bed
G1 X0.1 Y20 Z0.3 F5000.0 ; Move to start position
G1 X0.1 Y200.0 Z0.3 F1500.0 E15 ; Draw the first line
G1 X0.4 Y200.0 Z0.3 F5000.0 ; Move to side a little
G1 X0.4 Y20 Z0.3 F1500.0 E30 ; Draw the second line
G92 E0 ; Reset Extruder
G1 Z2.0 F3000 ; Move Z Axis up little to prevent scratching of Heat Bed
G1 X5 Y20 Z0.3 F5000.0 ; Move over to prevent blob squish
G92 E0
G92 E0
G1 F3300 E-5
;LAYER_COUNT:13
;LAYER:0
M107
M204 S500
M205 X12 Y12
G0 F6000 X98.025 Y99.364 Z0.12
;TYPE:SKIRT
G1 F3300 E0
G1 F1200 X98.704 Y98.714 E0.01871
G1 X99.435 Y98.123 E0.03742
G1 X100.214 Y97.597 E0.05613
G1 X100.743 Y97.291 E0.0683
G1 X102.947 Y96.098 E0.11819
G1 X105.135 Y94.833 E0.1685
G1 X107.306 Y93.495 E0.21926
G1 X108.567 Y92.691 E0.24903
G1 X109.38 Y92.221 E0.26773
G1 X110.231 Y91.821 E0.28644
G1 X111.113 Y91.494 E0.30517
G1 X112.019 Y91.244 E0.32388
G1 X112.943 Y91.072 E0.34259
G1 X114.131 Y90.967 E0.36633
G1 X114.83 Y90.95 E0.38025
G1 X119.95 Y90.951 E0.48217
G1 X120.653 Y90.961 E0.49616
G1 X121.592 Y91.014 E0.51488
G1 X122.522 Y91.147 E0.53358
G1 X123.438 Y91.359 E0.5523
G1 X124.333 Y91.647 E0.57102
G1 X125.2 Y92.011 E0.58973
G1 X126.419 Y92.682 E0.61743
G1 X128.661 Y94.105 E0.67029
G1 X130.834 Y95.401 E0.72066
G1 X133.108 Y96.672 E0.77252
G1 X134.245 Y97.286 E0.79824
G1 X135.052 Y97.768 E0.81695
G1 X135.816 Y98.317 E0.83568
G1 X136.53 Y98.928 E0.85438
G1 X137.189 Y99.598 E0.87309
G1 X137.608 Y100.09 E0.88596
G1 X138.383 Y101.056 E0.91061
G1 X140.02 Y103.034 E0.96172
G1 X141.702 Y104.953 E1.01252
G1 X143.592 Y106.991 E1.06785
G1 X144.202 Y107.707 E1.08657
G1 X144.748 Y108.472 E1.10528
G1 X145.227 Y109.281 E1.12399
G1 X145.636 Y110.127 E1.1427
G1 X145.971 Y111.005 E1.16141
G1 X146.231 Y111.909 E1.18013
G1 X146.412 Y112.831 E1.19883
G1 X146.535 Y114.165 E1.2255
G1 X146.55 Y114.83 E1.23874
G1 X146.549 Y119.927 E1.3402
G1 X146.539 Y120.648 E1.35456
G1 X146.486 Y121.587 E1.37328
G1 X146.353 Y122.517 E1.39198
G1 X146.142 Y123.433 E1.41069
G1 X145.854 Y124.328 E1.42941
G1 X145.491 Y125.195 E1.44812
G1 X145.055 Y126.028 E1.46683
G1 X144.55 Y126.821 E1.48555
G1 X143.98 Y127.568 E1.50425
G1 X143.571 Y128.031 E1.51655
G1 X142.632 Y129.038 E1.54396
G1 X140.86 Y130.996 E1.59653
G1 X139.228 Y132.905 E1.64652
G1 X137.595 Y134.93 E1.69831
G1 X136.975 Y135.636 E1.71701
G1 X136.296 Y136.286 E1.73572
G1 X135.565 Y136.877 E1.75443
G1 X134.786 Y137.403 E1.77314
G1 X134.257 Y137.709 E1.78531
G1 X132.053 Y138.902 E1.8352
G1 X129.865 Y140.167 E1.88551
G1 X127.694 Y141.505 E1.93627
G1 X126.433 Y142.309 E1.96604
G1 X125.62 Y142.779 E1.98474
G1 X124.769 Y143.179 E2.00345
G1 X123.887 Y143.506 E2.02218
G1 X122.981 Y143.756 E2.04089
G1 X122.057 Y143.928 E2.0596
G1 X120.869 Y144.033 E2.08334
G1 X120.17 Y144.05 E2.09726
G1 X115.05 Y144.049 E2.19918
G1 X114.348 Y144.039 E2.21315
G1 X113.409 Y143.986 E2.23187
G1 X112.479 Y143.853 E2.25057
G1 X111.563 Y143.641 E2.26929
G1 X110.668 Y143.352 E2.28801
G1 X109.801 Y142.989 E2.30672
G1 X108.584 Y142.32 E2.33437
G1 X106.321 Y140.884 E2.38772
G1 X104.166 Y139.599 E2.43766
G1 X101.892 Y138.328 E2.48952
G1 X100.755 Y137.714 E2.51525
G1 X99.948 Y137.232 E2.53396
G1 X99.184 Y136.683 E2.55268
G1 X98.47 Y136.072 E2.57139
G1 X97.811 Y135.402 E2.5901
G1 X97.392 Y134.91 E2.60296
G1 X96.617 Y133.944 E2.62762
G1 X94.964 Y131.946 E2.67924
G1 X93.315 Y130.065 E2.72903
G1 X91.409 Y128.011 E2.78481
G1 X90.8 Y127.296 E2.80351
G1 X90.253 Y126.531 E2.82223
G1 X89.774 Y125.722 E2.84094
G1 X89.365 Y124.876 E2.85965
G1 X89.03 Y123.998 E2.87835
G1 X88.77 Y123.094 E2.89708
G1 X88.588 Y122.172 E2.91579
G1 X88.465 Y120.835 E2.94251
G1 X88.45 Y120.17 E2.95575
G1 X88.451 Y115.05 E3.05767
G1 X88.461 Y114.348 E3.07165
G1 X88.514 Y113.409 E3.09037
G1 X88.647 Y112.479 E3.10907
G1 X88.859 Y111.563 E3.12779
G1 X89.148 Y110.668 E3.14651
G1 X89.511 Y109.801 E3.16522
G1 X89.947 Y108.968 E3.18394
G1 X90.452 Y108.176 E3.20263
G1 X91.023 Y107.429 E3.22135
G1 X91.429 Y106.969 E3.23356
G1 X92.368 Y105.962 E3.26097
G1 X94.14 Y104.004 E3.31354
G1 X95.772 Y102.095 E3.36353
G1 X97.405 Y100.07 E3.41532
G1 X98.025 Y99.364 E3.43402
G0 F6000 X98.341 Y99.642
G1 F1200 X99.008 Y99.006 E3.45237
G1 X99.728 Y98.429 E3.47073
G1 X100.495 Y97.918 E3.48908
G1 X100.943 Y97.66 E3.49937
G1 X103.168 Y96.455 E3.54974
G1 X105.349 Y95.194 E3.59989
G1 X107.566 Y93.828 E3.65173
G1 X108.793 Y93.046 E3.68069
G1 X109.591 Y92.585 E3.69904
G1 X110.426 Y92.194 E3.71739
G1 X111.292 Y91.878 E3.73574
G1 X112.182 Y91.638 E3.75409
G1 X113.09 Y91.475 E3.77245
G1 X114.146 Y91.387 E3.79355
G1 X114.83 Y91.37 E3.80717
G1 X119.793 Y91.37 E3.90596
G1 X120.647 Y91.381 E3.92296
G1 X121.568 Y91.434 E3.94133
G1 X122.48 Y91.567 E3.95967
G1 X123.377 Y91.778 E3.97802
G1 X124.253 Y92.066 E3.99637
G1 X125.101 Y92.429 E4.01474
G1 X126.194 Y93.036 E4.03962
G1 X128.463 Y94.476 E4.09312
G1 X130.63 Y95.769 E4.14335
G1 X132.92 Y97.048 E4.19556
G1 X134.045 Y97.656 E4.22102
G1 X134.837 Y98.129 E4.23938
G1 X135.584 Y98.669 E4.25773
G1 X136.282 Y99.271 E4.27608
G1 X136.925 Y99.932 E4.29444
G1 X137.281 Y100.353 E4.30541
G1 X138.067 Y101.331 E4.33039
G1 X139.708 Y103.317 E4.38167
G1 X141.392 Y105.237 E4.43251
G1 X143.284 Y107.277 E4.48789
G1 X143.881 Y107.979 E4.50624
G1 X144.415 Y108.731 E4.5246
G1 X144.882 Y109.526 E4.54295
G1 X145.278 Y110.359 E4.56131
G1 X145.6 Y111.222 E4.57965
G1 X145.847 Y112.111 E4.59801
G1 X146.015 Y113.017 E4.61636
G1 X146.115 Y114.178 E4.63955
G1 X146.13 Y114.83 E4.65254
G1 X146.129 Y119.921 E4.75388
G1 X146.119 Y120.642 E4.76823
G1 X146.066 Y121.563 E4.7866
G1 X145.934 Y122.475 E4.80494
G1 X145.723 Y123.373 E4.8233
G1 X145.435 Y124.249 E4.84166
G1 X145.073 Y125.096 E4.85999
G1 X144.638 Y125.909 E4.87835
G1 X144.134 Y126.682 E4.89672
G1 X143.264 Y127.745 E4.92406
G1 X142.278 Y128.802 E4.95284
G1 X140.558 Y130.703 E5.00387
G1 X138.917 Y132.624 E5.05416
G1 X137.269 Y134.666 E5.1064
G1 X136.659 Y135.358 E5.12476
G1 X135.992 Y135.994 E5.14311
G1 X135.272 Y136.571 E5.16147
G1 X134.505 Y137.082 E5.17982
G1 X134.057 Y137.34 E5.19011
G1 X131.832 Y138.545 E5.24048
G1 X129.651 Y139.806 E5.29063
G1 X127.434 Y141.172 E5.34247
G1 X126.207 Y141.954 E5.37143
G1 X125.409 Y142.415 E5.38977
G1 X124.574 Y142.806 E5.40813
G1 X123.708 Y143.122 E5.42648
G1 X122.818 Y143.362 E5.44483
G1 X121.91 Y143.525 E5.46319
G1 X120.854 Y143.613 E5.48429
G1 X120.17 Y143.63 E5.49791
G1 X115.056 Y143.629 E5.59971
G1 X114.354 Y143.619 E5.61368
G1 X113.433 Y143.566 E5.63205
G1 X112.521 Y143.433 E5.65039
G1 X111.623 Y143.222 E5.66875
G1 X110.748 Y142.934 E5.68709
G1 X109.9 Y142.571 E5.70545
G1 X108.809 Y141.965 E5.7303
G1 X106.545 Y140.528 E5.78368
G1 X104.37 Y139.231 E5.83409
G1 X102.08 Y137.952 E5.8863
G1 X100.955 Y137.344 E5.91175
G1 X100.163 Y136.871 E5.93012
G1 X99.416 Y136.331 E5.94847
G1 X98.718 Y135.729 E5.96681
G1 X98.075 Y135.068 E5.98517
G1 X97.719 Y134.647 E5.99615
G1 X96.933 Y133.669 E6.02112
G1 X95.292 Y131.684 E6.07239
G1 X93.623 Y129.78 E6.12279
G1 X91.717 Y127.726 E6.17857
G1 X91.12 Y127.023 E6.19693
G1 X90.586 Y126.272 E6.21527
G1 X90.119 Y125.477 E6.23363
G1 X89.723 Y124.644 E6.25199
G1 X89.4 Y123.781 E6.27033
G1 X89.154 Y122.892 E6.28869
G1 X88.985 Y121.986 E6.30704
G1 X88.885 Y120.822 E6.33029
G1 X88.87 Y120.17 E6.34328
G1 X88.871 Y115.056 E6.44508
G1 X88.881 Y114.354 E6.45905
G1 X88.934 Y113.433 E6.47742
G1 X89.067 Y112.521 E6.49576
G1 X89.278 Y111.623 E6.51413
G1 X89.566 Y110.748 E6.53246
G1 X89.929 Y109.9 E6.55082
G1 X90.364 Y109.087 E6.56918
G1 X90.868 Y108.315 E6.58753
G1 X91.736 Y107.255 E6.6148
G1 X92.722 Y106.198 E6.64358
G1 X94.442 Y104.297 E6.69461
G1 X96.083 Y102.376 E6.7449
G1 X97.731 Y100.334 E6.79714
G1 X98.341 Y99.642 E6.8155
G0 F6000 X98.656 Y99.92
G1 F1200 X99.312 Y99.298 E6.8335
G1 X100.019 Y98.737 E6.85146
G1 X101.143 Y98.03 E6.8779
G1 X103.35 Y96.835 E6.92786
G1 X105.565 Y95.555 E6.97878
G1 X107.765 Y94.198 E7.03023
G1 X109.018 Y93.4 E7.05981
G1 X109.801 Y92.949 E7.07779
G1 X110.621 Y92.568 E7.09579
G1 X111.471 Y92.262 E7.11378
G1 X112.344 Y92.032 E7.13175
G1 X113.235 Y91.88 E7.14974
G1 X114.16 Y91.807 E7.16821
G1 X114.83 Y91.79 E7.18155
G1 X119.793 Y91.79 E7.28035
G1 X120.641 Y91.801 E7.29723
G1 X121.543 Y91.854 E7.31521
G1 X122.437 Y91.986 E7.3332
G1 X123.316 Y92.197 E7.3512
G1 X124.172 Y92.485 E7.36918
G1 X125 Y92.847 E7.38716
G1 X125.969 Y93.391 E7.40929
G1 X128.238 Y94.832 E7.46279
G1 X130.426 Y96.136 E7.51349
G1 X132.656 Y97.382 E7.56434
G1 X133.846 Y98.025 E7.59127
G1 X134.621 Y98.49 E7.60926
G1 X135.352 Y99.021 E7.62725
G1 X136.033 Y99.614 E7.64522
G1 X136.659 Y100.266 E7.66321
G1 X136.953 Y100.616 E7.67231
G1 X137.71 Y101.559 E7.69639
G1 X139.4 Y103.602 E7.74916
G1 X141.082 Y105.521 E7.79996
G1 X142.976 Y107.563 E7.8554
G1 X143.561 Y108.252 E7.8734
G1 X144.082 Y108.99 E7.89138
G1 X144.536 Y109.771 E7.90936
G1 X144.919 Y110.589 E7.92734
G1 X145.228 Y111.438 E7.94533
G1 X145.461 Y112.311 E7.96331
G1 X145.616 Y113.201 E7.98129
G1 X145.695 Y114.191 E8.00106
G1 X145.71 Y114.83 E8.01379
G1 X145.709 Y119.916 E8.11503
G1 X145.699 Y120.637 E8.12938
G1 X145.647 Y121.539 E8.14737
G1 X145.514 Y122.432 E8.16534
G1 X145.304 Y123.311 E8.18333
G1 X145.017 Y124.168 E8.20132
G1 X144.655 Y124.996 E8.21931
G1 X144.221 Y125.788 E8.23729
G1 X143.719 Y126.539 E8.25527
G1 X142.957 Y127.458 E8.27904
G1 X141.989 Y128.496 E8.30729
G1 X140.241 Y130.427 E8.35914
G1 X138.599 Y132.349 E8.40946
G1 X136.942 Y134.403 E8.46199
G1 X136.344 Y135.08 E8.47997
G1 X135.688 Y135.702 E8.49797
G1 X134.981 Y136.263 E8.51593
G1 X133.857 Y136.97 E8.54237
G1 X131.65 Y138.165 E8.59233
G1 X129.435 Y139.445 E8.64325
G1 X127.235 Y140.802 E8.69471
G1 X125.982 Y141.6 E8.72428
G1 X125.199 Y142.051 E8.74226
G1 X124.379 Y142.432 E8.76026
G1 X123.529 Y142.738 E8.77825
G1 X122.656 Y142.968 E8.79622
G1 X121.765 Y143.12 E8.81421
G1 X120.84 Y143.193 E8.83268
G1 X120.17 Y143.21 E8.84602
G1 X115.062 Y143.209 E8.9477
G1 X114.36 Y143.199 E8.96168
G1 X113.458 Y143.146 E8.97967
G1 X112.564 Y143.014 E8.99765
G1 X111.685 Y142.803 E9.01565
G1 X110.829 Y142.515 E9.03363
G1 X110.001 Y142.153 E9.05162
G1 X109.034 Y141.61 E9.07369
G1 X106.769 Y140.173 E9.12709
G1 X104.574 Y138.864 E9.17796
G1 X102.344 Y137.618 E9.22881
G1 X101.154 Y136.975 E9.25574
G1 X100.379 Y136.51 E9.27373
G1 X99.648 Y135.979 E9.29171
G1 X98.967 Y135.386 E9.30969
G1 X98.341 Y134.734 E9.32768
G1 X98.047 Y134.384 E9.33678
G1 X97.29 Y133.441 E9.36085
G1 X95.6 Y131.398 E9.41363
G1 X93.933 Y129.496 E9.46398
G1 X92.025 Y127.44 E9.51981
G1 X91.44 Y126.751 E9.53781
G1 X90.919 Y126.013 E9.55579
G1 X90.465 Y125.232 E9.57377
G1 X90.082 Y124.414 E9.59175
G1 X89.772 Y123.565 E9.60974
G1 X89.539 Y122.692 E9.62773
G1 X89.384 Y121.802 E9.64571
G1 X89.305 Y120.809 E9.66554
G1 X89.29 Y120.17 E9.67826
G1 X89.291 Y115.062 E9.77995
G1 X89.301 Y114.36 E9.79392
G1 X89.354 Y113.458 E9.81191
G1 X89.486 Y112.564 E9.8299
G1 X89.697 Y111.685 E9.84789
G1 X89.985 Y110.829 E9.86587
G1 X90.347 Y110.001 E9.88386
G1 X90.781 Y109.208 E9.90185
G1 X91.284 Y108.458 E9.91983
G1 X92.043 Y107.542 E9.94351
G1 X93.011 Y106.504 E9.97176
G1 X94.759 Y104.573 E10.02361
G1 X96.401 Y102.651 E10.07393
G1 X98.058 Y100.597 E10.12647
G1 X98.656 Y99.92 E10.14445
G1 F3300 E5.14445
;MESH:uniones_planas.stl(5)
G0 F6000 X105.335 Y107.424
G0 X106.424 Y107.424
G0 X107.05 Y108.05
;TYPE:WALL-INNER
G1 F3300 E10.14445
G1 F1200 X107.05 Y111.95 E10.22208
G1 X109.95 Y111.95 E10.27981
G1 X109.95 Y109.5 E10.32858
G1 X109.95 Y108.05 E10.35744
G1 X107.05 Y108.05 E10.41517
G0 F6000 X106.63 Y107.63
G1 F1200 X106.63 Y112.37 E10.50953
G1 X110.37 Y112.37 E10.58398
G1 X110.37 Y109.5 E10.64111
G1 X110.37 Y107.63 E10.67833
G1 X106.63 Y107.63 E10.75278
G0 F6000 X106.21 Y107.21
;TYPE:WALL-OUTER
G1 F1200 X106.21 Y112.79 E10.86386
G1 X110.79 Y112.79 E10.95503
G1 X110.79 Y109.5 E11.02052
G1 X110.79 Y107.21 E11.0661
G1 X106.21 Y107.21 E11.15727
G0 F6000 X106.48 Y107.48
G0 X109.752 Y108.139
;TYPE:SKIN
G1 F1200 X109.859 Y108.247 E11.16001
G0 F6000 X109.859 Y108.784
G1 F1200 X109.214 Y108.139 E11.17644
G0 F6000 X108.677 Y108.139
G1 F1200 X109.859 Y109.322 E11.20656
G0 F6000 X109.859 Y109.859
G1 F1200 X108.139 Y108.139 E11.25037
G0 F6000 X107.602 Y108.139
G1 F1200 X109.859 Y110.397 E11.30787
G0 F6000 X109.859 Y110.934
G1 F1200 X107.139 Y108.214 E11.37715
G0 F6000 X107.139 Y108.751
G1 F1200 X109.859 Y111.471 E11.44643
G0 F6000 X109.709 Y111.859
G1 F1200 X107.139 Y109.289 E11.51189
G0 F6000 X107.139 Y109.826
G1 F1200 X109.172 Y111.859 E11.56367
G0 F6000 X108.634 Y111.859
G1 F1200 X107.139 Y110.363 E11.60176
G0 F6000 X107.139 Y110.901
G1 F1200 X108.097 Y111.859 E11.62616
G0 F6000 X107.56 Y111.859
G1 F1200 X107.139 Y111.438 E11.63688
G0 F6000 X107.23 Y111.438
G1 F3300 E6.63688
;MESH:uniones_planas.stl(1)
G0 F6000 X107.16 Y111.438
G0 X107.05 Y112.57
G0 X107.05 Y114.93
G0 X107.05 Y115.55
;TYPE:WALL-INNER
G1 F3300 E11.63688
G1 F1200 X107.05 Y119.45 E11.71452
G1 X109.95 Y119.45 E11.77225
G1 X109.95 Y117 E11.82102
G1 X109.95 Y115.55 E11.84988
G1 X107.05 Y115.55 E11.90761
G0 F6000 X106.63 Y115.13
G1 F1200 X106.63 Y119.87 E12.00196
G1 X110.37 Y119.87 E12.07641
G1 X110.37 Y117 E12.13354
G1 X110.37 Y115.13 E12.17077
G1 X106.63 Y115.13 E12.24522
G0 F6000 X106.21 Y114.71
;TYPE:WALL-OUTER
G1 F1200 X106.21 Y120.29 E12.35629
G1 X110.79 Y120.29 E12.44746
G1 X110.79 Y117 E12.51295
G1 X110.79 Y114.71 E12.55854
G1 X106.21 Y114.71 E12.64971
G0 F6000 X106.48 Y114.98
G0 X109.728 Y115.639
;TYPE:SKIN
G1 F1200 X109.86 Y115.771 E12.65307
G0 F6000 X109.86 Y116.309
G1 F1200 X109.19 Y115.639 E12.67014
G0 F6000 X108.653 Y115.639
G1 F1200 X109.86 Y116.846 E12.70088
G0 F6000 X109.86 Y117.383
G1 F1200 X108.115 Y115.639 E12.74531
G0 F6000 X107.578 Y115.639
G1 F1200 X109.86 Y117.921 E12.80344
G0 F6000 X109.86 Y118.458
G1 F1200 X107.14 Y115.738 E12.87272
G0 F6000 X107.14 Y116.275
G1 F1200 X109.86 Y118.996 E12.94201
G0 F6000 X109.685 Y119.358
G1 F1200 X107.14 Y116.813 E13.00683
G0 F6000 X107.14 Y117.35
G1 F1200 X109.148 Y119.358 E13.05798
G0 F6000 X108.61 Y119.358
G1 F1200 X107.14 Y117.888 E13.09542
G0 F6000 X107.14 Y118.425
G1 F1200 X108.073 Y119.358 E13.11918
G0 F6000 X107.536 Y119.358
G1 F1200 X107.14 Y118.962 E13.12927
G0 F6000 X107.23 Y118.962
G1 F3300 E8.12927
;MESH:uniones_planas.stl(8)
G0 F6000 X107.16 Y118.962
G0 X106.43 Y115.55
G0 X104.07 Y115.55
G0 X100.55 Y115.55
;TYPE:WALL-INNER
G1 F3300 E13.12927
G1 F1200 X100.55 Y119.45 E13.2069
G1 X103.45 Y119.45 E13.26463
G1 X103.45 Y117 E13.3134
G1 X103.45 Y115.55 E13.34227
G1 X100.55 Y115.55 E13.39999
G0 F6000 X100.13 Y115.13
G1 F1200 X100.13 Y119.87 E13.49435
G1 X103.87 Y119.87 E13.5688
G1 X103.87 Y117 E13.62593
G1 X103.87 Y115.13 E13.66315
G1 X100.13 Y115.13 E13.7376
G0 F6000 X99.71 Y114.71
;TYPE:WALL-OUTER
G1 F1200 X99.71 Y120.29 E13.84868
G1 X104.29 Y120.29 E13.93985
G1 X104.29 Y117 E14.00534
G1 X104.29 Y114.71 E14.05093
G1 X99.71 Y114.71 E14.1421
G0 F6000 X99.98 Y114.98
G0 X103.279 Y115.639
;TYPE:SKIN
G1 F1200 X103.359 Y115.72 E14.14415
G0 F6000 X103.359 Y116.257
G1 F1200 X102.741 Y115.639 E14.15989
G0 F6000 X102.204 Y115.639
G1 F1200 X103.359 Y116.794 E14.18931
G0 F6000 X103.359 Y117.332
G1 F1200 X101.667 Y115.639 E14.23241
G0 F6000 X101.129 Y115.639
G1 F1200 X103.359 Y117.869 E14.28921
G0 F6000 X103.359 Y118.407
G1 F1200 X100.639 Y115.686 E14.35851
G0 F6000 X100.639 Y116.224
G1 F1200 X103.359 Y118.944 E14.42779
G0 F6000 X103.236 Y119.358
G1 F1200 X100.639 Y116.761 E14.49393
G0 F6000 X100.639 Y117.299
G1 F1200 X102.699 Y119.358 E14.54639
G0 F6000 X102.162 Y119.358
G1 F1200 X100.639 Y117.836 E14.58517
G0 F6000 X100.639 Y118.373
G1 F1200 X101.624 Y119.358 E14.61026
G0 F6000 X101.087 Y119.358
G1 F1200 X100.639 Y118.911 E14.62165
G0 F6000 X100.73 Y118.911
G1 F3300 E9.62165
;MESH:uniones_planas.stl(4)
