;FLAVOR:Marlin
M117 Time Left 0h03m21s
;TIME:201
;Filament used: 0.122448m
;Layer height: 0.2
;MINX:95.675
;MINY:90.275
;MINZ:0.28
;MAXX:145.225
;MAXY:144.725
;MAXZ:0.68
;POSTPROCESSED
;Generated with Cura_SteamEngine 5.2.1
M140 S70
M105
M190 S70
M104 S225
M105
M109 S225
M82 ;absolute extrusion mode
; Ender 3 Custom Start G-code
G92 E0 ; Reset Extruder
G28 ; Home all axes
G1 Z2.0 F3000 ; Move Z Axis up little to prevent scratching of Heat Bed
G1 X0.1 Y20 Z0.3 F5000.0 ; Move to start position
G1 X0.1 Y200.0 Z0.3 F1500.0 E15 ; Draw the first line
G1 X0.4 Y200.0 Z0.3 F5000.0 ; Move to side a little
G1 X0.4 Y20 Z0.3 F1500.0 E30 ; Draw the second line
G92 E0 ; Reset Extruder
G1 Z2.0 F3000 ; Move Z Axis up little to prevent scratching of Heat Bed
G1 X5 Y20 Z0.3 F5000.0 ; Move over to prevent blob squish
G92 E0
G92 E0
G1 F3300 E-6
;LAYER_COUNT:3
;LAYER:0
M107
M204 S500
M205 X5 Y5
G0 F7500 X98.882 Y100.001 Z0.28
M205 X8 Y8
;TYPE:SKIRT
G1 F3300 E0
G1 F1500 X99.571 Y99.357 E0.04459
G1 X100.066 Y98.957 E0.07468
G1 X100.617 Y98.537 E0.10743
G1 X101.827 Y97.639 E0.17867
G1 X103.813 Y96.078 E0.29809
G1 X105.774 Y94.443 E0.4188
G1 X107.464 Y92.963 E0.52501
G1 X108.205 Y92.38 E0.56958
G1 X108.994 Y91.862 E0.6142
G1 X109.823 Y91.413 E0.65878
G1 X110.687 Y91.035 E0.70336
G1 X111.58 Y90.732 E0.74794
G1 X112.496 Y90.506 E0.79255
G1 X113.428 Y90.358 E0.83716
G1 X114.363 Y90.29 E0.88148
G1 X115.03 Y90.275 E0.91303
G1 X119.751 Y90.276 E1.13622
G1 X120.454 Y90.286 E1.16946
G1 X121.396 Y90.34 E1.21407
G1 X122.33 Y90.472 E1.25866
G1 X123.249 Y90.684 E1.30325
G1 X124.147 Y90.973 E1.34785
G1 X125.017 Y91.336 E1.39242
G1 X125.853 Y91.772 E1.437
G1 X126.65 Y92.278 E1.48163
G1 X127.377 Y92.829 E1.52476
G1 X128.882 Y94.079 E1.61725
G1 X130.819 Y95.628 E1.73451
G1 X132.883 Y97.184 E1.85671
G1 X133.775 Y97.839 E1.90903
G1 X134.51 Y98.429 E1.95359
G1 X135.194 Y99.079 E1.9982
G1 X135.848 Y99.82 E2.04492
G1 X136.524 Y100.658 E2.09583
G1 X138.201 Y102.688 E2.22031
G1 X139.84 Y104.561 E2.33798
G1 X141.825 Y106.697 E2.47583
G1 X142.135 Y107.021 E2.49703
G1 X142.757 Y107.73 E2.54163
G1 X143.316 Y108.489 E2.58619
G1 X143.81 Y109.293 E2.6308
G1 X144.233 Y110.136 E2.67539
G1 X144.584 Y111.011 E2.71997
G1 X144.859 Y111.913 E2.76455
G1 X145.057 Y112.836 E2.80918
G1 X145.176 Y113.771 E2.85374
G1 X145.21 Y114.363 E2.88177
G1 X145.225 Y115.03 E2.91331
G1 X145.224 Y119.751 E3.13651
G1 X145.214 Y120.453 E3.1697
G1 X145.16 Y121.395 E3.21431
G1 X145.027 Y122.329 E3.25891
G1 X144.816 Y123.248 E3.30349
G1 X144.527 Y124.146 E3.34809
G1 X144.164 Y125.016 E3.39266
G1 X143.727 Y125.853 E3.4373
G1 X143.222 Y126.649 E3.48186
G1 X142.651 Y127.4 E3.52647
G1 X142.241 Y127.866 E3.55581
G1 X141.619 Y128.535 E3.599
G1 X140.743 Y129.45 E3.65889
G1 X139.059 Y131.315 E3.77768
G1 X137.447 Y133.203 E3.89505
G1 X135.852 Y135.179 E4.01511
G1 X135.229 Y135.887 E4.05969
G1 X134.548 Y136.54 E4.1043
G1 X133.805 Y137.139 E4.14942
G1 X131.401 Y138.915 E4.29072
G1 X129.423 Y140.468 E4.40962
G1 X127.412 Y142.142 E4.53332
G1 X126.662 Y142.714 E4.57792
G1 X125.866 Y143.22 E4.62251
G1 X125.03 Y143.657 E4.66711
G1 X124.161 Y144.022 E4.71167
G1 X123.263 Y144.312 E4.75628
G1 X122.344 Y144.525 E4.80088
G1 X121.411 Y144.659 E4.84544
G1 X120.637 Y144.71 E4.88211
G1 X119.97 Y144.725 E4.91366
G1 X115.249 Y144.724 E5.13685
G1 X114.547 Y144.714 E5.17004
G1 X113.605 Y144.66 E5.21465
G1 X112.671 Y144.527 E5.25925
G1 X111.752 Y144.316 E5.30383
G1 X110.854 Y144.027 E5.34843
G1 X109.984 Y143.664 E5.393
G1 X109.147 Y143.227 E5.43764
G1 X108.351 Y142.722 E5.48221
G1 X107.359 Y141.945 E5.54178
G1 X106.604 Y141.281 E5.58931
G1 X104.662 Y139.621 E5.7101
G1 X102.683 Y138.023 E5.83035
G1 X100.622 Y136.455 E5.95278
G1 X100.206 Y136.148 E5.97723
G1 X99.472 Y135.556 E6.02181
G1 X98.79 Y134.905 E6.06638
G1 X98.165 Y134.198 E6.111
G1 X97.603 Y133.44 E6.15561
G1 X97.107 Y132.638 E6.20019
G1 X96.681 Y131.797 E6.24476
G1 X96.327 Y130.922 E6.28938
G1 X96.049 Y130.021 E6.33396
G1 X95.848 Y129.1 E6.37853
G1 X95.726 Y128.164 E6.42316
G1 X95.688 Y127.503 E6.45446
G1 X95.675 Y126.87 E6.48439
G1 X95.676 Y123.15 E6.66026
G1 X95.686 Y122.443 E6.69369
G1 X95.727 Y121.366 E6.74464
G1 X95.802 Y118.727 E6.86946
G1 X95.802 Y116.246 E6.98675
G1 X95.728 Y113.637 E7.11015
G1 X95.697 Y112.971 E7.14167
G1 X95.675 Y112.07 E7.18428
G1 X95.676 Y108.349 E7.3602
G1 X95.686 Y107.647 E7.39339
G1 X95.74 Y106.705 E7.438
G1 X95.873 Y105.771 E7.4826
G1 X96.084 Y104.852 E7.52718
G1 X96.373 Y103.954 E7.57178
G1 X96.736 Y103.084 E7.61635
G1 X97.173 Y102.247 E7.66099
G1 X97.678 Y101.451 E7.70555
G1 X98.249 Y100.7 E7.75016
G1 X98.882 Y100.001 E7.79474
M205 X5 Y5
G0 F7500 X99.322 Y100.196
M205 X8 Y8
G1 F1500 X100.339 Y99.315 E7.85835
G1 X101.003 Y98.81 E7.89779
G1 X102.132 Y97.973 E7.96424
G1 X104.081 Y96.44 E8.08147
G1 X106.039 Y94.808 E8.20198
G1 X107.297 Y93.7 E8.28123
G1 X107.757 Y93.305 E8.30989
G1 X108.484 Y92.735 E8.35357
G1 X109.257 Y92.229 E8.39725
G1 X110.071 Y91.793 E8.4409
G1 X110.92 Y91.428 E8.4846
G1 X111.798 Y91.138 E8.52831
G1 X112.697 Y90.925 E8.57199
G1 X113.611 Y90.791 E8.61566
G1 X114.377 Y90.74 E8.65196
G1 X115.03 Y90.725 E8.68284
G1 X119.593 Y90.725 E8.89856
G1 X120.448 Y90.736 E8.93899
G1 X121.37 Y90.789 E8.98265
G1 X122.285 Y90.922 E9.02636
G1 X123.184 Y91.133 E9.07002
G1 X124.062 Y91.421 E9.11371
G1 X124.911 Y91.784 E9.15736
G1 X125.726 Y92.219 E9.20104
G1 X126.501 Y92.723 E9.24474
G1 X127.09 Y93.176 E9.27987
G1 X128.571 Y94.406 E9.37089
G1 X130.548 Y95.987 E9.49057
G1 X132.664 Y97.583 E9.61587
G1 X133.508 Y98.202 E9.66535
G1 X134.229 Y98.78 E9.70904
G1 X134.896 Y99.419 E9.75271
G1 X135.498 Y100.102 E9.79575
G1 X136.222 Y100.999 E9.85025
G1 X137.835 Y102.952 E9.97
G1 X139.507 Y104.862 E10.09001
G1 X141.809 Y107.332 E10.24964
G1 X142.418 Y108.027 E10.29333
G1 X142.964 Y108.772 E10.337
G1 X143.444 Y109.561 E10.38066
G1 X143.854 Y110.389 E10.42434
G1 X144.19 Y111.25 E10.46804
G1 X144.451 Y112.136 E10.5117
G1 X144.635 Y113.042 E10.55541
G1 X144.76 Y114.377 E10.6188
G1 X144.775 Y115.03 E10.64968
G1 X144.774 Y119.745 E10.87259
G1 X144.764 Y120.447 E10.90579
G1 X144.711 Y121.369 E10.94945
G1 X144.578 Y122.284 E10.99316
G1 X144.367 Y123.183 E11.03682
G1 X144.079 Y124.061 E11.0805
G1 X143.716 Y124.911 E11.1242
G1 X143.28 Y125.726 E11.1679
G1 X142.776 Y126.5 E11.21156
G1 X141.912 Y127.56 E11.27622
G1 X141.294 Y128.224 E11.3191
G1 X140.419 Y129.139 E11.37896
G1 X138.719 Y131.021 E11.49886
G1 X137.073 Y132.949 E11.61871
G1 X135.501 Y134.896 E11.73701
G1 X134.891 Y135.589 E11.78066
G1 X134.222 Y136.227 E11.82437
G1 X133.538 Y136.777 E11.86586
G1 X131.121 Y138.563 E12.00794
G1 X129.139 Y140.12 E12.1271
G1 X127.124 Y141.796 E12.25101
G1 X126.389 Y142.355 E12.29467
G1 X125.608 Y142.849 E12.33836
G1 X124.787 Y143.274 E12.38206
G1 X123.933 Y143.626 E12.42573
G1 X123.052 Y143.903 E12.4694
G1 X122.15 Y144.103 E12.51308
G1 X121.234 Y144.224 E12.55676
G1 X120.623 Y144.26 E12.58569
G1 X119.97 Y144.275 E12.61657
G1 X115.255 Y144.274 E12.83949
G1 X114.553 Y144.264 E12.87268
G1 X113.631 Y144.211 E12.91634
G1 X112.716 Y144.078 E12.96005
G1 X111.817 Y143.867 E13.00371
G1 X110.939 Y143.579 E13.0474
G1 X110.089 Y143.216 E13.09109
G1 X109.274 Y142.78 E13.13479
G1 X108.5 Y142.276 E13.17846
G1 X107.656 Y141.607 E13.22937
G1 X106.912 Y140.953 E13.27621
G1 X104.939 Y139.266 E13.39893
G1 X102.974 Y137.679 E13.51835
G1 X100.88 Y136.086 E13.64274
G1 X100.473 Y135.786 E13.66664
G1 X99.754 Y135.206 E13.71031
G1 X99.088 Y134.566 E13.75398
G1 X98.479 Y133.87 E13.79771
G1 X97.933 Y133.125 E13.84137
G1 X97.454 Y132.335 E13.88505
G1 X97.044 Y131.507 E13.92873
G1 X96.708 Y130.647 E13.97238
G1 X96.447 Y129.76 E14.0161
G1 X96.264 Y128.855 E14.05975
G1 X96.138 Y127.49 E14.12456
G1 X96.125 Y126.87 E14.15388
G1 X96.126 Y123.156 E14.32946
G1 X96.136 Y122.449 E14.36289
G1 X96.178 Y121.369 E14.41399
G1 X96.252 Y118.74 E14.53833
G1 X96.252 Y116.233 E14.65685
G1 X96.179 Y113.65 E14.77902
G1 X96.155 Y113.167 E14.80188
G1 X96.125 Y112.07 E14.85377
G1 X96.126 Y108.355 E15.0294
G1 X96.136 Y107.653 E15.06259
G1 X96.189 Y106.731 E15.10625
G1 X96.322 Y105.816 E15.14997
G1 X96.533 Y104.917 E15.19362
G1 X96.821 Y104.039 E15.23731
G1 X97.184 Y103.189 E15.28101
G1 X97.62 Y102.374 E15.3247
G1 X98.124 Y101.6 E15.36837
G1 X98.693 Y100.872 E15.41205
G1 X99.322 Y100.196 E15.45571
M205 X5 Y5
G0 F7500 X99.763 Y100.396
M205 X8 Y8
G1 F1500 X100.611 Y99.673 E15.50839
G1 X101.162 Y99.253 E15.54115
G1 X102.374 Y98.354 E15.61249
G1 X104.388 Y96.771 E15.7336
G1 X106.344 Y95.14 E15.854
G1 X107.595 Y94.038 E15.93282
G1 X108.05 Y93.647 E15.96118
G1 X108.762 Y93.089 E16.00395
G1 X109.52 Y92.597 E16.04667
G1 X110.319 Y92.173 E16.08944
G1 X111.152 Y91.822 E16.13217
G1 X112.013 Y91.545 E16.17493
G1 X112.895 Y91.346 E16.21768
G1 X113.791 Y91.226 E16.26042
G1 X114.39 Y91.19 E16.28879
G1 X115.03 Y91.175 E16.31905
G1 X119.593 Y91.175 E16.53478
G1 X120.441 Y91.186 E16.57488
G1 X121.344 Y91.239 E16.61764
G1 X122.239 Y91.371 E16.66041
G1 X123.118 Y91.582 E16.70315
G1 X123.975 Y91.87 E16.74589
G1 X124.804 Y92.232 E16.78866
G1 X125.597 Y92.666 E16.8314
G1 X126.348 Y93.169 E16.87413
G1 X126.804 Y93.524 E16.90145
G1 X128.301 Y94.766 E16.99341
G1 X130.278 Y96.347 E17.11309
G1 X132.36 Y97.918 E17.2364
G1 X133.242 Y98.565 E17.28811
G1 X133.946 Y99.131 E17.33082
G1 X134.598 Y99.758 E17.37358
G1 X135.148 Y100.385 E17.41302
G1 X135.851 Y101.256 E17.46593
G1 X137.515 Y103.271 E17.58948
G1 X139.158 Y105.147 E17.70738
G1 X141.188 Y107.332 E17.84838
G1 X141.484 Y107.642 E17.86865
G1 X142.079 Y108.323 E17.9114
G1 X142.612 Y109.054 E17.95417
G1 X143.077 Y109.829 E17.9969
G1 X143.473 Y110.642 E18.03965
G1 X143.795 Y111.487 E18.0824
G1 X144.042 Y112.357 E18.12516
G1 X144.21 Y113.245 E18.16789
G1 X144.31 Y114.391 E18.22227
G1 X144.325 Y115.03 E18.25249
G1 X144.324 Y119.739 E18.47512
G1 X144.314 Y120.441 E18.50831
G1 X144.261 Y121.343 E18.55103
G1 X144.129 Y122.238 E18.5938
G1 X143.918 Y123.117 E18.63654
G1 X143.63 Y123.974 E18.67928
G1 X143.268 Y124.803 E18.72205
G1 X142.834 Y125.596 E18.76479
G1 X142.331 Y126.348 E18.80756
G1 X141.582 Y127.254 E18.86313
G1 X141.073 Y127.802 E18.89849
G1 X140.111 Y128.807 E18.96427
G1 X138.395 Y130.708 E19.08534
G1 X136.732 Y132.655 E19.2064
G1 X135.151 Y134.614 E19.32541
G1 X134.553 Y135.291 E19.36812
G1 X133.897 Y135.914 E19.41089
G1 X133.27 Y136.415 E19.44883
G1 X130.856 Y138.198 E19.59071
G1 X128.854 Y139.771 E19.71108
G1 X126.836 Y141.45 E19.83519
G1 X126.116 Y141.997 E19.87794
G1 X125.351 Y142.478 E19.92066
G1 X124.546 Y142.89 E19.96342
G1 X123.707 Y143.229 E20.0062
G1 X122.843 Y143.493 E20.04891
G1 X121.958 Y143.679 E20.09166
G1 X120.61 Y143.81 E20.15569
G1 X119.97 Y143.825 E20.18596
G1 X115.261 Y143.824 E20.40859
G1 X114.559 Y143.814 E20.44178
G1 X113.657 Y143.761 E20.4845
G1 X112.762 Y143.629 E20.52727
G1 X111.883 Y143.418 E20.57
G1 X111.026 Y143.13 E20.61275
G1 X110.197 Y142.768 E20.65551
G1 X109.404 Y142.334 E20.69825
G1 X108.652 Y141.831 E20.74103
G1 X107.953 Y141.269 E20.78343
G1 X107.186 Y140.594 E20.83173
G1 X105.233 Y138.925 E20.95319
G1 X103.248 Y137.323 E21.07378
G1 X101.129 Y135.71 E21.19969
G1 X100.74 Y135.423 E21.22254
G1 X100.037 Y134.855 E21.26527
G1 X99.387 Y134.227 E21.308
G1 X98.795 Y133.544 E21.35073
G1 X98.265 Y132.811 E21.39349
G1 X97.802 Y132.034 E21.43626
G1 X97.41 Y131.219 E21.47901
G1 X97.091 Y130.373 E21.52176
G1 X96.848 Y129.502 E21.56451
G1 X96.683 Y128.613 E21.60726
G1 X96.588 Y127.478 E21.6611
G1 X96.575 Y126.87 E21.68985
G1 X96.576 Y123.162 E21.86516
G1 X96.594 Y122.167 E21.91221
G1 X96.629 Y121.343 E21.9512
G1 X96.702 Y118.753 E22.07369
G1 X96.702 Y116.22 E22.19345
G1 X96.628 Y113.616 E22.31661
G1 X96.597 Y112.944 E22.34841
G1 X96.575 Y112.07 E22.38974
G1 X96.576 Y108.361 E22.5651
G1 X96.586 Y107.659 E22.59829
G1 X96.639 Y106.757 E22.64101
G1 X96.771 Y105.862 E22.68378
G1 X96.982 Y104.983 E22.72651
G1 X97.27 Y104.126 E22.76926
G1 X97.632 Y103.297 E22.81202
G1 X98.066 Y102.504 E22.85476
G1 X98.569 Y101.752 E22.89753
G1 X99.136 Y101.048 E22.94027
G1 X99.763 Y100.396 E22.98303
M205 X5 Y5
G1 F3300 E16.98303
;MESH:uniones_planas.stl(8)
G0 F7500 X107.239 Y107.135
G0 X107.239 Y108.239
G0 X107.68 Y108.68
G1 F3300 E22.98303
G0 F7500 X107.5 Y108.5
M205 X8 Y8
;TYPE:WALL-INNER
G1 F1500 X107.5 Y111.7 E23.15113
G1 X111.7 Y111.7 E23.37176
G1 X111.7 Y110.1 E23.45581
G1 X111.7 Y108.5 E23.53986
G1 X107.5 Y108.5 E23.76048
M205 X5 Y5
G0 F7500 X107.225 Y108.225
M205 X8 Y8
;TYPE:WALL-OUTER
G1 F1500 X107.225 Y111.975 E23.93777
G1 X111.975 Y111.975 E24.16234
G1 X111.975 Y110.1 E24.25098
G1 X111.975 Y108.225 E24.33963
G1 X107.225 Y108.225 E24.56419
M205 X5 Y5
G0 F7500 X107.225 Y108.425
G0 X107.773 Y108.773
M205 X8 Y8
;TYPE:SKIN
G1 F1500 X107.773 Y111.427 E24.64227
G1 X111.427 Y111.427 E24.74976
G1 X111.427 Y110.1 E24.78879
G1 X111.427 Y108.773 E24.82783
G1 X107.773 Y108.773 E24.93532
M205 X5 Y5
G0 F7500 X107.913 Y108.92
M205 X8 Y8
G1 F1500 X111.287 Y108.92 E25.03457
M205 X5 Y5
G0 F7500 X111.287 Y109.2
M205 X8 Y8
G1 F1500 X107.913 Y109.2 E25.13382
M205 X5 Y5
G0 F7500 X107.913 Y109.48
M205 X8 Y8
G1 F1500 X111.287 Y109.48 E25.23308
M205 X5 Y5
G0 F7500 X111.287 Y109.76
M205 X8 Y8
G1 F1500 X107.913 Y109.76 E25.33233
M205 X5 Y5
G0 F7500 X107.913 Y110.04
M205 X8 Y8
G1 F1500 X111.287 Y110.04 E25.43158
M205 X5 Y5
G0 F7500 X111.287 Y110.32
M205 X8 Y8
G1 F1500 X107.913 Y110.32 E25.53083
M205 X5 Y5
G0 F7500 X107.913 Y110.6
M205 X8 Y8
G1 F1500 X111.287 Y110.6 E25.63009
M205 X5 Y5
G0 F7500 X111.287 Y110.88
M205 X8 Y8
G1 F1500 X107.913 Y110.88 E25.72934
M205 X5 Y5
G0 F7500 X107.913 Y111.16
M205 X8 Y8
G1 F1500 X111.287 Y111.16 E25.82859
M205 X5 Y5
G1 F3300 E19.82859
;MESH:uniones_planas.stl(4)
G0 F7500 X111.55 Y111.16
G0 X111.486 Y111.446
G0 X108.68 Y111.955
G0 X108.68 Y115.145
G0 X108.68 Y115.58
G1 F3300 E25.82859
G0 F7500 X108.5 Y115.4
M205 X8 Y8
;TYPE:WALL-INNER
G1 F1500 X108.5 Y119.6 E26.04922
G1 X111.7 Y119.6 E26.21732
G1 X111.7 Y115.4 E26.43794
G1 X108.5 Y115.4 E26.60604
M205 X5 Y5
G0 F7500 X108.225 Y115.125
M205 X8 Y8
;TYPE:WALL-OUTER
G1 F1500 X108.225 Y119.875 E26.83061
G1 X111.975 Y119.875 E27.0079
G1 X111.975 Y115.125 E27.23246
G1 X108.225 Y115.125 E27.40975
M205 X5 Y5
G0 F7500 X108.225 Y115.325
G0 X108.773 Y115.673
M205 X8 Y8
;TYPE:SKIN
G1 F1500 X108.773 Y119.327 E27.51724
G1 X111.427 Y119.327 E27.59531
G1 X111.427 Y117 E27.66377
G1 X111.427 Y115.673 E27.7028
G1 X108.773 Y115.673 E27.78088
M205 X5 Y5
G0 F7500 X108.913 Y115.92
M205 X8 Y8
G1 F1500 X111.287 Y115.92 E27.85071
M205 X5 Y5
G0 F7500 X111.287 Y116.2
M205 X8 Y8
G1 F1500 X108.913 Y116.2 E27.92055
M205 X5 Y5
G0 F7500 X108.913 Y116.48
M205 X8 Y8
G1 F1500 X111.287 Y116.48 E27.99038
M205 X5 Y5
G0 F7500 X111.287 Y116.76
M205 X8 Y8
G1 F1500 X108.913 Y116.76 E28.06022
M205 X5 Y5
G0 F7500 X108.913 Y117.04
M205 X8 Y8
G1 F1500 X111.287 Y117.04 E28.13006
M205 X5 Y5
G0 F7500 X111.287 Y117.32
M205 X8 Y8
G1 F1500 X108.913 Y117.32 E28.19989
M205 X5 Y5
G0 F7500 X108.913 Y117.6
M205 X8 Y8
G1 F1500 X111.287 Y117.6 E28.26973
M205 X5 Y5
G0 F7500 X111.287 Y117.88
M205 X8 Y8
G1 F1500 X108.913 Y117.88 E28.33956
M205 X5 Y5
G0 F7500 X108.913 Y118.16
M205 X8 Y8
G1 F1500 X111.287 Y118.16 E28.4094
M205 X5 Y5
G0 F7500 X111.287 Y118.44
M205 X8 Y8
G1 F1500 X108.913 Y118.44 E28.47923
M205 X5 Y5
G0 F7500 X108.913 Y118.72
M205 X8 Y8
G1 F1500 X111.287 Y118.72 E28.54907
M205 X5 Y5
G0 F7500 X111.286 Y119
M205 X8 Y8
G1 F1500 X108.912 Y119 E28.61891
M205 X5 Y5
G1 F3300 E22.61891
;MESH:uniones_planas.stl
G0 F7500 X108.65 Y119
G0 X108.722 Y119.378
G0 X111.478 Y119.378
G0 X111.955 Y116.08
G0 X115.145 Y116.08
G0 X115.58 Y116.08
G1 F3300 E28.61891
G0 F7500 X115.4 Y115.9
M205 X8 Y8
;TYPE:WALL-INNER
G1 F1500 X115.4 Y119.1 E28.787
G1 X119.6 Y119.1 E29.00763
G1 X119.6 Y117.5 E29.09168
G1 X119.6 Y115.9 E29.17573
G1 X115.4 Y115.9 E29.39635
M205 X5 Y5
G0 F7500 X115.125 Y115.625
M205 X8 Y8
;TYPE:WALL-OUTER
G1 F1500 X115.125 Y119.375 E29.57364
G1 X119.875 Y119.375 E29.79821
G1 X119.875 Y117.5 E29.88685
G1 X119.875 Y115.625 E29.9755
G1 X115.125 Y115.625 E30.20007
M205 X5 Y5
G0 F7500 X115.125 Y115.825
G0 X115.673 Y116.173
M205 X8 Y8
;TYPE:SKIN
G1 F1500 X115.673 Y118.827 E30.27814
