;FLAVOR:Marlin
M117 Time Left 2h19m54s
;Filament used: 8.97114m
;Layer height: 0.28
;MINX:30.5
;MINY:66.5
;MINZ:0.285
;MAXX:204.5
;MAXY:168.5
;MAXZ:21.845
;POSTPROCESSED
;Generated with Cura_SteamEngine 4.6.1
M140 S60
M105
M190 S60
M104 S200
M105
M109 S200
M82 ;absolute extrusion mode
; Ender 3 Custom Start G-code
G92 E0 ; Reset Extruder
G28 ; Home all axes
G1 Z2.0 F3000 ; Move Z Axis up little to prevent scratching of Heat Bed
G1 X0.1 Y20 Z0.3 F5000.0 ; Move to start position
G1 X0.1 Y200.0 Z0.3 F1500.0 E15 ; Draw the first line
G1 X0.4 Y200.0 Z0.3 F5000.0 ; Move to side a little
G1 X0.4 Y20 Z0.3 F1500.0 E30 ; Draw the second line
G92 E0 ; Reset Extruder
G1 Z2.0 F3000 ; Move Z Axis up little to prevent scratching of Heat Bed
G1 X5 Y20 Z0.3 F5000.0 ; Move over to prevent blob squish
G92 E0
G92 E0
G1 F2700 E-6
;LAYER_COUNT:78
;LAYER:0
M107
M204 S500
M205 X8 Y8
G0 F7500 X142.639 Y67.311 Z0.285
;TYPE:SKIRT
G1 F2700 E0
G1 F1500 X143.541 Y67.364 E0.04068
G1 X144.434 Y67.496 E0.08133
G1 X145.313 Y67.707 E0.12203
G1 X146.169 Y67.995 E0.1627
G1 X146.996 Y68.357 E0.20334
G1 X147.788 Y68.791 E0.24401
G1 X148.538 Y69.294 E0.28467
G1 X149.241 Y69.861 E0.32533
G1 X149.891 Y70.487 E0.36597
G1 X150.333 Y70.984 E0.39591
G1 X152.057 Y73.054 E0.51721
G1 X153.755 Y74.981 E0.63285
G1 X155.491 Y76.844 E0.74751
G1 X157.254 Y78.63 E0.8605
G1 X159.081 Y80.38 E0.97442
G1 X160.986 Y82.103 E1.09007
G1 X162.906 Y83.744 E1.20379
G1 X164.905 Y85.358 E1.31947
G1 X166.899 Y86.874 E1.43226
G1 X168.985 Y88.37 E1.54784
G1 X171.066 Y89.776 E1.66092
G1 X173.231 Y91.15 E1.77637
G1 X175.381 Y92.431 E1.88906
G1 X177.64 Y93.693 E2.00557
G1 X179.875 Y94.859 E2.11907
G1 X182.164 Y95.972 E2.23368
G1 X184.45 Y97.004 E2.34661
G1 X186.842 Y98.006 E2.46338
G1 X189.183 Y98.905 E2.57629
G1 X191.582 Y99.752 E2.69084
G1 X194.024 Y100.538 E2.80635
G1 X196.341 Y101.214 E2.91502
G1 X197.196 Y101.505 E2.95569
G1 X198.022 Y101.87 E2.99635
G1 X198.812 Y102.308 E3.03702
G1 X199.56 Y102.813 E3.07766
G1 X200.261 Y103.383 E3.11834
G1 X200.909 Y104.012 E3.159
G1 X201.498 Y104.697 E3.19968
G1 X202.025 Y105.43 E3.24033
G1 X202.484 Y106.208 E3.281
G1 X202.873 Y107.023 E3.32166
G1 X203.189 Y107.869 E3.36232
G1 X203.428 Y108.74 E3.40299
G1 X203.59 Y109.628 E3.44363
G1 X203.669 Y110.472 E3.4818
G1 X203.686 Y110.797 E3.49645
G1 X203.7 Y111.33 E3.52046
G1 X203.699 Y123.404 E4.0641
G1 X203.689 Y124.131 E4.09684
G1 X203.637 Y125.033 E4.13752
G1 X203.505 Y125.926 E4.17817
G1 X203.294 Y126.805 E4.21887
G1 X203.007 Y127.661 E4.25952
G1 X202.645 Y128.488 E4.30017
G1 X202.211 Y129.28 E4.34083
G1 X201.709 Y130.031 E4.3815
G1 X201.143 Y130.734 E4.42214
G1 X200.516 Y131.385 E4.46284
G1 X199.835 Y131.977 E4.50347
G1 X199.104 Y132.507 E4.54412
G1 X198.328 Y132.97 E4.58481
G1 X197.515 Y133.363 E4.62547
G1 X196.357 Y133.78 E4.68088
G1 X195.232 Y134.109 E4.73366
G1 X192.704 Y134.886 E4.85274
G1 X190.334 Y135.687 E4.96538
G1 X187.91 Y136.584 E5.08176
G1 X185.605 Y137.511 E5.19362
G1 X183.252 Y138.536 E5.30918
G1 X180.943 Y139.621 E5.42405
G1 X178.69 Y140.759 E5.5377
G1 X176.429 Y141.982 E5.65345
G1 X174.251 Y143.241 E5.76672
G1 X172.088 Y144.575 E5.88114
G1 X169.982 Y145.955 E5.99451
G1 X167.866 Y147.432 E6.1107
G1 X165.846 Y148.927 E6.22385
G1 X163.852 Y150.491 E6.33796
G1 X161.884 Y152.129 E6.45324
G1 X159.984 Y153.803 E6.56726
G1 X158.136 Y155.526 E6.68103
G1 X156.328 Y157.308 E6.79533
G1 X154.553 Y159.162 E6.91089
G1 X152.843 Y161.052 E7.02566
G1 X151.172 Y163.006 E7.14142
G1 X150.343 Y164.005 E7.19987
G1 X149.736 Y164.674 E7.24054
G1 X149.072 Y165.286 E7.2812
G1 X148.357 Y165.838 E7.32187
G1 X147.596 Y166.323 E7.36251
G1 X146.795 Y166.74 E7.40317
G1 X145.96 Y167.084 E7.44383
G1 X145.097 Y167.353 E7.48453
G1 X144.215 Y167.545 E7.52517
G1 X143.319 Y167.658 E7.56584
G1 X142.777 Y167.687 E7.59028
G1 X142.17 Y167.7 E7.61761
G1 X93.061 Y167.699 E9.82879
G1 X92.363 Y167.689 E9.86022
G1 X91.461 Y167.636 E9.9009
G1 X90.568 Y167.504 E9.94155
G1 X89.69 Y167.293 E9.98221
G1 X88.834 Y167.005 E10.02287
G1 X88.007 Y166.643 E10.06352
G1 X87.215 Y166.208 E10.10421
G1 X86.464 Y165.706 E10.14488
G1 X85.761 Y165.139 E10.18554
G1 X85.111 Y164.512 E10.22621
G1 X84.675 Y164.023 E10.25571
G1 X82.934 Y161.935 E10.37811
G1 X81.24 Y160.013 E10.49347
G1 X79.51 Y158.156 E10.60774
G1 X77.756 Y156.381 E10.7201
G1 X75.901 Y154.604 E10.83577
G1 X74.024 Y152.906 E10.94973
G1 X72.058 Y151.225 E11.0662
G1 X70.115 Y149.658 E11.17859
G1 X68.109 Y148.132 E11.29207
G1 X66.026 Y146.638 E11.40749
G1 X63.91 Y145.209 E11.52246
G1 X61.78 Y143.857 E11.63605
G1 X59.583 Y142.548 E11.7512
G1 X57.395 Y141.326 E11.86404
G1 X55.112 Y140.135 E11.97998
G1 X52.852 Y139.036 E12.09314
G1 X50.514 Y137.98 E12.20865
G1 X48.201 Y137.013 E12.32153
G1 X45.793 Y136.084 E12.43774
G1 X43.406 Y135.244 E12.55168
G1 X40.986 Y134.466 E12.66613
G1 X38.658 Y133.786 E12.77533
G1 X37.803 Y133.495 E12.816
G1 X36.977 Y133.13 E12.85666
G1 X36.187 Y132.692 E12.89733
G1 X35.439 Y132.187 E12.93797
G1 X34.738 Y131.617 E12.97865
G1 X34.09 Y130.988 E13.01931
G1 X33.501 Y130.303 E13.05999
G1 X32.974 Y129.57 E13.10063
G1 X32.515 Y128.792 E13.14131
G1 X32.126 Y127.977 E13.18197
G1 X31.81 Y127.131 E13.22263
G1 X31.571 Y126.26 E13.2633
G1 X31.409 Y125.372 E13.30394
G1 X31.328 Y124.497 E13.34351
G1 X31.312 Y124.172 E13.35816
G1 X31.3 Y123.67 E13.38077
G1 X31.301 Y111.521 E13.92779
G1 X31.311 Y110.856 E13.95773
G1 X31.365 Y109.954 E13.99842
G1 X31.498 Y109.061 E14.03907
G1 X31.709 Y108.183 E14.07973
G1 X31.998 Y107.327 E14.12041
G1 X32.361 Y106.5 E14.16107
G1 X32.795 Y105.709 E14.2017
G1 X33.298 Y104.958 E14.2424
G1 X33.866 Y104.256 E14.28305
G1 X34.493 Y103.606 E14.32372
G1 X35.175 Y103.014 E14.36438
G1 X35.907 Y102.485 E14.40505
G1 X36.683 Y102.023 E14.44571
G1 X37.497 Y101.632 E14.48637
G1 X38.643 Y101.22 E14.5412
G1 X39.768 Y100.891 E14.59398
G1 X42.296 Y100.114 E14.71306
G1 X44.666 Y99.313 E14.8257
G1 X47.09 Y98.416 E14.94208
G1 X49.395 Y97.489 E15.05394
G1 X51.748 Y96.464 E15.1695
G1 X54.057 Y95.379 E15.28437
G1 X56.31 Y94.241 E15.39802
G1 X58.571 Y93.018 E15.51376
G1 X60.749 Y91.759 E15.62704
G1 X62.912 Y90.425 E15.74146
G1 X65.018 Y89.045 E15.85483
G1 X67.134 Y87.568 E15.97102
G1 X69.154 Y86.073 E16.08417
G1 X71.148 Y84.509 E16.19828
G1 X73.116 Y82.871 E16.31356
G1 X75.016 Y81.197 E16.42758
G1 X76.864 Y79.474 E16.54134
G1 X78.672 Y77.692 E16.65565
G1 X80.447 Y75.838 E16.77121
G1 X82.157 Y73.948 E16.88597
G1 X83.828 Y71.994 E17.00174
G1 X84.657 Y70.995 E17.06019
G1 X85.264 Y70.326 E17.10086
G1 X85.928 Y69.714 E17.14152
G1 X86.643 Y69.162 E17.18219
G1 X87.404 Y68.677 E17.22283
G1 X88.205 Y68.26 E17.26349
G1 X89.04 Y67.916 E17.30415
G1 X89.903 Y67.647 E17.34485
G1 X90.785 Y67.455 E17.38549
G1 X91.681 Y67.342 E17.42616
G1 X92.223 Y67.313 E17.45059
G1 X92.83 Y67.3 E17.47793
G1 X141.938 Y67.301 E19.68906
G1 X142.639 Y67.311 E19.72063
G0 F7500 X142.645 Y66.911
G1 F1500 X143.564 Y66.964 E19.76208
G1 X144.475 Y67.097 E19.80353
G1 X145.371 Y67.308 E19.84498
G1 X146.246 Y67.596 E19.88645
G1 X147.092 Y67.959 E19.9279
G1 X147.903 Y68.394 E19.96934
G1 X148.674 Y68.898 E20.01082
G1 X149.398 Y69.467 E20.05228
G1 X150.07 Y70.096 E20.09372
G1 X150.64 Y70.728 E20.13204
G1 X152.363 Y72.797 E20.25327
G1 X154.031 Y74.689 E20.36684
G1 X155.786 Y76.572 E20.48274
G1 X157.533 Y78.342 E20.59472
G1 X159.379 Y80.111 E20.70984
G1 X161.231 Y81.786 E20.82227
G1 X163.171 Y83.444 E20.93718
G1 X165.131 Y85.027 E21.05062
G1 X167.151 Y86.563 E21.16488
G1 X169.196 Y88.03 E21.2782
G1 X171.298 Y89.45 E21.39241
G1 X173.428 Y90.802 E21.50601
G1 X175.601 Y92.096 E21.61988
G1 X177.813 Y93.332 E21.73397
G1 X180.056 Y94.502 E21.84788
G1 X182.326 Y95.606 E21.96154
G1 X184.621 Y96.642 E22.07491
G1 X187.015 Y97.644 E22.19176
G1 X189.311 Y98.527 E22.30253
G1 X191.7 Y99.37 E22.41659
G1 X194.144 Y100.156 E22.53219
G1 X196.453 Y100.83 E22.64049
G1 X197.325 Y101.126 E22.68195
G1 X198.168 Y101.496 E22.72341
G1 X198.975 Y101.939 E22.76486
G1 X199.741 Y102.45 E22.80632
G1 X200.46 Y103.025 E22.84777
G1 X201.126 Y103.66 E22.8892
G1 X201.734 Y104.351 E22.93064
G1 X202.281 Y105.092 E22.97211
G1 X202.761 Y105.878 E23.01358
G1 X203.17 Y106.702 E23.055
G1 X203.507 Y107.559 E23.09647
G1 X203.768 Y108.442 E23.13792
G1 X203.952 Y109.344 E23.17937
G1 X204.069 Y110.451 E23.22949
G1 X204.086 Y110.776 E23.24415
G1 X204.1 Y111.33 E23.2691
G1 X204.099 Y123.41 E23.81301
G1 X204.089 Y124.137 E23.84575
G1 X204.036 Y125.056 E23.8872
G1 X203.904 Y125.967 E23.92864
G1 X203.693 Y126.863 E23.97009
G1 X203.406 Y127.738 E24.01155
G1 X203.043 Y128.584 E24.053
G1 X202.609 Y129.396 E24.09446
G1 X202.105 Y130.167 E24.13593
G1 X201.537 Y130.891 E24.17737
G1 X200.908 Y131.563 E24.21881
G1 X200.223 Y132.178 E24.26026
G1 X199.487 Y132.731 E24.30171
G1 X198.706 Y133.219 E24.34318
G1 X197.886 Y133.637 E24.38462
G1 X197.032 Y133.982 E24.42609
G1 X196.469 Y134.164 E24.45273
G1 X195.333 Y134.497 E24.50603
G1 X192.834 Y135.264 E24.62373
G1 X190.453 Y136.069 E24.7369
G1 X188.092 Y136.942 E24.85024
G1 X185.717 Y137.898 E24.96552
G1 X183.433 Y138.893 E25.07769
G1 X181.115 Y139.983 E25.19303
G1 X178.881 Y141.111 E25.30571
G1 X176.64 Y142.323 E25.42042
G1 X174.456 Y143.586 E25.53402
G1 X172.295 Y144.918 E25.64832
G1 X170.201 Y146.291 E25.76106
G1 X168.11 Y147.75 E25.87587
G1 X166.085 Y149.248 E25.98928
G1 X164.088 Y150.815 E26.10357
G1 X162.161 Y152.418 E26.21643
G1 X160.238 Y154.113 E26.33185
G1 X158.406 Y155.821 E26.44463
G1 X156.615 Y157.586 E26.55785
G1 X154.856 Y159.424 E26.6724
G1 X153.161 Y161.296 E26.7861
G1 X151.438 Y163.312 E26.90551
G1 X150.651 Y164.26 E26.96099
G1 X150.033 Y164.943 E27.00246
G1 X149.358 Y165.569 E27.04391
G1 X148.631 Y166.134 E27.08537
G1 X147.858 Y166.634 E27.12682
G1 X147.044 Y167.065 E27.16829
G1 X146.196 Y167.423 E27.20974
G1 X145.32 Y167.707 E27.2512
G1 X144.423 Y167.914 E27.29265
G1 X143.512 Y168.042 E27.33407
G1 X142.788 Y168.087 E27.36673
G1 X142.17 Y168.1 E27.39457
G1 X93.055 Y168.099 E29.60601
G1 X92.357 Y168.089 E29.63744
G1 X91.438 Y168.036 E29.67889
G1 X90.527 Y167.903 E29.72035
G1 X89.631 Y167.692 E29.76179
G1 X88.757 Y167.404 E29.80323
G1 X87.91 Y167.041 E29.84472
G1 X87.099 Y166.606 E29.88616
G1 X86.329 Y166.102 E29.92759
G1 X85.605 Y165.533 E29.96905
G1 X84.933 Y164.903 E30.01053
G1 X84.368 Y164.279 E30.04843
G1 X82.628 Y162.193 E30.17074
G1 X80.964 Y160.304 E30.28409
G1 X79.215 Y158.427 E30.3996
G1 X77.46 Y156.65 E30.51206
G1 X75.621 Y154.889 E30.6267
G1 X73.78 Y153.224 E30.73847
G1 X71.813 Y151.542 E30.855
G1 X69.867 Y149.973 E30.96755
G1 X67.856 Y148.443 E31.08133
G1 X65.776 Y146.95 E31.19661
G1 X63.719 Y145.561 E31.30837
G1 X61.568 Y144.196 E31.42307
G1 X59.379 Y142.892 E31.5378
G1 X57.221 Y141.687 E31.64908
G1 X54.931 Y140.492 E31.76539
G1 X52.691 Y139.402 E31.87755
G1 X50.331 Y138.337 E31.99413
G1 X48.052 Y137.384 E32.10536
G1 X45.653 Y136.458 E32.22114
G1 X43.288 Y135.626 E32.33403
G1 X40.867 Y134.847 E32.44854
G1 X38.546 Y134.17 E32.5574
G1 X37.674 Y133.874 E32.59886
G1 X36.831 Y133.504 E32.64031
G1 X36.024 Y133.061 E32.68176
G1 X35.258 Y132.55 E32.72322
G1 X34.539 Y131.975 E32.76468
G1 X33.873 Y131.34 E32.80611
G1 X33.265 Y130.649 E32.84755
G1 X32.718 Y129.908 E32.88902
G1 X32.238 Y129.122 E32.93049
G1 X31.829 Y128.298 E32.97191
G1 X31.492 Y127.441 E33.01337
G1 X31.231 Y126.558 E33.05483
G1 X31.047 Y125.656 E33.09628
G1 X30.929 Y124.516 E33.14788
G1 X30.913 Y124.191 E33.16254
G1 X30.9 Y123.67 E33.186
G1 X30.901 Y111.515 E33.73329
G1 X30.911 Y110.85 E33.76324
G1 X30.965 Y109.931 E33.80469
G1 X31.098 Y109.02 E33.84614
G1 X31.31 Y108.124 E33.8876
G1 X31.599 Y107.249 E33.92909
G1 X31.963 Y106.404 E33.97052
G1 X32.398 Y105.593 E34.01195
G1 X32.903 Y104.822 E34.05345
G1 X33.472 Y104.099 E34.09488
G1 X34.102 Y103.427 E34.13635
G1 X34.788 Y102.813 E34.17781
G1 X35.524 Y102.261 E34.21923
G1 X36.306 Y101.774 E34.26071
G1 X37.127 Y101.358 E34.30215
G1 X37.981 Y101.014 E34.3436
G1 X38.531 Y100.836 E34.36963
G1 X39.667 Y100.503 E34.42293
G1 X42.166 Y99.736 E34.54064
G1 X44.547 Y98.931 E34.6538
G1 X46.908 Y98.058 E34.76714
G1 X49.283 Y97.102 E34.88242
G1 X51.567 Y96.107 E34.99459
G1 X53.885 Y95.017 E35.10993
G1 X56.119 Y93.889 E35.22261
G1 X58.36 Y92.677 E35.33732
G1 X60.544 Y91.414 E35.45092
G1 X62.705 Y90.082 E35.56522
G1 X64.799 Y88.709 E35.67796
G1 X66.89 Y87.25 E35.79277
G1 X68.915 Y85.752 E35.90618
G1 X70.912 Y84.185 E36.02047
G1 X72.839 Y82.582 E36.13333
G1 X74.762 Y80.887 E36.24875
G1 X76.594 Y79.179 E36.36153
G1 X78.385 Y77.414 E36.47475
G1 X80.144 Y75.576 E36.5893
G1 X81.839 Y73.704 E36.703
G1 X83.562 Y71.688 E36.82241
G1 X84.349 Y70.74 E36.87789
G1 X84.967 Y70.057 E36.91936
G1 X85.642 Y69.431 E36.96081
G1 X86.369 Y68.866 E37.00227
G1 X87.142 Y68.366 E37.04372
G1 X87.956 Y67.935 E37.08519
G1 X88.804 Y67.577 E37.12664
G1 X89.68 Y67.293 E37.1681
G1 X90.577 Y67.086 E37.20955
G1 X91.488 Y66.958 E37.25097
G1 X92.212 Y66.913 E37.28363
G1 X92.83 Y66.9 E37.31147
G1 X141.944 Y66.901 E39.52287
G1 X142.645 Y66.911 E39.55444
G0 F7500 X142.651 Y66.511
G1 F1500 X143.587 Y66.564 E39.59665
G1 X144.516 Y66.697 E39.6389
G1 X145.429 Y66.909 E39.68111
G1 X146.322 Y67.197 E39.72335
G1 X147.186 Y67.561 E39.76557
G1 X148.017 Y67.997 E39.80782
G1 X148.807 Y68.502 E39.85004
G1 X149.551 Y69.072 E39.89224
G1 X150.244 Y69.704 E39.93447
G1 X150.948 Y70.472 E39.98138
G1 X152.672 Y72.543 E40.10271
G1 X154.357 Y74.454 E40.21742
G1 X156.046 Y76.266 E40.32896
G1 X157.812 Y78.055 E40.44214
G1 X159.641 Y79.808 E40.55621
G1 X161.514 Y81.501 E40.66989
G1 X163.42 Y83.131 E40.78282
G1 X165.38 Y84.713 E40.89623
G1 X167.398 Y86.248 E41.01039
G1 X169.431 Y87.706 E41.12303
G1 X171.491 Y89.097 E41.23495
G1 X173.642 Y90.463 E41.34968
G1 X175.822 Y91.762 E41.46394
G1 X177.987 Y92.971 E41.57559
G1 X180.238 Y94.145 E41.6899
G1 X182.515 Y95.253 E41.80392
G1 X184.774 Y96.273 E41.91552
G1 X187.135 Y97.261 E42.03076
G1 X189.483 Y98.163 E42.14401
G1 X191.808 Y98.984 E42.25503
G1 X194.274 Y99.777 E42.37167
G1 X196.565 Y100.446 E42.47913
G1 X197.454 Y100.747 E42.52139
G1 X198.313 Y101.122 E42.56359
G1 X199.137 Y101.569 E42.6058
G1 X199.92 Y102.085 E42.64802
G1 X200.657 Y102.666 E42.69028
G1 X201.341 Y103.308 E42.73252
G1 X201.968 Y104.005 E42.77473
G1 X202.534 Y104.753 E42.81697
G1 X203.033 Y105.547 E42.85919
G1 X203.464 Y106.38 E42.90142
G1 X203.821 Y107.247 E42.94364
G1 X204.104 Y108.142 E42.9859
G1 X204.309 Y109.057 E43.02812
G1 X204.468 Y110.43 E43.09036
G1 X204.485 Y110.755 E43.10501
G1 X204.5 Y111.33 E43.13091
G1 X204.499 Y123.415 E43.67505
G1 X204.489 Y124.142 E43.70778
G1 X204.436 Y125.079 E43.75004
G1 X204.304 Y126.007 E43.79224
G1 X204.093 Y126.921 E43.83448
G1 X203.804 Y127.813 E43.8767
G1 X203.441 Y128.678 E43.91894
G1 X203.006 Y129.509 E43.96117
G1 X202.501 Y130.299 E44.00339
G1 X201.931 Y131.044 E44.04562
G1 X201.3 Y131.738 E44.08786
G1 X200.611 Y132.375 E44.13011
G1 X199.871 Y132.951 E44.17233
G1 X199.085 Y133.462 E44.21454
G1 X198.258 Y133.904 E44.25676
G1 X197.396 Y134.274 E44.299
G1 X196.582 Y134.548 E44.33767
G1 X195.387 Y134.898 E44.39374
G1 X192.974 Y135.639 E44.50739
G1 X190.583 Y136.448 E44.62104
G1 X188.244 Y137.313 E44.73333
G1 X185.878 Y138.265 E44.84816
G1 X183.584 Y139.264 E44.96082
G1 X181.286 Y140.344 E45.07515
G1 X179.073 Y141.462 E45.18678
G1 X176.839 Y142.669 E45.30111
G1 X174.645 Y143.938 E45.41524
G1 X172.545 Y145.233 E45.52632
G1 X170.404 Y146.637 E45.6416
G1 X168.331 Y148.083 E45.75541
G1 X166.347 Y149.552 E45.86656
G1 X164.346 Y151.122 E45.98108
G1 X162.416 Y152.728 E46.09413
G1 X160.511 Y154.405 E46.2084
G1 X158.677 Y156.116 E46.32134
G1 X156.902 Y157.865 E46.43354
G1 X155.14 Y159.705 E46.54825
G1 X153.462 Y161.559 E46.66084
G1 X151.765 Y163.545 E46.77846
G1 X150.959 Y164.516 E46.83528
G1 X150.329 Y165.211 E46.87751
G1 X149.643 Y165.851 E46.91976
G1 X148.905 Y166.429 E46.96196
G1 X148.121 Y166.943 E47.00417
G1 X147.295 Y167.388 E47.04642
G1 X146.434 Y167.761 E47.08867
G1 X145.545 Y168.059 E47.13089
G1 X144.634 Y168.281 E47.1731
G1 X143.707 Y168.424 E47.21534
G1 X142.799 Y168.487 E47.25632
G1 X142.17 Y168.5 E47.28465
G1 X93.049 Y168.499 E49.49636
G1 X92.351 Y168.489 E49.5278
G1 X91.415 Y168.435 E49.57001
