;FLAVOR:Marlin
M117 Time Left 0h22m41s
;TIME:1361
;Filament used: 0.328085m
;Layer height: 0.12
;MINX:99.983
;MINY:99.976
;MINZ:0.12
;MAXX:135.024
;MAXY:135.029
;MAXZ:20.04
;POSTPROCESSED
;Generated with Cura_SteamEngine 5.2.1
M140 S60
M105
M190 S60
M104 S205
M105
M109 S205
M82 ;absolute extrusion mode
; Ender 3 Custom Start G-code
G92 E0 ; Reset Extruder
G28 ; Home all axes
G1 Z2.0 F3000 ; Move Z Axis up little to prevent scratching of Heat Bed
G1 X0.1 Y20 Z0.3 F5000.0 ; Move to start position
G1 X0.1 Y200.0 Z0.3 F1500.0 E15 ; Draw the first line
G1 X0.4 Y200.0 Z0.3 F5000.0 ; Move to side a little
G1 X0.4 Y20 Z0.3 F1500.0 E30 ; Draw the second line
G92 E0 ; Reset Extruder
G1 Z2.0 F3000 ; Move Z Axis up little to prevent scratching of Heat Bed
G1 X5 Y20 Z0.3 F5000.0 ; Move over to prevent blob squish
G92 E0
G92 E0
G1 F2700 E-5
;LAYER_COUNT:167
;LAYER:0
M107
M204 S500
M205 X12 Y12
G0 F6000 X105.262 Y104.953 Z0.12
;TYPE:SKIRT
G1 F2700 E0
G1 F1200 X105.803 Y104.451 E0.01469
G1 X106.37 Y103.953 E0.02971
G1 X107.333 Y103.212 E0.0539
G1 X107.927 Y102.816 E0.06811
G1 X108.487 Y102.465 E0.08127
G1 X109.649 Y101.831 E0.10762
G1 X110.318 Y101.516 E0.12234
G1 X110.861 Y101.275 E0.13416
G1 X112.116 Y100.82 E0.16074
G1 X112.793 Y100.62 E0.17479
G1 X113.442 Y100.444 E0.18818
G1 X114.687 Y100.194 E0.21345
G1 X115.506 Y100.087 E0.2299
G1 X116.099 Y100.028 E0.24176
G1 X117.413 Y99.976 E0.26793
G1 X118.368 Y99.995 E0.28695
G1 X119.306 Y100.054 E0.30566
G1 X120.029 Y100.154 E0.32019
G1 X120.77 Y100.282 E0.33516
G1 X121.423 Y100.412 E0.34841
G1 X122.652 Y100.747 E0.37377
G1 X123.35 Y100.981 E0.38842
G1 X123.944 Y101.197 E0.401
G1 X125.104 Y101.713 E0.42628
G1 X125.851 Y102.098 E0.443
G1 X126.497 Y102.454 E0.45769
G1 X127.487 Y103.086 E0.48107
G1 X128.135 Y103.565 E0.49711
G1 X128.614 Y103.943 E0.50926
G1 X129.575 Y104.796 E0.53483
G1 X130.084 Y105.304 E0.54915
G1 X130.533 Y105.772 E0.56206
G1 X131.374 Y106.776 E0.58813
G1 X131.822 Y107.395 E0.60334
G1 X132.181 Y107.923 E0.61605
G1 X132.861 Y109.066 E0.64253
G1 X133.223 Y109.767 E0.65823
G1 X133.472 Y110.275 E0.66949
G1 X133.972 Y111.51 E0.69602
G1 X134.189 Y112.155 E0.70956
G1 X134.381 Y112.772 E0.72242
G1 X134.683 Y114.042 E0.74841
G1 X134.802 Y114.718 E0.76207
G1 X134.897 Y115.339 E0.77458
G1 X135.007 Y116.65 E0.80077
G1 X135.024 Y117.351 E0.81473
G1 X135.024 Y118.079 E0.82922
G1 X134.927 Y119.447 E0.85652
G1 X134.82 Y120.199 E0.87164
G1 X134.725 Y120.761 E0.88298
G1 X134.426 Y122.054 E0.9094
G1 X134.226 Y122.73 E0.92344
G1 X134.024 Y123.356 E0.93653
G1 X133.549 Y124.546 E0.96204
G1 X133.264 Y125.155 E0.97542
G1 X132.977 Y125.731 E0.98823
G1 X132.318 Y126.854 E1.01415
G1 X131.86 Y127.538 E1.03054
G1 X131.444 Y128.126 E1.04487
G1 X130.652 Y129.098 E1.06983
G1 X130.133 Y129.654 E1.08497
G1 X129.731 Y130.061 E1.09636
G1 X128.741 Y130.949 E1.12283
G1 X128.197 Y131.381 E1.13666
G1 X127.627 Y131.812 E1.15089
G1 X126.548 Y132.519 E1.17657
G1 X125.868 Y132.9 E1.19208
G1 X125.342 Y133.176 E1.20391
G1 X124.135 Y133.72 E1.23026
G1 X123.396 Y134.001 E1.246
G1 X122.869 Y134.188 E1.25713
G1 X121.59 Y134.543 E1.28355
G1 X120.88 Y134.695 E1.29801
G1 X120.284 Y134.809 E1.31009
G1 X118.978 Y134.965 E1.33627
G1 X118.254 Y135.008 E1.35071
G1 X117.683 Y135.029 E1.36208
G1 X116.366 Y134.986 E1.38831
G1 X115.52 Y134.908 E1.40522
G1 X114.775 Y134.819 E1.42016
G1 X113.528 Y134.58 E1.44543
G1 X112.837 Y134.399 E1.45965
G1 X112.279 Y134.237 E1.47122
G1 X111.023 Y133.788 E1.49777
G1 X110.388 Y133.517 E1.51151
G1 X109.846 Y133.272 E1.52335
G1 X108.69 Y132.652 E1.54947
G1 X108.047 Y132.256 E1.5645
G1 X107.477 Y131.886 E1.57803
G1 X106.462 Y131.128 E1.60324
G1 X105.925 Y130.664 E1.61737
G1 X105.392 Y130.176 E1.63176
G1 X104.465 Y129.219 E1.65828
G1 X104.032 Y128.714 E1.67152
G1 X103.645 Y128.241 E1.68369
G1 X102.868 Y127.148 E1.71038
G1 X102.453 Y126.482 E1.726
G1 X102.073 Y125.832 E1.74099
G1 X101.561 Y124.813 E1.76369
G1 X101.276 Y124.135 E1.77833
G1 X101.02 Y123.472 E1.79248
G1 X100.612 Y122.187 E1.81932
G1 X100.437 Y121.491 E1.8336
G1 X100.307 Y120.924 E1.84518
G1 X100.104 Y119.631 E1.87124
G1 X100.029 Y118.856 E1.88674
G1 X99.986 Y118.269 E1.89845
G1 X99.983 Y116.948 E1.92475
G1 X100.029 Y116.149 E1.94068
G1 X100.073 Y115.594 E1.95176
G1 X100.27 Y114.289 E1.97803
G1 X100.418 Y113.592 E1.99222
G1 X100.561 Y112.986 E2.00461
G1 X100.948 Y111.737 E2.03064
G1 X101.212 Y111.035 E2.04557
G1 X101.473 Y110.391 E2.0594
G1 X101.986 Y109.324 E2.08297
G1 X102.38 Y108.628 E2.09889
G1 X102.715 Y108.079 E2.11169
G1 X103.498 Y106.959 E2.1389
G1 X103.994 Y106.335 E2.15476
G1 X104.351 Y105.906 E2.16587
G1 X105.262 Y104.953 E2.19212
G0 F6000 X105.548 Y105.261
G1 F1200 X106.089 Y104.759 E2.20681
G1 X106.644 Y104.271 E2.22152
G1 X107.57 Y103.559 E2.24477
G1 X108.151 Y103.172 E2.25867
G1 X108.711 Y102.821 E2.27182
G1 X109.828 Y102.211 E2.29716
G1 X110.497 Y101.896 E2.31188
G1 X111.028 Y101.66 E2.32345
G1 X112.235 Y101.223 E2.349
G1 X112.912 Y101.023 E2.36305
G1 X113.549 Y100.851 E2.37619
G1 X114.746 Y100.61 E2.40049
G1 X115.548 Y100.505 E2.41659
G1 X116.141 Y100.446 E2.42846
G1 X117.404 Y100.396 E2.45362
G1 X118.359 Y100.415 E2.47263
G1 X119.28 Y100.473 E2.491
G1 X119.957 Y100.568 E2.50461
G1 X120.698 Y100.696 E2.51958
G1 X121.336 Y100.823 E2.53253
G1 X122.519 Y101.145 E2.55693
G1 X123.217 Y101.379 E2.57159
G1 X123.796 Y101.59 E2.58386
G1 X124.912 Y102.086 E2.60817
G1 X125.659 Y102.471 E2.62489
G1 X126.29 Y102.819 E2.63924
G1 X127.243 Y103.427 E2.66174
G1 X127.875 Y103.894 E2.67738
G1 X128.354 Y104.272 E2.68953
G1 X129.278 Y105.093 E2.71414
G1 X129.787 Y105.601 E2.72845
G1 X130.227 Y106.06 E2.74111
G1 X131.037 Y107.026 E2.7662
G1 X131.475 Y107.631 E2.78107
G1 X131.834 Y108.159 E2.79378
G1 X132.488 Y109.259 E2.81925
G1 X132.85 Y109.96 E2.83496
G1 X133.093 Y110.456 E2.84595
G1 X133.574 Y111.644 E2.87147
G1 X133.791 Y112.289 E2.88501
G1 X133.979 Y112.893 E2.89761
G1 X134.269 Y114.115 E2.92261
G1 X134.388 Y114.791 E2.93627
G1 X134.481 Y115.399 E2.94852
G1 X134.587 Y116.66 E2.97371
G1 X134.604 Y117.361 E2.98766
G1 X134.604 Y118.075 E3.00188
G1 X134.511 Y119.392 E3.02816
G1 X134.406 Y120.129 E3.04298
G1 X134.311 Y120.691 E3.05432
G1 X134.023 Y121.935 E3.07974
G1 X133.823 Y122.611 E3.09377
G1 X133.626 Y123.224 E3.10659
G1 X133.169 Y124.368 E3.13111
G1 X132.884 Y124.977 E3.1445
G1 X132.603 Y125.54 E3.15702
G1 X131.969 Y126.62 E3.18195
G1 X131.511 Y127.304 E3.19834
G1 X131.103 Y127.879 E3.21238
G1 X130.341 Y128.815 E3.2364
G1 X129.834 Y129.359 E3.2512
G1 X129.432 Y129.766 E3.26259
G1 X128.48 Y130.62 E3.28805
G1 X127.936 Y131.052 E3.30188
G1 X127.376 Y131.474 E3.31584
G1 X126.338 Y132.155 E3.34055
G1 X125.673 Y132.528 E3.35573
G1 X125.147 Y132.804 E3.36755
G1 X123.986 Y133.327 E3.3929
G1 X123.247 Y133.608 E3.40864
G1 X122.733 Y133.791 E3.4195
G1 X121.502 Y134.132 E3.44493
G1 X120.792 Y134.284 E3.45938
G1 X120.209 Y134.395 E3.47119
G1 X118.953 Y134.545 E3.49637
G1 X118.229 Y134.588 E3.51081
G1 X117.671 Y134.609 E3.52193
G1 X116.404 Y134.568 E3.54716
G1 X115.558 Y134.49 E3.56407
G1 X114.83 Y134.402 E3.57867
G1 X113.63 Y134.173 E3.60299
G1 X112.954 Y133.995 E3.6169
G1 X112.396 Y133.833 E3.62847
G1 X111.188 Y133.402 E3.654
G1 X110.553 Y133.131 E3.66774
G1 X110.023 Y132.891 E3.67933
G1 X108.911 Y132.294 E3.70445
G1 X108.268 Y131.898 E3.71948
G1 X107.709 Y131.536 E3.73274
G1 X106.732 Y130.806 E3.75702
G1 X106.209 Y130.354 E3.77078
G1 X105.676 Y129.866 E3.78516
G1 X104.784 Y128.945 E3.81069
G1 X104.351 Y128.44 E3.82393
G1 X103.971 Y127.977 E3.83585
G1 X103.224 Y126.926 E3.86152
G1 X102.809 Y126.26 E3.87714
G1 X102.438 Y125.624 E3.8918
G1 X101.946 Y124.644 E3.91362
G1 X101.668 Y123.984 E3.92788
G1 X101.412 Y123.321 E3.94203
G1 X101.019 Y122.084 E3.96786
G1 X100.844 Y121.388 E3.98215
G1 X100.718 Y120.835 E3.99344
G1 X100.522 Y119.591 E4.01851
G1 X100.447 Y118.816 E4.03401
G1 X100.406 Y118.243 E4.04544
G1 X100.403 Y116.972 E4.07074
G1 X100.449 Y116.173 E4.08668
G1 X100.492 Y115.631 E4.0975
G1 X100.681 Y114.376 E4.12276
G1 X100.829 Y113.679 E4.13695
G1 X100.969 Y113.086 E4.14908
G1 X101.341 Y111.885 E4.1741
G1 X101.605 Y111.183 E4.18903
G1 X101.861 Y110.553 E4.20257
G1 X102.354 Y109.526 E4.22525
G1 X102.739 Y108.847 E4.24079
G1 X103.074 Y108.298 E4.25359
G1 X103.827 Y107.221 E4.27975
G1 X104.323 Y106.597 E4.29561
G1 X104.671 Y106.177 E4.30647
G1 X105.548 Y105.261 E4.33172
G0 F6000 X105.833 Y105.569
G1 F1200 X106.374 Y105.067 E4.34641
G1 X106.918 Y104.59 E4.36081
G1 X107.807 Y103.905 E4.38315
G1 X108.374 Y103.528 E4.3967
G1 X108.934 Y103.177 E4.40986
G1 X110.007 Y102.591 E4.4342
G1 X110.676 Y102.276 E4.44892
G1 X111.195 Y102.046 E4.46022
G1 X112.354 Y101.625 E4.48476
G1 X113.031 Y101.425 E4.49882
G1 X113.655 Y101.257 E4.51168
G1 X114.805 Y101.025 E4.53503
G1 X115.589 Y100.923 E4.55077
G1 X116.182 Y100.864 E4.56263
G1 X117.396 Y100.816 E4.58682
G1 X118.351 Y100.835 E4.60583
G1 X119.253 Y100.893 E4.62383
G1 X119.886 Y100.982 E4.63655
G1 X120.627 Y101.11 E4.65152
G1 X121.249 Y101.234 E4.66414
G1 X122.385 Y101.544 E4.68758
G1 X123.083 Y101.778 E4.70224
G1 X123.647 Y101.983 E4.71418
G1 X124.719 Y102.459 E4.73753
G1 X125.466 Y102.844 E4.75426
G1 X126.083 Y103.185 E4.7683
G1 X126.998 Y103.769 E4.7899
G1 X127.615 Y104.224 E4.80516
G1 X128.094 Y104.602 E4.81731
G1 X128.981 Y105.39 E4.84093
G1 X129.49 Y105.898 E4.85524
G1 X129.922 Y106.349 E4.86768
G1 X130.7 Y107.276 E4.89177
G1 X131.127 Y107.867 E4.90628
G1 X131.486 Y108.395 E4.91899
G1 X132.115 Y109.451 E4.94346
G1 X132.477 Y110.152 E4.95916
G1 X132.714 Y110.637 E4.96991
G1 X133.176 Y111.778 E4.99441
G1 X133.393 Y112.423 E5.00796
G1 X133.577 Y113.015 E5.0203
G1 X133.855 Y114.188 E5.0443
G1 X133.974 Y114.864 E5.05796
G1 X134.065 Y115.459 E5.06994
G1 X134.167 Y116.67 E5.09413
G1 X134.184 Y117.371 E5.10809
G1 X134.184 Y118.072 E5.12205
G1 X134.095 Y119.337 E5.14729
G1 X133.992 Y120.059 E5.16181
G1 X133.897 Y120.621 E5.17315
G1 X133.62 Y121.816 E5.19757
G1 X133.42 Y122.492 E5.2116
G1 X133.227 Y123.091 E5.22413
G1 X132.788 Y124.19 E5.24769
G1 X132.503 Y124.799 E5.26107
G1 X132.229 Y125.349 E5.27331
G1 X131.62 Y126.387 E5.29726
G1 X131.162 Y127.071 E5.31365
G1 X130.763 Y127.633 E5.32737
G1 X130.031 Y128.532 E5.35045
G1 X129.535 Y129.064 E5.36493
G1 X129.133 Y129.471 E5.37631
G1 X128.218 Y130.292 E5.40078
G1 X127.674 Y130.724 E5.41461
G1 X127.126 Y131.137 E5.42827
G1 X126.129 Y131.79 E5.452
G1 X125.478 Y132.156 E5.46686
G1 X124.952 Y132.432 E5.47869
G1 X123.837 Y132.934 E5.50303
G1 X123.098 Y133.215 E5.51877
G1 X122.596 Y133.393 E5.52937
G1 X121.414 Y133.722 E5.55379
G1 X120.704 Y133.874 E5.56825
G1 X120.135 Y133.982 E5.57978
G1 X118.928 Y134.126 E5.60397
G1 X118.204 Y134.169 E5.61841
G1 X117.66 Y134.189 E5.62925
G1 X116.443 Y134.15 E5.65349
G1 X115.597 Y134.072 E5.6704
G1 X114.885 Y133.986 E5.68467
G1 X113.732 Y133.765 E5.70804
G1 X113.071 Y133.592 E5.72164
G1 X112.513 Y133.43 E5.73321
G1 X111.352 Y133.016 E5.75775
G1 X110.717 Y132.745 E5.77149
G1 X110.199 Y132.51 E5.78281
G1 X109.131 Y131.937 E5.80694
G1 X108.488 Y131.541 E5.82197
G1 X107.94 Y131.185 E5.83498
G1 X107.002 Y130.485 E5.85828
G1 X106.492 Y130.044 E5.8717
G1 X105.959 Y129.556 E5.88609
G1 X105.103 Y128.672 E5.91058
G1 X104.67 Y128.167 E5.92382
G1 X104.298 Y127.713 E5.93551
G1 X103.581 Y126.704 E5.96015
G1 X103.166 Y126.038 E5.97577
G1 X102.803 Y125.417 E5.99009
G1 X102.33 Y124.475 E6.01107
G1 X102.059 Y123.833 E6.02494
G1 X101.803 Y123.17 E6.03909
G1 X101.426 Y121.982 E6.0639
G1 X101.251 Y121.286 E6.07818
G1 X101.128 Y120.745 E6.08923
G1 X100.94 Y119.55 E6.11331
G1 X100.865 Y118.775 E6.12881
G1 X100.825 Y118.217 E6.13994
G1 X100.822 Y116.996 E6.16425
G1 X100.868 Y116.197 E6.18018
G1 X100.91 Y115.669 E6.19073
G1 X101.092 Y114.463 E6.215
G1 X101.24 Y113.766 E6.22919
G1 X101.377 Y113.187 E6.24103
G1 X101.734 Y112.033 E6.26508
G1 X101.998 Y111.331 E6.28001
G1 X102.249 Y110.714 E6.29327
G1 X102.722 Y109.727 E6.31505
G1 X103.097 Y109.066 E6.33018
G1 X103.432 Y108.517 E6.34298
G1 X104.155 Y107.482 E6.36812
G1 X104.651 Y106.858 E6.38398
G1 X104.991 Y106.449 E6.39457
G1 X105.833 Y105.569 E6.41882
G1 F2700 E1.41882
;MESH:soporte_m_4.stl
G0 F6000 X116.578 Y114.431
G0 X118.612 Y114.844
G0 X119.728 Y115.677
G0 X120.524 Y117.16
;TYPE:WALL-INNER
G1 F2700 E6.41882
G1 F1200 X120.522 Y117.851 E6.43257
G1 X120.318 Y118.637 E6.44874
G1 X119.938 Y119.355 E6.46491
G1 X119.789 Y119.535 E6.46956
G1 X119.385 Y119.868 E6.47998
G1 X118.809 Y120.27 E6.49396
G1 X118.582 Y120.37 E6.4989
G1 X117.978 Y120.483 E6.51113
G1 X117.322 Y120.557 E6.52427
G1 X116.563 Y120.368 E6.53984
G1 X116.001 Y120.149 E6.55185
G1 X115.745 Y119.977 E6.55799
G1 X115.316 Y119.567 E6.5698
G1 X114.862 Y119.055 E6.58342
G1 X114.742 Y118.811 E6.58884
G1 X114.474 Y117.762 E6.61039
G1 X114.444 Y117.584 E6.61398
G1 X114.444 Y117.361 E6.61842
G1 X114.742 Y116.187 E6.64253
G1 X114.863 Y115.94 E6.64801
G1 X115.279 Y115.47 E6.6605
G1 X115.745 Y115.021 E6.67338
G1 X116.001 Y114.849 E6.67952
G1 X116.596 Y114.623 E6.69219
G1 X117.329 Y114.442 E6.70722
G1 X118.056 Y114.53 E6.7218
G1 X118.592 Y114.634 E6.73267
G1 X118.812 Y114.734 E6.73748
G1 X119.386 Y115.133 E6.75139
G1 X119.816 Y115.493 E6.76256
G1 X119.943 Y115.65 E6.76658
G1 X120.32 Y116.369 E6.78274
G1 X120.524 Y117.16 E6.799
G0 F6000 X120.206 Y118.291
G0 X119.728 Y119.402
G0 X119.549 Y119.184
G1 F1200 X119.129 Y119.534 E6.80988
G1 X118.521 Y119.953 E6.82458
G1 X117.928 Y120.065 E6.83659
G1 X117.368 Y120.13 E6.84782
G1 X116.707 Y119.971 E6.86135
G1 X116.111 Y119.745 E6.87404
G1 X115.616 Y119.273 E6.88765
G1 X115.171 Y118.771 E6.90101
G1 X114.881 Y117.658 E6.9239
G1 X114.863 Y117.551 E6.92606
G1 X114.863 Y117.418 E6.92871
G1 X115.163 Y116.236 E6.95298
G1 X115.616 Y115.725 E6.96658
G1 X116.028 Y115.331 E6.97793
G1 X116.196 Y115.221 E6.98192
G1 X116.708 Y115.028 E6.99282
G1 X117.371 Y114.869 E7.00639
G1 X117.934 Y114.936 E7.01767
G1 X118.517 Y115.046 E7.02948
G1 X119.131 Y115.467 E7.0443
G1 X119.551 Y115.816 E7.05517
G1 X119.925 Y116.518 E7.07101
G1 X120.103 Y117.2 E7.08504
G1 X120.102 Y117.804 E7.09706
G1 X119.924 Y118.482 E7.11102
G1 X119.549 Y119.184 E7.12686
G1 F2700 E2.12686
G0 F6000 X119.728 Y119.402
G0 X120.13 Y118.557
G0 X120.283 Y117.978
G0 X120.357 Y117.06
G1 F2700 E7.12686
G0 F6000 X119.681 Y117.239
;TYPE:WALL-OUTER
G1 F1200 X119.68 Y117.762 E7.13727
G1 X119.529 Y118.327 E7.14891
G1 X119.219 Y118.917 E7.16218
G1 X118.865 Y119.206 E7.17127
G1 X118.369 Y119.552 E7.18331
G1 X117.878 Y119.648 E7.19327
G1 X117.375 Y119.702 E7.20334
G1 X116.819 Y119.566 E7.21474
G1 X116.339 Y119.382 E7.22497
G1 X115.907 Y118.97 E7.23685
G1 X115.546 Y118.562 E7.2477
G1 X115.282 Y117.519 E7.26911
G1 X115.282 Y117.485 E7.26979
G1 X115.542 Y116.446 E7.29111
G1 X115.916 Y116.019 E7.30241
G1 X116.339 Y115.615 E7.31405
G1 X116.82 Y115.433 E7.32429
G1 X117.395 Y115.293 E7.33607
G1 X117.896 Y115.355 E7.34612
G1 X118.364 Y115.448 E7.35562
G1 X118.881 Y115.806 E7.36814
G1 X119.223 Y116.088 E7.37696
G1 X119.523 Y116.658 E7.38978
G1 X119.681 Y117.239 E7.40177
G1 F2700 E2.40177
G0 F6000 X120.357 Y117.06
G0 X120.321 Y117.841
G0 X120.13 Y118.557
G0 X119.768 Y119.247
G0 X118.43 Y120.593
G0 X118.464 Y122.631
G0 X118.133 Y122.91
;TYPE:WALL-INNER
G1 F2700 E7.40177
G1 F1200 X118.937 Y122.753 E7.41808
G1 X119.701 Y122.48 E7.43423
G1 X120.479 Y122.058 E7.45184
G1 X121.127 Y121.562 E7.46809
G1 X121.691 Y120.977 E7.48426
G1 X122.197 Y120.253 E7.50185
G1 X122.555 Y119.53 E7.51791
G1 X122.804 Y118.734 E7.53451
G1 X122.933 Y117.909 E7.55113
G1 X122.93 Y117.15 E7.56624
G1 X122.928 Y117.059 E7.56805
G1 X122.803 Y116.264 E7.58407
G1 X122.556 Y115.47 E7.60063
G1 X122.197 Y114.746 E7.61671
G1 X121.691 Y114.023 E7.63428
G1 X121.124 Y113.436 E7.65052
G1 X120.478 Y112.941 E7.66673
G1 X119.7 Y112.519 E7.68434
G1 X118.936 Y112.247 E7.70049
G1 X118.134 Y112.091 E7.71675
G1 X117.324 Y112.058 E7.73289
G1 X116.444 Y112.158 E7.75052
G1 X115.658 Y112.376 E7.76676
G1 X114.913 Y112.708 E7.78299
G1 X114.197 Y113.168 E7.79993
G1 X113.567 Y113.733 E7.81678
G1 X113.048 Y114.361 E7.833
G1 X112.615 Y115.087 E7.84982
G1 X112.303 Y115.874 E7.86668
G1 X112.118 Y116.672 E7.88298
G1 X112.053 Y117.502 E7.89955
