;FLAVOR:Marlin
M117 Time Left 0h17m01s
;TIME:1021
;Filament used: 0.407878m
;Layer height: 0.2
;MINX:100.1
;MINY:100.096
;MINZ:0.28
;MAXX:134.909
;MAXY:134.909
;MAXZ:20.08
;POSTPROCESSED
;Generated with Cura_SteamEngine 5.2.1
M140 S60
M105
M190 S60
M104 S205
M105
M109 S205
M82 ;absolute extrusion mode
; Ender 3 Custom Start G-code
G92 E0 ; Reset Extruder
G28 ; Home all axes
G1 Z2.0 F3000 ; Move Z Axis up little to prevent scratching of Heat Bed
G1 X0.1 Y20 Z0.3 F5000.0 ; Move to start position
G1 X0.1 Y200.0 Z0.3 F1500.0 E15 ; Draw the first line
G1 X0.4 Y200.0 Z0.3 F5000.0 ; Move to side a little
G1 X0.4 Y20 Z0.3 F1500.0 E30 ; Draw the second line
G92 E0 ; Reset Extruder
G1 Z2.0 F3000 ; Move Z Axis up little to prevent scratching of Heat Bed
G1 X5 Y20 Z0.3 F5000.0 ; Move over to prevent blob squish
G92 E0
G92 E0
G1 F2700 E-6
;LAYER_COUNT:100
;LAYER:0
M107
M204 S500
M205 X5 Y5
G0 F7500 X105.364 Y105.026 Z0.28
M205 X8 Y8
;TYPE:SKIRT
G1 F2700 E0
G1 F1500 X106.025 Y104.413 E0.04262
G1 X106.743 Y103.801 E0.08722
G1 X107.364 Y103.351 E0.12348
G1 X108.017 Y102.91 E0.16073
G1 X108.559 Y102.562 E0.19118
G1 X109.662 Y101.952 E0.25077
G1 X110.396 Y101.611 E0.28904
G1 X110.969 Y101.366 E0.3185
G1 X112.173 Y100.931 E0.37902
G1 X112.755 Y100.758 E0.40773
G1 X113.536 Y100.549 E0.44595
G1 X114.759 Y100.304 E0.50492
G1 X115.551 Y100.202 E0.54267
G1 X116.083 Y100.149 E0.56795
G1 X117.396 Y100.096 E0.63007
G1 X118.137 Y100.11 E0.66511
G1 X118.723 Y100.135 E0.69284
G1 X120.027 Y100.281 E0.75488
G1 X120.763 Y100.408 E0.79019
G1 X121.397 Y100.534 E0.82075
G1 X122.606 Y100.862 E0.87997
G1 X123.228 Y101.069 E0.91096
G1 X123.921 Y101.319 E0.94579
G1 X125.073 Y101.819 E1.00517
G1 X125.781 Y102.187 E1.04289
G1 X126.345 Y102.502 E1.07343
G1 X127.492 Y103.239 E1.13789
G1 X128.104 Y103.696 E1.174
G1 X128.569 Y104.064 E1.20203
G1 X129.541 Y104.931 E1.26361
G1 X129.949 Y105.34 E1.29092
G1 X130.501 Y105.922 E1.32885
G1 X131.283 Y106.856 E1.38644
G1 X131.747 Y107.495 E1.42377
G1 X132.06 Y107.955 E1.45008
G1 X132.73 Y109.077 E1.51186
G1 X133.149 Y109.882 E1.55476
G1 X133.549 Y110.736 E1.59935
G1 X133.823 Y111.464 E1.63612
G1 X134.092 Y112.262 E1.67594
G1 X134.291 Y112.911 E1.70803
G1 X134.563 Y114.071 E1.76436
G1 X134.672 Y114.683 E1.79375
G1 X134.782 Y115.4 E1.82804
G1 X134.893 Y116.646 E1.88718
G1 X134.909 Y117.492 E1.92718
G1 X134.901 Y118.102 E1.95603
G1 X134.815 Y119.341 E2.01474
G1 X134.709 Y120.104 E2.05116
G1 X134.596 Y120.77 E2.0831
G1 X134.292 Y122.077 E2.14654
G1 X134.12 Y122.656 E2.1751
G1 X133.945 Y123.207 E2.20243
G1 X133.616 Y124.09 E2.24698
G1 X133.408 Y124.553 E2.27097
G1 X132.993 Y125.424 E2.31659
G1 X132.552 Y126.258 E2.36119
G1 X132.182 Y126.847 E2.39407
G1 X131.757 Y127.479 E2.43008
G1 X131.383 Y128.008 E2.46071
G1 X130.603 Y128.969 E2.51923
G1 X130.051 Y129.56 E2.55746
G1 X129.598 Y130.016 E2.58785
G1 X128.63 Y130.883 E2.64928
G1 X128.176 Y131.244 E2.67671
G1 X127.564 Y131.707 E2.71299
G1 X126.451 Y132.437 E2.77591
G1 X125.786 Y132.81 E2.81196
G1 X125.262 Y133.085 E2.83994
G1 X124.155 Y133.591 E2.89748
G1 X123.844 Y133.713 E2.91328
G1 X123.325 Y133.901 E2.93937
G1 X122.721 Y134.104 E2.9695
G1 X121.505 Y134.438 E3.02912
G1 X120.935 Y134.56 E3.05668
G1 X120.259 Y134.687 E3.08919
G1 X118.986 Y134.841 E3.14982
G1 X118.364 Y134.88 E3.17928
G1 X117.613 Y134.909 E3.21481
G1 X116.394 Y134.879 E3.27246
G1 X115.576 Y134.802 E3.31131
G1 X114.902 Y134.716 E3.34343
G1 X113.59 Y134.467 E3.40656
G1 X112.815 Y134.263 E3.44445
G1 X112.252 Y134.097 E3.4722
G1 X111.051 Y133.667 E3.53251
G1 X110.561 Y133.459 E3.55768
G1 X109.835 Y133.13 E3.59536
G1 X108.721 Y132.538 E3.655
G1 X108.046 Y132.117 E3.69261
G1 X107.598 Y131.819 E3.71805
G1 X106.835 Y131.264 E3.76266
G1 X106.465 Y130.956 E3.78542
G1 X105.736 Y130.323 E3.83106
G1 X105.051 Y129.675 E3.87564
G1 X104.595 Y129.176 E3.9076
G1 X104.098 Y128.598 E3.94364
G1 X103.659 Y128.061 E3.97643
G1 X102.966 Y127.091 E4.03279
G1 X102.789 Y126.813 E4.04837
G1 X102.513 Y126.355 E4.07365
G1 X102.232 Y125.863 E4.10044
G1 X101.65 Y124.69 E4.16234
G1 X101.379 Y124.051 E4.19516
G1 X101.139 Y123.45 E4.22575
G1 X100.729 Y122.182 E4.28876
G1 X100.533 Y121.382 E4.3277
G1 X100.406 Y120.785 E4.35655
G1 X100.215 Y119.542 E4.41601
G1 X100.161 Y118.984 E4.44251
G1 X100.105 Y118.2 E4.47967
G1 X100.1 Y116.865 E4.54279
G1 X100.149 Y116.133 E4.57747
G1 X100.209 Y115.503 E4.60739
G1 X100.403 Y114.243 E4.66766
G1 X100.611 Y113.296 E4.7135
G1 X100.714 Y112.884 E4.73358
G1 X101.07 Y111.729 E4.79072
G1 X101.355 Y110.989 E4.82821
G1 X101.575 Y110.466 E4.85504
G1 X102.146 Y109.304 E4.91625
G1 X102.509 Y108.662 E4.95111
G1 X102.829 Y108.124 E4.98071
G1 X103.583 Y107.034 E5.04337
G1 X104.082 Y106.413 E5.08103
G1 X104.464 Y105.965 E5.10887
G1 X105.364 Y105.026 E5.17036
M205 X5 Y5
G0 F7500 X105.67 Y105.356
M205 X8 Y8
G1 F1500 X106.331 Y104.743 E5.21298
G1 X107.035 Y104.144 E5.25668
G1 X107.616 Y103.723 E5.2906
G1 X108.269 Y103.282 E5.32785
G1 X108.798 Y102.943 E5.35756
G1 X109.857 Y102.357 E5.41478
G1 X110.573 Y102.025 E5.45209
G1 X111.146 Y101.78 E5.48155
G1 X112.301 Y101.362 E5.53962
G1 X112.883 Y101.189 E5.56833
G1 X113.648 Y100.984 E5.60577
G1 X114.822 Y100.75 E5.66237
G1 X115.596 Y100.65 E5.69926
G1 X116.128 Y100.597 E5.72454
G1 X117.388 Y100.546 E5.78416
G1 X118.129 Y100.56 E5.8192
G1 X118.699 Y100.584 E5.84617
G1 X119.95 Y100.724 E5.90568
G1 X120.686 Y100.851 E5.94099
G1 X121.304 Y100.974 E5.97078
G1 X122.464 Y101.289 E6.02761
G1 X123.086 Y101.496 E6.0586
G1 X123.766 Y101.741 E6.09277
G1 X124.871 Y102.221 E6.14973
G1 X125.561 Y102.58 E6.1865
G1 X126.125 Y102.895 E6.21704
G1 X127.226 Y103.602 E6.2789
G1 X127.825 Y104.049 E6.31424
G1 X128.29 Y104.417 E6.34227
G1 X129.223 Y105.249 E6.40137
G1 X129.631 Y105.658 E6.42869
G1 X130.172 Y106.229 E6.46587
G1 X130.923 Y107.126 E6.52118
G1 X131.375 Y107.748 E6.55753
G1 X131.688 Y108.208 E6.58384
G1 X132.331 Y109.284 E6.6431
G1 X132.75 Y110.089 E6.686
G1 X133.141 Y110.927 E6.72972
G1 X133.397 Y111.608 E6.76412
G1 X133.666 Y112.406 E6.80393
G1 X133.859 Y113.037 E6.83513
G1 X134.12 Y114.15 E6.88917
G1 X134.229 Y114.762 E6.91856
G1 X134.337 Y115.465 E6.95219
G1 X134.443 Y116.661 E7.00895
G1 X134.459 Y117.486 E7.04797
G1 X134.451 Y118.096 E7.07681
G1 X134.369 Y119.285 E7.13315
G1 X134.266 Y120.029 E7.16866
G1 X134.153 Y120.695 E7.2006
G1 X133.861 Y121.949 E7.26147
G1 X133.689 Y122.528 E7.29003
G1 X133.517 Y123.067 E7.31678
G1 X133.194 Y123.933 E7.36047
G1 X133.002 Y124.36 E7.38261
G1 X132.587 Y125.231 E7.42822
G1 X132.154 Y126.047 E7.47189
G1 X131.808 Y126.596 E7.50257
G1 X131.383 Y127.228 E7.53858
G1 X131.018 Y127.744 E7.56846
G1 X130.27 Y128.667 E7.62463
G1 X129.732 Y129.242 E7.66186
G1 X129.279 Y129.698 E7.69224
G1 X128.35 Y130.53 E7.7512
G1 X127.633 Y131.094 E7.79433
G1 X127.295 Y131.346 E7.81426
G1 X126.227 Y132.047 E7.87466
G1 X125.577 Y132.411 E7.90988
G1 X125.053 Y132.686 E7.93786
G1 X123.99 Y133.172 E7.99312
G1 X123.679 Y133.294 E8.00891
G1 X123.182 Y133.475 E8.03392
G1 X122.578 Y133.678 E8.06404
G1 X121.411 Y133.998 E8.12125
G1 X120.841 Y134.12 E8.14881
G1 X120.179 Y134.245 E8.18066
G1 X118.958 Y134.392 E8.2388
G1 X118.336 Y134.431 E8.26827
G1 X117.599 Y134.459 E8.30314
G1 X116.43 Y134.431 E8.35842
G1 X115.633 Y134.355 E8.39627
G1 X114.959 Y134.269 E8.42839
G1 X113.7 Y134.031 E8.48897
G1 X112.942 Y133.831 E8.52603
G1 X112.379 Y133.665 E8.55378
G1 X111.227 Y133.252 E8.61164
G1 X110.442 Y132.914 E8.65205
G1 X110.023 Y132.721 E8.67386
G1 X108.954 Y132.153 E8.73109
G1 X108.295 Y131.742 E8.76781
G1 X107.847 Y131.444 E8.79324
G1 X106.76 Y130.616 E8.85785
G1 X106.031 Y129.983 E8.90349
G1 X105.36 Y129.348 E8.94717
G1 X104.936 Y128.883 E8.97692
G1 X104.439 Y128.305 E9.01296
G1 X104.011 Y127.78 E9.04498
G1 X103.345 Y126.849 E9.0991
G1 X102.903 Y126.132 E9.13892
G1 X102.622 Y125.64 E9.16571
G1 X102.064 Y124.514 E9.22512
G1 X101.793 Y123.875 E9.25793
G1 X101.559 Y123.286 E9.2879
G1 X101.165 Y122.069 E9.34837
G1 X100.974 Y121.288 E9.38638
G1 X100.847 Y120.691 E9.41524
G1 X100.663 Y119.498 E9.47231
G1 X100.609 Y118.94 E9.49881
G1 X100.554 Y118.172 E9.53521
G1 X100.549 Y116.89 E9.59582
G1 X100.597 Y116.176 E9.62966
G1 X100.657 Y115.546 E9.65958
G1 X100.843 Y114.336 E9.71745
G1 X100.963 Y113.772 E9.74471
G1 X101.151 Y112.993 E9.7826
G1 X101.493 Y111.885 E9.83742
G1 X101.77 Y111.164 E9.87394
G1 X101.99 Y110.641 E9.90076
G1 X102.538 Y109.526 E9.9595
G1 X102.901 Y108.884 E9.99437
G1 X103.214 Y108.358 E10.0233
G1 X103.937 Y107.311 E10.08346
G1 X104.424 Y106.705 E10.12021
G1 X104.806 Y106.257 E10.14805
G1 X105.67 Y105.356 E10.20707
M205 X5 Y5
G0 F7500 X105.976 Y105.686
M205 X8 Y8
G1 F1500 X106.637 Y105.073 E10.24969
G1 X107.327 Y104.488 E10.29245
G1 X107.867 Y104.096 E10.324
G1 X108.52 Y103.655 E10.36125
G1 X109.038 Y103.323 E10.39034
G1 X110.052 Y102.763 E10.4451
G1 X110.75 Y102.438 E10.48151
G1 X111.323 Y102.193 E10.51097
G1 X112.43 Y101.794 E10.5666
G1 X113.012 Y101.621 E10.59531
G1 X113.761 Y101.42 E10.63197
G1 X114.886 Y101.196 E10.6862
G1 X115.64 Y101.097 E10.72215
G1 X116.172 Y101.044 E10.74743
G1 X117.379 Y100.996 E10.80454
G1 X118.12 Y101.01 E10.83958
G1 X118.675 Y101.033 E10.86584
G1 X119.874 Y101.168 E10.92288
G1 X120.61 Y101.295 E10.95819
G1 X121.211 Y101.415 E10.98717
G1 X122.322 Y101.716 E11.04158
G1 X122.944 Y101.923 E11.07258
G1 X123.61 Y102.163 E11.10604
G1 X124.668 Y102.623 E11.16059
G1 X125.342 Y102.973 E11.19649
G1 X125.906 Y103.288 E11.22703
G1 X126.96 Y103.965 E11.28626
G1 X127.545 Y104.402 E11.32078
G1 X128.01 Y104.77 E11.34881
G1 X128.904 Y105.567 E11.40544
G1 X129.312 Y105.976 E11.43275
G1 X129.844 Y106.537 E11.4693
G1 X130.562 Y107.395 E11.5222
G1 X131.003 Y108.001 E11.55763
G1 X131.316 Y108.461 E11.58393
G1 X131.932 Y109.492 E11.64071
G1 X132.351 Y110.297 E11.68362
G1 X132.733 Y111.117 E11.72639
G1 X132.97 Y111.752 E11.75843
G1 X133.239 Y112.55 E11.79824
G1 X133.427 Y113.163 E11.82856
G1 X133.677 Y114.229 E11.88032
G1 X133.786 Y114.841 E11.90971
G1 X133.891 Y115.53 E11.94266
G1 X133.994 Y116.675 E11.99701
G1 X134.009 Y117.48 E12.03508
G1 X134.001 Y118.09 E12.06392
G1 X133.922 Y119.229 E12.1179
G1 X133.822 Y119.953 E12.15245
G1 X133.709 Y120.619 E12.18439
G1 X133.43 Y121.821 E12.24272
G1 X133.258 Y122.4 E12.27128
G1 X133.089 Y122.928 E12.29749
G1 X132.596 Y124.166 E12.36049
G1 X132.181 Y125.037 E12.4061
G1 X131.756 Y125.835 E12.44885
G1 X131.435 Y126.345 E12.47734
G1 X131.01 Y126.977 E12.51334
G1 X130.653 Y127.48 E12.5425
G1 X129.936 Y128.364 E12.59632
G1 X129.413 Y128.925 E12.63258
G1 X128.96 Y129.381 E12.66296
G1 X128.07 Y130.178 E12.71945
G1 X127.616 Y130.539 E12.74687
G1 X127.026 Y130.985 E12.78184
G1 X126.003 Y131.657 E12.8397
G1 X125.368 Y132.013 E12.87412
G1 X124.844 Y132.288 E12.9021
G1 X123.826 Y132.753 E12.95501
G1 X123.515 Y132.875 E12.9708
G1 X123.038 Y133.048 E12.99479
G1 X122.434 Y133.251 E13.02491
G1 X121.317 Y133.558 E13.07968
G1 X120.747 Y133.68 E13.10724
G1 X120.1 Y133.802 E13.13837
G1 X118.93 Y133.943 E13.19408
G1 X118.308 Y133.982 E13.22355
G1 X117.585 Y134.009 E13.25775
G1 X116.466 Y133.982 E13.31067
G1 X115.69 Y133.909 E13.34752
G1 X115.016 Y133.823 E13.37964
G1 X113.81 Y133.595 E13.43767
G1 X113.069 Y133.4 E13.47389
G1 X112.506 Y133.234 E13.50164
G1 X111.403 Y132.838 E13.55705
G1 X110.63 Y132.505 E13.59684
G1 X110.211 Y132.312 E13.61865
G1 X109.187 Y131.768 E13.67347
G1 X108.544 Y131.368 E13.70927
G1 X108.096 Y131.07 E13.73471
G1 X107.055 Y130.277 E13.79658
G1 X106.326 Y129.644 E13.84222
G1 X105.67 Y129.021 E13.88499
G1 X105.277 Y128.589 E13.9126
G1 X104.78 Y128.011 E13.94864
G1 X104.362 Y127.499 E13.97989
G1 X103.725 Y126.608 E14.03167
G1 X103.294 Y125.909 E14.0705
G1 X103.013 Y125.417 E14.09729
G1 X102.479 Y124.338 E14.1542
G1 X102.208 Y123.699 E14.18702
G1 X101.978 Y123.122 E14.21638
G1 X101.601 Y121.957 E14.27427
G1 X101.414 Y121.195 E14.31137
G1 X101.287 Y120.598 E14.34022
G1 X101.111 Y119.455 E14.3949
G1 X101.03 Y118.565 E14.43715
G1 X101.003 Y118.143 E14.45714
G1 X100.998 Y116.915 E14.5152
G1 X101.045 Y116.219 E14.54818
G1 X101.105 Y115.589 E14.5781
G1 X101.283 Y114.43 E14.63353
G1 X101.484 Y113.514 E14.67787
G1 X101.587 Y113.102 E14.69795
G1 X101.915 Y112.041 E14.75045
G1 X102.185 Y111.338 E14.78605
G1 X102.405 Y110.815 E14.81288
G1 X102.929 Y109.747 E14.86912
G1 X103.292 Y109.105 E14.90399
G1 X103.599 Y108.591 E14.93229
G1 X104.291 Y107.589 E14.98986
G1 X104.766 Y106.997 E15.02575
G1 X105.148 Y106.549 E15.05358
G1 X105.976 Y105.686 E15.11012
M205 X5 Y5
G1 F2700 E9.11012
;MESH:soporte_m_35.stl
G0 F7500 X112.552 Y112.601
G0 X113.29 Y113.428
G0 X113.032 Y114.378
G1 F2700 E15.11012
G0 F7500 X112.908 Y114.291
M205 X8 Y8
;TYPE:WALL-INNER
G1 F1500 X112.48 Y115.017 E15.1544
G1 X112.163 Y115.805 E15.19901
G1 X111.969 Y116.656 E15.24486
G1 X111.9 Y117.496 E15.28914
G1 X111.968 Y118.345 E15.33388
G1 X112.163 Y119.194 E15.37964
G1 X112.48 Y119.984 E15.42435
G1 X112.909 Y120.71 E15.46865
G1 X113.474 Y121.393 E15.51521
G1 X114.104 Y121.954 E15.55953
G1 X114.818 Y122.415 E15.60417
G1 X115.607 Y122.765 E15.64951
G1 X116.449 Y123 E15.69543
G1 X117.295 Y123.097 E15.74017
G1 X118.168 Y123.058 E15.78607
G1 X118.962 Y122.902 E15.82858
G1 X119.792 Y122.608 E15.87483
G1 X120.54 Y122.205 E15.91946
G1 X121.228 Y121.674 E15.96512
G1 X121.833 Y121.048 E16.01085
G1 X122.317 Y120.358 E16.05512
G1 X122.689 Y119.61 E16.09901
G1 X122.948 Y118.776 E16.14488
G1 X123.086 Y117.914 E16.19074
G1 X123.086 Y117.181 E16.22924
G1 X123.085 Y117.074 E16.23486
G1 X122.949 Y116.228 E16.27987
G1 X122.691 Y115.392 E16.32583
G1 X122.316 Y114.641 E16.36993
G1 X121.832 Y113.951 E16.4142
G1 X121.225 Y113.323 E16.46008
G1 X120.539 Y112.795 E16.50556
G1 X119.791 Y112.391 E16.55021
G1 X118.961 Y112.097 E16.59647
G1 X118.13 Y111.936 E16.64093
G1 X117.293 Y111.904 E16.68493
G1 X116.448 Y112.001 E16.72961
G1 X115.606 Y112.235 E16.77552
G1 X114.815 Y112.585 E16.82096
G1 X114.103 Y113.047 E16.86554
G1 X113.474 Y113.607 E16.90978
G1 X112.908 Y114.291 E16.95642
M205 X5 Y5
G1 F2700 E10.95642
G0 F7500 X113.032 Y114.378
G0 X112.879 Y114.83
G0 X114.761 Y115.942
G0 X114.491 Y117.076
G0 X114.431 Y117.556
G1 F2700 E16.95642
G0 F7500 X114.581 Y117.556
M205 X8 Y8
G1 F1500 X114.601 Y117.322 E16.96875
G1 X114.902 Y116.17 E17.0313
G1 X115.034 Y115.956 E17.04451
G1 X115.751 Y115.19 E17.09962
G1 X116.138 Y114.933 E17.12403
G1 X117.069 Y114.631 E17.17544
G1 X117.57 Y114.598 E17.20182
G1 X118.456 Y114.76 E17.24913
G1 X119.007 Y115.014 E17.281
G1 X119.671 Y115.564 E17.32629
G1 X120.045 Y116.103 E17.36076
G1 X120.326 Y116.828 E17.4016
G1 X120.403 Y117.492 E17.43671
G1 X120.328 Y118.168 E17.47244
G1 X120.044 Y118.899 E17.51364
G1 X119.675 Y119.43 E17.54761
G1 X119.01 Y119.986 E17.59314
G1 X118.454 Y120.241 E17.62527
G1 X117.584 Y120.4 E17.67173
G1 X117.089 Y120.378 E17.69776
G1 X116.111 Y120.053 E17.75189
G1 X115.752 Y119.806 E17.77479
G1 X115.032 Y119.041 E17.82997
G1 X114.901 Y118.821 E17.84342
G1 X114.601 Y117.675 E17.90565
G1 X114.581 Y117.556 E17.91199
M205 X5 Y5
G0 F7500 X114.855 Y117.534
M205 X8 Y8
;TYPE:WALL-OUTER
G1 F1500 X114.867 Y117.391 E17.91877
G1 X115.177 Y116.203 E17.97682
G1 X115.949 Y115.387 E18.02993
G1 X116.24 Y115.192 E18.04649
G1 X117.113 Y114.903 E18.08996
G1 X117.531 Y114.875 E18.10977
G1 X118.371 Y115.023 E18.15009
G1 X118.858 Y115.248 E18.17545
G1 X119.453 Y115.74 E18.21196
G1 X119.808 Y116.249 E18.24129
G1 X120.057 Y116.893 E18.27394
G1 X120.128 Y117.493 E18.3025
G1 X120.058 Y118.104 E18.33158
G1 X119.807 Y118.752 E18.36443
G1 X119.469 Y119.245 E18.39269
G1 X118.852 Y119.756 E18.43057
G1 X118.392 Y119.968 E18.45451
G1 X117.544 Y120.124 E18.49528
G1 X117.142 Y120.106 E18.5143
G1 X116.253 Y119.813 E18.55855
G1 X115.95 Y119.613 E18.57572
G1 X115.241 Y118.862 E18.62455
G1 X115.169 Y118.744 E18.63108
G1 X114.867 Y117.606 E18.68674
G1 X114.855 Y117.534 E18.6902
M205 X5 Y5
G0 F7500 X114.867 Y117.391
G0 X114.881 Y117.336
G1 F2700 E12.6902
G0 F7500 X114.469 Y117.229
G0 X114.74 Y116.142
G0 X114.894 Y115.867
G0 X115.752 Y114.981
G0 X115.984 Y114.849
G0 X117.089 Y114.399
G0 X116.918 Y112.198
G0 X118.113 Y112.087
G1 F2700 E18.6902
G0 F7500 X118.162 Y111.662
M205 X8 Y8
