;FLAVOR:Marlin
M117 Time Left 0h47m39s
;TIME:2859
;Filament used: 0.935079m
;Layer height: 0.12
;MINX:98.464
;MINY:98.49
;MINZ:0.12
;MAXX:136.537
;MAXY:136.52
;MAXZ:24.96
;POSTPROCESSED
;Generated with Cura_SteamEngine 5.2.1
M140 S60
M105
M190 S60
M104 S205
M105
M109 S205
M82 ;absolute extrusion mode
; Ender 3 Custom Start G-code
G92 E0 ; Reset Extruder
G28 ; Home all axes
G1 Z2.0 F3000 ; Move Z Axis up little to prevent scratching of Heat Bed
G1 X0.1 Y20 Z0.3 F5000.0 ; Move to start position
G1 X0.1 Y200.0 Z0.3 F1500.0 E15 ; Draw the first line
G1 X0.4 Y200.0 Z0.3 F5000.0 ; Move to side a little
G1 X0.4 Y20 Z0.3 F1500.0 E30 ; Draw the second line
G92 E0 ; Reset Extruder
G1 Z2.0 F3000 ; Move Z Axis up little to prevent scratching of Heat Bed
G1 X5 Y20 Z0.3 F5000.0 ; Move over to prevent blob squish
G92 E0
G92 E0
G1 F2700 E-5
;LAYER_COUNT:208
;LAYER:0
M107
M204 S500
M205 X12 Y12
G0 F6000 X104.023 Y104.08 Z0.12
;TYPE:SKIRT
G1 F2700 E0
G1 F1200 X104.687 Y103.414 E0.01872
G1 X105.739 Y102.558 E0.04572
G1 X106.896 Y101.732 E0.07402
G1 X107.47 Y101.341 E0.08784
G1 X108.269 Y100.846 E0.10655
G1 X109.317 Y100.327 E0.12983
G1 X110.166 Y99.961 E0.14824
G1 X111.01 Y99.619 E0.16636
G1 X111.897 Y99.307 E0.18508
G1 X112.861 Y99.06 E0.20489
G1 X114.314 Y98.763 E0.23441
G1 X114.962 Y98.651 E0.2475
G1 X115.894 Y98.531 E0.26621
G1 X116.9 Y98.49 E0.28625
G1 X117.889 Y98.495 E0.30594
G1 X118.924 Y98.53 E0.32655
G1 X119.86 Y98.608 E0.34525
G1 X120.799 Y98.767 E0.36421
G1 X122.016 Y99.032 E0.389
G1 X122.621 Y99.179 E0.40139
G1 X123.524 Y99.44 E0.42011
G1 X124.417 Y99.783 E0.43915
G1 X125.468 Y100.244 E0.46199
G1 X126.172 Y100.572 E0.47745
G1 X127.006 Y101.005 E0.49616
G1 X127.902 Y101.578 E0.51733
G1 X128.764 Y102.19 E0.53838
G1 X129.569 Y102.796 E0.55843
G1 X130.291 Y103.398 E0.57715
G1 X130.967 Y104.068 E0.59609
G1 X131.605 Y104.757 E0.61478
G1 X132.255 Y105.495 E0.63436
G1 X132.842 Y106.229 E0.65307
G1 X133.39 Y107.053 E0.67277
G1 X133.933 Y107.954 E0.69371
G1 X134.433 Y108.841 E0.71398
G1 X134.855 Y109.681 E0.73269
G1 X135.218 Y110.598 E0.75232
G1 X135.558 Y111.582 E0.77305
G1 X135.862 Y112.548 E0.79321
G1 X136.101 Y113.458 E0.81194
G1 X136.269 Y114.446 E0.83188
G1 X136.399 Y115.496 E0.85295
G1 X136.493 Y116.469 E0.8724
G1 X136.537 Y117.408 E0.89112
G1 X136.497 Y118.397 E0.91082
G1 X136.414 Y119.368 E0.93022
G1 X136.294 Y120.428 E0.95146
G1 X136.144 Y121.356 E0.97017
G1 X135.914 Y122.272 E0.98897
G1 X135.678 Y123.067 E1.00548
G1 X135.367 Y124.031 E1.02564
G1 X135.038 Y124.912 E1.04436
G1 X134.624 Y125.782 E1.06354
G1 X134.244 Y126.498 E1.07967
G1 X133.684 Y127.494 E1.10242
G1 X133.187 Y128.291 E1.12112
G1 X132.563 Y129.116 E1.14171
G1 X131.967 Y129.832 E1.16025
G1 X131.291 Y130.603 E1.18066
G1 X130.639 Y131.28 E1.19937
G1 X129.922 Y131.905 E1.21831
G1 X128.935 Y132.689 E1.2434
G1 X128.412 Y133.082 E1.25642
G1 X127.637 Y133.614 E1.27514
G1 X126.788 Y134.095 E1.29456
G1 X125.585 Y134.701 E1.32137
G1 X124.927 Y135.009 E1.33584
G1 X124.059 Y135.371 E1.35456
G1 X123.122 Y135.669 E1.37413
G1 X122.222 Y135.912 E1.39269
G1 X121.208 Y136.157 E1.41345
G1 X120.285 Y136.334 E1.43216
G1 X119.292 Y136.435 E1.45203
G1 X118.314 Y136.49 E1.47153
G1 X117.366 Y136.52 E1.49041
G1 X116.427 Y136.505 E1.5091
G1 X115.431 Y136.402 E1.52904
G1 X114.362 Y136.242 E1.55055
G1 X113.293 Y136.05 E1.57217
G1 X112.377 Y135.839 E1.59088
G1 X111.223 Y135.451 E1.61512
G1 X110.225 Y135.053 E1.63651
G1 X109.309 Y134.665 E1.65631
G1 X108.461 Y134.259 E1.67502
G1 X107.666 Y133.793 E1.69337
G1 X107.08 Y133.406 E1.70735
G1 X105.996 Y132.648 E1.73368
G1 X105.249 Y132.077 E1.7524
G1 X104.484 Y131.375 E1.77306
G1 X104.018 Y130.9 E1.78631
G1 X103.522 Y130.372 E1.80073
G1 X102.933 Y129.728 E1.8181
G1 X102.33 Y129.008 E1.8368
G1 X101.655 Y128.023 E1.86057
G1 X101.154 Y127.193 E1.87987
G1 X100.652 Y126.318 E1.89995
G1 X100.22 Y125.483 E1.91866
G1 X99.823 Y124.514 E1.93951
G1 X99.47 Y123.519 E1.96052
G1 X99.175 Y122.609 E1.97957
G1 X98.93 Y121.702 E1.99827
G1 X98.755 Y120.712 E2.01828
G1 X98.594 Y119.455 E2.04351
G1 X98.519 Y118.722 E2.05817
G1 X98.464 Y117.783 E2.0769
G1 X98.493 Y116.77 E2.09707
G1 X98.565 Y115.811 E2.11622
G1 X98.672 Y114.773 E2.13699
G1 X98.813 Y113.843 E2.15571
G1 X99.039 Y112.906 E2.1749
G1 X99.34 Y111.876 E2.19626
G1 X99.594 Y111.076 E2.21297
G1 X99.916 Y110.193 E2.23168
G1 X100.309 Y109.348 E2.25023
G1 X100.628 Y108.741 E2.26388
G1 X101.074 Y107.943 E2.28208
G1 X101.424 Y107.335 E2.29604
G1 X101.928 Y106.541 E2.31476
G1 X102.668 Y105.591 E2.33873
G1 X103.301 Y104.869 E2.35785
G1 X104.023 Y104.08 E2.37914
G0 F6000 X104.333 Y104.364
G1 F1200 X104.984 Y103.711 E2.39749
G1 X105.983 Y102.899 E2.42312
G1 X106.925 Y102.224 E2.44619
G1 X107.707 Y101.689 E2.46505
G1 X108.49 Y101.203 E2.48339
G1 X109.483 Y100.712 E2.50544
G1 X110.332 Y100.346 E2.52385
G1 X111.166 Y100.008 E2.54176
G1 X112.036 Y99.703 E2.56011
G1 X112.947 Y99.471 E2.57883
G1 X114.026 Y99.246 E2.60077
G1 X115.034 Y99.065 E2.62115
G1 X115.948 Y98.948 E2.6395
G1 X116.898 Y98.91 E2.65842
G1 X117.887 Y98.915 E2.67811
G1 X118.907 Y98.95 E2.69843
G1 X119.826 Y99.027 E2.71678
G1 X120.711 Y99.178 E2.73466
G1 X121.638 Y99.377 E2.75353
G1 X122.522 Y99.588 E2.77162
G1 X123.407 Y99.844 E2.78996
G1 X124.25 Y100.168 E2.80794
G1 X125.039 Y100.511 E2.82506
G1 X125.994 Y100.952 E2.846
G1 X126.812 Y101.378 E2.86436
G1 X127.659 Y101.92 E2.88438
G1 X128.521 Y102.532 E2.90542
G1 X129.314 Y103.13 E2.92519
G1 X130.021 Y103.721 E2.94354
G1 X130.659 Y104.354 E2.96143
G1 X131.297 Y105.043 E2.98012
G1 X131.938 Y105.771 E2.99943
G1 X132.513 Y106.491 E3.01777
G1 X133.03 Y107.27 E3.03638
G1 X133.573 Y108.171 E3.05732
G1 X134.066 Y109.045 E3.0773
G1 X134.479 Y109.869 E3.09565
G1 X134.821 Y110.735 E3.11418
G1 X135.161 Y111.719 E3.1349
G1 X135.461 Y112.672 E3.15479
G1 X135.694 Y113.564 E3.17314
G1 X135.852 Y114.498 E3.192
G1 X135.982 Y115.548 E3.21306
G1 X136.074 Y116.506 E3.23222
G1 X136.117 Y117.427 E3.25057
G1 X136.078 Y118.361 E3.26918
G1 X135.96 Y119.679 E3.29552
G1 X135.877 Y120.379 E3.30955
G1 X135.729 Y121.289 E3.32791
G1 X135.511 Y122.152 E3.34563
G1 X135.19 Y123.221 E3.36784
G1 X134.968 Y123.901 E3.38208
G1 X134.644 Y124.764 E3.40043
G1 X134.253 Y125.585 E3.41854
G1 X133.732 Y126.558 E3.44051
G1 X133.319 Y127.287 E3.45718
G1 X132.83 Y128.068 E3.47553
G1 X132.24 Y128.848 E3.495
G1 X131.433 Y129.81 E3.51999
G1 X130.977 Y130.325 E3.53368
G1 X130.336 Y130.988 E3.55204
G1 X129.66 Y131.578 E3.5699
G1 X128.939 Y132.155 E3.58829
G1 X128.16 Y132.746 E3.60775
G1 X127.399 Y133.268 E3.62612
G1 X126.597 Y133.721 E3.64446
G1 X125.723 Y134.166 E3.66398
G1 X124.748 Y134.628 E3.68546
G1 X123.897 Y134.983 E3.70381
G1 X123.013 Y135.264 E3.72228
G1 X122.113 Y135.507 E3.74083
G1 X121.112 Y135.748 E3.76133
G1 X120.206 Y135.921 E3.77969
G1 X119.269 Y136.015 E3.79843
G1 X118.291 Y136.07 E3.81793
G1 X117.355 Y136.1 E3.83658
G1 X116.433 Y136.085 E3.85493
G1 X115.494 Y135.987 E3.87372
G1 X114.425 Y135.827 E3.89524
G1 X113.37 Y135.637 E3.91658
G1 X112.472 Y135.429 E3.93493
G1 X111.378 Y135.061 E3.95791
G1 X110.38 Y134.663 E3.97929
G1 X109.474 Y134.279 E3.99888
G1 X108.643 Y133.88 E4.01723
G1 X107.893 Y133.44 E4.03454
G1 X107.32 Y133.061 E4.04822
G1 X106.236 Y132.303 E4.07455
G1 X105.504 Y131.743 E4.09289
G1 X104.782 Y131.079 E4.11242
G1 X104.324 Y130.612 E4.12544
G1 X103.828 Y130.084 E4.13986
G1 X103.244 Y129.445 E4.15709
G1 X102.652 Y128.738 E4.17545
G1 X102.014 Y127.805 E4.19795
G1 X101.658 Y127.22 E4.21158
G1 X101.017 Y126.109 E4.23711
G1 X100.593 Y125.29 E4.25547
G1 X100.219 Y124.373 E4.27519
G1 X99.866 Y123.378 E4.2962
G1 X99.576 Y122.482 E4.31495
G1 X99.336 Y121.592 E4.3333
G1 X99.171 Y120.657 E4.3522
G1 X99.012 Y119.412 E4.37718
G1 X98.937 Y118.679 E4.39185
G1 X98.883 Y117.759 E4.41019
G1 X98.912 Y116.801 E4.42927
G1 X99.016 Y115.49 E4.45545
G1 X99.089 Y114.818 E4.46891
G1 X99.228 Y113.907 E4.48725
G1 X99.443 Y113.022 E4.50538
G1 X99.74 Y112.003 E4.52651
G1 X99.994 Y111.203 E4.54322
G1 X100.311 Y110.337 E4.56158
G1 X100.682 Y109.541 E4.57906
G1 X100.995 Y108.946 E4.59244
G1 X101.438 Y108.153 E4.61052
G1 X101.788 Y107.545 E4.62449
G1 X102.283 Y106.766 E4.64286
G1 X102.985 Y105.867 E4.66557
G1 X103.611 Y105.153 E4.68447
G1 X104.333 Y104.364 E4.70576
G0 F6000 X104.643 Y104.647
G1 F1200 X105.282 Y104.008 E4.72375
G1 X106.228 Y103.241 E4.74799
G1 X107.17 Y102.566 E4.77106
G1 X107.943 Y102.036 E4.78972
G1 X108.712 Y101.561 E4.80771
G1 X109.649 Y101.098 E4.82851
G1 X110.745 Y100.629 E4.85224
G1 X111.322 Y100.398 E4.86462
G1 X112.175 Y100.1 E4.8826
G1 X113.033 Y99.882 E4.90022
G1 X114.112 Y99.657 E4.92217
G1 X115.105 Y99.479 E4.94225
G1 X116.001 Y99.365 E4.96023
G1 X116.896 Y99.33 E4.97806
G1 X117.885 Y99.335 E4.99774
G1 X118.89 Y99.369 E5.01776
G1 X119.79 Y99.445 E5.03574
G1 X120.623 Y99.588 E5.05257
G1 X121.55 Y99.787 E5.07144
G1 X122.423 Y99.996 E5.08931
G1 X123.29 Y100.248 E5.10728
G1 X124.083 Y100.554 E5.1242
G1 X125.113 Y101.005 E5.14658
G1 X125.817 Y101.333 E5.16204
G1 X126.618 Y101.751 E5.18003
G1 X127.416 Y102.263 E5.1989
G1 X128.278 Y102.875 E5.21995
G1 X129.059 Y103.464 E5.23942
G1 X129.752 Y104.044 E5.25741
G1 X130.35 Y104.639 E5.2742
G1 X130.988 Y105.328 E5.29289
G1 X131.621 Y106.047 E5.31196
G1 X132.185 Y106.754 E5.32997
G1 X132.671 Y107.487 E5.34747
G1 X133.214 Y108.388 E5.36841
G1 X133.699 Y109.249 E5.38808
G1 X134.103 Y110.057 E5.40607
G1 X134.424 Y110.873 E5.42352
G1 X134.871 Y112.183 E5.45108
G1 X135.06 Y112.796 E5.46385
G1 X135.288 Y113.67 E5.48183
G1 X135.436 Y114.549 E5.49957
G1 X135.566 Y115.599 E5.52063
G1 X135.656 Y116.544 E5.53953
G1 X135.697 Y117.446 E5.5575
G1 X135.66 Y118.326 E5.57503
G1 X135.577 Y119.297 E5.59443
G1 X135.46 Y120.329 E5.61511
G1 X135.314 Y121.221 E5.6331
G1 X135.109 Y122.033 E5.64977
G1 X134.791 Y123.091 E5.67176
G1 X134.569 Y123.771 E5.686
G1 X134.251 Y124.616 E5.70397
G1 X133.882 Y125.388 E5.72101
G1 X133.502 Y126.104 E5.73714
G1 X132.953 Y127.08 E5.75943
G1 X132.474 Y127.845 E5.7774
G1 X131.917 Y128.579 E5.79574
G1 X131.321 Y129.295 E5.81429
G1 X130.662 Y130.046 E5.83418
G1 X130.034 Y130.696 E5.85217
G1 X129.397 Y131.25 E5.86897
G1 X128.676 Y131.827 E5.88736
G1 X127.907 Y132.41 E5.90657
G1 X127.162 Y132.921 E5.92455
G1 X126.407 Y133.347 E5.94181
G1 X125.533 Y133.792 E5.96133
G1 X124.57 Y134.248 E5.98254
G1 X123.736 Y134.595 E6.00052
G1 X122.903 Y134.858 E6.01791
G1 X122.003 Y135.101 E6.03647
G1 X121.015 Y135.339 E6.0567
G1 X120.128 Y135.508 E6.07467
G1 X119.245 Y135.596 E6.09233
G1 X118.267 Y135.651 E6.11183
G1 X117.344 Y135.68 E6.13022
G1 X116.44 Y135.665 E6.14821
G1 X115.556 Y135.572 E6.16591
G1 X114.487 Y135.412 E6.18742
G1 X113.447 Y135.224 E6.20846
G1 X112.567 Y135.02 E6.22644
G1 X111.534 Y134.671 E6.24815
G1 X110.536 Y134.273 E6.26954
G1 X109.639 Y133.893 E6.28893
G1 X108.825 Y133.501 E6.30691
G1 X108.121 Y133.087 E6.32317
G1 X107.561 Y132.717 E6.33653
G1 X106.477 Y131.959 E6.36286
G1 X105.76 Y131.409 E6.38085
G1 X105.08 Y130.783 E6.39925
G1 X104.63 Y130.325 E6.41203
G1 X104.134 Y129.797 E6.42645
G1 X103.554 Y129.162 E6.44357
G1 X102.975 Y128.468 E6.46156
G1 X102.373 Y127.587 E6.4828
G1 X101.883 Y126.775 E6.50168
G1 X101.381 Y125.9 E6.52176
G1 X100.966 Y125.097 E6.53976
G1 X100.615 Y124.233 E6.55832
G1 X100.149 Y122.903 E6.58637
G1 X99.976 Y122.356 E6.59779
G1 X99.742 Y121.483 E6.61579
G1 X99.587 Y120.603 E6.63357
G1 X99.463 Y119.656 E6.65259
G1 X99.355 Y118.636 E6.673
G1 X99.303 Y117.734 E6.69099
G1 X99.331 Y116.833 E6.70893
G1 X99.403 Y115.874 E6.72808
G1 X99.507 Y114.863 E6.74831
G1 X99.644 Y113.97 E6.76629
G1 X99.846 Y113.139 E6.78332
G1 X100.061 Y112.393 E6.79877
G1 X100.395 Y111.33 E6.82095
G1 X100.706 Y110.482 E6.83893
G1 X101.055 Y109.733 E6.85538
G1 X101.362 Y109.15 E6.86849
G1 X101.802 Y108.362 E6.88646
G1 X102.152 Y107.754 E6.90043
G1 X102.637 Y106.992 E6.91841
G1 X103.302 Y106.143 E6.93987
G1 X103.921 Y105.436 E6.95858
G1 X104.643 Y104.647 E6.97987
G1 F2700 E1.97987
;MESH:soporte_prisma_r4.stl
G0 F6000 X111.643 Y111.124
G0 X112.457 Y111.854
G0 X111.857 Y113.451
;TYPE:WALL-INNER
G1 F2700 E6.97987
G1 F1200 X111.09 Y114.83 E7.01128
G1 X110.685 Y116.161 E7.03897
G1 X110.554 Y117.541 E7.06657
G1 X110.722 Y119.016 E7.09612
G1 X111.155 Y120.327 E7.1236
G1 X111.932 Y121.648 E7.15411
G1 X113.014 Y122.801 E7.18559
G1 X114.152 Y123.587 E7.21312
G1 X115.605 Y124.181 E7.24436
G1 X117.071 Y124.432 E7.27397
G1 X118.497 Y124.372 E7.30238
G1 X119.852 Y124.033 E7.33019
G1 X121.183 Y123.388 E7.35963
G1 X122.288 Y122.529 E7.38749
G1 X123.194 Y121.477 E7.41513
G1 X123.893 Y120.212 E7.4439
G1 X124.296 Y118.915 E7.47093
G1 X124.423 Y117.696 E7.49533
G1 X124.444 Y117.497 E7.49931
G1 X124.296 Y116.073 E7.52781
G1 X123.843 Y114.672 E7.55712
G1 X123.116 Y113.413 E7.58606
G1 X122.173 Y112.365 E7.61413
G1 X121.032 Y111.52 E7.64239
G1 X119.702 Y110.916 E7.67147
G1 X118.342 Y110.607 E7.69923
G1 X116.983 Y110.574 E7.72629
G1 X115.475 Y110.856 E7.75683
G1 X114.198 Y111.389 E7.78438
G1 X112.868 Y112.324 E7.81674
G1 X111.857 Y113.451 E7.84688
G0 F6000 X111.513 Y113.206
G1 F1200 X110.701 Y114.665 E7.88011
G1 X110.271 Y116.079 E7.90953
G1 X110.132 Y117.545 E7.93885
G1 X110.309 Y119.106 E7.97012
G1 X110.771 Y120.501 E7.99937
G1 X111.593 Y121.901 E8.03169
G1 X112.739 Y123.121 E8.06501
G1 X113.951 Y123.958 E8.09433
G1 X115.489 Y124.587 E8.12741
G1 X117.044 Y124.853 E8.15881
G1 X118.557 Y124.79 E8.18896
G1 X119.996 Y124.43 E8.21848
G1 X121.406 Y123.746 E8.24968
G1 X122.579 Y122.835 E8.27924
G1 X123.541 Y121.719 E8.30857
G1 X124.282 Y120.378 E8.33907
G1 X124.71 Y119 E8.3678
G1 X124.841 Y117.74 E8.39301
G1 X124.866 Y117.497 E8.39788
G1 X124.71 Y115.986 E8.42811
G1 X124.229 Y114.501 E8.45919
G1 X123.458 Y113.165 E8.48989
G1 X122.457 Y112.052 E8.51969
G1 X121.246 Y111.156 E8.54968
G1 X119.836 Y110.516 E8.5805
G1 X118.394 Y110.188 E8.60994
G1 X116.949 Y110.153 E8.63871
G1 X115.354 Y110.451 E8.67101
G1 X113.994 Y111.019 E8.70035
G1 X112.588 Y112.008 E8.73457
G1 X111.513 Y113.206 E8.76661
G0 F6000 X111.169 Y112.96
;TYPE:WALL-OUTER
G1 F1200 X110.312 Y114.5 E8.80169
G1 X109.857 Y115.997 E8.83284
G1 X109.71 Y117.549 E8.86387
G1 X109.897 Y119.197 E8.89689
G1 X110.386 Y120.675 E8.92788
G1 X111.255 Y122.155 E8.96204
G1 X112.463 Y123.441 E8.99716
G1 X113.75 Y124.33 E9.0283
G1 X115.373 Y124.993 E9.0632
G1 X117.017 Y125.275 E9.0964
G1 X118.617 Y125.208 E9.12828
G1 X120.14 Y124.827 E9.15953
G1 X121.629 Y124.105 E9.19247
G1 X122.87 Y123.141 E9.22375
G1 X123.887 Y121.96 E9.25478
G1 X124.67 Y120.544 E9.28699
G1 X125.124 Y119.085 E9.31741
G1 X125.259 Y117.783 E9.34346
G1 X125.288 Y117.497 E9.34918
G1 X125.123 Y115.899 E9.38116
G1 X124.615 Y114.329 E9.41401
G1 X123.8 Y112.917 E9.44647
G1 X122.741 Y111.74 E9.47798
G1 X121.46 Y110.792 E9.50971
G1 X119.971 Y110.116 E9.54226
G1 X118.446 Y109.769 E9.57339
G1 X116.915 Y109.732 E9.60388
G1 X115.233 Y110.047 E9.63794
G1 X113.79 Y110.649 E9.66906
G1 X112.307 Y111.692 E9.70516
G1 X111.169 Y112.96 E9.73907
G1 F2700 E4.73907
G0 F6000 X111.739 Y113.371
G0 X112.876 Y112.63
G0 X115.998 Y114.792
G0 X117.378 Y114.449
;TYPE:WALL-INNER
G1 F2700 E9.73907
G1 F1200 X117.637 Y114.484 E9.74427
G1 X119.294 Y115.098 E9.77945
G1 X119.538 Y115.232 E9.78499
G1 X119.839 Y115.566 E9.79394
G1 X120.49 Y117.146 E9.82796
G1 X120.546 Y117.39 E9.83294
G1 X120.513 Y117.787 E9.84087
G1 X119.86 Y119.385 E9.87524
G1 X119.717 Y119.593 E9.88026
G1 X119.413 Y119.837 E9.88802
G1 X117.965 Y120.464 E9.91943
G1 X117.804 Y120.519 E9.92282
G1 X117.593 Y120.549 E9.92706
G1 X117.298 Y120.529 E9.93295
G1 X115.686 Y119.907 E9.96734
G1 X115.359 Y119.672 E9.97536
G1 X115.216 Y119.479 E9.98014
G1 X114.504 Y117.957 E10.01359
G1 X114.449 Y117.445 E10.02384
G1 X114.99 Y115.846 E10.05744
G1 X115.132 Y115.552 E10.06394
G1 X115.395 Y115.311 E10.07104
G1 X116.952 Y114.524 E10.10577
G1 X117.378 Y114.449 E10.11438
G0 F6000 X119.349 Y115.27
G0 X119.252 Y115.53
G1 F1200 X119.468 Y115.77 E10.12081
G1 X120.132 Y117.378 E10.15544
G1 X120.109 Y117.672 E10.16131
G1 X119.474 Y119.208 E10.19439
G1 X119.398 Y119.319 E10.19707
G1 X119.216 Y119.465 E10.20171
G1 X117.798 Y120.078 E10.23247
G1 X117.702 Y120.111 E10.23449
G1 X117.425 Y120.128 E10.24001
