;FLAVOR:Marlin
M117 Time Left 0h35m23s
;TIME:2123
;Filament used: 1.58538m
;Layer height: 0.2
;MINX:66.809
;MINY:94.867
;MINZ:0.28
;MAXX:160.534
;MAXY:134.502
;MAXZ:20.08
;POSTPROCESSED
;Generated with Cura_SteamEngine 5.2.1
M140 S60
M105
M190 S60
M104 S205
M105
M109 S205
M82 ;absolute extrusion mode
; Ender 3 Custom Start G-code
G92 E0 ; Reset Extruder
G28 ; Home all axes
G1 Z2.0 F3000 ; Move Z Axis up little to prevent scratching of Heat Bed
G1 X0.1 Y20 Z0.3 F5000.0 ; Move to start position
G1 X0.1 Y200.0 Z0.3 F1500.0 E15 ; Draw the first line
G1 X0.4 Y200.0 Z0.3 F5000.0 ; Move to side a little
G1 X0.4 Y20 Z0.3 F1500.0 E30 ; Draw the second line
G92 E0 ; Reset Extruder
G1 Z2.0 F3000 ; Move Z Axis up little to prevent scratching of Heat Bed
G1 X5 Y20 Z0.3 F5000.0 ; Move over to prevent blob squish
G92 E0
G92 E0
G1 F2700 E-6
;LAYER_COUNT:100
;LAYER:0
M107
M204 S500
M205 X5 Y5
G0 F7500 X74.072 Y102.975 Z0.28
M205 X8 Y8
;TYPE:SKIRT
G1 F2700 E0
G1 F1500 X75.214 Y102.24 E0.06421
G1 X75.878 Y101.877 E0.09998
G1 X76.893 Y101.355 E0.15394
G1 X77.749 Y100.959 E0.19853
G1 X78.957 Y100.542 E0.25895
G1 X79.711 Y100.339 E0.29587
G1 X80.882 Y100.06 E0.35278
G1 X81.808 Y99.88 E0.39738
G1 X83.181 Y99.761 E0.46253
G1 X83.967 Y99.748 E0.4997
G1 X85.089 Y99.759 E0.55274
G1 X87.742 Y99.759 E0.67817
G1 X90.284 Y99.688 E0.7984
G1 X92.781 Y99.546 E0.91664
G1 X95.271 Y99.335 E1.03478
G1 X97.761 Y99.053 E1.15325
G1 X100.97 Y98.593 E1.30652
G1 X102.265 Y98.485 E1.36795
G1 X103.042 Y98.471 E1.40469
G1 X104.152 Y98.481 E1.45717
G1 X104.863 Y98.511 E1.49082
G1 X106.495 Y98.63 E1.56818
G1 X109.081 Y98.773 E1.69062
G1 X111.597 Y98.841 E1.80962
G1 X114.114 Y98.837 E1.92861
G1 X116.594 Y98.764 E2.04591
G1 X120.486 Y98.51 E2.23031
G1 X121.853 Y98.392 E2.29517
G1 X122.438 Y98.351 E2.3229
G1 X124.944 Y98.102 E2.44196
G1 X127.416 Y97.786 E2.55978
G1 X129.926 Y97.393 E2.67989
G1 X132.366 Y96.94 E2.79722
G1 X134.813 Y96.415 E2.91554
G1 X137.307 Y95.802 E3.03696
G1 X137.984 Y95.62 E3.0701
G1 X138.941 Y95.378 E3.11677
G1 X139.863 Y95.163 E3.16153
G1 X140.79 Y94.989 E3.20612
G1 X142.059 Y94.88 E3.26634
G1 X142.776 Y94.867 E3.30024
G1 X143.967 Y94.876 E3.35655
G1 X144.909 Y94.923 E3.40114
G1 X146.204 Y95.121 E3.46307
G1 X147.025 Y95.306 E3.50286
G1 X148.127 Y95.589 E3.55665
G1 X149.03 Y95.862 E3.60125
G1 X150.231 Y96.362 E3.66276
G1 X150.878 Y96.686 E3.69696
G1 X151.947 Y97.258 E3.75428
G1 X152.759 Y97.738 E3.79888
G1 X153.773 Y98.481 E3.85831
G1 X154.296 Y98.921 E3.89062
G1 X154.83 Y99.395 E3.92438
G1 X155.341 Y99.862 E3.95711
G1 X156.01 Y100.527 E4.0017
G1 X156.785 Y101.465 E4.05923
G1 X157.22 Y102.069 E4.09442
G1 X157.87 Y103.027 E4.14915
G1 X158.366 Y103.829 E4.19373
G1 X158.975 Y105.096 E4.26019
G1 X159.357 Y106.039 E4.30829
G1 X159.696 Y106.952 E4.35434
G1 X159.98 Y107.852 E4.39896
G1 X160.186 Y108.772 E4.44353
G1 X160.266 Y109.288 E4.46821
G1 X160.409 Y110.394 E4.52094
G1 X160.474 Y111.006 E4.55003
G1 X160.534 Y111.947 E4.59461
G1 X160.481 Y113.284 E4.65787
G1 X160.379 Y114.308 E4.70652
G1 X160.262 Y115.229 E4.75042
G1 X160.097 Y116.157 E4.79498
G1 X159.733 Y117.435 E4.8578
G1 X159.478 Y118.142 E4.89333
G1 X159.089 Y119.141 E4.94402
G1 X158.71 Y120.004 E4.98858
G1 X158.012 Y121.224 E5.05503
G1 X157.454 Y122.071 E5.10298
G1 X156.907 Y122.853 E5.1481
G1 X156.329 Y123.598 E5.19268
G1 X155.457 Y124.518 E5.25261
G1 X154.893 Y125.037 E5.28884
G1 X154.008 Y125.808 E5.34433
G1 X153.271 Y126.397 E5.38894
G1 X152.137 Y127.126 E5.45267
G1 X151.467 Y127.493 E5.48879
G1 X150.443 Y128.019 E5.54321
G1 X149.587 Y128.414 E5.58778
G1 X148.35 Y128.839 E5.64962
G1 X147.637 Y129.029 E5.68451
G1 X146.466 Y129.308 E5.74142
G1 X145.54 Y129.488 E5.78602
G1 X144.849 Y129.569 E5.81891
G1 X143.767 Y129.662 E5.87025
G1 X143.152 Y129.706 E5.8994
G1 X140.635 Y129.955 E6.01898
G1 X138.166 Y130.271 E6.13666
G1 X135.645 Y130.666 E6.2573
G1 X133.211 Y131.118 E6.37434
G1 X130.764 Y131.643 E6.49266
G1 X128.27 Y132.256 E6.61408
G1 X127.593 Y132.438 E6.64722
G1 X126.636 Y132.68 E6.69389
G1 X125.714 Y132.895 E6.73865
G1 X124.787 Y133.069 E6.78324
G1 X123.518 Y133.178 E6.84345
G1 X122.801 Y133.191 E6.87736
G1 X121.614 Y133.182 E6.93348
G1 X120.881 Y133.152 E6.96816
G1 X119.29 Y133.035 E7.04358
G1 X116.714 Y132.892 E7.16555
G1 X114.197 Y132.823 E7.2846
G1 X111.68 Y132.825 E7.40359
G1 X109.203 Y132.898 E7.52075
G1 X106.616 Y133.047 E7.64326
G1 X104.965 Y133.18 E7.72157
G1 X104.211 Y133.215 E7.75725
G1 X103.118 Y133.225 E7.80893
G1 X102.35 Y133.214 E7.84524
G1 X99.779 Y133.214 E7.96679
G1 X97.237 Y133.285 E8.08701
G1 X94.74 Y133.427 E8.20526
G1 X92.25 Y133.638 E8.3234
G1 X89.758 Y133.921 E8.44197
G1 X86.569 Y134.379 E8.59428
G1 X85.26 Y134.489 E8.65639
G1 X84.48 Y134.502 E8.69327
G1 X83.367 Y134.492 E8.74589
G1 X82.425 Y134.443 E8.79049
G1 X81.154 Y134.249 E8.85127
G1 X80.319 Y134.061 E8.89174
G1 X79.221 Y133.779 E8.94533
G1 X78.318 Y133.506 E8.98993
G1 X77.117 Y133.006 E9.05144
G1 X76.474 Y132.684 E9.08543
G1 X75.404 Y132.112 E9.14279
G1 X74.592 Y131.633 E9.18737
G1 X73.577 Y130.889 E9.24686
G1 X72.959 Y130.365 E9.28517
G1 X72.059 Y129.553 E9.34248
G1 X71.386 Y128.892 E9.38707
G1 X70.558 Y127.896 E9.44831
G1 X70.128 Y127.299 E9.48309
G1 X69.478 Y126.341 E9.53782
G1 X68.982 Y125.539 E9.58241
G1 X68.373 Y124.272 E9.64887
G1 X67.991 Y123.329 E9.69697
G1 X67.831 Y122.911 E9.71813
G1 X67.64 Y122.379 E9.74485
G1 X67.36 Y121.479 E9.78941
G1 X67.113 Y120.298 E9.84646
G1 X67.009 Y119.558 E9.88178
G1 X66.875 Y118.369 E9.93835
G1 X66.809 Y117.428 E9.98295
G1 X66.852 Y116.107 E10.04544
G1 X66.928 Y115.36 E10.08093
G1 X67.082 Y114.177 E10.13734
G1 X67.243 Y113.248 E10.18191
G1 X67.601 Y111.975 E10.24443
G1 X67.832 Y111.329 E10.27686
G1 X68.253 Y110.243 E10.33193
G1 X68.631 Y109.379 E10.37652
G1 X69.081 Y108.55 E10.42111
G1 X69.336 Y108.144 E10.44378
G1 X70.107 Y106.984 E10.50963
G1 X70.433 Y106.524 E10.53628
G1 X71.011 Y105.779 E10.58086
G1 X71.875 Y104.865 E10.64032
G1 X72.427 Y104.356 E10.67582
G1 X73.335 Y103.564 E10.73279
G1 X74.072 Y102.975 E10.77739
M205 X5 Y5
G0 F7500 X74.353 Y103.327
M205 X8 Y8
G1 F1500 X75.434 Y102.633 E10.83812
G1 X76.084 Y102.277 E10.87316
G1 X77.099 Y101.755 E10.92712
G1 X77.938 Y101.368 E10.9708
G1 X79.079 Y100.975 E11.02785
G1 X79.815 Y100.777 E11.06389
G1 X80.986 Y100.498 E11.1208
G1 X81.893 Y100.323 E11.16447
G1 X83.192 Y100.21 E11.22611
G1 X83.963 Y100.198 E11.26257
G1 X85.085 Y100.209 E11.31562
G1 X87.755 Y100.209 E11.44185
G1 X90.288 Y100.138 E11.56165
G1 X92.807 Y99.995 E11.68093
G1 X95.322 Y99.782 E11.80026
G1 X97.84 Y99.496 E11.92007
G1 X101.033 Y99.039 E12.07256
G1 X102.277 Y98.934 E12.13158
G1 X103.038 Y98.921 E12.16757
G1 X104.148 Y98.931 E12.22005
G1 X104.83 Y98.959 E12.25232
G1 X106.494 Y99.081 E12.3312
G1 X109.079 Y99.223 E12.45359
G1 X111.586 Y99.291 E12.57216
G1 X114.128 Y99.287 E12.69234
G1 X116.608 Y99.214 E12.80964
G1 X120.508 Y98.959 E12.99441
G1 X121.885 Y98.841 E13.05975
G1 X122.48 Y98.799 E13.08795
G1 X124.973 Y98.552 E13.20639
G1 X127.509 Y98.227 E13.32727
G1 X129.976 Y97.841 E13.44532
G1 X132.469 Y97.378 E13.5652
G1 X134.906 Y96.856 E13.68302
G1 X137.443 Y96.232 E13.80654
G1 X138.101 Y96.055 E13.83876
G1 X139.247 Y95.767 E13.89462
G1 X139.964 Y95.601 E13.92941
G1 X140.872 Y95.432 E13.97308
G1 X142.072 Y95.33 E14.03002
G1 X142.773 Y95.317 E14.06316
G1 X143.964 Y95.326 E14.11947
G1 X144.886 Y95.373 E14.16312
G1 X146.11 Y95.561 E14.22166
G1 X146.913 Y95.741 E14.26057
G1 X148.015 Y96.024 E14.31436
G1 X148.899 Y96.293 E14.35805
G1 X150.034 Y96.767 E14.4162
G1 X150.665 Y97.083 E14.44956
G1 X151.734 Y97.655 E14.50688
G1 X152.529 Y98.125 E14.55054
G1 X153.487 Y98.829 E14.60675
G1 X153.998 Y99.258 E14.63829
G1 X154.392 Y99.606 E14.66314
G1 X155.037 Y100.194 E14.70441
G1 X155.692 Y100.846 E14.7481
G1 X156.423 Y101.732 E14.8024
G1 X156.848 Y102.321 E14.83674
G1 X157.498 Y103.279 E14.89148
G1 X157.983 Y104.066 E14.93518
G1 X158.558 Y105.265 E14.99805
G1 X158.94 Y106.208 E15.04615
G1 X159.273 Y107.106 E15.09143
G1 X159.55 Y107.987 E15.13509
G1 X159.75 Y108.889 E15.17877
G1 X159.82 Y109.346 E15.20063
G1 X159.929 Y110.172 E15.24002
G1 X160.026 Y111.054 E15.28197
G1 X160.084 Y111.976 E15.32564
G1 X160.033 Y113.239 E15.3854
G1 X159.931 Y114.263 E15.43405
G1 X159.816 Y115.169 E15.47723
G1 X159.654 Y116.078 E15.52088
G1 X159.308 Y117.286 E15.58029
G1 X159.058 Y117.978 E15.61508
G1 X158.669 Y118.977 E15.66576
G1 X158.297 Y119.823 E15.70945
G1 X157.636 Y120.977 E15.77233
G1 X157.078 Y121.824 E15.82028
G1 X156.54 Y122.593 E15.86465
G1 X155.973 Y123.322 E15.90831
G1 X155.148 Y124.19 E15.96493
G1 X154.597 Y124.698 E16.00036
G1 X153.712 Y125.469 E16.05585
G1 X152.99 Y126.045 E16.09952
G1 X151.917 Y126.733 E16.15978
G1 X151.262 Y127.093 E16.19511
G1 X150.238 Y127.619 E16.24954
G1 X149.398 Y128.005 E16.29324
G1 X148.229 Y128.405 E16.35166
G1 X147.533 Y128.591 E16.38572
G1 X146.362 Y128.87 E16.44263
G1 X145.455 Y129.045 E16.4863
G1 X144.81 Y129.121 E16.517
G1 X143.735 Y129.213 E16.56801
G1 X143.114 Y129.257 E16.59744
G1 X140.603 Y129.506 E16.71674
G1 X138.073 Y129.83 E16.83733
G1 X135.596 Y130.218 E16.95586
G1 X133.108 Y130.68 E17.0755
G1 X130.671 Y131.202 E17.19333
G1 X128.134 Y131.826 E17.31684
G1 X127.476 Y132.003 E17.34906
G1 X126.33 Y132.291 E17.40492
G1 X125.613 Y132.457 E17.43972
G1 X124.705 Y132.626 E17.48338
G1 X123.505 Y132.728 E17.54032
G1 X122.804 Y132.741 E17.57346
G1 X121.617 Y132.732 E17.62958
G1 X120.914 Y132.703 E17.66285
G1 X119.348 Y132.588 E17.73708
G1 X116.716 Y132.441 E17.86171
G1 X114.209 Y132.373 E17.98028
G1 X111.667 Y132.375 E18.10046
G1 X109.163 Y132.448 E18.21889
G1 X106.598 Y132.596 E18.34036
G1 X104.929 Y132.731 E18.41952
G1 X104.205 Y132.765 E18.45379
G1 X103.124 Y132.775 E18.5049
G1 X102.356 Y132.764 E18.54121
G1 X99.766 Y132.764 E18.66366
G1 X97.233 Y132.835 E18.78346
G1 X94.714 Y132.978 E18.90274
G1 X92.199 Y133.191 E19.02207
G1 X89.674 Y133.477 E19.14221
G1 X86.505 Y133.933 E19.29357
G1 X85.249 Y134.039 E19.35316
G1 X84.484 Y134.052 E19.38933
G1 X83.371 Y134.042 E19.44196
G1 X82.448 Y133.993 E19.48565
G1 X81.247 Y133.809 E19.5431
G1 X80.431 Y133.625 E19.58264
G1 X79.333 Y133.343 E19.63624
G1 X78.448 Y133.075 E19.67996
G1 X77.314 Y132.601 E19.73806
G1 X76.686 Y132.287 E19.77126
G1 X75.616 Y131.715 E19.82862
G1 X74.821 Y131.245 E19.87228
G1 X73.863 Y130.541 E19.92849
G1 X73.26 Y130.031 E19.96582
G1 X72.36 Y129.219 E20.02313
G1 X71.702 Y128.571 E20.06679
G1 X70.92 Y127.629 E20.12467
G1 X70.5 Y127.047 E20.15861
G1 X69.85 Y126.089 E20.21334
G1 X69.365 Y125.302 E20.25704
G1 X68.79 Y124.103 E20.31991
G1 X68.408 Y123.16 E20.36801
G1 X68.064 Y122.227 E20.41502
G1 X67.79 Y121.345 E20.45869
G1 X67.558 Y120.23 E20.51253
G1 X67.456 Y119.508 E20.547
G1 X67.322 Y118.319 E20.60357
G1 X67.259 Y117.397 E20.64726
G1 X67.3 Y116.148 E20.70634
G1 X67.374 Y115.418 E20.74103
G1 X67.528 Y114.235 E20.79743
G1 X67.687 Y113.325 E20.84111
G1 X68.026 Y112.122 E20.9002
G1 X68.252 Y111.492 E20.93184
G1 X68.673 Y110.406 E20.98691
G1 X69.044 Y109.559 E21.03062
G1 X69.712 Y108.391 E21.09424
G1 X70.27 Y107.544 E21.14219
G1 X70.8 Y106.785 E21.18596
G1 X71.367 Y106.055 E21.22966
G1 X72.184 Y105.192 E21.28584
G1 X72.723 Y104.695 E21.3205
G1 X73.631 Y103.903 E21.37746
G1 X74.353 Y103.327 E21.42113
M205 X5 Y5
G0 F7500 X74.634 Y103.679
M205 X8 Y8
G1 F1500 X75.654 Y103.026 E21.47839
G1 X76.29 Y102.677 E21.51269
G1 X77.305 Y102.155 E21.56665
G1 X78.126 Y101.777 E21.60938
G1 X79.202 Y101.408 E21.66316
G1 X79.919 Y101.214 E21.69827
G1 X81.09 Y100.935 E21.75518
G1 X81.978 Y100.765 E21.79793
G1 X83.203 Y100.66 E21.85606
G1 X83.958 Y100.647 E21.89175
G1 X85.182 Y100.659 E21.94962
G1 X87.767 Y100.659 E22.07184
G1 X90.291 Y100.588 E22.19121
G1 X92.872 Y100.442 E22.31343
G1 X95.342 Y100.233 E22.43062
G1 X97.887 Y99.944 E22.55171
G1 X101.097 Y99.484 E22.70502
G1 X102.288 Y99.384 E22.76153
G1 X103.034 Y99.371 E22.7968
G1 X104.144 Y99.381 E22.84928
G1 X104.797 Y99.408 E22.88018
G1 X106.492 Y99.532 E22.96053
G1 X109.042 Y99.673 E23.08127
G1 X111.574 Y99.741 E23.20102
G1 X114.141 Y99.737 E23.32238
G1 X116.622 Y99.663 E23.43973
G1 X120.531 Y99.409 E23.62493
G1 X121.751 Y99.303 E23.68282
G1 X122.521 Y99.247 E23.71932
G1 X125.04 Y98.998 E23.83899
G1 X127.527 Y98.679 E23.95753
G1 X130.094 Y98.277 E24.08037
G1 X132.536 Y97.824 E24.19779
G1 X135.014 Y97.292 E24.31762
G1 X137.527 Y96.675 E24.43995
G1 X138.218 Y96.489 E24.47378
G1 X139.349 Y96.205 E24.52891
G1 X140.066 Y96.039 E24.56371
G1 X140.955 Y95.875 E24.60645
G1 X142.085 Y95.78 E24.66006
G1 X142.769 Y95.767 E24.6924
G1 X143.96 Y95.776 E24.74871
G1 X144.863 Y95.823 E24.79146
G1 X146.016 Y96.001 E24.84662
G1 X146.801 Y96.177 E24.88465
G1 X147.903 Y96.46 E24.93844
G1 X148.768 Y96.724 E24.9812
G1 X149.837 Y97.171 E25.03598
G1 X150.453 Y97.479 E25.06854
G1 X151.522 Y98.051 E25.12586
G1 X152.3 Y98.513 E25.16864
G1 X153.2 Y99.176 E25.22148
G1 X153.7 Y99.595 E25.25233
G1 X154.223 Y100.059 E25.28538
G1 X154.734 Y100.526 E25.31811
G1 X155.374 Y101.165 E25.36086
G1 X156.061 Y101.999 E25.41195
G1 X156.475 Y102.574 E25.44545
G1 X157.125 Y103.532 E25.50018
G1 X157.599 Y104.302 E25.54293
G1 X158.141 Y105.434 E25.60226
G1 X158.523 Y106.377 E25.65036
G1 X158.85 Y107.259 E25.69484
G1 X159.12 Y108.122 E25.73759
G1 X159.374 Y109.405 E25.79942
G1 X159.514 Y110.489 E25.85109
G1 X159.579 Y111.101 E25.88019
G1 X159.634 Y112.004 E25.92296
G1 X159.586 Y113.194 E25.97927
G1 X159.484 Y114.218 E26.02792
G1 X159.37 Y115.109 E26.07039
G1 X159.21 Y115.999 E26.11314
G1 X158.884 Y117.136 E26.16906
G1 X158.639 Y117.815 E26.20318
G1 X158.25 Y118.814 E26.25387
G1 X157.885 Y119.641 E26.29661
G1 X157.261 Y120.729 E26.3559
G1 X156.703 Y121.576 E26.40385
G1 X156.173 Y122.332 E26.4475
G1 X155.618 Y123.046 E26.49026
G1 X154.84 Y123.862 E26.54356
G1 X154.302 Y124.359 E26.57819
G1 X153.417 Y125.13 E26.63368
G1 X152.709 Y125.693 E26.67645
G1 X151.697 Y126.341 E26.73326
G1 X151.056 Y126.692 E26.76781
G1 X150.032 Y127.218 E26.82223
G1 X149.21 Y127.595 E26.86499
G1 X148.108 Y127.972 E26.92005
G1 X147.429 Y128.154 E26.95329
G1 X146.258 Y128.433 E27.0102
G1 X145.37 Y128.603 E27.05294
G1 X144.771 Y128.673 E27.08145
G1 X143.86 Y128.752 E27.12468
G1 X143.071 Y128.809 E27.16208
G1 X140.539 Y129.06 E27.28238
G1 X138.049 Y129.379 E27.40106
G1 X135.483 Y129.781 E27.52385
G1 X133.041 Y130.234 E27.64127
G1 X130.563 Y130.766 E27.76109
G1 X128.05 Y131.383 E27.88343
G1 X127.359 Y131.569 E27.91726
G1 X126.228 Y131.853 E27.97239
G1 X125.511 Y132.019 E28.00719
G1 X124.622 Y132.183 E28.04993
G1 X123.492 Y132.278 E28.10354
G1 X122.807 Y132.291 E28.13593
G1 X121.62 Y132.282 E28.19205
G1 X120.947 Y132.254 E28.22389
G1 X119.35 Y132.136 E28.2996
G1 X116.753 Y131.992 E28.42257
G1 X114.221 Y131.923 E28.54232
G1 X111.689 Y131.925 E28.66202
G1 X109.124 Y132 E28.78334
G1 X106.577 Y132.147 E28.90396
G1 X104.892 Y132.283 E28.98388
G1 X104.2 Y132.315 E29.01663
G1 X103.131 Y132.325 E29.06717
G1 X102.363 Y132.314 E29.10348
G1 X99.754 Y132.314 E29.22683
G1 X97.23 Y132.385 E29.3462
G1 X94.649 Y132.531 E29.46842
G1 X92.179 Y132.74 E29.58561
G1 X89.627 Y133.03 E29.70704
G1 X86.441 Y133.488 E29.85922
G1 X85.238 Y133.589 E29.91629
G1 X84.488 Y133.602 E29.95175
G1 X83.375 Y133.592 E30.00437
G1 X82.472 Y133.543 E30.04713
G1 X81.341 Y133.368 E30.10124
G1 X80.542 Y133.19 E30.13994
G1 X79.444 Y132.908 E30.19353
G1 X78.579 Y132.644 E30.23629
G1 X77.511 Y132.197 E30.29102
G1 X76.898 Y131.89 E30.32344
G1 X75.828 Y131.318 E30.3808
G1 X75.051 Y130.857 E30.42351
G1 X74.149 Y130.194 E30.47644
G1 X73.562 Y129.697 E30.5128
G1 X72.662 Y128.885 E30.57011
G1 X72.018 Y128.25 E30.61286
G1 X71.282 Y127.362 E30.66739
G1 X70.873 Y126.794 E30.70048
G1 X70.223 Y125.836 E30.75522
G1 X69.749 Y125.066 E30.79796
G1 X69.207 Y123.934 E30.8573
G1 X68.825 Y122.991 E30.9054
G1 X68.487 Y122.075 E30.95156
G1 X68.22 Y121.211 E30.99431
G1 X68.003 Y120.162 E31.04496
G1 X67.903 Y119.457 E31.07862
G1 X67.769 Y118.268 E31.13519
G1 X67.708 Y117.366 E31.17793
G1 X67.748 Y116.189 E31.23361
G1 X67.821 Y115.476 E31.26749
G1 X67.975 Y114.293 E31.3239
G1 X68.131 Y113.402 E31.36666
G1 X68.451 Y112.27 E31.42228
G1 X68.671 Y111.654 E31.4532
