;FLAVOR:Marlin
M117 Time Left 0h31m38s
;TIME:1898
;Filament used: 1.37641m
;Layer height: 0.2
;MINX:96.757
;MINY:76.316
;MINZ:0.2
;MAXX:157.637
;MAXY:158.682
;MAXZ:5
;POSTPROCESSED
;Generated with Cura_SteamEngine 4.9.0
M140 S60
M105
M190 S60
M104 S205
M105
M109 S205
M82 ;absolute extrusion mode
; Ender 3 Custom Start G-code
G92 E0 ; Reset Extruder
G28 ; Home all axes
; ***SET NEW E STEP *** (93 is factory value - 95 mine - start)
G90                          ; Force coordinates to be absolute relative to the origin
M92 E95 ;					 ; ***SET NEW E STEP *** (93 is factory value - 95 mine - end)
G90                          ; Force coordinates to be absolute relative to the origin
G28                          ; Home X/Y/Z axis
G92 E0 ; Reset Extruder
G28 ; Home all axes
G1 Z2.0 F3000 ; Move Z Axis up little to prevent scratching of Heat Bed
G1 X0.1 Y20 Z0.3 F5000.0 ; Move to start position
G1 X0.1 Y200.0 Z0.3 F1500.0 E15 ; Draw the first line
G1 X0.4 Y200.0 Z0.3 F5000.0 ; Move to side a little
G1 X0.4 Y20 Z0.3 F1500.0 E30 ; Draw the second line
G92 E0 ; Reset Extruder
G1 Z2.0 F3000 ; Move Z Axis up little to prevent scratching of Heat Bed
G1 X5 Y20 Z0.3 F5000.0 ; Move over to prevent blob squish
G92 E0
G92 E0
G1 F2700 E-5
;LAYER_COUNT:25
;LAYER:0
M107
G0 F6000 X101.543 Y83.869 Z0.2
;TYPE:SKIRT
G1 F2700 E0
G1 F1200 X101.821 Y83.534 E0.01448
G1 X102.114 Y83.204 E0.02916
G1 X102.407 Y82.887 E0.04351
G1 X102.607 Y82.676 E0.05318
G1 X102.952 Y82.322 E0.06962
G1 X103.408 Y81.881 E0.09072
G1 X103.78 Y81.544 E0.10742
G1 X104.128 Y81.245 E0.12268
G1 X104.383 Y81.033 E0.13371
G1 X104.933 Y80.605 E0.15689
G1 X105.72 Y80.031 E0.18929
G1 X106.051 Y79.799 E0.20273
G1 X106.263 Y79.656 E0.21123
G1 X106.825 Y79.301 E0.23334
G1 X107.103 Y79.137 E0.24408
G1 X107.476 Y78.926 E0.25833
G1 X108.046 Y78.619 E0.27987
G1 X108.629 Y78.327 E0.30155
G1 X108.896 Y78.203 E0.31134
G1 X109.224 Y78.057 E0.32329
G1 X109.612 Y77.892 E0.33731
G1 X109.913 Y77.77 E0.34811
G1 X110.174 Y77.668 E0.35743
G1 X110.706 Y77.475 E0.37625
G1 X111.175 Y77.319 E0.39269
G1 X111.468 Y77.226 E0.40292
G1 X111.786 Y77.13 E0.41397
G1 X112.108 Y77.038 E0.4251
G1 X112.346 Y76.974 E0.4333
G1 X112.868 Y76.848 E0.45116
G1 X113.181 Y76.78 E0.46182
G1 X113.47 Y76.721 E0.47163
G1 X114.014 Y76.618 E0.49004
G1 X114.496 Y76.538 E0.50629
G1 X114.677 Y76.512 E0.51237
G1 X115.38 Y76.434 E0.5359
G1 X116.399 Y76.354 E0.5699
G1 X117.086 Y76.321 E0.59277
G1 X117.402 Y76.316 E0.60328
G1 X117.756 Y76.316 E0.61506
G1 X117.878 Y76.318 E0.61911
G1 X118.21 Y76.329 E0.63016
G1 X118.704 Y76.352 E0.64661
G1 X119.082 Y76.376 E0.65921
G1 X119.538 Y76.413 E0.67443
G1 X119.926 Y76.452 E0.6874
G1 X120.285 Y76.494 E0.69942
G1 X121.054 Y76.611 E0.72529
G1 X121.619 Y76.718 E0.74441
G1 X121.947 Y76.786 E0.75556
G1 X122.155 Y76.832 E0.76264
G1 X122.83 Y77.003 E0.7858
G1 X123.717 Y77.259 E0.81651
G1 X124.109 Y77.38 E0.83015
G1 X124.364 Y77.464 E0.83908
G1 X124.88 Y77.649 E0.85731
G1 X125.116 Y77.74 E0.86573
G1 X125.606 Y77.943 E0.88337
G1 X126.289 Y78.245 E0.90821
G1 X126.824 Y78.498 E0.92789
G1 X127.009 Y78.592 E0.93479
G1 X127.429 Y78.816 E0.95062
G1 X127.676 Y78.955 E0.96005
G1 X128.05 Y79.171 E0.97441
G1 X128.635 Y79.533 E0.9973
G1 X129.445 Y80.071 E1.02964
G1 X129.888 Y80.382 E1.04764
G1 X130.029 Y80.486 E1.05347
G1 X130.542 Y80.888 E1.07514
G1 X130.98 Y81.253 E1.09411
G1 X131.194 Y81.435 E1.10345
G1 X131.431 Y81.643 E1.11394
G1 X131.767 Y81.951 E1.1291
G1 X131.983 Y82.157 E1.13903
G1 X132.508 Y82.693 E1.16398
G1 X133.087 Y83.326 E1.19251
G1 X133.546 Y83.862 E1.21598
G1 X133.901 Y84.304 E1.23484
G1 X134.142 Y84.614 E1.2479
G1 X134.333 Y84.87 E1.25852
G1 X134.593 Y85.235 E1.27343
G1 X134.708 Y85.403 E1.2802
G1 X134.892 Y85.68 E1.29126
G1 X135.042 Y85.914 E1.30051
G1 X135.199 Y86.166 E1.31038
G1 X135.403 Y86.504 E1.32351
G1 X135.757 Y87.138 E1.34766
G1 X136.157 Y87.912 E1.37664
G1 X137.404 Y90.246 E1.46465
G1 X138.63 Y92.392 E1.54686
G1 X139.956 Y94.567 E1.63158
G1 X141.315 Y96.663 E1.71467
G1 X142.756 Y98.749 E1.79899
G1 X144.24 Y100.776 E1.88255
G1 X145.787 Y102.769 E1.96646
G1 X147.382 Y104.705 E2.04989
G1 X149.007 Y106.569 E2.13214
G1 X151.635 Y109.38 E2.26013
G1 X151.883 Y109.634 E2.27194
G1 X152.084 Y109.845 E2.28163
G1 X152.394 Y110.183 E2.29688
G1 X152.537 Y110.345 E2.30407
G1 X152.812 Y110.67 E2.31823
G1 X152.985 Y110.882 E2.32733
G1 X153.291 Y111.275 E2.3439
G1 X153.711 Y111.84 E2.36731
G1 X154.101 Y112.399 E2.38998
G1 X154.467 Y112.961 E2.41229
G1 X154.681 Y113.305 E2.42576
G1 X154.831 Y113.555 E2.43546
G1 X155.067 Y113.968 E2.45128
G1 X155.274 Y114.357 E2.46594
G1 X155.424 Y114.652 E2.47694
G1 X155.593 Y115 E2.48981
G1 X155.739 Y115.314 E2.50133
G1 X155.992 Y115.901 E2.52259
G1 X156.341 Y116.782 E2.55411
G1 X156.488 Y117.175 E2.56806
G1 X156.561 Y117.382 E2.57536
G1 X156.792 Y118.119 E2.60105
G1 X156.938 Y118.649 E2.61934
G1 X157.026 Y118.988 E2.63098
G1 X157.146 Y119.485 E2.64799
G1 X157.311 Y120.305 E2.67581
G1 X157.372 Y120.681 E2.68848
G1 X157.412 Y120.95 E2.69752
G1 X157.459 Y121.293 E2.70904
G1 X157.531 Y121.981 E2.73205
G1 X157.6 Y122.921 E2.7634
G1 X157.622 Y123.314 E2.77649
G1 X157.631 Y123.554 E2.78448
G1 X157.637 Y124.176 E2.80516
G1 X157.627 Y124.603 E2.81937
G1 X157.621 Y124.757 E2.8245
G1 X157.605 Y125.056 E2.83446
G1 X157.563 Y125.69 E2.85559
G1 X157.504 Y126.308 E2.87624
G1 X157.461 Y126.657 E2.88793
G1 X157.396 Y127.112 E2.90322
G1 X157.323 Y127.552 E2.91805
G1 X157.259 Y127.903 E2.92992
G1 X157.188 Y128.259 E2.94199
G1 X157.072 Y128.776 E2.95962
G1 X156.975 Y129.151 E2.9725
G1 X156.792 Y129.817 E2.99547
G1 X156.603 Y130.434 E3.01694
G1 X156.504 Y130.726 E3.02719
G1 X156.343 Y131.168 E3.04284
G1 X156.109 Y131.772 E3.06438
G1 X155.803 Y132.485 E3.09019
G1 X155.592 Y132.933 E3.10666
G1 X155.452 Y133.22 E3.11728
G1 X155.233 Y133.652 E3.13339
G1 X154.965 Y134.15 E3.1522
G1 X154.84 Y134.368 E3.16055
G1 X154.636 Y134.709 E3.17377
G1 X154.49 Y134.945 E3.183
G1 X154.298 Y135.245 E3.19485
G1 X154.072 Y135.584 E3.2084
G1 X153.9 Y135.832 E3.21844
G1 X153.681 Y136.136 E3.2309
G1 X153.333 Y136.603 E3.25027
G1 X153.121 Y136.879 E3.26184
G1 X152.903 Y137.153 E3.27349
G1 X152.596 Y137.522 E3.28946
G1 X152.496 Y137.637 E3.29452
G1 X152.269 Y137.89 E3.30583
G1 X152.108 Y138.064 E3.31371
G1 X151.895 Y138.287 E3.32397
G1 X151.479 Y138.712 E3.34375
G1 X151.038 Y139.139 E3.36417
G1 X150.818 Y139.34 E3.37408
G1 X150.577 Y139.554 E3.3848
G1 X150.363 Y139.737 E3.39416
G1 X149.915 Y140.11 E3.41355
G1 X149.425 Y140.495 E3.43428
G1 X149.151 Y140.698 E3.44562
G1 X148.757 Y140.976 E3.46166
G1 X148.2 Y141.352 E3.48401
G1 X147.7 Y141.67 E3.50372
G1 X147.329 Y141.892 E3.5181
G1 X145.158 Y143.162 E3.60176
G1 X143.007 Y144.502 E3.68604
G1 X140.916 Y145.889 E3.7695
G1 X138.872 Y147.331 E3.8527
G1 X136.845 Y148.846 E3.93687
G1 X134.856 Y150.425 E4.02133
G1 X132.976 Y152.004 E4.10299
G1 X132.456 Y152.469 E4.12619
G1 X132.211 Y152.67 E4.13673
G1 X131.167 Y153.588 E4.18297
G1 X130.96 Y153.766 E4.19205
G1 X130.606 Y154.062 E4.2074
G1 X130.09 Y154.468 E4.22924
G1 X129.76 Y154.712 E4.24289
G1 X129.37 Y154.987 E4.25876
G1 X129.02 Y155.223 E4.2728
G1 X128.415 Y155.603 E4.29656
G1 X127.603 Y156.077 E4.32783
G1 X127.325 Y156.234 E4.33845
G1 X127.105 Y156.354 E4.34679
G1 X126.454 Y156.682 E4.37103
G1 X126.048 Y156.867 E4.38587
G1 X125.696 Y157.019 E4.39863
G1 X125.126 Y157.254 E4.41913
G1 X124.528 Y157.48 E4.44039
G1 X124.233 Y157.582 E4.45078
G1 X123.764 Y157.732 E4.46715
G1 X123.285 Y157.874 E4.48377
G1 X122.601 Y158.054 E4.50729
G1 X121.74 Y158.25 E4.53666
G1 X121.339 Y158.333 E4.55028
G1 X121.016 Y158.394 E4.56122
G1 X120.393 Y158.493 E4.5822
G1 X120.193 Y158.519 E4.58891
G1 X119.678 Y158.574 E4.60613
G1 X118.962 Y158.633 E4.63003
G1 X118.276 Y158.668 E4.65287
G1 X117.617 Y158.681 E4.6748
G1 X117.236 Y158.682 E4.68747
G1 X117.102 Y158.68 E4.69193
G1 X116.411 Y158.648 E4.71493
G1 X115.462 Y158.574 E4.74659
G1 X114.992 Y158.527 E4.7623
G1 X114.753 Y158.498 E4.77031
G1 X114.023 Y158.384 E4.79489
G1 X113.534 Y158.291 E4.81144
G1 X113.237 Y158.231 E4.82152
G1 X112.771 Y158.129 E4.83738
G1 X112.281 Y158.01 E4.85416
G1 X111.854 Y157.891 E4.8689
G1 X111.529 Y157.793 E4.88019
G1 X111.254 Y157.706 E4.88978
G1 X110.694 Y157.521 E4.9094
G1 X110.048 Y157.284 E4.93229
G1 X109.754 Y157.166 E4.94282
G1 X109.363 Y157.001 E4.95694
G1 X108.77 Y156.736 E4.97854
G1 X108.199 Y156.46 E4.99963
G1 X107.921 Y156.316 E5.01005
G1 X107.501 Y156.088 E5.02594
G1 X106.916 Y155.752 E5.04838
G1 X106.343 Y155.398 E5.07078
G1 X106.041 Y155.199 E5.08281
G1 X105.657 Y154.935 E5.09831
G1 X105.298 Y154.676 E5.11303
G1 X104.76 Y154.261 E5.13563
G1 X104.005 Y153.642 E5.1681
G1 X103.518 Y153.219 E5.18956
G1 X103.349 Y153.063 E5.19721
G1 X102.949 Y152.675 E5.21574
G1 X102.624 Y152.343 E5.2312
G1 X102.406 Y152.114 E5.24171
G1 X102.126 Y151.811 E5.25543
G1 X101.809 Y151.452 E5.27136
G1 X101.627 Y151.237 E5.28073
G1 X101.19 Y150.685 E5.30415
G1 X100.721 Y150.053 E5.33032
G1 X100.329 Y149.49 E5.35314
G1 X99.975 Y148.945 E5.37476
G1 X99.774 Y148.623 E5.38738
G1 X99.623 Y148.372 E5.39712
G1 X99.359 Y147.908 E5.41488
G1 X99.172 Y147.555 E5.42817
G1 X99.025 Y147.266 E5.43895
G1 X98.856 Y146.917 E5.45185
G1 X98.71 Y146.603 E5.46337
G1 X98.457 Y146.016 E5.48463
G1 X98.108 Y145.135 E5.51614
G1 X97.967 Y144.758 E5.52953
G1 X97.894 Y144.552 E5.5368
G1 X97.651 Y143.779 E5.56375
G1 X97.502 Y143.234 E5.58254
G1 X97.426 Y142.939 E5.59267
G1 X97.327 Y142.533 E5.60657
G1 X97.258 Y142.232 E5.61684
G1 X97.137 Y141.604 E5.63812
G1 X97.075 Y141.221 E5.65102
G1 X97.037 Y140.965 E5.65963
G1 X96.994 Y140.653 E5.6701
G1 X96.921 Y139.959 E5.69331
G1 X96.849 Y138.982 E5.7259
G1 X96.826 Y138.572 E5.73956
G1 X96.818 Y138.351 E5.74691
G1 X96.813 Y137.771 E5.7662
G1 X96.817 Y137.529 E5.77425
G1 X96.832 Y137.091 E5.78883
G1 X96.843 Y136.889 E5.79556
G1 X96.927 Y135.615 E5.83802
G1 X97.068 Y133.834 E5.89744
G1 X97.197 Y131.303 E5.98173
G1 X97.253 Y128.818 E6.06441
G1 X97.238 Y126.292 E6.14842
G1 X97.152 Y123.765 E6.23252
G1 X96.948 Y120.663 E6.33592
G1 X96.819 Y119.098 E6.38815
G1 X96.79 Y118.617 E6.40417
G1 X96.763 Y117.92 E6.42737
G1 X96.757 Y117.283 E6.44856
G1 X96.769 Y116.787 E6.46506
G1 X96.787 Y116.433 E6.47685
G1 X96.831 Y115.768 E6.49902
G1 X97.068 Y112.811 E6.59768
G1 X97.199 Y110.255 E6.68281
G1 X97.256 Y107.768 E6.76555
G1 X97.243 Y105.244 E6.8495
G1 X97.158 Y102.708 E6.93389
G1 X97.016 Y100.354 E7.01233
G1 X96.849 Y98.085 E7.088
G1 X96.826 Y97.666 E7.10196
G1 X96.818 Y97.439 E7.10951
G1 X96.813 Y96.869 E7.12847
G1 X96.817 Y96.628 E7.13649
G1 X96.832 Y96.191 E7.15103
G1 X96.885 Y95.345 E7.17922
G1 X96.946 Y94.697 E7.20087
G1 X96.988 Y94.359 E7.2122
G1 X97.049 Y93.937 E7.22638
G1 X97.124 Y93.479 E7.24182
G1 X97.194 Y93.094 E7.25483
G1 X97.264 Y92.745 E7.26667
G1 X97.377 Y92.24 E7.28388
G1 X97.414 Y92.092 E7.28896
G1 X97.487 Y91.818 E7.29839
G1 X97.671 Y91.155 E7.32127
G1 X97.851 Y90.569 E7.34166
G1 X97.894 Y90.442 E7.34612
G1 X98.082 Y89.93 E7.36426
G1 X98.45 Y88.998 E7.39759
G1 X98.732 Y88.346 E7.42122
G1 X98.865 Y88.064 E7.43159
G1 X98.995 Y87.798 E7.44144
G1 X99.201 Y87.39 E7.45664
G1 X99.507 Y86.825 E7.47801
G1 X99.74 Y86.428 E7.49332
G1 X99.959 Y86.071 E7.50725
G1 X100.151 Y85.771 E7.51909
G1 X100.399 Y85.401 E7.53391
G1 X100.552 Y85.182 E7.5428
G1 X100.743 Y84.917 E7.55366
G1 X101.132 Y84.394 E7.57534
G1 X101.361 Y84.097 E7.58781
G1 X101.543 Y83.869 E7.59752
G0 F6000 X101.856 Y84.118
G1 F1200 X102.125 Y83.793 E7.61155
G1 X102.408 Y83.475 E7.62571
G1 X102.701 Y83.158 E7.64006
G1 X102.894 Y82.955 E7.64938
G1 X103.239 Y82.601 E7.66582
G1 X103.677 Y82.176 E7.68612
G1 X103.852 Y82.016 E7.69401
G1 X104.198 Y81.711 E7.70935
G1 X104.383 Y81.553 E7.71744
G1 X104.638 Y81.341 E7.72847
G1 X105.169 Y80.928 E7.75084
G1 X105.956 Y80.354 E7.78324
G1 X106.274 Y80.13 E7.79618
G1 X106.486 Y79.987 E7.80468
G1 X107.028 Y79.645 E7.826
G1 X107.306 Y79.481 E7.83673
G1 X107.666 Y79.279 E7.85046
G1 X108.236 Y78.972 E7.872
G1 X108.797 Y78.69 E7.89288
G1 X109.064 Y78.566 E7.90267
G1 X109.381 Y78.425 E7.91421
G1 X109.769 Y78.26 E7.92824
G1 X110.059 Y78.142 E7.93865
G1 X110.32 Y78.04 E7.94797
G1 X110.832 Y77.855 E7.96608
G1 X111.301 Y77.699 E7.98252
G1 X111.584 Y77.609 E7.99239
G1 X111.902 Y77.513 E8.00344
G1 X112.212 Y77.425 E8.01416
G1 X112.45 Y77.361 E8.02236
G1 X112.953 Y77.239 E8.03957
G1 X113.266 Y77.171 E8.05022
G1 X113.544 Y77.114 E8.05966
G1 X114.088 Y77.011 E8.07808
G1 X114.553 Y76.934 E8.09375
G1 X114.734 Y76.908 E8.09984
G1 X115.411 Y76.833 E8.12249
G1 X116.43 Y76.753 E8.15649
G1 X117.092 Y76.721 E8.17853
G1 X117.408 Y76.716 E8.18904
G1 X117.75 Y76.716 E8.20042
G1 X118.191 Y76.728 E8.21509
G1 X118.685 Y76.751 E8.23154
G1 X119.049 Y76.775 E8.24367
G1 X119.505 Y76.812 E8.25889
G1 X119.88 Y76.849 E8.27142
G1 X120.239 Y76.891 E8.28344
G1 X120.979 Y77.004 E8.30834
G1 X121.544 Y77.111 E8.32747
G1 X121.861 Y77.176 E8.33823
G1 X122.069 Y77.222 E8.34532
G1 X122.719 Y77.388 E8.36763
G1 X123.606 Y77.644 E8.39833
G1 X123.983 Y77.76 E8.41145
G1 X124.238 Y77.844 E8.42038
G1 X124.736 Y78.022 E8.43797
G1 X124.972 Y78.113 E8.44639
G1 X125.445 Y78.308 E8.4634
G1 X126.128 Y78.61 E8.48824
G1 X126.643 Y78.855 E8.50721
G1 X126.828 Y78.949 E8.51411
G1 X127.089 Y79.086 E8.52391
G1 X127.238 Y79.167 E8.52956
G1 X127.476 Y79.301 E8.53864
G1 X127.85 Y79.517 E8.553
G1 X128.414 Y79.866 E8.57506
G1 X129.224 Y80.404 E8.60741
G1 X129.651 Y80.703 E8.62474
G1 X129.792 Y80.807 E8.63057
G1 X130.286 Y81.195 E8.65146
G1 X130.724 Y81.56 E8.67043
G1 X130.93 Y81.736 E8.67944
G1 X131.167 Y81.944 E8.68993
G1 X131.491 Y82.24 E8.70452
G1 X131.707 Y82.446 E8.71445
G1 X132.213 Y82.963 E8.73851
G1 X132.792 Y83.596 E8.76704
G1 X133.234 Y84.112 E8.78964
G1 X133.589 Y84.554 E8.8085
G1 X133.821 Y84.853 E8.82108
G1 X134.012 Y85.109 E8.83171
G1 X134.263 Y85.46 E8.84606
G1 X134.378 Y85.628 E8.85283
G1 X134.555 Y85.896 E8.86351
G1 X134.705 Y86.13 E8.87276
G1 X134.856 Y86.373 E8.88227
G1 X135.06 Y86.711 E8.8954
G1 X135.402 Y87.322 E8.91869
G1 X135.822 Y88.134 E8.9491
G1 X137.038 Y90.411 E9.03496
G1 X138.299 Y92.619 E9.11953
G1 X139.621 Y94.787 E9.20398
G1 X140.976 Y96.876 E9.2868
G1 X142.431 Y98.984 E9.37199
G1 X143.904 Y100.995 E9.4549
G1 X145.478 Y103.022 E9.54026
G1 X147.088 Y104.977 E9.62449
G1 X148.71 Y106.837 E9.70658
G1 X151.317 Y109.627 E9.83358
G1 X151.597 Y109.913 E9.84689
G1 X151.919 Y110.255 E9.86251
G1 X152.094 Y110.448 E9.87118
G1 X152.237 Y110.61 E9.87837
G1 X152.503 Y110.923 E9.89203
G1 X152.676 Y111.135 E9.90113
G1 X152.97 Y111.513 E9.91706
G1 X153.39 Y112.078 E9.94047
G1 X153.765 Y112.617 E9.96231
G1 X154.131 Y113.179 E9.98462
G1 X154.338 Y113.51 E9.9976
G1 X154.488 Y113.76 E10.0073
G1 X154.716 Y114.158 E10.02256
G1 X154.786 Y114.287 E10.02744
G1 X154.918 Y114.539 E10.0369
G1 X155.068 Y114.834 E10.04791
G1 X155.231 Y115.169 E10.0603
G1 X155.377 Y115.483 E10.07181
G1 X155.62 Y116.048 E10.09227
G1 X155.969 Y116.929 E10.12379
G1 X156.111 Y117.308 E10.13725
G1 X156.184 Y117.515 E10.14455
G1 X156.406 Y118.225 E10.16929
G1 X156.552 Y118.755 E10.18758
G1 X156.637 Y119.082 E10.19881
G1 X156.757 Y119.579 E10.21582
G1 X156.916 Y120.37 E10.24265
G1 X156.977 Y120.746 E10.25532
G1 X157.016 Y121.004 E10.264
G1 X157.063 Y121.347 E10.27552
G1 X157.133 Y122.01 E10.29769
G1 X157.202 Y122.95 E10.32904
G1 X157.223 Y123.329 E10.34166
G1 X157.232 Y123.569 E10.34965
G1 X157.237 Y124.169 E10.36961
G1 X157.227 Y124.588 E10.38355
G1 X157.206 Y125.03 E10.39827
G1 X157.164 Y125.664 E10.4194
G1 X157.107 Y126.259 E10.43928
G1 X157.064 Y126.608 E10.45098
G1 X157.001 Y127.047 E10.46573
G1 X156.928 Y127.487 E10.48056
G1 X156.866 Y127.825 E10.49199
G1 X156.795 Y128.181 E10.50406
G1 X156.684 Y128.679 E10.52103
G1 X156.589 Y129.045 E10.53361
G1 X156.406 Y129.711 E10.55658
G1 X156.224 Y130.306 E10.57728
G1 X156.125 Y130.598 E10.58753
G1 X155.97 Y131.023 E10.60258
G1 X155.736 Y131.627 E10.62412
G1 X155.442 Y132.315 E10.64901
G1 X155.231 Y132.763 E10.66548
G1 X155.096 Y133.039 E10.6757
G1 X154.877 Y133.471 E10.69181
G1 X154.618 Y133.951 E10.70995
G1 X154.493 Y134.169 E10.71831
G1 X154.294 Y134.502 E10.73121
G1 X154.153 Y134.729 E10.7401
