;FLAVOR:Marlin
;TIME:6661
;Filament used: 4.44453m
;Layer height: 0.28
;MINX:95
;MINY:58.5
;MINZ:0.28
;MAXX:140
;MAXY:176.5
;MAXZ:61.88
;Generated with Cura_SteamEngine 4.9.0
M140 S50
M105
M190 S50
M104 S200
M105
M109 S200
M82 ;absolute extrusion mode
; Ender 3 Custom Start G-code
G92 E0 ; Reset Extruder
G28 ; Home all axes
G1 Z2.0 F3000 ; Move Z Axis up little to prevent scratching of Heat Bed
G1 X0.1 Y20 Z0.3 F5000.0 ; Move to start position
G1 X0.1 Y200.0 Z0.3 F1500.0 E15 ; Draw the first line
G1 X0.4 Y200.0 Z0.3 F5000.0 ; Move to side a little
G1 X0.4 Y20 Z0.3 F1500.0 E30 ; Draw the second line
G92 E0 ; Reset Extruder
G1 Z2.0 F3000 ; Move Z Axis up little to prevent scratching of Heat Bed
G1 X5 Y20 Z0.3 F5000.0 ; Move over to prevent blob squish
G92 E0
G92 E0
G1 F2700 E-5
;LAYER_COUNT:221
;LAYER:0
M107
G0 F6000 X96.996 Y63.203 Z0.28
;TYPE:SKIRT
G1 F2700 E0
G1 F1200 X97.566 Y62.458 E0.04368
G1 X98.198 Y61.764 E0.08739
G1 X98.886 Y61.127 E0.13105
G1 X99.626 Y60.551 E0.17471
G1 X100.412 Y60.039 E0.21839
G1 X101.239 Y59.597 E0.26205
G1 X102.101 Y59.227 E0.30573
G1 X102.991 Y58.931 E0.34941
G1 X103.903 Y58.713 E0.39307
G1 X104.83 Y58.572 E0.43673
G1 X105.701 Y58.513 E0.47738
G1 X106.022 Y58.504 E0.49234
G1 X106.33 Y58.5 E0.50668
G1 X128.293 Y58.5 E1.52937
G1 X129.149 Y58.511 E1.56923
G1 X130.085 Y58.565 E1.61289
G1 X131.013 Y58.697 E1.65653
G1 X131.927 Y58.909 E1.70022
G1 X132.819 Y59.198 E1.74388
G1 X133.684 Y59.561 E1.78756
G1 X134.514 Y59.997 E1.83122
G1 X135.305 Y60.502 E1.87492
G1 X136.049 Y61.073 E1.91859
G1 X136.742 Y61.705 E1.96226
G1 X137.379 Y62.393 E2.00592
G1 X137.954 Y63.134 E2.0496
G1 X138.465 Y63.92 E2.09325
G1 X138.907 Y64.748 E2.13695
G1 X139.276 Y65.61 E2.18062
G1 X139.571 Y66.5 E2.22428
G1 X139.789 Y67.412 E2.26794
G1 X139.929 Y68.34 E2.31164
G1 X139.987 Y69.201 E2.35182
G1 X139.996 Y69.521 E2.36673
G1 X140 Y69.83 E2.38112
G1 X139.999 Y164.9 E6.80797
G1 X139.99 Y165.627 E6.84183
G1 X139.939 Y166.564 E6.88552
G1 X139.807 Y167.492 E6.92917
G1 X139.598 Y168.406 E6.97283
G1 X139.311 Y169.299 E7.01651
G1 X138.949 Y170.165 E7.06021
G1 X138.515 Y170.996 E7.10387
G1 X138.011 Y171.787 E7.14754
G1 X137.442 Y172.532 E7.19119
G1 X136.811 Y173.227 E7.2349
G1 X136.124 Y173.865 E7.27856
G1 X135.385 Y174.442 E7.32222
G1 X134.599 Y174.954 E7.36589
G1 X133.773 Y175.397 E7.40954
G1 X132.911 Y175.769 E7.45326
G1 X132.022 Y176.065 E7.49689
G1 X131.11 Y176.285 E7.54057
G1 X130.183 Y176.426 E7.58423
G1 X129.299 Y176.487 E7.62549
G1 X128.978 Y176.496 E7.64045
G1 X128.67 Y176.5 E7.65479
G1 X106.565 Y176.499 E8.68409
G1 X105.867 Y176.49 E8.71659
G1 X104.931 Y176.438 E8.76025
G1 X104.002 Y176.306 E8.80394
G1 X103.088 Y176.096 E8.84761
G1 X102.195 Y175.809 E8.89128
G1 X101.33 Y175.446 E8.93496
G1 X100.499 Y175.012 E8.97862
G1 X99.708 Y174.508 E9.02229
G1 X98.963 Y173.938 E9.06597
G1 X98.269 Y173.307 E9.10965
G1 X97.632 Y172.62 E9.15327
G1 X97.055 Y171.88 E9.19697
G1 X96.543 Y171.094 E9.24065
G1 X96.1 Y170.267 E9.28433
G1 X95.729 Y169.406 E9.32799
G1 X95.433 Y168.516 E9.37166
G1 X95.214 Y167.604 E9.41533
G1 X95.073 Y166.677 E9.459
G1 X95.013 Y165.788 E9.50049
G1 X95.004 Y165.455 E9.516
G1 X95 Y165.158 E9.52983
G1 X95.001 Y70.025 E13.95962
G1 X95.01 Y69.36 E13.99059
G1 X95.063 Y68.424 E14.03424
G1 X95.195 Y67.495 E14.07793
G1 X95.406 Y66.581 E14.12161
G1 X95.694 Y65.689 E14.16526
G1 X96.057 Y64.824 E14.20894
G1 X96.492 Y63.993 E14.25262
G1 X96.996 Y63.203 E14.29625
G0 F6000 X97.392 Y63.335
G1 F1200 X97.961 Y62.611 E14.33913
G1 X98.589 Y61.939 E14.38196
G1 X99.274 Y61.323 E14.42485
G1 X100.01 Y60.77 E14.46772
G1 X100.791 Y60.282 E14.5106
G1 X101.611 Y59.864 E14.55346
G1 X102.465 Y59.519 E14.59635
G1 X103.345 Y59.249 E14.63921
G1 X104.245 Y59.057 E14.68206
G1 X105.159 Y58.943 E14.72495
G1 X105.712 Y58.913 E14.75074
G1 X106.033 Y58.904 E14.76569
G1 X106.33 Y58.9 E14.77952
G1 X128.293 Y58.9 E15.80221
G1 X129.143 Y58.911 E15.84179
G1 X130.062 Y58.964 E15.88466
G1 X130.973 Y59.097 E15.92753
G1 X131.869 Y59.308 E15.97039
G1 X132.743 Y59.596 E16.01324
G1 X133.59 Y59.959 E16.05615
G1 X134.401 Y60.394 E16.099
G1 X135.171 Y60.898 E16.14185
G1 X135.895 Y61.467 E16.18473
G1 X136.567 Y62.097 E16.22762
G1 X137.182 Y62.782 E16.27049
G1 X137.735 Y63.518 E16.31336
G1 X138.222 Y64.299 E16.35621
G1 X138.639 Y65.12 E16.39909
G1 X138.984 Y65.974 E16.44198
G1 X139.253 Y66.854 E16.48483
G1 X139.445 Y67.755 E16.52772
G1 X139.558 Y68.668 E16.57056
G1 X139.587 Y69.212 E16.59593
G1 X139.596 Y69.532 E16.61083
G1 X139.6 Y69.83 E16.62471
G1 X139.599 Y164.895 E21.05134
G1 X139.59 Y165.622 E21.08519
G1 X139.539 Y166.541 E21.12805
G1 X139.408 Y167.453 E21.17095
G1 X139.198 Y168.349 E21.2138
G1 X138.912 Y169.224 E21.25667
G1 X138.551 Y170.071 E21.29954
G1 X138.117 Y170.883 E21.34241
G1 X137.615 Y171.655 E21.38529
G1 X137.047 Y172.38 E21.42818
G1 X136.419 Y173.053 E21.47104
G1 X135.735 Y173.669 E21.5139
G1 X135 Y174.223 E21.55676
G1 X134.22 Y174.712 E21.59963
G1 X133.4 Y175.131 E21.64251
G1 X132.547 Y175.477 E21.68537
G1 X131.667 Y175.748 E21.72824
G1 X130.767 Y175.941 E21.77111
G1 X129.853 Y176.056 E21.814
G1 X129.288 Y176.087 E21.84035
G1 X128.967 Y176.096 E21.8553
G1 X128.67 Y176.1 E21.86913
G1 X106.57 Y176.099 E22.8982
G1 X105.872 Y176.09 E22.93071
G1 X104.953 Y176.038 E22.97357
G1 X104.042 Y175.907 E23.01642
G1 X103.146 Y175.697 E23.05928
G1 X102.271 Y175.41 E23.10215
G1 X101.424 Y175.048 E23.14505
G1 X100.612 Y174.614 E23.18792
G1 X99.841 Y174.112 E23.23076
G1 X99.116 Y173.544 E23.27364
G1 X98.443 Y172.915 E23.31654
G1 X97.828 Y172.231 E23.35937
G1 X97.274 Y171.496 E23.40223
G1 X96.786 Y170.715 E23.44511
G1 X96.367 Y169.895 E23.48799
G1 X96.021 Y169.042 E23.53085
G1 X95.751 Y168.162 E23.57371
G1 X95.558 Y167.261 E23.61662
G1 X95.444 Y166.348 E23.65946
G1 X95.413 Y165.777 E23.68609
G1 X95.404 Y165.444 E23.7016
G1 X95.4 Y165.158 E23.71492
G1 X95.401 Y70.031 E28.14443
G1 X95.41 Y69.366 E28.1754
G1 X95.462 Y68.446 E28.21831
G1 X95.594 Y67.535 E28.26117
G1 X95.805 Y66.639 E28.30403
G1 X96.092 Y65.764 E28.34691
G1 X96.455 Y64.918 E28.38978
G1 X96.889 Y64.106 E28.43265
G1 X97.392 Y63.335 E28.47551
G0 F6000 X97.788 Y63.471
G1 F1200 X98.355 Y62.767 E28.51761
G1 X98.981 Y62.117 E28.55963
G1 X99.662 Y61.524 E28.60167
G1 X100.394 Y60.994 E28.64376
G1 X101.169 Y60.531 E28.68579
G1 X101.982 Y60.138 E28.72784
G1 X102.827 Y59.818 E28.76991
G1 X103.696 Y59.575 E28.81193
G1 X104.584 Y59.409 E28.85399
G1 X105.723 Y59.313 E28.90722
G1 X106.044 Y59.304 E28.92217
G1 X106.33 Y59.3 E28.93549
G1 X128.293 Y59.3 E29.95818
G1 X129.137 Y59.311 E29.99748
G1 X130.039 Y59.364 E30.03956
G1 X130.932 Y59.496 E30.08159
G1 X131.81 Y59.707 E30.12364
G1 X132.666 Y59.995 E30.16569
G1 X133.493 Y60.357 E30.20773
G1 X134.285 Y60.792 E30.2498
G1 X135.036 Y61.294 E30.29187
G1 X135.739 Y61.861 E30.33392
G1 X136.389 Y62.488 E30.37598
G1 X136.981 Y63.17 E30.41803
G1 X137.511 Y63.901 E30.46007
G1 X137.973 Y64.677 E30.50212
G1 X138.366 Y65.49 E30.54417
G1 X138.684 Y66.335 E30.58621
G1 X138.927 Y67.205 E30.62827
G1 X139.092 Y68.093 E30.67033
G1 X139.187 Y69.223 E30.72313
G1 X139.196 Y69.543 E30.73804
G1 X139.2 Y69.83 E30.75141
G1 X139.199 Y164.89 E35.1778
G1 X139.19 Y165.617 E35.21165
G1 X139.139 Y166.519 E35.25372
G1 X139.008 Y167.413 E35.29579
G1 X138.799 Y168.291 E35.33782
G1 X138.513 Y169.148 E35.37989
G1 X138.152 Y169.976 E35.42195
G1 X137.72 Y170.768 E35.46396
G1 X137.219 Y171.52 E35.50603
G1 X136.653 Y172.224 E35.54809
G1 X136.028 Y172.875 E35.59012
G1 X135.347 Y173.469 E35.63219
G1 X134.616 Y174 E35.67426
G1 X133.842 Y174.464 E35.71629
G1 X133.029 Y174.858 E35.75835
G1 X132.185 Y175.178 E35.80038
G1 X131.315 Y175.423 E35.84247
G1 X130.428 Y175.589 E35.88449
G1 X129.277 Y175.687 E35.93828
G1 X128.956 Y175.696 E35.95323
G1 X128.67 Y175.7 E35.96655
G1 X106.575 Y175.699 E36.99539
G1 X105.877 Y175.69 E37.02789
G1 X104.976 Y175.639 E37.06991
G1 X104.082 Y175.507 E37.11199
G1 X103.204 Y175.298 E37.15402
G1 X102.347 Y175.011 E37.1961
G1 X101.52 Y174.65 E37.23812
G1 X100.727 Y174.217 E37.28019
G1 X99.976 Y173.716 E37.32223
G1 X99.272 Y173.15 E37.36429
G1 X98.621 Y172.524 E37.40634
G1 X98.028 Y171.843 E37.44839
G1 X97.498 Y171.112 E37.49043
G1 X97.034 Y170.337 E37.5325
G1 X96.64 Y169.524 E37.57456
G1 X96.32 Y168.68 E37.61659
G1 X96.076 Y167.81 E37.65867
G1 X95.91 Y166.922 E37.70073
G1 X95.813 Y165.767 E37.7547
G1 X95.804 Y165.434 E37.77022
G1 X95.8 Y165.158 E37.78307
G1 X95.801 Y70.036 E42.21235
G1 X95.81 Y69.371 E42.24332
G1 X95.862 Y68.469 E42.28539
G1 X95.994 Y67.576 E42.32742
G1 X96.204 Y66.698 E42.36946
G1 X96.491 Y65.841 E42.41154
G1 X96.853 Y65.014 E42.45358
G1 X97.286 Y64.222 E42.49561
G1 X97.788 Y63.471 E42.53767
G1 F2700 E37.53767
;MESH:test2_jabonera_min.stl
G0 F6000 X107.99 Y78.307
G0 X116.127 Y90.294
G0 X118.983 Y94.291
G0 X117.693 Y93.605
G0 X117.899 Y95.662
G0 X118.299 Y96.532
G0 X118.895 Y97.107
G0 X120.129 Y97.921
;TYPE:WALL-INNER
G1 F2700 E42.53767
G1 F1200 X120.858 Y97.918 E42.57161
G1 X121.156 Y97.872 E42.58566
G1 X121.887 Y97.586 E42.62221
G1 X122.153 Y97.444 E42.63625
G1 X122.667 Y96.98 E42.66849
G1 X122.86 Y96.769 E42.68181
G1 X123.199 Y96.145 E42.71487
G1 X123.31 Y95.902 E42.72731
G1 X123.423 Y95.225 E42.75927
G1 X123.453 Y94.99 E42.7703
G1 X123.329 Y94.238 E42.80579
G1 X123.256 Y93.95 E42.81963
G1 X122.907 Y93.314 E42.85341
G1 X122.731 Y93.076 E42.86719
G1 X122.202 Y92.603 E42.90023
G1 X121.963 Y92.443 E42.91363
G1 X121.305 Y92.172 E42.94676
G1 X121.014 Y92.101 E42.96071
G1 X120.251 Y92.073 E42.99626
G1 X119.96 Y92.102 E43.00988
G1 X119.3 Y92.318 E43.04222
G1 X119.038 Y92.441 E43.05569
G1 X118.471 Y92.875 E43.08894
G1 X118.263 Y93.084 E43.10267
G1 X117.862 Y93.695 E43.1367
G1 X117.745 Y93.974 E43.15079
G1 X117.567 Y94.71 E43.18605
G1 X117.562 Y95.011 E43.20007
G1 X117.643 Y95.719 E43.23325
G1 X117.735 Y96.002 E43.24711
G1 X118.078 Y96.673 E43.2822
G1 X118.271 Y96.919 E43.29676
G1 X118.881 Y97.453 E43.33451
G1 X119.148 Y97.615 E43.34905
G1 X119.833 Y97.864 E43.38299
G1 X120.129 Y97.921 E43.39702
G0 F6000 X120.167 Y97.521
;TYPE:WALL-OUTER
G1 F1200 X120.826 Y97.518 E43.42771
G1 X121.051 Y97.483 E43.43831
G1 X121.719 Y97.222 E43.47171
G1 X121.921 Y97.114 E43.48237
G1 X122.385 Y96.696 E43.51145
G1 X122.532 Y96.535 E43.52161
G1 X122.841 Y95.966 E43.55175
G1 X122.924 Y95.784 E43.56107
G1 X123.027 Y95.166 E43.59024
G1 X123.049 Y94.997 E43.59818
G1 X122.937 Y94.32 E43.63013
G1 X122.881 Y94.098 E43.64079
G1 X122.569 Y93.53 E43.67097
G1 X122.434 Y93.347 E43.68156
G1 X121.956 Y92.92 E43.7114
G1 X121.773 Y92.797 E43.72167
G1 X121.181 Y92.553 E43.75148
G1 X120.959 Y92.499 E43.76212
G1 X120.264 Y92.474 E43.79451
G1 X120.043 Y92.496 E43.80485
G1 X119.448 Y92.691 E43.834
G1 X119.247 Y92.785 E43.84434
G1 X118.735 Y93.176 E43.87433
G1 X118.575 Y93.337 E43.8849
G1 X118.217 Y93.884 E43.91534
G1 X118.126 Y94.1 E43.92626
G1 X117.966 Y94.761 E43.95793
G1 X117.962 Y94.991 E43.96864
G1 X118.036 Y95.633 E43.99873
G1 X118.106 Y95.848 E44.00926
G1 X118.417 Y96.457 E44.0411
G1 X118.563 Y96.643 E44.05211
G1 X119.118 Y97.129 E44.08646
G1 X119.322 Y97.253 E44.09758
G1 X119.94 Y97.477 E44.12819
G1 X120.167 Y97.521 E44.13895
G0 F6000 X120.126 Y97.959
G1 F2700 E39.13895
G0 F6000 X119.036 Y97.242
G0 X118.299 Y96.532
G0 X117.899 Y95.662
G0 X117.842 Y94.918
G0 X118.114 Y92.963
G0 X117.621 Y91.793
G0 X116.92 Y91.597
;TYPE:WALL-INNER
G1 F2700 E44.13895
G1 F1200 X117.61 Y91.583 E44.17109
G1 X117.775 Y91.569 E44.1788
G1 X118.408 Y91.507 E44.20842
G1 X118.583 Y91.479 E44.21667
G1 X119.31 Y91.345 E44.25109
G1 X119.483 Y91.304 E44.25937
G1 X120.098 Y91.138 E44.28903
G1 X120.276 Y91.078 E44.29778
G1 X120.874 Y90.867 E44.3273
G1 X121.027 Y90.803 E44.33503
G1 X121.658 Y90.522 E44.36719
G1 X121.814 Y90.44 E44.3754
G1 X122.42 Y90.11 E44.40753
G1 X123.102 Y89.668 E44.44537
G1 X123.785 Y89.144 E44.48546
G1 X123.92 Y89.026 E44.4938
G1 X124.428 Y88.562 E44.52584
G1 X124.55 Y88.435 E44.53404
G1 X125.021 Y87.93 E44.5662
G1 X125.132 Y87.793 E44.57441
G1 X125.56 Y87.252 E44.60653
G1 X126.022 Y86.566 E44.64504
G1 X126.468 Y85.766 E44.68769
G1 X126.811 Y85.014 E44.72618
G1 X127.09 Y84.251 E44.76401
G1 X127.33 Y83.379 E44.80612
G1 X127.48 Y82.595 E44.84329
G1 X127.549 Y82.022 E44.87016
G1 X127.566 Y81.825 E44.87937
G1 X127.586 Y81.537 E44.89281
G1 X127.594 Y81.29 E44.90432
G1 X127.6 Y81.001 E44.91778
G1 X127.593 Y80.598 E44.93655
G1 X127.553 Y80.001 E44.96441
G1 X127.459 Y79.275 E44.9985
G1 X127.287 Y78.441 E45.03815
G1 X127.04 Y77.599 E45.07901
G1 X126.735 Y76.803 E45.1187
G1 X126.366 Y76.033 E45.15846
G1 X125.95 Y75.319 E45.19694
G1 X125.457 Y74.609 E45.23719
G1 X124.908 Y73.941 E45.27745
G1 X124.345 Y73.356 E45.31525
G1 X123.696 Y72.783 E45.35557
G1 X123.004 Y72.264 E45.39585
G1 X122.281 Y71.808 E45.43565
G1 X121.503 Y71.404 E45.47647
G1 X120.741 Y71.083 E45.51497
G1 X119.884 Y70.8 E45.55699
G1 X119.092 Y70.608 E45.59494
G1 X118.406 Y70.498 E45.62729
G1 X118.238 Y70.472 E45.63521
G1 X117.388 Y70.407 E45.6749
G1 X116.6 Y70.407 E45.7116
G1 X115.791 Y70.468 E45.74937
G1 X115.595 Y70.498 E45.75861
G1 X114.947 Y70.6 E45.78915
G1 X114.106 Y70.802 E45.82943
G1 X113.285 Y71.072 E45.86967
G1 X112.535 Y71.386 E45.90753
G1 X111.72 Y71.807 E45.95024
G1 X111.022 Y72.246 E45.98864
G1 X110.508 Y72.625 E46.01838
G1 X110.359 Y72.738 E46.02708
G1 X109.873 Y73.155 E46.0569
G1 X109.742 Y73.275 E46.06517
G1 X109.258 Y73.763 E46.09718
G1 X109.138 Y73.892 E46.10538
G1 X108.693 Y74.418 E46.13747
G1 X108.576 Y74.567 E46.14629
G1 X108.205 Y75.086 E46.17599
G1 X108.103 Y75.242 E46.18467
G1 X107.769 Y75.789 E46.21452
G1 X107.687 Y75.944 E46.22268
G1 X107.378 Y76.555 E46.25456
G1 X107.31 Y76.706 E46.26227
G1 X107.051 Y77.346 E46.29442
G1 X106.998 Y77.494 E46.30174
G1 X106.988 Y77.524 E46.30322
G1 X106.796 Y78.131 E46.33286
G1 X106.752 Y78.304 E46.34117
G1 X106.6 Y78.97 E46.37298
G1 X106.6 Y78.304 E46.37874
G1 X106.6 Y78.131 E46.38222
G1 X106.6 Y77.524 E46.40282
G1 X106.6 Y77.492 E46.40429
G1 X106.6 Y70.1 E46.74849
G1 X115.592 Y70.1 E47.16719
G1 X115.791 Y70.1 E47.1761
G1 X116.6 Y70.1 E47.20796
G1 X117.388 Y70.1 E47.23619
G1 X118.238 Y70.1 E47.26987
G1 X118.408 Y70.1 E47.27752
G1 X128.4 Y70.1 E47.74279
G1 X128.4 Y164.9 E52.15707
G1 X106.6 Y164.9 E53.17217
G1 X106.6 Y156.511 E53.5628
G1 X106.6 Y156.412 E53.56741
G1 X106.6 Y155.754 E53.59805
G1 X106.6 Y155.581 E53.6061
G1 X106.6 Y155.03 E53.63176
G1 X106.72 Y155.581 E53.63607
G1 X106.763 Y155.754 E53.63913
G1 X106.966 Y156.412 E53.66074
G1 X106.998 Y156.505 E53.66513
G1 X107.027 Y156.59 E53.66931
G1 X107.283 Y157.232 E53.7015
G1 X107.35 Y157.383 E53.70919
G1 X107.655 Y157.999 E53.7412
G1 X107.75 Y158.176 E53.75055
G1 X108.08 Y158.725 E53.78038
G1 X108.183 Y158.88 E53.78904
G1 X108.551 Y159.401 E53.81874
G1 X108.661 Y159.539 E53.82696
G1 X109.102 Y160.07 E53.8591
G1 X109.224 Y160.198 E53.86734
G1 X109.703 Y160.689 E53.89928
G1 X109.836 Y160.809 E53.90762
G1 X110.355 Y161.259 E53.9396
G1 X110.496 Y161.367 E53.94787
G1 X111.052 Y161.774 E53.97996
G1 X111.21 Y161.875 E53.98869
G1 X111.755 Y162.211 E54.0185
G1 X112.471 Y162.582 E54.05605
G1 X112.622 Y162.65 E54.06376
G1 X113.307 Y162.935 E54.09831
G1 X113.487 Y162.997 E54.10718
G1 X114.095 Y163.194 E54.13694
G1 X114.934 Y163.396 E54.17712
G1 X115.739 Y163.526 E54.21509
G1 X116.652 Y163.594 E54.25772
G1 X117.467 Y163.59 E54.29567
G1 X118.328 Y163.517 E54.33591
G1 X119.17 Y163.377 E54.37565
G1 X120.021 Y163.161 E54.41653
G1 X120.791 Y162.9 E54.45439
G1 X121.586 Y162.557 E54.49471
G1 X122.349 Y162.152 E54.53493
G1 X122.931 Y161.781 E54.56707
G1 X123.078 Y161.684 E54.57527
G1 X123.588 Y161.301 E54.60497
G1 X123.729 Y161.191 E54.6133
G1 X124.401 Y160.589 E54.65531
G1 X124.996 Y159.96 E54.69562
G1 X125.536 Y159.285 E54.73588
G1 X126.021 Y158.567 E54.77622
G1 X126.438 Y157.825 E54.81585
G1 X126.781 Y157.087 E54.85375
G1 X127.068 Y156.314 E54.89214
G1 X127.315 Y155.444 E54.93426
G1 X127.47 Y154.66 E54.97147
G1 X127.544 Y154.085 E54.99846
G1 X127.563 Y153.869 E55.00856
G1 X127.585 Y153.544 E55.02373
G1 X127.594 Y153.291 E55.03552
G1 X127.6 Y153.001 E55.04902
G1 X127.593 Y152.599 E55.06775
G1 X127.558 Y152.064 E55.09271
G1 X127.462 Y151.288 E55.12912
