;FLAVOR:Marlin
M117 Time Left 1h40m03s
;TIME:6003
;Filament used: 8.61853m
;Layer height: 0.28
;MINX:87.002
;MINY:67.836
;MINZ:0.28
;MAXX:183.457
;MAXY:147.983
;MAXZ:33.04
;POSTPROCESSED
;Generated with Cura_SteamEngine 4.11.0
M140 S60
M105
M190 S60
M104 S205
M105
M109 S205
M82 ;absolute extrusion mode
; Ender 3 Custom Start G-code
G92 E0 ; Reset Extruder
G28 ; Home all axes
; ***SET NEW E STEP *** (93 is factory value - 95 mine - start)
G90                          ; Force coordinates to be absolute relative to the origin
M92 E95 ;					 ; ***SET NEW E STEP *** (93 is factory value - 95 mine - end)
G90                          ; Force coordinates to be absolute relative to the origin
G28                          ; Home X/Y/Z axis
G92 E0 ; Reset Extruder
G28 ; Home all axes
G1 Z2.0 F3000 ; Move Z Axis up little to prevent scratching of Heat Bed
G1 X0.1 Y20 Z0.3 F5000.0 ; Move to start position
G1 X0.1 Y200.0 Z0.3 F1500.0 E15 ; Draw the first line
G1 X0.4 Y200.0 Z0.3 F5000.0 ; Move to side a little
G1 X0.4 Y20 Z0.3 F1500.0 E30 ; Draw the second line
G92 E0 ; Reset Extruder
G1 Z2.0 F3000 ; Move Z Axis up little to prevent scratching of Heat Bed
G1 X5 Y20 Z0.3 F5000.0 ; Move over to prevent blob squish
G92 E0
G92 E0
G1 F2700 E-6
;LAYER_COUNT:118
;LAYER:0
M107
M204 S500
M205 X8 Y8
G0 F7500 X95.475 Y96.448 Z0.28
;TYPE:SKIRT
G1 F2700 E0
G1 F1500 X96.591 Y95.334 E0.06975
G1 X97.059 Y94.881 E0.09857
G1 X97.99 Y94.075 E0.15304
G1 X98.67 Y93.552 E0.19099
G1 X99.907 Y92.626 E0.25934
G1 X100.459 Y92.225 E0.28952
G1 X101.509 Y91.55 E0.34474
G1 X102.364 Y91.068 E0.38816
G1 X103.584 Y90.403 E0.44962
G1 X104.234 Y90.06 E0.48213
G1 X105.371 Y89.541 E0.53742
G1 X106.261 Y89.195 E0.57966
G1 X107.604 Y88.695 E0.64305
G1 X109.077 Y88.17 E0.71223
G1 X111.52 Y87.259 E0.82757
G1 X113.886 Y86.299 E0.94052
G1 X116.158 Y85.302 E1.05027
G1 X118.42 Y84.233 E1.16094
G1 X120.707 Y83.07 E1.27444
G1 X122.884 Y81.886 E1.38407
G1 X125.056 Y80.621 E1.49525
G1 X127.219 Y79.282 E1.60779
G1 X129.313 Y77.901 E1.71875
G1 X131.368 Y76.46 E1.82977
G1 X133.69 Y74.725 E1.958
G1 X134.242 Y74.3 E1.98881
G1 X135.407 Y73.43 E2.05313
G1 X135.978 Y73.015 E2.08436
G1 X137.05 Y72.327 E2.14071
G1 X137.814 Y71.898 E2.17947
G1 X139.096 Y71.198 E2.24408
G1 X139.752 Y70.852 E2.27689
G1 X140.877 Y70.338 E2.3316
G1 X141.736 Y70.003 E2.37239
G1 X143.094 Y69.497 E2.43649
G1 X143.783 Y69.251 E2.46886
G1 X144.986 Y68.898 E2.52432
G1 X145.923 Y68.681 E2.56686
G1 X147.373 Y68.369 E2.63247
G1 X148.022 Y68.237 E2.66177
G1 X149.276 Y68.056 E2.71782
G1 X150.159 Y67.981 E2.75702
G1 X151.463 Y67.887 E2.81485
G1 X152.352 Y67.836 E2.85424
G1 X153.6 Y67.836 E2.90945
G1 X154.538 Y67.89 E2.95101
G1 X156.03 Y67.998 E3.01718
G1 X156.683 Y68.054 E3.04617
G1 X157.924 Y68.232 E3.10163
G1 X158.848 Y68.42 E3.14334
G1 X160.124 Y68.697 E3.2011
G1 X160.972 Y68.895 E3.23963
G1 X162.144 Y69.239 E3.29366
G1 X163.022 Y69.551 E3.33488
G1 X164.241 Y70.006 E3.39243
G1 X165.077 Y70.332 E3.43213
G1 X166.197 Y70.843 E3.48658
G1 X166.885 Y71.205 E3.52097
G1 X168.121 Y71.879 E3.58325
G1 X168.925 Y72.331 E3.62405
G1 X169.99 Y73.015 E3.68004
G1 X170.717 Y73.545 E3.71984
G1 X171.931 Y74.456 E3.78698
G1 X172.47 Y74.872 E3.8171
G1 X173.41 Y75.687 E3.87214
G1 X174.071 Y76.33 E3.91293
G1 X175.165 Y77.426 E3.98143
G1 X175.611 Y77.887 E4.0098
G1 X176.412 Y78.813 E4.06397
G1 X176.982 Y79.553 E4.10529
G1 X177.888 Y80.768 E4.17233
G1 X178.287 Y81.318 E4.20239
G1 X178.966 Y82.376 E4.258
G1 X179.403 Y83.154 E4.29747
G1 X180.125 Y84.477 E4.36414
G1 X180.428 Y85.05 E4.39282
G1 X180.951 Y86.192 E4.44838
G1 X181.315 Y87.127 E4.49276
G1 X181.757 Y88.315 E4.54884
G1 X182.055 Y89.153 E4.58818
G1 X182.407 Y90.354 E4.64354
G1 X182.593 Y91.164 E4.68031
G1 X182.914 Y92.649 E4.74751
G1 X183.051 Y93.318 E4.77772
G1 X183.235 Y94.589 E4.83453
G1 X183.31 Y95.473 E4.87378
G1 X183.406 Y96.806 E4.9329
G1 X183.456 Y97.662 E4.97083
G1 X183.457 Y98.937 E5.02723
G1 X183.405 Y99.811 E5.06596
G1 X183.295 Y101.328 E5.13324
G1 X183.235 Y102.023 E5.1641
G1 X183.061 Y103.243 E5.21861
G1 X182.92 Y103.945 E5.25029
G1 X182.588 Y105.477 E5.31963
G1 X182.398 Y106.293 E5.35669
G1 X182.052 Y107.472 E5.41104
G1 X181.738 Y108.35 E5.45229
G1 X181.229 Y109.711 E5.51657
G1 X180.972 Y110.373 E5.54798
G1 X180.455 Y111.51 E5.60324
G1 X180.013 Y112.349 E5.64519
G1 X179.339 Y113.58 E5.70727
G1 X178.968 Y114.238 E5.74068
G1 X178.28 Y115.308 E5.79696
G1 X177.723 Y116.071 E5.83874
G1 X176.83 Y117.262 E5.90459
G1 X176.402 Y117.815 E5.93553
G1 X175.602 Y118.738 E5.98956
G1 X175.13 Y119.225 E6.01956
G1 X173.92 Y120.435 E6.09526
G1 X173.424 Y120.917 E6.12585
G1 X172.489 Y121.728 E6.1806
G1 X171.727 Y122.316 E6.22318
G1 X170.553 Y123.192 E6.28798
G1 X170.006 Y123.59 E6.3179
G1 X168.95 Y124.269 E6.37344
G1 X168.108 Y124.744 E6.4162
G1 X166.868 Y125.419 E6.47866
G1 X166.215 Y125.763 E6.5113
G1 X165.088 Y126.278 E6.56612
G1 X164.217 Y126.617 E6.60746
G1 X162.982 Y127.079 E6.66579
G1 X161.372 Y127.655 E6.74143
G1 X158.905 Y128.575 E6.8579
G1 X156.539 Y129.536 E6.97087
G1 X154.279 Y130.529 E7.08007
G1 X151.986 Y131.614 E7.19228
G1 X149.752 Y132.75 E7.30315
G1 X147.521 Y133.965 E7.41553
G1 X145.382 Y135.211 E7.52503
G1 X143.199 Y136.564 E7.63864
G1 X141.127 Y137.931 E7.74845
G1 X139.065 Y139.379 E7.85991
G1 X136.752 Y141.108 E7.98765
G1 X136.221 Y141.516 E8.01727
G1 X135.047 Y142.393 E8.0821
G1 X134.485 Y142.801 E8.11282
G1 X133.437 Y143.475 E8.16794
G1 X132.647 Y143.92 E8.20805
G1 X131.281 Y144.666 E8.2769
G1 X130.697 Y144.973 E8.30608
G1 X129.576 Y145.484 E8.36058
G1 X128.722 Y145.816 E8.40111
G1 X127.325 Y146.336 E8.46705
G1 X126.668 Y146.57 E8.4979
G1 X125.471 Y146.922 E8.5531
G1 X124.566 Y147.131 E8.59418
G1 X123.08 Y147.452 E8.66143
G1 X122.429 Y147.584 E8.69082
G1 X121.184 Y147.763 E8.74646
G1 X120.3 Y147.838 E8.7857
G1 X118.996 Y147.932 E8.84354
G1 X118.107 Y147.983 E8.88293
G1 X116.859 Y147.983 E8.93813
G1 X115.921 Y147.929 E8.97969
G1 X114.427 Y147.821 E9.04596
G1 X113.764 Y147.764 E9.07539
G1 X112.519 Y147.584 E9.13104
G1 X111.68 Y147.413 E9.16892
G1 X110.31 Y147.116 E9.23093
G1 X109.489 Y146.925 E9.26821
G1 X108.31 Y146.579 E9.32257
G1 X107.432 Y146.265 E9.36382
G1 X106.068 Y145.755 E9.42823
G1 X105.404 Y145.497 E9.45975
G1 X104.27 Y144.981 E9.51486
G1 X103.429 Y144.537 E9.55693
G1 X102.183 Y143.855 E9.61976
G1 X101.541 Y143.493 E9.65237
G1 X100.469 Y142.803 E9.70876
G1 X99.711 Y142.25 E9.75027
G1 X98.518 Y141.355 E9.81624
G1 X97.964 Y140.926 E9.84723
G1 X97.044 Y140.128 E9.90111
G1 X96.435 Y139.536 E9.93868
G1 X95.348 Y138.448 E10.00671
G1 X94.862 Y137.948 E10.03756
G1 X94.038 Y136.996 E10.09325
G1 X93.472 Y136.261 E10.13429
G1 X92.658 Y135.171 E10.19447
G1 X92.167 Y134.494 E10.23146
G1 X91.499 Y133.454 E10.28614
G1 X91.053 Y132.663 E10.32631
G1 X90.335 Y131.347 E10.39263
G1 X90.038 Y130.786 E10.42071
G1 X89.523 Y129.663 E10.47536
G1 X89.164 Y128.745 E10.51896
G1 X88.647 Y127.351 E10.58473
G1 X88.411 Y126.689 E10.61582
G1 X88.056 Y125.48 E10.67156
G1 X87.855 Y124.608 E10.71114
G1 X87.549 Y123.194 E10.77514
G1 X87.403 Y122.474 E10.80764
G1 X87.225 Y121.234 E10.86305
G1 X87.149 Y120.347 E10.90244
G1 X87.043 Y118.851 E10.96878
G1 X87.003 Y118.151 E10.99979
G1 X87.002 Y116.905 E11.05491
G1 X87.056 Y115.972 E11.09625
G1 X87.165 Y114.467 E11.163
G1 X87.221 Y113.814 E11.192
G1 X87.4 Y112.571 E11.24755
G1 X87.595 Y111.612 E11.29084
G1 X87.899 Y110.218 E11.35395
G1 X88.056 Y109.542 E11.38465
G1 X88.405 Y108.349 E11.43964
G1 X88.654 Y107.648 E11.47255
G1 X89.18 Y106.238 E11.53912
G1 X89.489 Y105.441 E11.57693
G1 X90.004 Y104.309 E11.63194
G1 X90.449 Y103.465 E11.67415
G1 X91.133 Y102.217 E11.7371
G1 X91.489 Y101.585 E11.76919
G1 X92.179 Y100.511 E11.82566
G1 X92.736 Y99.748 E11.86745
G1 X93.626 Y98.561 E11.93308
G1 X94.049 Y98.014 E11.96367
G1 X94.859 Y97.08 E12.01836
G1 X95.475 Y96.448 E12.0574
G0 F7500 X95.758 Y96.731
G1 F1500 X96.869 Y95.622 E12.12684
G1 X97.337 Y95.169 E12.15565
G1 X98.234 Y94.392 E12.20815
G1 X98.91 Y93.872 E12.24587
G1 X100.142 Y92.95 E12.31394
G1 X100.694 Y92.549 E12.34412
G1 X101.706 Y91.898 E12.39735
G1 X102.556 Y91.419 E12.44051
G1 X103.771 Y90.757 E12.50172
G1 X104.421 Y90.414 E12.53423
G1 X105.516 Y89.914 E12.58748
G1 X106.401 Y89.57 E12.62948
G1 X107.738 Y89.072 E12.6926
G1 X109.225 Y88.542 E12.76243
G1 X111.661 Y87.634 E12.87743
G1 X114.018 Y86.678 E12.98994
G1 X116.324 Y85.665 E13.10136
G1 X118.635 Y84.573 E13.21443
G1 X120.859 Y83.442 E13.3248
G1 X123.096 Y82.225 E13.43745
G1 X125.272 Y80.958 E13.54884
G1 X127.435 Y79.619 E13.66137
G1 X129.518 Y78.246 E13.77173
G1 X131.591 Y76.791 E13.88376
G1 X133.955 Y75.026 E14.01427
G1 X134.482 Y74.62 E14.0437
G1 X135.642 Y73.753 E14.10776
G1 X136.213 Y73.338 E14.13899
G1 X137.246 Y72.675 E14.19328
G1 X138.006 Y72.249 E14.23182
G1 X139.283 Y71.552 E14.29618
G1 X139.939 Y71.206 E14.32899
G1 X141.023 Y70.71 E14.38172
G1 X141.875 Y70.378 E14.42217
G1 X143.229 Y69.874 E14.48608
G1 X143.918 Y69.628 E14.51844
G1 X145.077 Y69.287 E14.57189
G1 X146.007 Y69.072 E14.61411
G1 X147.452 Y68.761 E14.6795
G1 X148.101 Y68.629 E14.70879
G1 X149.31 Y68.455 E14.76283
G1 X150.188 Y68.38 E14.80181
G1 X151.492 Y68.286 E14.85964
G1 X152.375 Y68.235 E14.89876
G1 X153.577 Y68.235 E14.95194
G1 X154.509 Y68.289 E14.99323
G1 X155.996 Y68.397 E15.05919
G1 X156.649 Y68.453 E15.08818
G1 X157.845 Y68.625 E15.14163
G1 X158.763 Y68.811 E15.18306
G1 X160.039 Y69.088 E15.24082
G1 X160.881 Y69.284 E15.27906
G1 X162.011 Y69.616 E15.33116
G1 X162.882 Y69.926 E15.37206
G1 X164.251 Y70.438 E15.43672
G1 X164.932 Y70.704 E15.46906
G1 X166.011 Y71.197 E15.52153
G1 X166.699 Y71.559 E15.55592
G1 X168.056 Y72.3 E15.62432
G1 X168.728 Y72.679 E15.65845
G1 X169.755 Y73.339 E15.71245
G1 X170.477 Y73.865 E15.75197
G1 X171.565 Y74.68 E15.8121
G1 X172.225 Y75.189 E15.84897
G1 X173.132 Y75.974 E15.90203
G1 X173.788 Y76.613 E15.94254
G1 X174.877 Y77.704 E16.01073
G1 X175.323 Y78.165 E16.03911
G1 X176.095 Y79.057 E16.09129
G1 X176.661 Y79.792 E16.13233
G1 X177.564 Y81.003 E16.19915
G1 X177.963 Y81.553 E16.22921
G1 X178.618 Y82.573 E16.28283
G1 X179.052 Y83.345 E16.32201
G1 X179.772 Y84.664 E16.38848
G1 X180.075 Y85.237 E16.41716
G1 X180.578 Y86.337 E16.47066
G1 X180.94 Y87.267 E16.51481
G1 X181.435 Y88.602 E16.57779
G1 X181.678 Y89.286 E16.6099
G1 X182.017 Y90.445 E16.66332
G1 X182.202 Y91.249 E16.69981
G1 X182.522 Y92.729 E16.7668
G1 X182.659 Y93.398 E16.797
G1 X182.837 Y94.623 E16.85176
G1 X182.911 Y95.502 E16.89078
G1 X183.016 Y96.981 E16.95637
G1 X183.057 Y97.686 E16.98761
G1 X183.057 Y98.914 E17.04193
G1 X183.006 Y99.782 E17.0804
G1 X182.897 Y101.294 E17.14746
G1 X182.837 Y101.989 E17.17831
G1 X182.668 Y103.164 E17.23083
G1 X182.493 Y104.03 E17.26991
G1 X182.16 Y105.557 E17.33904
G1 X182.009 Y106.202 E17.36835
G1 X181.675 Y107.338 E17.42073
G1 X181.364 Y108.21 E17.46168
G1 X180.906 Y109.437 E17.51962
G1 X180.599 Y110.228 E17.55715
G1 X180.101 Y111.324 E17.6104
G1 X179.742 Y112.007 E17.64454
G1 X179.059 Y113.259 E17.70762
G1 X178.619 Y114.041 E17.74732
G1 X177.956 Y115.073 E17.80158
G1 X177.403 Y115.832 E17.84312
G1 X176.514 Y117.017 E17.90865
G1 X176.086 Y117.57 E17.93958
G1 X175.315 Y118.459 E17.99164
G1 X174.843 Y118.946 E18.02164
G1 X173.641 Y120.148 E18.09683
G1 X173.145 Y120.63 E18.12743
G1 X172.244 Y121.412 E18.1802
G1 X171.63 Y121.887 E18.21454
G1 X170.424 Y122.789 E18.28116
G1 X169.77 Y123.266 E18.31697
G1 X168.753 Y123.921 E18.37048
G1 X167.917 Y124.393 E18.41295
G1 X166.817 Y124.993 E18.46838
G1 X166.028 Y125.409 E18.50783
G1 X164.942 Y125.905 E18.56065
G1 X164.077 Y126.242 E18.60171
G1 X162.693 Y126.759 E18.66707
G1 X161.161 Y127.306 E18.73903
G1 X158.75 Y128.206 E18.85287
G1 X156.419 Y129.152 E18.96415
G1 X154.084 Y130.178 E19.07697
G1 X151.826 Y131.246 E19.18747
G1 X149.572 Y132.393 E19.29934
G1 X147.335 Y133.611 E19.41202
G1 X145.149 Y134.884 E19.52392
G1 X142.99 Y136.223 E19.6363
G1 X140.906 Y137.598 E19.74675
G1 X138.825 Y139.059 E19.85922
G1 X136.508 Y140.79 E19.98716
G1 X135.981 Y141.196 E20.01659
G1 X134.812 Y142.069 E20.08113
G1 X134.25 Y142.477 E20.11185
G1 X133.24 Y143.126 E20.16496
G1 X132.455 Y143.569 E20.20483
G1 X131.095 Y144.312 E20.27339
G1 X130.511 Y144.619 E20.30257
G1 X129.431 Y145.111 E20.35507
G1 X128.582 Y145.441 E20.39536
G1 X127.19 Y145.96 E20.46108
G1 X126.533 Y146.194 E20.49193
G1 X125.38 Y146.532 E20.54508
G1 X124.481 Y146.74 E20.5859
G1 X123 Y147.06 E20.65293
G1 X122.349 Y147.192 E20.68231
G1 X121.149 Y147.364 E20.73594
G1 X120.271 Y147.439 E20.77492
G1 X118.967 Y147.533 E20.83275
G1 X118.084 Y147.584 E20.87188
G1 X116.882 Y147.584 E20.92505
G1 X115.95 Y147.53 E20.96635
G1 X114.461 Y147.422 E21.03239
G1 X113.798 Y147.365 E21.06182
G1 X112.598 Y147.192 E21.11545
G1 X111.765 Y147.022 E21.15306
G1 X110.225 Y146.687 E21.22278
G1 X109.58 Y146.536 E21.25208
G1 X108.444 Y146.202 E21.30446
G1 X107.572 Y145.891 E21.34542
G1 X106.345 Y145.433 E21.40335
G1 X105.549 Y145.124 E21.44112
G1 X104.456 Y144.627 E21.49424
G1 X103.775 Y144.269 E21.52827
G1 X102.5 Y143.573 E21.59253
G1 X101.738 Y143.144 E21.63121
G1 X100.705 Y142.48 E21.68553
G1 X99.95 Y141.93 E21.72685
G1 X98.899 Y141.143 E21.78493
G1 X98.209 Y140.61 E21.8235
G1 X97.322 Y139.841 E21.87543
G1 X96.836 Y139.37 E21.90537
G1 X95.635 Y138.169 E21.9805
G1 X95.149 Y137.669 E22.01135
G1 X94.354 Y136.752 E22.06504
G1 X93.793 Y136.022 E22.10576
G1 X92.888 Y134.808 E22.17274
G1 X92.491 Y134.26 E22.20268
G1 X91.847 Y133.257 E22.25541
G1 X91.404 Y132.471 E22.29532
G1 X90.689 Y131.16 E22.36138
G1 X90.392 Y130.599 E22.38945
G1 X89.895 Y129.517 E22.44213
G1 X89.61 Y128.792 E22.47659
G1 X89.539 Y128.606 E22.48539
G1 X89.023 Y127.216 E22.55098
G1 X88.787 Y126.554 E22.58207
G1 X88.446 Y125.39 E22.63573
G1 X88.246 Y124.523 E22.67509
G1 X87.941 Y123.115 E22.73881
G1 X87.795 Y122.395 E22.77131
G1 X87.623 Y121.199 E22.82476
G1 X87.548 Y120.318 E22.86388
G1 X87.442 Y118.828 E22.92995
G1 X87.402 Y118.128 E22.96097
G1 X87.402 Y116.927 E23.0141
G1 X87.455 Y116 E23.05517
G1 X87.564 Y114.501 E23.12166
G1 X87.62 Y113.848 E23.15065
G1 X87.792 Y112.65 E23.20419
G1 X87.986 Y111.697 E23.24721
G1 X88.289 Y110.309 E23.31005
G1 X88.446 Y109.633 E23.34075
G1 X88.782 Y108.483 E23.39375
G1 X89.09 Y107.62 E23.43428
G1 X89.604 Y106.247 E23.49914
G1 X89.861 Y105.586 E23.53051
G1 X90.358 Y104.495 E23.58354
G1 X90.8 Y103.657 E23.62545
G1 X91.481 Y102.414 E23.68815
G1 X91.837 Y101.782 E23.72024
G1 X92.503 Y100.746 E23.77472
G1 X93.056 Y99.987 E23.81626
G1 X93.843 Y98.936 E23.87434
G1 X94.366 Y98.259 E23.91218
G1 X95.146 Y97.359 E23.96487
G1 X95.758 Y96.731 E24.00366
G0 F7500 X95.935 Y97.12
G1 F1500 X97.147 Y95.909 E24.07945
G1 X97.615 Y95.456 E24.10826
G1 X98.479 Y94.709 E24.15878
G1 X99.15 Y94.192 E24.19626
G1 X100.253 Y93.365 E24.25724
G1 X100.929 Y92.873 E24.29422
G1 X101.903 Y92.247 E24.34544
G1 X102.748 Y91.77 E24.38837
G1 X103.958 Y91.111 E24.44931
G1 X104.608 Y90.768 E24.48183
G1 X105.662 Y90.286 E24.53309
G1 X106.541 Y89.944 E24.57482
G1 X107.873 Y89.448 E24.63769
G1 X109.413 Y88.899 E24.71002
G1 X111.803 Y88.008 E24.82285
G1 X114.163 Y87.051 E24.9355
G1 X116.507 Y86.021 E25.04876
G1 X118.78 Y84.947 E25.15997
G1 X121.052 Y83.792 E25.27271
G1 X123.282 Y82.579 E25.38501
G1 X125.505 Y81.285 E25.49879
G1 X127.645 Y79.96 E25.61013
G1 X129.745 Y78.575 E25.72141
G1 X131.831 Y77.112 E25.83412
G1 X134.188 Y75.351 E25.96427
G1 X134.722 Y74.94 E25.99408
G1 X135.877 Y74.077 E26.05786
G1 X136.448 Y73.662 E26.08909
G1 X137.442 Y73.024 E26.14133
G1 X138.198 Y72.6 E26.17968
G1 X139.469 Y71.906 E26.24374
G1 X140.125 Y71.56 E26.27654
G1 X141.169 Y71.083 E26.32732
G1 X142.015 Y70.753 E26.36749
G1 X143.363 Y70.251 E26.43112
G1 X144.052 Y70.005 E26.46348
G1 X145.168 Y69.677 E26.51494
G1 X146.092 Y69.463 E26.55689
G1 X147.532 Y69.153 E26.62205
G1 X148.181 Y69.021 E26.65135
G1 X149.344 Y68.853 E26.70333
G1 X150.217 Y68.779 E26.74209
G1 X151.676 Y68.675 E26.80679
G1 X152.398 Y68.634 E26.83878
G1 X153.554 Y68.634 E26.88992
G1 X154.48 Y68.688 E26.93095
G1 X155.962 Y68.795 E26.99668
G1 X156.615 Y68.851 E27.02567
G1 X157.766 Y69.017 E27.07711
G1 X158.678 Y69.202 E27.11828
G1 X160.115 Y69.515 E27.18334
