;FLAVOR:Marlin
M117 Time Left 0h18m10s
;TIME:1090
;Filament used: 1.14342m
;Layer height: 0.28
;MINX:89.825
;MINY:81.73
;MINZ:0.28
;MAXX:178.945
;MAXY:145.168
;MAXZ:3.08
;POSTPROCESSED
;Generated with Cura_SteamEngine 4.11.0
M140 S60
M105
M190 S60
M104 S205
M105
M109 S205
M82 ;absolute extrusion mode
; Ender 3 Custom Start G-code
G92 E0 ; Reset Extruder
G28 ; Home all axes
; ***SET NEW E STEP *** (93 is factory value - 95 mine - start)
G90                          ; Force coordinates to be absolute relative to the origin
M92 E95 ;					 ; ***SET NEW E STEP *** (93 is factory value - 95 mine - end)
G90                          ; Force coordinates to be absolute relative to the origin
G28                          ; Home X/Y/Z axis
G92 E0 ; Reset Extruder
G28 ; Home all axes
G1 Z2.0 F3000 ; Move Z Axis up little to prevent scratching of Heat Bed
G1 X0.1 Y20 Z0.3 F5000.0 ; Move to start position
G1 X0.1 Y200.0 Z0.3 F1500.0 E15 ; Draw the first line
G1 X0.4 Y200.0 Z0.3 F5000.0 ; Move to side a little
G1 X0.4 Y20 Z0.3 F1500.0 E30 ; Draw the second line
G92 E0 ; Reset Extruder
G1 Z2.0 F3000 ; Move Z Axis up little to prevent scratching of Heat Bed
G1 X5 Y20 Z0.3 F5000.0 ; Move over to prevent blob squish
G92 E0
G92 E0
G1 F2700 E-6
;LAYER_COUNT:11
;LAYER:0
M107
M204 S500
M205 X8 Y8
G0 F7500 X98.502 Y97.355 Z0.28
;TYPE:SKIRT
G1 F2700 E0
G1 F1500 X99.477 Y96.481 E0.05792
G1 X100.315 Y95.816 E0.10525
G1 X101.238 Y95.111 E0.15662
G1 X101.793 Y94.7 E0.18717
G1 X102.891 Y93.984 E0.24516
G1 X103.861 Y93.431 E0.29455
G1 X104.053 Y93.324 E0.30427
G1 X104.914 Y92.857 E0.3476
G1 X105.446 Y92.577 E0.3742
G1 X106.646 Y92.034 E0.43246
G1 X107.644 Y91.653 E0.47972
G1 X108.683 Y91.277 E0.5286
G1 X109.41 Y91.027 E0.5626
G1 X110.659 Y90.68 E0.61995
G1 X111.705 Y90.455 E0.66728
G1 X111.927 Y90.41 E0.6773
G1 X112.926 Y90.217 E0.7223
G1 X113.611 Y90.094 E0.75309
G1 X114.537 Y89.968 E0.79443
G1 X115.711 Y89.859 E0.84659
G1 X118.249 Y89.586 E0.95951
G1 X120.755 Y89.246 E1.07138
G1 X123.268 Y88.831 E1.18405
G1 X125.713 Y88.357 E1.29422
G1 X128.183 Y87.805 E1.40618
G1 X130.578 Y87.198 E1.51547
G1 X133.018 Y86.506 E1.62766
G1 X135.442 Y85.743 E1.74008
G1 X137.815 Y84.922 E1.85116
G1 X140.557 Y83.879 E1.98093
G1 X141.462 Y83.518 E2.02403
G1 X142.415 Y83.188 E2.06864
G1 X143.526 Y82.859 E2.1199
G1 X143.726 Y82.802 E2.1291
G1 X144.651 Y82.548 E2.17153
G1 X145.259 Y82.39 E2.19932
G1 X146.542 Y82.137 E2.25717
G1 X147.89 Y81.955 E2.31734
G1 X148.688 Y81.863 E2.35287
G1 X149.481 Y81.783 E2.38813
G1 X150.778 Y81.73 E2.44555
G1 X151.817 Y81.749 E2.49152
G1 X152.036 Y81.755 E2.50121
G1 X153.109 Y81.797 E2.54871
G1 X153.698 Y81.828 E2.57481
G1 X154.997 Y81.974 E2.63263
G1 X156.071 Y82.16 E2.68085
G1 X156.287 Y82.2 E2.69056
G1 X157.266 Y82.391 E2.73469
G1 X157.899 Y82.524 E2.7633
G1 X159.137 Y82.861 E2.82006
G1 X160.162 Y83.205 E2.86788
G1 X160.389 Y83.284 E2.87852
G1 X161.366 Y83.637 E2.92447
G1 X161.906 Y83.84 E2.94999
G1 X163.086 Y84.364 E3.0071
G1 X164.063 Y84.869 E3.05575
G1 X164.278 Y84.983 E3.06652
G1 X165.13 Y85.449 E3.10948
G1 X165.669 Y85.751 E3.13681
G1 X166.788 Y86.47 E3.19564
G1 X167.683 Y87.125 E3.24471
G1 X167.859 Y87.256 E3.25441
G1 X168.6 Y87.823 E3.29569
G1 X169.126 Y88.236 E3.32527
G1 X170.106 Y89.105 E3.38321
G1 X171.041 Y90.041 E3.44173
G1 X171.572 Y90.592 E3.47558
G1 X172.148 Y91.207 E3.51286
G1 X172.983 Y92.212 E3.57066
G1 X173.613 Y93.07 E3.61774
G1 X173.74 Y93.247 E3.62738
G1 X174.34 Y94.1 E3.67351
G1 X174.675 Y94.591 E3.69981
G1 X175.349 Y95.72 E3.75797
G1 X175.966 Y96.911 E3.81731
G1 X176.398 Y97.786 E3.86047
G1 X176.655 Y98.322 E3.88677
G1 X177.154 Y99.547 E3.94528
G1 X177.496 Y100.556 E3.99241
G1 X177.563 Y100.761 E4.00195
G1 X177.88 Y101.763 E4.04844
G1 X178.053 Y102.338 E4.075
G1 X178.353 Y103.605 E4.1326
G1 X178.541 Y104.676 E4.1807
G1 X178.578 Y104.901 E4.19079
G1 X178.731 Y105.895 E4.23528
G1 X178.817 Y106.509 E4.2627
G1 X178.921 Y107.812 E4.32052
G1 X178.943 Y108.899 E4.36862
G1 X178.945 Y109.122 E4.37848
G1 X178.944 Y110.115 E4.42241
G1 X178.935 Y110.75 E4.4505
G1 X178.839 Y112.052 E4.50825
G1 X178.699 Y113.099 E4.55498
G1 X178.668 Y113.316 E4.56468
G1 X178.511 Y114.329 E4.61002
G1 X178.407 Y114.945 E4.63766
G1 X178.112 Y116.22 E4.69555
G1 X177.805 Y117.263 E4.74365
G1 X177.739 Y117.479 E4.75364
G1 X177.441 Y118.419 E4.79726
G1 X177.244 Y119.014 E4.82498
G1 X176.753 Y120.243 E4.88353
G1 X176.292 Y121.222 E4.9314
G1 X176.197 Y121.419 E4.94107
G1 X175.752 Y122.315 E4.98532
G1 X175.468 Y122.869 E5.01286
G1 X174.803 Y123.995 E5.07071
G1 X174.201 Y124.889 E5.11839
G1 X174.076 Y125.071 E5.12816
G1 X173.565 Y125.798 E5.16747
G1 X173.118 Y126.414 E5.20113
G1 X172.304 Y127.406 E5.2579
G1 X171.553 Y128.219 E5.30686
G1 X171.401 Y128.38 E5.31665
G1 X170.707 Y129.1 E5.36089
G1 X170.268 Y129.543 E5.38848
G1 X169.293 Y130.417 E5.4464
G1 X168.455 Y131.082 E5.49372
G1 X167.533 Y131.787 E5.54507
G1 X166.974 Y132.201 E5.57584
G1 X165.871 Y132.919 E5.63406
G1 X164.746 Y133.558 E5.69129
G1 X163.836 Y134.051 E5.73707
G1 X163.312 Y134.326 E5.76325
G1 X162.137 Y134.857 E5.82029
G1 X161.13 Y135.243 E5.86799
G1 X160.912 Y135.324 E5.87828
G1 X159.92 Y135.679 E5.92489
G1 X159.359 Y135.871 E5.95112
G1 X158.11 Y136.218 E6.00846
G1 X157.064 Y136.443 E6.05579
G1 X156.842 Y136.488 E6.06581
G1 X155.855 Y136.679 E6.11028
G1 X155.18 Y136.801 E6.14063
G1 X154.243 Y136.929 E6.18246
G1 X153.052 Y137.04 E6.23537
G1 X150.52 Y137.312 E6.34802
G1 X148.014 Y137.652 E6.45989
G1 X145.501 Y138.067 E6.57256
G1 X143.056 Y138.541 E6.68273
G1 X140.586 Y139.093 E6.79469
G1 X138.191 Y139.7 E6.90399
G1 X135.751 Y140.392 E7.01618
G1 X133.327 Y141.155 E7.1286
G1 X130.954 Y141.976 E7.23967
G1 X128.212 Y143.019 E7.36945
G1 X127.307 Y143.38 E7.41255
G1 X126.354 Y143.71 E7.45716
G1 X125.243 Y144.039 E7.50842
G1 X125.043 Y144.096 E7.51761
G1 X124.118 Y144.35 E7.56005
G1 X123.51 Y144.508 E7.58784
G1 X122.227 Y144.761 E7.64568
G1 X120.879 Y144.943 E7.70586
G1 X120.081 Y145.035 E7.74139
G1 X119.288 Y145.115 E7.77665
G1 X117.991 Y145.168 E7.83407
G1 X116.952 Y145.149 E7.88004
G1 X116.733 Y145.143 E7.88973
G1 X115.66 Y145.101 E7.93723
G1 X115.071 Y145.07 E7.96332
G1 X113.772 Y144.924 E8.02115
G1 X112.698 Y144.738 E8.06936
G1 X112.482 Y144.698 E8.07908
G1 X111.503 Y144.507 E8.1232
G1 X110.87 Y144.374 E8.15182
G1 X109.626 Y144.035 E8.20885
G1 X108.6 Y143.69 E8.25674
G1 X108.386 Y143.616 E8.26675
G1 X107.405 Y143.262 E8.31289
G1 X106.87 Y143.061 E8.33817
G1 X105.68 Y142.532 E8.39578
G1 X104.676 Y142.012 E8.44579
G1 X103.771 Y141.522 E8.49132
G1 X103.095 Y141.144 E8.52558
G1 X101.984 Y140.429 E8.58402
G1 X101.078 Y139.766 E8.63369
G1 X100.903 Y139.635 E8.64336
G1 X100.17 Y139.075 E8.68416
G1 X99.644 Y138.662 E8.71374
G1 X98.664 Y137.793 E8.77168
G1 X97.864 Y136.994 E8.8217
G1 X97.713 Y136.84 E8.83124
G1 X97.087 Y136.188 E8.87122
G1 X96.622 Y135.691 E8.90133
G1 X95.787 Y134.686 E8.95913
G1 X95.157 Y133.828 E9.00622
G1 X95.03 Y133.651 E9.01585
G1 X94.424 Y132.788 E9.0625
G1 X94.085 Y132.29 E9.08915
G1 X93.419 Y131.175 E9.1466
G1 X92.901 Y130.179 E9.19627
G1 X92.801 Y129.983 E9.206
G1 X92.393 Y129.157 E9.24675
G1 X92.107 Y128.558 E9.27611
G1 X91.616 Y127.349 E9.33384
G1 X91.256 Y126.287 E9.38344
G1 X91.187 Y126.075 E9.3933
G1 X90.887 Y125.125 E9.43737
G1 X90.711 Y124.538 E9.46448
G1 X90.412 Y123.273 E9.52198
G1 X90.229 Y122.226 E9.569
G1 X90.062 Y121.155 E9.61695
G1 X89.953 Y120.389 E9.65118
G1 X89.849 Y119.086 E9.709
G1 X89.827 Y118 E9.75705
G1 X89.825 Y117.777 E9.76691
G1 X89.826 Y116.771 E9.81142
G1 X89.835 Y116.146 E9.83907
G1 X89.931 Y114.846 E9.89673
G1 X90.071 Y113.799 E9.94346
G1 X90.102 Y113.582 E9.95315
G1 X90.257 Y112.583 E9.99787
G1 X90.36 Y111.968 E10.02546
G1 X90.659 Y110.672 E10.08429
G1 X91.036 Y109.4 E10.14298
G1 X91.324 Y108.494 E10.18503
G1 X91.521 Y107.897 E10.21284
G1 X92.014 Y106.66 E10.27175
G1 X92.478 Y105.674 E10.31995
G1 X92.577 Y105.469 E10.33003
G1 X93.029 Y104.56 E10.37493
G1 X93.307 Y104.019 E10.40184
G1 X93.964 Y102.908 E10.45894
G1 X94.564 Y102.016 E10.50649
G1 X94.695 Y101.825 E10.51674
G1 X95.208 Y101.096 E10.55617
G1 X95.652 Y100.484 E10.58961
G1 X96.466 Y99.492 E10.64638
G1 X97.217 Y98.679 E10.69534
G1 X97.369 Y98.518 E10.70513
G1 X98.063 Y97.798 E10.74937
G1 X98.502 Y97.355 E10.77696
G0 F7500 X98.786 Y97.637
G1 F1500 X99.726 Y96.795 E10.83278
G1 X100.718 Y96.009 E10.88877
G1 X101.476 Y95.432 E10.93091
G1 X102.031 Y95.021 E10.96146
G1 X103.089 Y94.331 E11.01734
G1 X104.059 Y93.778 E11.06673
G1 X104.244 Y93.675 E11.07609
G1 X105.1 Y93.211 E11.11917
G1 X105.632 Y92.931 E11.14576
G1 X106.788 Y92.408 E11.20189
G1 X107.786 Y92.027 E11.24914
G1 X107.975 Y91.957 E11.25806
G1 X108.979 Y91.597 E11.30524
G1 X109.54 Y91.405 E11.33147
G1 X110.743 Y91.071 E11.3867
G1 X111.789 Y90.846 E11.43403
G1 X112.003 Y90.802 E11.44369
G1 X112.997 Y90.611 E11.48847
G1 X113.682 Y90.488 E11.51925
G1 X114.574 Y90.367 E11.55907
G1 X115.716 Y90.261 E11.60981
G1 X118.314 Y89.982 E11.72539
G1 X120.802 Y89.644 E11.83646
G1 X123.311 Y89.23 E11.94895
G1 X125.798 Y88.747 E12.06102
G1 X128.263 Y88.196 E12.17275
G1 X130.713 Y87.576 E12.28455
G1 X133.153 Y86.884 E12.39674
G1 X135.546 Y86.13 E12.50773
G1 X137.951 Y85.298 E12.6203
G1 X140.72 Y84.245 E12.75135
G1 X141.61 Y83.89 E12.79374
G1 X142.528 Y83.571 E12.83673
G1 X143.639 Y83.242 E12.88798
G1 X144.601 Y82.975 E12.93215
G1 X145.36 Y82.777 E12.96685
G1 X146.596 Y82.533 E13.02258
G1 X147.72 Y82.38 E13.07276
G1 X147.936 Y82.353 E13.08239
G1 X148.892 Y82.244 E13.12495
G1 X149.521 Y82.181 E13.15291
G1 X150.771 Y82.13 E13.20825
G1 X151.81 Y82.149 E13.25422
G1 X152.021 Y82.155 E13.26356
G1 X153.088 Y82.197 E13.3108
G1 X153.677 Y82.228 E13.33689
G1 X154.929 Y82.368 E13.39262
G1 X156.003 Y82.554 E13.44083
G1 X157.021 Y82.75 E13.48669
G1 X157.817 Y82.916 E13.52266
G1 X159.01 Y83.24 E13.57735
G1 X160.035 Y83.584 E13.62517
G1 X160.254 Y83.66 E13.63543
G1 X161.225 Y84.011 E13.6811
G1 X161.765 Y84.214 E13.70662
G1 X162.902 Y84.72 E13.76167
G1 X163.879 Y85.225 E13.81032
G1 X164.086 Y85.334 E13.82067
G1 X164.934 Y85.798 E13.86343
G1 X165.473 Y86.1 E13.89076
G1 X166.552 Y86.793 E13.94749
G1 X167.447 Y87.448 E13.99655
G1 X167.616 Y87.574 E14.00588
G1 X168.353 Y88.138 E14.04693
G1 X168.879 Y88.551 E14.07651
G1 X169.824 Y89.388 E14.13236
G1 X170.753 Y90.318 E14.1905
G1 X171.284 Y90.869 E14.22435
G1 X171.856 Y91.48 E14.26138
G1 X172.66 Y92.448 E14.31704
G1 X173.29 Y93.306 E14.36413
G1 X173.413 Y93.477 E14.37345
G1 X174.009 Y94.326 E14.41933
G1 X174.344 Y94.817 E14.44563
G1 X174.994 Y95.904 E14.50165
G1 X175.512 Y96.901 E14.55135
G1 X175.607 Y97.088 E14.56063
G1 X176.037 Y97.959 E14.6036
G1 X176.294 Y98.495 E14.6299
G1 X176.775 Y99.675 E14.68627
G1 X177.117 Y100.684 E14.73339
G1 X177.182 Y100.882 E14.74261
G1 X177.497 Y101.878 E14.78882
G1 X177.67 Y102.453 E14.81538
G1 X177.959 Y103.674 E14.87089
G1 X178.147 Y104.745 E14.91899
G1 X178.183 Y104.962 E14.92872
G1 X178.335 Y105.951 E14.97298
G1 X178.421 Y106.565 E15.00041
G1 X178.521 Y107.821 E15.05615
G1 X178.543 Y108.908 E15.10424
G1 X178.545 Y109.122 E15.11371
G1 X178.544 Y110.109 E15.15737
G1 X178.535 Y110.744 E15.18546
G1 X178.442 Y111.999 E15.24113
G1 X178.302 Y113.046 E15.28786
G1 X178.272 Y113.255 E15.2972
G1 X178.116 Y114.263 E15.34232
G1 X178.012 Y114.879 E15.36995
G1 X177.729 Y116.107 E15.4257
G1 X177.422 Y117.15 E15.47379
G1 X177.358 Y117.358 E15.48342
G1 X177.061 Y118.294 E15.52686
G1 X176.864 Y118.889 E15.55458
G1 X176.391 Y120.073 E15.61099
G1 X175.93 Y121.052 E15.65885
G1 X175.396 Y122.133 E15.71219
G1 X175.112 Y122.687 E15.73973
G1 X174.471 Y123.772 E15.79547
G1 X173.869 Y124.666 E15.84315
G1 X173.749 Y124.841 E15.85254
G1 X173.137 Y125.709 E15.89952
G1 X172.795 Y126.179 E15.92523
G1 X172.01 Y127.135 E15.97995
G1 X171.259 Y127.948 E16.02891
G1 X171.113 Y128.103 E16.03833
G1 X170.423 Y128.818 E16.08229
G1 X169.984 Y129.261 E16.10987
G1 X169.044 Y130.103 E16.1657
G1 X168.052 Y130.889 E16.22169
G1 X167.421 Y131.371 E16.25681
G1 X166.736 Y131.879 E16.29454
G1 X165.673 Y132.572 E16.35067
G1 X164.739 Y133.104 E16.39822
G1 X163.786 Y133.624 E16.44624
G1 X163.126 Y133.972 E16.47925
G1 X161.994 Y134.484 E16.53421
G1 X160.987 Y134.87 E16.58191
G1 X160.777 Y134.948 E16.59182
G1 X159.79 Y135.301 E16.63819
G1 X159.229 Y135.493 E16.66442
G1 X158.026 Y135.827 E16.71965
G1 X156.98 Y136.052 E16.76698
G1 X156.766 Y136.096 E16.77664
G1 X155.784 Y136.285 E16.82088
G1 X155.109 Y136.407 E16.85122
G1 X154.206 Y136.53 E16.89154
G1 X153.047 Y136.638 E16.94303
G1 X150.455 Y136.916 E17.05835
G1 X147.967 Y137.254 E17.16942
G1 X145.458 Y137.668 E17.2819
G1 X142.971 Y138.151 E17.39398
G1 X140.506 Y138.702 E17.50571
G1 X138.056 Y139.322 E17.6175
G1 X135.616 Y140.014 E17.72969
G1 X133.223 Y140.768 E17.84068
G1 X130.818 Y141.6 E17.95326
G1 X128.049 Y142.653 E18.0843
G1 X127.159 Y143.008 E18.12669
G1 X126.241 Y143.327 E18.16968
G1 X125.13 Y143.656 E18.22094
G1 X124.168 Y143.923 E18.2651
G1 X123.409 Y144.121 E18.2998
G1 X122.173 Y144.365 E18.35553
G1 X121.049 Y144.518 E18.40571
G1 X120.833 Y144.545 E18.41534
G1 X119.877 Y144.654 E18.4579
G1 X119.248 Y144.717 E18.48587
G1 X117.998 Y144.768 E18.54121
G1 X116.959 Y144.749 E18.58718
G1 X116.748 Y144.743 E18.59651
G1 X115.681 Y144.701 E18.64375
G1 X115.092 Y144.67 E18.66984
G1 X113.84 Y144.53 E18.72557
G1 X112.766 Y144.344 E18.77379
G1 X111.748 Y144.148 E18.81964
G1 X110.952 Y143.982 E18.85561
G1 X109.754 Y143.656 E18.91054
G1 X108.728 Y143.311 E18.95842
G1 X108.521 Y143.239 E18.96811
G1 X107.546 Y142.888 E19.01395
G1 X107.011 Y142.687 E19.03924
G1 X105.864 Y142.176 E19.09478
G1 X104.672 Y141.557 E19.1542
G1 X103.835 Y141.101 E19.19636
G1 X103.29 Y140.795 E19.22401
G1 X102.22 Y140.106 E19.28031
G1 X101.314 Y139.443 E19.32997
G1 X100.535 Y138.851 E19.37325
G1 X99.891 Y138.347 E19.40943
G1 X98.946 Y137.51 E19.46527
G1 X98.146 Y136.711 E19.51528
G1 X97.483 Y136.025 E19.55749
G1 X96.914 Y135.418 E19.59429
G1 X96.11 Y134.45 E19.64995
G1 X95.48 Y133.592 E19.69704
G1 X95.357 Y133.421 E19.70636
G1 X94.85 Y132.701 E19.74531
G1 X94.416 Y132.065 E19.77937
G1 X93.774 Y130.991 E19.83472
G1 X93.256 Y129.995 E19.88439
G1 X93.16 Y129.806 E19.89376
G1 X92.754 Y128.984 E19.93432
G1 X92.468 Y128.385 E19.96368
G1 X91.995 Y127.221 E20.01926
G1 X91.635 Y126.159 E20.06886
G1 X91.568 Y125.954 E20.07841
G1 X91.271 Y125.01 E20.12218
G1 X91.095 Y124.423 E20.14929
G1 X90.806 Y123.204 E20.20471
G1 X90.623 Y122.157 E20.25173
G1 X90.589 Y121.949 E20.26105
G1 X90.435 Y120.947 E20.30589
G1 X90.349 Y120.333 E20.33332
G1 X90.249 Y119.078 E20.38901
G1 X90.227 Y117.992 E20.43706
G1 X90.225 Y117.777 E20.44657
G1 X90.226 Y116.776 E20.49085
G1 X90.235 Y116.151 E20.5185
G1 X90.328 Y114.899 E20.57404
G1 X90.468 Y113.852 E20.62077
G1 X90.498 Y113.643 E20.63011
G1 X90.652 Y112.649 E20.6746
G1 X90.755 Y112.034 E20.70219
G1 X91.042 Y110.785 E20.75888
G1 X91.356 Y109.721 E20.80795
G1 X91.704 Y108.619 E20.85907
G1 X91.901 Y108.022 E20.88688
G1 X92.376 Y106.831 E20.9436
G1 X92.935 Y105.647 E21.00152
G1 X93.385 Y104.743 E21.04619
G1 X93.663 Y104.202 E21.0731
G1 X94.296 Y103.131 E21.12813
G1 X94.896 Y102.239 E21.17569
G1 X95.022 Y102.055 E21.18555
G1 X95.633 Y101.189 E21.23243
G1 X95.975 Y100.719 E21.25815
G1 X96.76 Y99.763 E21.31287
G1 X97.511 Y98.95 E21.36183
G1 X97.657 Y98.795 E21.37125
G1 X98.347 Y98.08 E21.4152
G1 X98.786 Y97.637 E21.44279
G0 F7500 X99.07 Y97.918
G1 F1500 X99.975 Y97.108 E21.49652
G1 X100.961 Y96.327 E21.55216
G1 X101.592 Y95.845 E21.58728
G1 X102.269 Y95.343 E21.62456
G1 X103.287 Y94.679 E21.67833
G1 X104.257 Y94.126 E21.72772
G1 X104.435 Y94.027 E21.73673
G1 X105.286 Y93.565 E21.77957
G1 X105.818 Y93.285 E21.80616
G1 X106.931 Y92.782 E21.86019
G1 X107.929 Y92.401 E21.90744
G1 X108.954 Y92.03 E21.95567
G1 X109.669 Y91.784 E21.98911
G1 X110.827 Y91.462 E22.04228
G1 X111.873 Y91.237 E22.08961
G1 X112.079 Y91.195 E22.09891
G1 X113.067 Y91.005 E22.14342
G1 X113.752 Y90.882 E22.1742
G1 X114.611 Y90.765 E22.21255
G1 X115.728 Y90.661 E22.26218
G1 X118.374 Y90.377 E22.3799
G1 X120.884 Y90.036 E22.49195
G1 X123.38 Y89.624 E22.60386
G1 X125.89 Y89.137 E22.71696
G1 X128.343 Y88.589 E22.82815
