;FLAVOR:Marlin
;TIME:7526
;Filament used: 7.34365m
;Layer height: 0.28
;MINX:28.766
;MINY:79.016
;MINZ:0.28
;MAXX:206.232
;MAXY:155.984
;MAXZ:7.56
;Generated with Cura_SteamEngine 4.5.0
M140 S60
M105
M190 S60
M104 S205
M105
M109 S205
M82 ;absolute extrusion mode
; Ender 3 Custom Start G-code
G92 E0 ; Reset Extruder
G28 ; Home all axes
G1 Z2.0 F3000 ; Move Z Axis up little to prevent scratching of Heat Bed
G1 X0.1 Y20 Z0.3 F5000.0 ; Move to start position
G1 X0.1 Y200.0 Z0.3 F1500.0 E15 ; Draw the first line
G1 X0.4 Y200.0 Z0.3 F5000.0 ; Move to side a little
G1 X0.4 Y20 Z0.3 F1500.0 E30 ; Draw the second line
G92 E0 ; Reset Extruder
G1 Z2.0 F3000 ; Move Z Axis up little to prevent scratching of Heat Bed
G1 X5 Y20 Z0.3 F5000.0 ; Move over to prevent blob squish
G92 E0
G92 E0
G1 F1500 E-6
;LAYER_COUNT:27
;LAYER:0
M107
G0 F7500 X48.455 Y83.913 Z0.28
;TYPE:SKIRT
G1 F1500 E0
G1 X48.798 Y83.723 E0.01826
G1 X49.574 Y83.311 E0.05917
G1 X49.915 Y83.138 E0.07697
G1 X50.88 Y82.668 E0.12695
G1 X51.229 Y82.505 E0.14489
G1 X51.958 Y82.181 E0.18204
G1 X52.296 Y82.038 E0.19913
G1 X53.328 Y81.62 E0.25097
G1 X53.7 Y81.477 E0.26953
G1 X54.528 Y81.176 E0.31055
G1 X54.879 Y81.055 E0.32784
G1 X55.797 Y80.756 E0.3728
G1 X56.176 Y80.64 E0.39125
G1 X57.133 Y80.366 E0.43761
G1 X57.496 Y80.269 E0.4551
G1 X58.377 Y80.049 E0.49739
G1 X58.74 Y79.965 E0.51474
G1 X59.726 Y79.754 E0.56169
G1 X60.144 Y79.673 E0.58151
G1 X61.397 Y79.46 E0.64069
G1 X62.377 Y79.322 E0.68678
G1 X62.752 Y79.276 E0.70437
G1 X63.686 Y79.177 E0.7481
G1 X64.082 Y79.142 E0.76662
G1 X65.06 Y79.074 E0.81227
G1 X65.44 Y79.055 E0.82998
G1 X66.359 Y79.023 E0.8728
G1 X66.742 Y79.016 E0.89064
G1 X67.757 Y79.016 E0.9379
G1 X68.139 Y79.023 E0.95569
G1 X69.443 Y79.075 E1.01646
G1 X70.419 Y79.143 E1.06202
G1 X70.812 Y79.177 E1.08038
G1 X71.747 Y79.276 E1.12416
G1 X72.123 Y79.322 E1.1418
G1 X73.103 Y79.46 E1.18789
G1 X73.467 Y79.518 E1.20505
G1 X74.369 Y79.676 E1.24769
G1 X74.758 Y79.751 E1.26614
G1 X75.746 Y79.961 E1.31317
G1 X76.127 Y80.049 E1.33138
G1 X77.007 Y80.269 E1.37362
G1 X77.367 Y80.366 E1.39098
G1 X78.324 Y80.64 E1.43733
G1 X78.699 Y80.755 E1.45559
G1 X79.618 Y81.054 E1.50059
G1 X79.973 Y81.176 E1.51807
G1 X80.801 Y81.477 E1.5591
G1 X81.167 Y81.618 E1.57736
G1 X82.198 Y82.035 E1.62915
G1 X82.549 Y82.183 E1.64688
G1 X83.29 Y82.513 E1.68465
G1 X83.634 Y82.674 E1.70234
G1 X85.266 Y83.469 E1.78687
G1 X87.665 Y84.597 E1.91031
G1 X89.95 Y85.593 E2.02638
G1 X92.283 Y86.532 E2.14348
G1 X94.651 Y87.409 E2.26106
G1 X97.014 Y88.208 E2.37721
G1 X99.451 Y88.956 E2.49592
G1 X101.875 Y89.627 E2.61303
G1 X104.324 Y90.231 E2.73049
G1 X106.787 Y90.762 E2.84781
G1 X109.228 Y91.218 E2.96344
G1 X111.709 Y91.609 E3.08039
G1 X114.25 Y91.937 E3.19969
G1 X116.715 Y92.184 E3.31505
G1 X119.246 Y92.366 E3.4332
G1 X121.757 Y92.474 E3.55024
G1 X124.288 Y92.513 E3.6681
G1 X126.803 Y92.48 E3.78522
G1 X129.301 Y92.376 E3.90164
G1 X131.809 Y92.201 E4.01871
G1 X134.305 Y91.955 E4.13549
G1 X136.85 Y91.632 E4.25495
G1 X139.284 Y91.252 E4.36966
G1 X141.8 Y90.787 E4.4888
G1 X144.202 Y90.272 E4.60319
G1 X146.732 Y89.655 E4.72445
G1 X147.472 Y89.457 E4.76012
G1 X147.909 Y89.347 E4.7811
G1 X148.827 Y89.157 E4.82475
G1 X149.759 Y89.046 E4.86846
G1 X150.25 Y89.019 E4.89136
G1 X150.665 Y89.006 E4.91069
G1 X151.011 Y89.001 E4.9268
G1 X167.253 Y89.004 E5.6831
G1 X167.639 Y89.011 E5.70108
G1 X168.546 Y89.043 E5.74334
G1 X168.931 Y89.063 E5.76129
G1 X169.541 Y89.106 E5.78976
G1 X169.895 Y89.137 E5.80631
G1 X170.458 Y89.195 E5.83266
G1 X170.872 Y89.245 E5.85208
G1 X171.607 Y89.349 E5.88665
G1 X171.971 Y89.407 E5.90381
G1 X172.426 Y89.487 E5.92532
G1 X172.803 Y89.56 E5.9432
G1 X173.501 Y89.708 E5.97643
G1 X173.896 Y89.8 E5.99531
G1 X174.454 Y89.94 E6.0221
G1 X174.804 Y90.034 E6.03897
G1 X175.349 Y90.19 E6.06537
G1 X175.715 Y90.301 E6.08318
G1 X176.375 Y90.515 E6.11549
G1 X176.741 Y90.641 E6.13351
G1 X177.258 Y90.829 E6.15913
G1 X177.616 Y90.966 E6.17698
G1 X178.233 Y91.215 E6.20796
G1 X178.603 Y91.373 E6.22669
G1 X179.138 Y91.612 E6.25398
G1 X179.469 Y91.766 E6.27098
G1 X179.937 Y91.994 E6.29522
G1 X180.277 Y92.167 E6.31298
G1 X180.974 Y92.537 E6.34972
G1 X181.336 Y92.738 E6.369
G1 X181.679 Y92.937 E6.38747
G1 X181.976 Y93.116 E6.40362
G1 X182.642 Y93.531 E6.44016
G1 X182.983 Y93.752 E6.45908
G1 X184.027 Y94.457 E6.51774
G1 X186.166 Y95.858 E6.6368
G1 X188.331 Y97.19 E6.75516
G1 X190.492 Y98.435 E6.87129
G1 X192.718 Y99.637 E6.98909
G1 X194.907 Y100.74 E7.10323
G1 X196.315 Y101.426 E7.17616
G1 X196.921 Y101.745 E7.20805
G1 X197.318 Y101.97 E7.2293
G1 X197.936 Y102.348 E7.26303
G1 X198.327 Y102.605 E7.28482
G1 X198.987 Y103.074 E7.32252
G1 X199.41 Y103.399 E7.34736
G1 X199.955 Y103.847 E7.38021
G1 X200.269 Y104.122 E7.39964
G1 X200.68 Y104.5 E7.42565
G1 X200.845 Y104.66 E7.43635
G1 X201.295 Y105.118 E7.46625
G1 X201.749 Y105.618 E7.49769
G1 X202.033 Y105.951 E7.51807
G1 X202.326 Y106.31 E7.53965
G1 X202.567 Y106.618 E7.55786
G1 X203.012 Y107.229 E7.59306
G1 X203.268 Y107.607 E7.61431
G1 X203.625 Y108.166 E7.6452
G1 X203.968 Y108.76 E7.67714
G1 X204.16 Y109.118 E7.69605
G1 X204.358 Y109.506 E7.71634
G1 X204.501 Y109.8 E7.73156
G1 X204.675 Y110.174 E7.75077
G1 X204.809 Y110.478 E7.76624
G1 X205.017 Y110.984 E7.79171
G1 X205.118 Y111.248 E7.80488
G1 X205.411 Y112.122 E7.8478
G1 X205.597 Y112.765 E7.87897
G1 X205.833 Y113.75 E7.92613
G1 X205.973 Y114.48 E7.96074
G1 X206.109 Y115.392 E8.00368
G1 X206.153 Y115.807 E8.02311
G1 X206.207 Y116.566 E8.05854
G1 X206.232 Y117.252 E8.09051
G1 X206.196 Y118.625 E8.15446
G1 X206.119 Y119.493 E8.19504
G1 X205.994 Y120.437 E8.23938
G1 X205.922 Y120.844 E8.25862
G1 X205.769 Y121.568 E8.29308
G1 X205.681 Y121.924 E8.31016
G1 X205.579 Y122.306 E8.32857
G1 X205.479 Y122.656 E8.34552
G1 X205.236 Y123.403 E8.38209
G1 X205.058 Y123.891 E8.40628
G1 X204.794 Y124.548 E8.43925
G1 X204.645 Y124.887 E8.45649
G1 X204.457 Y125.294 E8.47737
G1 X204.323 Y125.568 E8.49157
G1 X204.027 Y126.137 E8.52144
G1 X203.686 Y126.73 E8.55329
G1 X203.469 Y127.082 E8.57255
G1 X203.205 Y127.489 E8.59514
G1 X203.04 Y127.732 E8.60881
G1 X202.636 Y128.289 E8.64085
G1 X202.306 Y128.715 E8.66594
G1 X201.981 Y129.115 E8.68994
G1 X201.825 Y129.298 E8.70114
G1 X201.381 Y129.789 E8.73196
G1 X201.05 Y130.133 E8.75419
G1 X200.551 Y130.619 E8.78663
G1 X200.243 Y130.901 E8.80607
G1 X199.654 Y131.404 E8.84214
G1 X199.203 Y131.762 E8.86895
G1 X198.578 Y132.222 E8.90509
G1 X198.226 Y132.463 E8.92495
G1 X197.602 Y132.861 E8.95942
G1 X197.219 Y133.087 E8.98012
G1 X196.483 Y133.484 E9.01906
G1 X194.948 Y134.239 E9.09872
G1 X192.648 Y135.4 E9.21868
G1 X190.4 Y136.616 E9.33769
G1 X188.231 Y137.871 E9.45438
G1 X186.103 Y139.182 E9.57076
G1 X184.001 Y140.56 E9.6878
G1 X182.983 Y141.248 E9.74501
G1 X182.649 Y141.465 E9.76356
G1 X181.984 Y141.88 E9.80006
G1 X181.659 Y142.075 E9.81771
G1 X181.316 Y142.273 E9.83615
G1 X180.98 Y142.459 E9.85403
G1 X180.282 Y142.83 E9.89084
G1 X179.937 Y143.006 E9.90887
G1 X179.469 Y143.234 E9.93311
G1 X179.131 Y143.392 E9.95049
G1 X178.595 Y143.631 E9.97781
G1 X178.261 Y143.773 E9.99471
G1 X177.654 Y144.02 E10.02523
G1 X177.251 Y144.174 E10.04532
G1 X176.726 Y144.364 E10.07132
G1 X176.366 Y144.488 E10.08904
G1 X175.704 Y144.702 E10.12144
G1 X175.366 Y144.805 E10.13789
G1 X174.821 Y144.962 E10.1643
G1 X174.426 Y145.068 E10.18335
G1 X173.87 Y145.206 E10.21002
G1 X173.516 Y145.288 E10.22694
G1 X172.818 Y145.437 E10.26018
G1 X172.419 Y145.514 E10.2791
G1 X171.962 Y145.594 E10.3007
G1 X171.61 Y145.65 E10.3173
G1 X170.877 Y145.754 E10.35177
G1 X170.455 Y145.805 E10.37157
G1 X169.542 Y145.894 E10.41428
G1 X168.933 Y145.937 E10.44271
G1 X168.546 Y145.957 E10.46075
G1 X167.351 Y145.996 E10.51643
G1 X166.911 Y146 E10.53692
G1 X116.824 Y146 E12.86918
G1 X114.216 Y146.037 E12.99063
G1 X111.694 Y146.144 E13.10817
G1 X109.199 Y146.321 E13.22464
G1 X106.701 Y146.569 E13.34153
G1 X104.212 Y146.887 E13.45837
G1 X101.703 Y147.281 E13.57663
G1 X99.237 Y147.74 E13.69343
G1 X96.786 Y148.267 E13.81017
G1 X94.33 Y148.869 E13.92791
G1 X91.892 Y149.54 E14.04566
G1 X89.513 Y150.268 E14.1615
G1 X87.11 Y151.079 E14.2796
G1 X84.734 Y151.955 E14.39751
G1 X81.132 Y153.397 E14.57818
G1 X80.801 Y153.523 E14.59467
G1 X79.973 Y153.824 E14.6357
G1 X79.618 Y153.946 E14.65317
G1 X78.699 Y154.245 E14.69817
G1 X78.324 Y154.36 E14.71644
G1 X77.367 Y154.634 E14.76279
G1 X77.004 Y154.731 E14.78029
G1 X76.123 Y154.951 E14.82257
G1 X75.76 Y155.035 E14.83992
G1 X74.774 Y155.246 E14.88687
G1 X74.356 Y155.327 E14.9067
G1 X73.103 Y155.54 E14.96588
G1 X72.123 Y155.678 E15.01196
G1 X71.748 Y155.724 E15.02955
G1 X70.814 Y155.823 E15.07329
G1 X70.418 Y155.858 E15.0918
G1 X69.44 Y155.926 E15.13745
G1 X69.06 Y155.945 E15.15517
G1 X68.141 Y155.977 E15.19799
G1 X67.758 Y155.984 E15.21582
G1 X66.743 Y155.984 E15.26308
G1 X66.361 Y155.977 E15.28088
G1 X65.44 Y155.945 E15.32379
G1 X65.057 Y155.925 E15.34165
G1 X64.081 Y155.857 E15.3872
G1 X63.688 Y155.823 E15.40557
G1 X62.753 Y155.724 E15.44935
G1 X62.377 Y155.678 E15.46699
G1 X61.397 Y155.54 E15.51307
G1 X61.033 Y155.482 E15.53024
G1 X60.131 Y155.324 E15.57288
G1 X59.742 Y155.249 E15.59132
G1 X58.754 Y155.039 E15.63836
G1 X58.373 Y154.951 E15.65656
G1 X57.493 Y154.731 E15.6988
G1 X57.133 Y154.634 E15.71616
G1 X56.176 Y154.36 E15.76252
G1 X55.801 Y154.245 E15.78078
G1 X54.882 Y153.946 E15.82578
G1 X54.527 Y153.824 E15.84326
G1 X53.699 Y153.523 E15.88428
G1 X53.333 Y153.382 E15.90255
G1 X52.302 Y152.965 E15.95433
G1 X51.953 Y152.818 E15.97197
G1 X51.243 Y152.502 E16.00815
G1 X50.881 Y152.333 E16.02676
G1 X49.853 Y151.83 E16.08005
G1 X49.506 Y151.652 E16.09821
G1 X48.729 Y151.237 E16.13922
G1 X48.386 Y151.046 E16.1575
G1 X47.458 Y150.507 E16.20748
G1 X47.139 Y150.314 E16.22484
G1 X46.407 Y149.855 E16.26507
G1 X46.074 Y149.638 E16.28358
G1 X45.265 Y149.089 E16.3291
G1 X44.953 Y148.869 E16.34688
G1 X44.14 Y148.275 E16.39376
G1 X43.842 Y148.05 E16.41115
G1 X43.129 Y147.491 E16.45334
G1 X42.822 Y147.241 E16.47177
G1 X42.028 Y146.571 E16.52015
G1 X41.75 Y146.328 E16.53734
G1 X41.131 Y145.769 E16.57618
G1 X40.862 Y145.518 E16.59331
G1 X40.165 Y144.845 E16.63843
G1 X39.893 Y144.573 E16.65634
G1 X39.248 Y143.905 E16.69958
G1 X38.989 Y143.627 E16.71727
G1 X38.315 Y142.879 E16.76415
G1 X38.054 Y142.579 E16.78267
G1 X37.461 Y141.871 E16.82567
G1 X37.226 Y141.58 E16.84309
G1 X36.626 Y140.812 E16.88847
G1 X36.395 Y140.506 E16.90632
G1 X35.85 Y139.756 E16.94949
G1 X35.634 Y139.447 E16.96705
G1 X35.049 Y138.581 E17.01571
G1 X34.831 Y138.246 E17.03432
G1 X34.375 Y137.515 E17.07444
G1 X34.178 Y137.186 E17.0923
G1 X33.665 Y136.296 E17.14013
G1 X33.486 Y135.973 E17.15733
G1 X33.068 Y135.188 E17.19874
G1 X32.888 Y134.835 E17.21719
G1 X32.418 Y133.87 E17.26717
G1 X32.26 Y133.532 E17.28454
G1 X31.935 Y132.803 E17.32171
G1 X31.788 Y132.457 E17.33921
G1 X31.37 Y131.426 E17.39102
G1 X31.222 Y131.04 E17.41027
G1 X30.922 Y130.212 E17.45127
G1 X30.803 Y129.865 E17.46835
G1 X30.504 Y128.945 E17.5134
G1 X30.391 Y128.576 E17.53137
G1 X30.117 Y127.62 E17.57768
G1 X30.017 Y127.245 E17.59575
G1 X29.798 Y126.365 E17.63798
G1 X29.715 Y126.006 E17.65513
G1 X29.504 Y125.018 E17.70218
G1 X29.426 Y124.621 E17.72101
G1 X29.265 Y123.703 E17.76441
G1 X29.206 Y123.329 E17.78204
G1 X29.071 Y122.365 E17.82737
G1 X29.025 Y121.987 E17.8451
G1 X28.925 Y121.034 E17.88972
G1 X28.892 Y120.653 E17.90753
G1 X28.825 Y119.695 E17.95224
G1 X28.805 Y119.307 E17.97034
G1 X28.773 Y118.379 E18.01357
G1 X28.766 Y118 E18.03122
G1 X28.766 Y116.992 E18.07816
G1 X28.773 Y116.61 E18.09595
G1 X28.805 Y115.69 E18.13882
G1 X28.825 Y115.308 E18.15663
G1 X28.893 Y114.331 E18.20223
G1 X28.927 Y113.934 E18.22078
G1 X29.026 Y113.001 E18.26447
G1 X29.072 Y112.63 E18.28188
G1 X29.21 Y111.649 E18.32801
G1 X29.268 Y111.281 E18.34536
G1 X29.426 Y110.38 E18.38795
G1 X29.501 Y109.996 E18.40617
G1 X29.712 Y109.002 E18.45349
G1 X29.803 Y108.607 E18.47236
G1 X30.023 Y107.731 E18.51442
G1 X30.114 Y107.392 E18.53076
G1 X30.387 Y106.435 E18.5771
G1 X30.504 Y106.053 E18.5957
G1 X30.802 Y105.136 E18.6406
G1 X30.927 Y104.771 E18.65857
G1 X31.229 Y103.942 E18.69965
G1 X31.368 Y103.583 E18.71758
G1 X31.785 Y102.552 E18.76936
G1 X31.935 Y102.197 E18.78731
G1 X32.26 Y101.468 E18.82447
G1 X32.418 Y101.13 E18.84185
G1 X32.888 Y100.165 E18.89183
G1 X33.065 Y99.817 E18.91001
G1 X33.483 Y99.031 E18.95146
G1 X33.67 Y98.693 E18.96945
G1 X34.183 Y97.805 E19.0172
G1 X34.374 Y97.488 E19.03443
G1 X34.831 Y96.755 E19.07466
G1 X35.046 Y96.423 E19.09307
G1 X35.635 Y95.55 E19.14211
G1 X35.862 Y95.227 E19.16049
G1 X36.414 Y94.469 E19.20416
G1 X36.639 Y94.17 E19.22158
G1 X37.226 Y93.419 E19.26597
G1 X37.462 Y93.128 E19.28341
G1 X38.057 Y92.418 E19.32655
G1 X38.312 Y92.124 E19.34467
G1 X38.951 Y91.414 E19.38915
G1 X39.223 Y91.122 E19.40773
G1 X39.948 Y90.373 E19.45627
G1 X40.232 Y90.091 E19.4749
G1 X40.941 Y89.41 E19.52068
G1 X41.218 Y89.153 E19.53827
G1 X41.924 Y88.52 E19.58243
G1 X42.226 Y88.259 E19.60101
G1 X42.987 Y87.625 E19.64714
G1 X43.273 Y87.394 E19.66425
G1 X43.967 Y86.854 E19.7052
G1 X44.275 Y86.623 E19.72313
G1 X45.07 Y86.048 E19.76881
G1 X45.386 Y85.828 E19.78674
G1 X46.305 Y85.211 E19.83828
G1 X46.619 Y85.008 E19.8557
G1 X47.216 Y84.636 E19.88845
G1 X47.532 Y84.446 E19.90562
G1 X47.961 Y84.198 E19.92869
G0 F1350 X48.455 Y83.913
G0 F7500 X48.655 Y84.26
G1 F1500 X48.985 Y84.077 E19.94626
G1 X49.761 Y83.665 E19.98717
G1 X50.091 Y83.497 E20.00442
G1 X51.056 Y83.027 E20.0544
G1 X51.392 Y82.871 E20.07165
G1 X52.121 Y82.547 E20.10879
G1 X52.447 Y82.408 E20.1253
G1 X53.479 Y81.99 E20.17714
G1 X53.836 Y81.853 E20.19495
G1 X54.664 Y81.552 E20.23597
G1 X55.003 Y81.435 E20.25267
G1 X55.921 Y81.136 E20.29763
G1 X56.286 Y81.024 E20.3154
G1 X57.243 Y80.75 E20.36176
G1 X57.593 Y80.657 E20.37862
G1 X58.474 Y80.437 E20.4209
G1 X58.824 Y80.356 E20.43763
G1 X59.81 Y80.145 E20.48458
G1 X60.212 Y80.067 E20.50365
G1 X61.115 Y79.91 E20.54633
G1 X61.453 Y79.857 E20.56226
G1 X62.433 Y79.719 E20.60834
G1 X62.794 Y79.674 E20.62528
G1 X63.728 Y79.575 E20.66902
G1 X64.11 Y79.542 E20.68687
G1 X65.088 Y79.474 E20.73252
G1 X65.454 Y79.454 E20.74959
G1 X66.373 Y79.422 E20.79241
G1 X66.742 Y79.416 E20.80959
G1 X67.757 Y79.416 E20.85685
G1 X68.125 Y79.422 E20.87399
G1 X69.046 Y79.454 E20.9169
G1 X69.415 Y79.474 E20.93411
G1 X70.391 Y79.542 E20.97967
G1 X70.77 Y79.575 E20.99738
G1 X71.705 Y79.674 E21.04116
G1 X72.067 Y79.719 E21.05815
G1 X73.047 Y79.857 E21.10423
G1 X73.398 Y79.912 E21.12078
G1 X74.3 Y80.07 E21.16342
G1 X74.675 Y80.143 E21.18121
G1 X75.663 Y80.353 E21.22824
G1 X76.03 Y80.437 E21.24577
G1 X76.91 Y80.657 E21.28801
G1 X77.257 Y80.75 E21.30474
G1 X78.214 Y81.024 E21.35109
G1 X78.576 Y81.135 E21.36872
G1 X79.495 Y81.434 E21.41372
G1 X79.837 Y81.552 E21.43057
G1 X80.665 Y81.853 E21.47159
G1 X81.018 Y81.988 E21.48919
G1 X82.049 Y82.405 E21.54097
G1 X82.386 Y82.549 E21.55804
G1 X83.127 Y82.879 E21.59581
G1 X83.458 Y83.033 E21.61281
G1 X85.1 Y83.833 E21.69786
G1 X87.485 Y84.954 E21.82057
G1 X89.808 Y85.966 E21.93856
G1 X92.131 Y86.902 E22.05518
G1 X94.532 Y87.791 E22.17439
G1 X96.916 Y88.597 E22.29158
G1 X99.323 Y89.336 E22.40882
G1 X101.745 Y90.006 E22.52583
G1 X104.249 Y90.624 E22.64593
G1 X106.701 Y91.152 E22.76272
G1 X109.164 Y91.613 E22.8794
G1 X111.667 Y92.007 E22.99739
G1 X114.196 Y92.333 E23.11612
G1 X116.68 Y92.582 E23.23237
G1 X119.237 Y92.766 E23.35174
G1 X121.732 Y92.874 E23.46803
G1 X124.287 Y92.913 E23.58701
G1 X126.791 Y92.88 E23.70362
G1 X129.345 Y92.773 E23.82265
G1 X131.84 Y92.599 E23.93911
G1 X134.358 Y92.351 E24.05692
G1 X136.895 Y92.03 E24.176
G1 X139.348 Y91.647 E24.2916
G1 X141.885 Y91.178 E24.41174
G1 X144.31 Y90.658 E24.52722
G1 X146.805 Y90.049 E24.64681
G1 X147.57 Y89.845 E24.68368
G1 X148.007 Y89.735 E24.70466
G1 X148.908 Y89.549 E24.7475
G1 X150.262 Y89.419 E24.81084
G1 X150.677 Y89.406 E24.83017
G1 X151.011 Y89.401 E24.84573
G1 X167.253 Y89.404 E25.60202
G1 X167.625 Y89.411 E25.61935
G1 X168.532 Y89.443 E25.66161
G1 X168.903 Y89.462 E25.6789
G1 X169.513 Y89.505 E25.70738
G1 X169.854 Y89.535 E25.72332
G1 X170.417 Y89.593 E25.74967
G1 X170.816 Y89.642 E25.76839
G1 X171.551 Y89.746 E25.80296
