;FLAVOR:Marlin
;TIME:5796
;Filament used: 4.30869m
;Layer height: 0.2
;MINX:39.463
;MINY:84.262
;MINZ:0.2
;MAXX:195.55
;MAXY:150.735
;MAXZ:13.4
;Generated with Cura_SteamEngine 4.5.0
M140 S60
M105
M190 S60
M104 S205
M105
M109 S205
M82 ;absolute extrusion mode
; Ender 3 Custom Start G-code
G92 E0 ; Reset Extruder
G28 ; Home all axes
G1 Z2.0 F3000 ; Move Z Axis up little to prevent scratching of Heat Bed
G1 X0.1 Y20 Z0.3 F5000.0 ; Move to start position
G1 X0.1 Y200.0 Z0.3 F1500.0 E15 ; Draw the first line
G1 X0.4 Y200.0 Z0.3 F5000.0 ; Move to side a little
G1 X0.4 Y20 Z0.3 F1500.0 E30 ; Draw the second line
G92 E0 ; Reset Extruder
G1 Z2.0 F3000 ; Move Z Axis up little to prevent scratching of Heat Bed
G1 X5 Y20 Z0.3 F5000.0 ; Move over to prevent blob squish
G92 E0
G92 E0
G1 F1500 E-6
;LAYER_COUNT:67
;LAYER:0
M107
M204 S500
M205 X20 Y20
G0 F7500 X54.025 Y86.537 Z0.2
;TYPE:SKIRT
G1 F1500 E0
G1 X54.831 Y86.059 E0.03117
G1 X55.555 Y85.704 E0.05799
G1 X56.161 Y85.434 E0.08005
G1 X57.033 Y85.089 E0.11124
G1 X57.74 Y84.871 E0.13585
G1 X58.271 Y84.726 E0.15416
G1 X59.186 Y84.517 E0.18537
G1 X59.811 Y84.421 E0.20641
G1 X60.398 Y84.348 E0.22608
G1 X61.551 Y84.266 E0.26453
G1 X61.766 Y84.262 E0.27168
G1 X62.287 Y84.265 E0.28901
G1 X63.157 Y84.31 E0.31798
G1 X63.37 Y84.329 E0.32509
G1 X64.086 Y84.416 E0.34908
G1 X64.407 Y84.466 E0.35989
G1 X65.728 Y84.756 E0.40487
G1 X66.402 Y84.948 E0.42818
G1 X67.292 Y85.243 E0.45937
G1 X67.896 Y85.493 E0.48111
G1 X68.419 Y85.728 E0.50018
G1 X68.773 Y85.895 E0.5132
G1 X69.072 Y86.042 E0.52428
G1 X71.385 Y87.143 E0.60948
G1 X73.702 Y88.165 E0.69371
G1 X76.024 Y89.113 E0.77713
G1 X78.383 Y90 E0.86095
G1 X80.769 Y90.821 E0.94488
G1 X83.159 Y91.567 E1.02815
G1 X85.588 Y92.25 E1.11207
G1 X88.058 Y92.871 E1.19678
G1 X90.494 Y93.41 E1.27976
G1 X92.983 Y93.887 E1.36405
G1 X95.425 Y94.284 E1.44634
G1 X97.95 Y94.622 E1.53107
G1 X100.44 Y94.883 E1.61434
G1 X102.97 Y95.077 E1.69874
G1 X105.459 Y95.197 E1.78162
G1 X108.566 Y95.25 E1.88497
G1 X183.843 Y95.25 E4.3887
G1 X184.016 Y95.251 E4.39445
G1 X184.714 Y95.262 E4.41767
G1 X185.651 Y95.317 E4.44889
G1 X186.579 Y95.451 E4.48007
G1 X187.492 Y95.664 E4.51125
G1 X188.384 Y95.954 E4.54245
G1 X189.248 Y96.319 E4.57365
G1 X190.078 Y96.756 E4.60485
G1 X190.867 Y97.262 E4.63602
G1 X191.611 Y97.834 E4.66723
G1 X192.303 Y98.467 E4.69843
G1 X192.939 Y99.156 E4.72961
G1 X193.514 Y99.898 E4.76084
G1 X194.023 Y100.685 E4.79201
G1 X194.464 Y101.513 E4.82321
G1 X194.832 Y102.375 E4.85438
G1 X195.125 Y103.266 E4.88558
G1 X195.342 Y104.179 E4.91679
G1 X195.48 Y105.106 E4.94797
G1 X195.537 Y105.951 E4.97613
G1 X195.55 Y106.58 E4.99706
G1 X195.549 Y111.7 E5.16735
G1 X195.531 Y112.903 E5.20737
G1 X195.474 Y114.948 E5.27541
G1 X195.474 Y117.497 E5.36019
G1 X195.502 Y118.77 E5.40254
G1 X195.55 Y120.562 E5.46216
G1 X195.549 Y125.665 E5.63189
G1 X195.539 Y126.392 E5.65607
G1 X195.486 Y127.329 E5.68729
G1 X195.354 Y128.257 E5.71846
G1 X195.143 Y129.171 E5.74966
G1 X194.854 Y130.063 E5.78085
G1 X194.491 Y130.928 E5.81205
G1 X194.056 Y131.759 E5.84325
G1 X193.551 Y132.549 E5.87443
G1 X192.981 Y133.294 E5.90563
G1 X192.35 Y133.988 E5.93683
G1 X191.661 Y134.625 E5.96804
G1 X190.921 Y135.201 E5.99923
G1 X190.135 Y135.712 E6.03041
G1 X189.308 Y136.154 E6.0616
G1 X188.446 Y136.524 E6.0928
G1 X187.556 Y136.819 E6.12398
G1 X186.644 Y137.038 E6.15518
G1 X185.717 Y137.178 E6.18636
G1 X184.849 Y137.237 E6.2153
G1 X184.22 Y137.25 E6.23622
G1 X133.172 Y137.25 E7.93409
G1 X130.564 Y137.287 E8.02084
G1 X128.043 Y137.394 E8.10476
G1 X125.548 Y137.571 E8.18795
G1 X123.048 Y137.819 E8.27151
G1 X120.555 Y138.138 E8.35511
G1 X118.062 Y138.529 E8.43904
G1 X115.572 Y138.992 E8.52327
G1 X113.109 Y139.522 E8.60707
G1 X110.713 Y140.11 E8.68912
G1 X108.243 Y140.789 E8.77432
G1 X105.84 Y141.525 E8.85791
G1 X103.448 Y142.332 E8.94188
G1 X101.108 Y143.195 E9.02483
G1 X98.752 Y144.141 E9.10927
G1 X96.454 Y145.141 E9.19263
G1 X94.149 Y146.221 E9.27729
G1 X93.417 Y146.585 E9.30448
G1 X91.629 Y147.457 E9.37065
G1 X91.276 Y147.621 E9.38359
G1 X90.617 Y147.914 E9.40758
G1 X90.262 Y148.065 E9.42041
G1 X89.471 Y148.384 E9.44878
G1 X89.123 Y148.517 E9.46117
G1 X88.382 Y148.787 E9.4874
G1 X88.019 Y148.912 E9.50017
G1 X87.232 Y149.168 E9.52769
G1 X86.868 Y149.28 E9.54036
G1 X86.068 Y149.51 E9.56805
G1 X85.676 Y149.615 E9.58154
G1 X84.841 Y149.822 E9.61016
G1 X84.503 Y149.9 E9.62169
G1 X83.795 Y150.052 E9.64578
G1 X83.39 Y150.131 E9.6595
G1 X82.491 Y150.289 E9.68986
G1 X82.114 Y150.349 E9.70256
G1 X81.322 Y150.46 E9.72916
G1 X80.948 Y150.505 E9.74169
G1 X80.189 Y150.585 E9.76707
G1 X79.805 Y150.619 E9.77989
G1 X78.963 Y150.678 E9.80797
G1 X78.573 Y150.698 E9.82096
G1 X77.702 Y150.728 E9.84994
G1 X77.323 Y150.735 E9.86255
G1 X76.578 Y150.735 E9.88733
G1 X76.2 Y150.729 E9.8999
G1 X75.327 Y150.699 E9.92896
G1 X74.934 Y150.678 E9.94205
G1 X74.094 Y150.619 E9.97005
G1 X73.713 Y150.586 E9.98277
G1 X72.953 Y150.506 E10.00819
G1 X72.578 Y150.46 E10.02076
G1 X71.786 Y150.349 E10.04736
G1 X71.395 Y150.287 E10.06052
G1 X70.497 Y150.128 E10.09086
G1 X70.127 Y150.055 E10.1034
G1 X69.417 Y149.904 E10.12754
G1 X69.055 Y149.821 E10.13989
G1 X68.221 Y149.614 E10.16848
G1 X67.832 Y149.51 E10.18187
G1 X67.032 Y149.28 E10.20955
G1 X66.672 Y149.17 E10.22207
G1 X65.884 Y148.914 E10.24963
G1 X65.517 Y148.787 E10.26255
G1 X64.776 Y148.517 E10.28878
G1 X64.423 Y148.382 E10.30135
G1 X63.633 Y148.063 E10.32969
G1 X63.276 Y147.911 E10.34259
G1 X62.616 Y147.617 E10.36662
G1 X62.273 Y147.457 E10.37921
G1 X61.405 Y147.034 E10.41133
G1 X61.064 Y146.861 E10.42404
G1 X60.437 Y146.528 E10.44766
G1 X60.09 Y146.335 E10.46086
G1 X59.317 Y145.888 E10.49056
G1 X58.995 Y145.695 E10.50305
G1 X58.342 Y145.287 E10.52866
G1 X58.019 Y145.077 E10.54147
G1 X57.349 Y144.625 E10.56835
G1 X57.037 Y144.406 E10.58103
G1 X56.332 Y143.894 E10.61001
G1 X56.026 Y143.664 E10.62274
G1 X55.378 Y143.158 E10.65009
G1 X55.072 Y142.91 E10.66319
G1 X54.509 Y142.437 E10.68765
G1 X54.223 Y142.188 E10.70026
G1 X53.498 Y141.535 E10.73271
G1 X53.207 Y141.263 E10.74596
G1 X52.453 Y140.526 E10.78103
G1 X51.945 Y140.002 E10.8053
G1 X51.672 Y139.71 E10.8186
G1 X51.023 Y138.99 E10.85084
G1 X50.769 Y138.697 E10.86373
G1 X50.267 Y138.099 E10.8897
G1 X50.029 Y137.806 E10.90226
G1 X49.583 Y137.236 E10.92633
G1 X49.349 Y136.926 E10.93925
G1 X48.779 Y136.142 E10.97149
G1 X48.56 Y135.829 E10.98419
G1 X48.171 Y135.253 E11.00731
G1 X47.966 Y134.938 E11.01981
G1 X47.501 Y134.196 E11.04894
G1 X47.292 Y133.848 E11.06244
G1 X46.881 Y133.135 E11.08981
G1 X46.705 Y132.817 E11.1019
G1 X45.746 Y131.019 E11.16967
G1 X45.001 Y129.646 E11.22163
G1 X43.76 Y127.478 E11.30472
G1 X42.181 Y124.903 E11.40518
G1 X41.822 Y124.333 E11.42759
G1 X41.571 Y123.919 E11.44369
G1 X40.948 Y122.734 E11.48822
G1 X40.652 Y122.077 E11.51218
G1 X40.303 Y121.207 E11.54336
G1 X40.069 Y120.453 E11.56962
G1 X39.94 Y119.98 E11.58593
G1 X39.718 Y118.992 E11.61961
G1 X39.655 Y118.634 E11.6317
G1 X39.535 Y117.736 E11.66183
G1 X39.513 Y117.497 E11.66981
G1 X39.468 Y116.619 E11.69905
G1 X39.463 Y116.197 E11.71309
G1 X39.499 Y115.164 E11.74747
G1 X39.52 Y114.909 E11.75598
G1 X39.711 Y113.586 E11.80044
G1 X39.861 Y112.86 E11.8251
G1 X40.184 Y111.649 E11.86678
G1 X40.259 Y111.421 E11.87476
G1 X40.525 Y110.697 E11.90042
G1 X40.601 Y110.511 E11.9071
G1 X40.899 Y109.842 E11.93146
G1 X41.117 Y109.398 E11.94791
G1 X41.407 Y108.842 E11.96877
G1 X42.31 Y107.173 E12.03188
G1 X43.456 Y104.9 E12.11655
G1 X44.524 Y102.63 E12.19999
G1 X45.526 Y100.326 E12.28355
G1 X46.448 Y98.036 E12.36566
G1 X47.794 Y94.316 E12.49724
G1 X48.13 Y93.45 E12.52813
G1 X48.301 Y93.059 E12.54233
G1 X48.713 Y92.217 E12.57351
G1 X49.062 Y91.62 E12.59651
G1 X49.463 Y90.981 E12.6216
G1 X50.214 Y89.927 E12.66464
G1 X50.355 Y89.752 E12.67212
G1 X50.927 Y89.097 E12.70104
G1 X51.203 Y88.805 E12.7144
G1 X51.976 Y88.063 E12.75004
G1 X52.13 Y87.929 E12.75683
G1 X52.713 Y87.456 E12.7818
G1 X53.009 Y87.232 E12.79415
G1 X53.361 Y86.984 E12.80847
G0 F1350 X53.64 Y86.788
G0 X54.025 Y86.537
G0 F7500 X54.243 Y86.872
G1 F1500 X55.035 Y86.404 E12.83907
G1 X55.718 Y86.07 E12.86435
G1 X56.324 Y85.8 E12.88642
G1 X57.18 Y85.462 E12.91703
G1 X57.846 Y85.256 E12.94022
G1 X58.377 Y85.111 E12.95852
G1 X59.275 Y84.908 E12.98914
G1 X59.861 Y84.818 E13.00886
G1 X60.448 Y84.745 E13.02854
G1 X61.559 Y84.666 E13.06558
G1 X61.774 Y84.662 E13.07274
G1 X62.275 Y84.664 E13.0894
G1 X63.122 Y84.708 E13.11761
G1 X63.335 Y84.727 E13.12472
G1 X64.024 Y84.811 E13.14781
G1 X64.345 Y84.861 E13.15861
G1 X65.618 Y85.141 E13.20196
G1 X66.292 Y85.333 E13.22527
G1 X67.166 Y85.623 E13.2559
G1 X67.732 Y85.858 E13.27628
G1 X68.255 Y86.093 E13.29535
G1 X68.597 Y86.254 E13.30793
G1 X68.873 Y86.39 E13.31816
G1 X71.231 Y87.512 E13.40501
G1 X73.539 Y88.53 E13.48891
G1 X75.88 Y89.486 E13.57302
G1 X78.248 Y90.376 E13.65716
G1 X80.657 Y91.205 E13.74189
G1 X83.046 Y91.951 E13.82514
G1 X85.479 Y92.635 E13.90919
G1 X87.98 Y93.264 E13.99497
G1 X90.411 Y93.801 E14.07777
G1 X92.875 Y94.274 E14.16122
G1 X95.414 Y94.687 E14.24678
G1 X97.888 Y95.018 E14.3298
G1 X100.405 Y95.282 E14.41397
G1 X102.922 Y95.475 E14.49793
G1 X105.466 Y95.597 E14.58265
G1 X108.559 Y95.65 E14.68553
G1 X183.843 Y95.65 E17.18949
G1 X184.01 Y95.651 E17.19504
G1 X184.708 Y95.662 E17.21826
G1 X185.627 Y95.717 E17.24888
G1 X186.538 Y95.851 E17.27951
G1 X187.434 Y96.063 E17.31013
G1 X188.308 Y96.353 E17.34076
G1 X189.153 Y96.717 E17.37136
G1 X189.964 Y97.153 E17.40199
G1 X190.734 Y97.658 E17.43262
G1 X191.457 Y98.228 E17.46324
G1 X192.128 Y98.858 E17.49385
G1 X192.742 Y99.545 E17.52449
G1 X193.293 Y100.282 E17.5551
G1 X193.779 Y101.064 E17.58572
G1 X194.195 Y101.885 E17.61634
G1 X194.539 Y102.739 E17.64696
G1 X194.807 Y103.62 E17.67759
G1 X194.997 Y104.521 E17.70821
G1 X195.109 Y105.434 E17.73881
G1 X195.137 Y105.962 E17.75639
G1 X195.15 Y106.58 E17.77695
G1 X195.149 Y111.694 E17.94704
G1 X195.131 Y112.891 E17.98686
G1 X195.074 Y114.936 E18.0549
G1 X195.074 Y117.51 E18.14052
G1 X195.102 Y118.781 E18.1828
G1 X195.15 Y120.562 E18.24206
G1 X195.149 Y125.66 E18.41162
G1 X195.139 Y126.387 E18.4358
G1 X195.086 Y127.306 E18.46642
G1 X194.954 Y128.217 E18.49703
G1 X194.743 Y129.113 E18.52765
G1 X194.456 Y129.988 E18.55828
G1 X194.093 Y130.834 E18.5889
G1 X193.659 Y131.646 E18.61952
G1 X193.155 Y132.417 E18.65016
G1 X192.587 Y133.141 E18.68076
G1 X191.958 Y133.813 E18.71138
G1 X191.273 Y134.428 E18.742
G1 X190.537 Y134.981 E18.77261
G1 X189.756 Y135.469 E18.80324
G1 X188.936 Y135.887 E18.83386
G1 X188.082 Y136.232 E18.86449
G1 X187.202 Y136.501 E18.8951
G1 X186.301 Y136.694 E18.92574
G1 X185.388 Y136.807 E18.95634
G1 X184.838 Y136.837 E18.97466
G1 X184.22 Y136.85 E18.99522
G1 X133.166 Y136.85 E20.69329
G1 X130.541 Y136.887 E20.7806
G1 X128.033 Y136.994 E20.86409
G1 X125.513 Y137.172 E20.94812
G1 X122.998 Y137.421 E21.03218
G1 X120.509 Y137.74 E21.11564
G1 X117.957 Y138.141 E21.20156
G1 X115.526 Y138.593 E21.2838
G1 X113.027 Y139.131 E21.36882
G1 X110.591 Y139.728 E21.45224
G1 X108.125 Y140.406 E21.5373
G1 X105.732 Y141.139 E21.62055
G1 X103.318 Y141.953 E21.70528
G1 X100.968 Y142.82 E21.78859
G1 X98.58 Y143.779 E21.87418
G1 X96.303 Y144.77 E21.95677
G1 X93.979 Y145.859 E22.04214
G1 X93.241 Y146.225 E22.06954
G1 X91.453 Y147.097 E22.1357
G1 X91.113 Y147.256 E22.14818
G1 X90.454 Y147.549 E22.17217
G1 X90.113 Y147.694 E22.1845
G1 X89.322 Y148.013 E22.21286
G1 X88.986 Y148.141 E22.22482
G1 X88.245 Y148.411 E22.25105
G1 X87.895 Y148.532 E22.26337
G1 X87.108 Y148.788 E22.2909
G1 X86.758 Y148.895 E22.30307
G1 X85.958 Y149.125 E22.33075
G1 X85.58 Y149.227 E22.34378
G1 X84.745 Y149.434 E22.37239
G1 X84.419 Y149.509 E22.38352
G1 X83.711 Y149.661 E22.4076
G1 X83.321 Y149.737 E22.42082
G1 X82.422 Y149.895 E22.45117
G1 X82.058 Y149.952 E22.46343
G1 X81.266 Y150.063 E22.49003
G1 X80.906 Y150.108 E22.5021
G1 X80.147 Y150.188 E22.52748
G1 X79.777 Y150.22 E22.53983
G1 X78.935 Y150.279 E22.56791
G1 X78.559 Y150.299 E22.58043
G1 X77.688 Y150.329 E22.60942
G1 X77.323 Y150.335 E22.62156
G1 X76.578 Y150.335 E22.64634
G1 X76.214 Y150.329 E22.65844
G1 X75.341 Y150.299 E22.6875
G1 X74.962 Y150.279 E22.70012
G1 X74.122 Y150.22 E22.72813
G1 X73.755 Y150.188 E22.74038
G1 X72.995 Y150.108 E22.7658
G1 X72.634 Y150.063 E22.7779
G1 X71.842 Y149.952 E22.8045
G1 X71.465 Y149.893 E22.81719
G1 X70.567 Y149.734 E22.84752
G1 X70.21 Y149.664 E22.85962
G1 X69.5 Y149.513 E22.88376
G1 X69.152 Y149.433 E22.89564
G1 X68.318 Y149.226 E22.92422
G1 X67.942 Y149.125 E22.93717
G1 X67.142 Y148.895 E22.96486
G1 X66.796 Y148.789 E22.97689
G1 X66.008 Y148.533 E23.00445
G1 X65.654 Y148.411 E23.0169
G1 X64.913 Y148.141 E23.04313
G1 X64.573 Y148.011 E23.05524
G1 X63.783 Y147.692 E23.08358
G1 X63.439 Y147.546 E23.09601
G1 X62.779 Y147.252 E23.12004
G1 X62.448 Y147.098 E23.13218
G1 X61.58 Y146.675 E23.1643
G1 X61.252 Y146.508 E23.17654
G1 X60.625 Y146.175 E23.20015
G1 X60.291 Y145.989 E23.21287
G1 X59.518 Y145.542 E23.24257
G1 X59.207 Y145.356 E23.25462
G1 X58.554 Y144.948 E23.28023
G1 X58.243 Y144.745 E23.29258
G1 X57.573 Y144.293 E23.31946
G1 X57.272 Y144.083 E23.33167
G1 X56.567 Y143.571 E23.36065
G1 X56.272 Y143.349 E23.37293
G1 X55.624 Y142.843 E23.40027
G1 X55.329 Y142.604 E23.4129
G1 X54.766 Y142.131 E23.43736
G1 X54.491 Y141.891 E23.4495
G1 X53.766 Y141.238 E23.48195
G1 X53.485 Y140.976 E23.49473
G1 X52.976 Y140.483 E23.5183
G1 X52.74 Y140.247 E23.5294
G1 X52.232 Y139.723 E23.55367
G1 X51.97 Y139.442 E23.56645
G1 X51.321 Y138.722 E23.59869
G1 X51.075 Y138.44 E23.61114
G1 X50.573 Y137.842 E23.63711
G1 X50.344 Y137.559 E23.64921
G1 X49.898 Y136.989 E23.67329
G1 X49.672 Y136.69 E23.68575
G1 X49.102 Y135.906 E23.71799
G1 X48.892 Y135.606 E23.73017
G1 X48.503 Y135.03 E23.75329
G1 X48.305 Y134.726 E23.76535
G1 X47.84 Y133.984 E23.79448
G1 X47.639 Y133.649 E23.80747
G1 X47.228 Y132.936 E23.83485
G1 X47.058 Y132.629 E23.84652
G1 X46.098 Y130.829 E23.91437
G1 X45.351 Y129.451 E23.9665
G1 X44.105 Y127.276 E24.04987
G1 X42.517 Y124.686 E24.15092
G1 X42.164 Y124.125 E24.17296
G1 X41.913 Y123.711 E24.18907
G1 X41.313 Y122.57 E24.23194
G1 X41.017 Y121.913 E24.25591
G1 X40.675 Y121.058 E24.28654
G1 X40.455 Y120.348 E24.31126
G1 X40.326 Y119.875 E24.32757
G1 X40.112 Y118.923 E24.36002
G1 X40.049 Y118.565 E24.37211
G1 X39.934 Y117.7 E24.40114
G1 X39.912 Y117.461 E24.40912
G1 X39.868 Y116.615 E24.43729
G1 X39.863 Y116.193 E24.45133
G1 X39.898 Y115.197 E24.48448
G1 X39.919 Y114.942 E24.49299
G1 X40.102 Y113.667 E24.53583
G1 X40.252 Y112.941 E24.56049
G1 X40.564 Y111.774 E24.60066
G1 X40.639 Y111.546 E24.60865
G1 X40.896 Y110.849 E24.63336
G1 X40.972 Y110.663 E24.64004
G1 X41.167 Y110.215 E24.65629
G1 X41.262 Y110.01 E24.6638
G1 X41.472 Y109.582 E24.67966
G1 X41.759 Y109.033 E24.70027
G1 X42.673 Y107.344 E24.76414
G1 X43.797 Y105.116 E24.84714
G1 X44.894 Y102.782 E24.93292
G1 X45.888 Y100.499 E25.01573
G1 X46.822 Y98.178 E25.09895
G1 X48.173 Y94.445 E25.23099
G1 X48.496 Y93.611 E25.26073
G1 X48.667 Y93.22 E25.27493
G1 X49.072 Y92.393 E25.30555
G1 X49.4 Y91.833 E25.32714
G1 X49.801 Y91.194 E25.35223
G1 X50.526 Y90.178 E25.39375
G1 X50.667 Y90.003 E25.40122
G1 X51.218 Y89.372 E25.42908
G1 X51.494 Y89.08 E25.44245
G1 X52.239 Y88.364 E25.47681
G1 X52.393 Y88.23 E25.4836
G1 X52.955 Y87.774 E25.50767
G1 X53.251 Y87.55 E25.52002
G1 X53.58 Y87.319 E25.53339
G0 F1350 X53.858 Y87.123
G0 X54.243 Y86.872
G0 F7500 X54.461 Y87.207
G1 F1500 X55.239 Y86.748 E25.56344
G1 X55.881 Y86.435 E25.58719
G1 X56.487 Y86.165 E25.60926
G1 X57.327 Y85.834 E25.63929
G1 X57.951 Y85.642 E25.661
G1 X58.482 Y85.497 E25.67931
G1 X59.363 Y85.298 E25.70935
G1 X59.91 Y85.215 E25.72775
G1 X60.497 Y85.142 E25.74742
G1 X61.566 Y85.066 E25.78307
G1 X61.781 Y85.062 E25.79022
G1 X62.264 Y85.064 E25.80629
G1 X63.086 Y85.106 E25.83366
G1 X63.299 Y85.125 E25.84077
G1 X63.963 Y85.207 E25.86303
G1 X64.284 Y85.257 E25.87383
G1 X65.508 Y85.525 E25.91551
G1 X66.182 Y85.717 E25.93882
G1 X67.039 Y86.003 E25.96887
G1 X67.569 Y86.223 E25.98795
G1 X68.092 Y86.458 E26.00702
G1 X68.674 Y86.738 E26.0285
G1 X71.076 Y87.881 E26.11698
G1 X73.362 Y88.889 E26.20007
G1 X75.756 Y89.867 E26.28609
