;FLAVOR:Marlin
;TIME:4861
;Filament used: 3.56991m
;Layer height: 0.2
;MINX:34.014
;MINY:75.25
;MINZ:0.2
;MAXX:200.987
;MAXY:159.734
;MAXZ:2.4
;Generated with Cura_SteamEngine 4.5.0
M140 S60
M105
M190 S60
M104 S205
M105
M109 S205
M82 ;absolute extrusion mode
; Ender 3 Custom Start G-code
G92 E0 ; Reset Extruder
G28 ; Home all axes
G1 Z2.0 F3000 ; Move Z Axis up little to prevent scratching of Heat Bed
G1 X0.1 Y20 Z0.3 F5000.0 ; Move to start position
G1 X0.1 Y200.0 Z0.3 F1500.0 E15 ; Draw the first line
G1 X0.4 Y200.0 Z0.3 F5000.0 ; Move to side a little
G1 X0.4 Y20 Z0.3 F1500.0 E30 ; Draw the second line
G92 E0 ; Reset Extruder
G1 Z2.0 F3000 ; Move Z Axis up little to prevent scratching of Heat Bed
G1 X5 Y20 Z0.3 F5000.0 ; Move over to prevent blob squish
G92 E0
G92 E0
G1 F1500 E-6
;LAYER_COUNT:12
;LAYER:0
M107
M204 S500
M205 X20 Y20
G0 F7500 X52.809 Y88.18 Z0.2
;TYPE:SKIRT
G1 F1500 E0
G1 X53.698 Y87.667 E0.03414
G1 X54.031 Y87.483 E0.04679
G1 X54.817 Y87.065 E0.0764
G1 X55.165 Y86.888 E0.08939
G1 X56.13 Y86.418 E0.12509
G1 X56.477 Y86.256 E0.13782
G1 X57.246 Y85.914 E0.16582
G1 X57.576 Y85.774 E0.17774
G1 X58.499 Y85.399 E0.21088
G1 X58.89 Y85.248 E0.22482
G1 X59.839 Y84.904 E0.25839
G1 X60.184 Y84.786 E0.27052
G1 X61.026 Y84.512 E0.29997
G1 X61.401 Y84.397 E0.31301
G1 X62.382 Y84.116 E0.34695
G1 X62.746 Y84.019 E0.35948
G1 X63.627 Y83.799 E0.38969
G1 X63.99 Y83.715 E0.40208
G1 X64.976 Y83.504 E0.43561
G1 X65.394 Y83.423 E0.44978
G1 X66.647 Y83.21 E0.49205
G1 X67.627 Y83.072 E0.52497
G1 X68.002 Y83.026 E0.53753
G1 X68.936 Y82.927 E0.56877
G1 X69.332 Y82.892 E0.58199
G1 X70.31 Y82.824 E0.6146
G1 X70.69 Y82.805 E0.62725
G1 X71.609 Y82.773 E0.65784
G1 X71.992 Y82.766 E0.67058
G1 X73.007 Y82.766 E0.70434
G1 X73.389 Y82.773 E0.71705
G1 X74.31 Y82.805 E0.7477
G1 X74.693 Y82.825 E0.76045
G1 X75.669 Y82.893 E0.79299
G1 X76.062 Y82.927 E0.80611
G1 X76.997 Y83.026 E0.83739
G1 X77.373 Y83.072 E0.84999
G1 X78.353 Y83.21 E0.8829
G1 X78.715 Y83.268 E0.8951
G1 X79.635 Y83.429 E0.92616
G1 X80.029 Y83.505 E0.93951
G1 X81.144 Y83.742 E0.97742
G1 X83.727 Y84.253 E1.065
G1 X86.208 Y84.672 E1.14868
G1 X88.668 Y85.015 E1.23129
G1 X91.191 Y85.295 E1.31572
G1 X93.703 Y85.502 E1.39956
G1 X96.222 Y85.637 E1.48346
G1 X98.712 Y85.701 E1.5663
G1 X101.236 Y85.694 E1.65025
G1 X103.757 Y85.616 E1.73414
G1 X106.286 Y85.465 E1.81841
G1 X108.795 Y85.245 E1.90218
G1 X111.274 Y84.957 E1.98518
G1 X113.769 Y84.595 E2.06904
G1 X116.269 Y84.16 E2.15344
G1 X118.687 Y83.668 E2.23551
G1 X121.157 Y83.093 E2.31986
G1 X123.629 Y82.442 E2.40488
G1 X125.995 Y81.747 E2.4869
G1 X128.413 Y80.962 E2.57145
G1 X130.815 Y80.107 E2.65625
G1 X133.079 Y79.227 E2.73704
G1 X135.434 Y78.236 E2.82202
G1 X138.871 Y76.647 E2.94796
G1 X139.457 Y76.363 E2.96962
G1 X140.317 Y75.99 E3.0008
G1 X141.207 Y75.692 E3.03202
G1 X142.118 Y75.471 E3.0632
G1 X143.045 Y75.328 E3.09439
G1 X143.883 Y75.267 E3.12234
G1 X144.208 Y75.256 E3.13315
G1 X144.58 Y75.25 E3.14553
G1 X186.801 Y75.251 E4.5498
G1 X187.499 Y75.261 E4.57302
G1 X188.435 Y75.315 E4.60421
G1 X189.363 Y75.447 E4.63538
G1 X190.277 Y75.659 E4.66659
G1 X191.169 Y75.948 E4.69778
G1 X192.034 Y76.311 E4.72898
G1 X192.864 Y76.747 E4.76016
G1 X193.655 Y77.252 E4.79137
G1 X194.399 Y77.823 E4.82257
G1 X195.092 Y78.455 E4.85376
G1 X195.729 Y79.143 E4.88495
G1 X196.304 Y79.884 E4.91614
G1 X196.815 Y80.67 E4.94732
G1 X197.257 Y81.498 E4.97854
G1 X197.626 Y82.36 E5.00973
G1 X197.921 Y83.25 E5.04091
G1 X198.139 Y84.162 E5.0721
G1 X198.279 Y85.09 E5.10331
G1 X198.337 Y85.951 E5.13202
G1 X198.35 Y86.575 E5.15278
G1 X198.355 Y97.82 E5.52679
G1 X198.426 Y100.299 E5.60927
G1 X198.571 Y102.829 E5.69356
G1 X198.786 Y105.337 E5.77728
G1 X199.073 Y107.854 E5.86154
G1 X199.427 Y110.331 E5.94476
G1 X199.85 Y112.788 E6.02768
G1 X200.345 Y115.26 E6.11153
G1 X200.422 Y115.618 E6.12371
G1 X200.494 Y115.983 E6.13609
G1 X200.587 Y116.503 E6.15366
G1 X200.65 Y116.896 E6.16689
G1 X200.747 Y117.58 E6.18987
G1 X200.794 Y117.954 E6.20241
G1 X200.852 Y118.496 E6.22054
G1 X200.885 Y118.872 E6.23309
G1 X200.931 Y119.508 E6.2543
G1 X200.953 Y119.903 E6.26746
G1 X200.978 Y120.591 E6.29036
G1 X200.985 Y120.93 E6.30164
G1 X200.987 Y121.294 E6.31374
G1 X200.982 Y121.689 E6.32688
G1 X200.956 Y122.542 E6.35527
G1 X200.935 Y122.964 E6.36932
G1 X200.897 Y123.515 E6.38769
G1 X200.865 Y123.882 E6.39994
G1 X200.808 Y124.437 E6.4185
G1 X200.761 Y124.829 E6.43163
G1 X200.665 Y125.519 E6.4548
G1 X200.608 Y125.886 E6.46715
G1 X200.522 Y126.381 E6.48386
G1 X200.447 Y126.767 E6.49694
G1 X200.299 Y127.469 E6.5208
G1 X200.211 Y127.853 E6.53391
G1 X200.086 Y128.356 E6.55115
G1 X199.987 Y128.729 E6.56398
G1 X199.793 Y129.407 E6.58744
G1 X199.686 Y129.758 E6.59964
G1 X199.526 Y130.254 E6.61697
G1 X199.404 Y130.611 E6.62952
G1 X199.177 Y131.24 E6.65176
G1 X199.038 Y131.605 E6.66475
G1 X198.826 Y132.133 E6.68368
G1 X198.672 Y132.497 E6.69682
G1 X198.395 Y133.121 E6.71953
G1 X198.237 Y133.461 E6.732
G1 X198.038 Y133.871 E6.74716
G1 X197.867 Y134.208 E6.75973
G1 X197.468 Y134.963 E6.78813
G1 X197.263 Y135.333 E6.8022
G1 X197.094 Y135.625 E6.81342
G1 X196.914 Y135.925 E6.82506
G1 X196.486 Y136.613 E6.85201
G1 X196.28 Y136.933 E6.86466
G1 X195.982 Y137.377 E6.88245
G1 X195.747 Y137.713 E6.89609
G1 X195.375 Y138.225 E6.91714
G1 X195.166 Y138.503 E6.92871
G1 X194.809 Y138.963 E6.94807
G1 X194.558 Y139.275 E6.96139
G1 X194.155 Y139.757 E6.98229
G1 X193.914 Y140.036 E6.99455
G1 X193.54 Y140.454 E7.0132
G1 X193.255 Y140.76 E7.02711
G1 X192.748 Y141.285 E7.05139
G1 X192.482 Y141.551 E7.0639
G1 X192.055 Y141.964 E7.08366
G1 X191.759 Y142.24 E7.09712
G1 X191.346 Y142.611 E7.11558
G1 X191.066 Y142.854 E7.12791
G1 X190.531 Y143.303 E7.15114
G1 X190.233 Y143.545 E7.16391
G1 X189.835 Y143.856 E7.18071
G1 X189.529 Y144.086 E7.19344
G1 X188.98 Y144.485 E7.21602
G1 X188.658 Y144.711 E7.2291
G1 X188.217 Y145.008 E7.24679
G1 X187.905 Y145.21 E7.25915
G1 X187.243 Y145.624 E7.28512
G1 X186.909 Y145.825 E7.29808
G1 X186.566 Y146.023 E7.31125
G1 X186.23 Y146.209 E7.32403
G1 X185.532 Y146.58 E7.35032
G1 X185.187 Y146.756 E7.3632
G1 X184.719 Y146.984 E7.38052
G1 X184.381 Y147.142 E7.39293
G1 X183.845 Y147.381 E7.41244
G1 X183.507 Y147.524 E7.42465
G1 X182.892 Y147.774 E7.44673
G1 X182.491 Y147.928 E7.46102
G1 X181.974 Y148.115 E7.4793
G1 X181.616 Y148.238 E7.49189
G1 X180.954 Y148.452 E7.51503
G1 X180.616 Y148.555 E7.52679
G1 X180.071 Y148.712 E7.54565
G1 X179.676 Y148.818 E7.55925
G1 X179.12 Y148.956 E7.57831
G1 X178.766 Y149.038 E7.59039
G1 X178.068 Y149.187 E7.61413
G1 X177.669 Y149.264 E7.62765
G1 X177.212 Y149.344 E7.64308
G1 X176.86 Y149.4 E7.65493
G1 X176.127 Y149.504 E7.67956
G1 X175.705 Y149.555 E7.6937
G1 X174.792 Y149.644 E7.72421
G1 X174.183 Y149.687 E7.74451
G1 X173.796 Y149.707 E7.7574
G1 X172.601 Y149.746 E7.79717
G1 X172.161 Y149.75 E7.8118
G1 X122.074 Y149.75 E9.4777
G1 X119.466 Y149.787 E9.56445
G1 X116.944 Y149.894 E9.64841
G1 X114.449 Y150.071 E9.7316
G1 X111.951 Y150.319 E9.8151
G1 X109.462 Y150.637 E9.89855
G1 X106.953 Y151.031 E9.98303
G1 X104.487 Y151.49 E10.06645
G1 X102.036 Y152.017 E10.14984
G1 X99.576 Y152.62 E10.23408
G1 X97.142 Y153.29 E10.31805
G1 X94.763 Y154.018 E10.40079
G1 X92.36 Y154.829 E10.48515
G1 X89.984 Y155.705 E10.56937
G1 X86.382 Y157.147 E10.69842
G1 X86.051 Y157.273 E10.7102
G1 X85.223 Y157.574 E10.7395
G1 X84.868 Y157.696 E10.75199
G1 X83.949 Y157.995 E10.78413
G1 X83.574 Y158.11 E10.79718
G1 X82.617 Y158.384 E10.83029
G1 X82.254 Y158.481 E10.84278
G1 X81.373 Y158.701 E10.87298
G1 X81.01 Y158.785 E10.88538
G1 X80.024 Y158.996 E10.91891
G1 X79.606 Y159.077 E10.93308
G1 X78.353 Y159.29 E10.97535
G1 X77.373 Y159.428 E11.00826
G1 X76.998 Y159.474 E11.02083
G1 X76.064 Y159.573 E11.05207
G1 X75.668 Y159.608 E11.06529
G1 X74.69 Y159.676 E11.0979
G1 X74.31 Y159.695 E11.11055
G1 X73.391 Y159.727 E11.14114
G1 X73.008 Y159.734 E11.15388
G1 X71.993 Y159.734 E11.18764
G1 X71.611 Y159.727 E11.20035
G1 X70.69 Y159.695 E11.231
G1 X70.307 Y159.675 E11.24375
G1 X69.331 Y159.607 E11.27629
G1 X68.938 Y159.573 E11.28941
G1 X68.003 Y159.474 E11.32069
G1 X67.627 Y159.428 E11.33328
G1 X66.647 Y159.29 E11.3662
G1 X66.283 Y159.232 E11.37846
G1 X65.381 Y159.074 E11.40892
G1 X64.992 Y158.999 E11.42209
G1 X64.004 Y158.789 E11.45569
G1 X63.623 Y158.701 E11.46869
G1 X62.743 Y158.481 E11.49886
G1 X62.383 Y158.384 E11.51127
G1 X61.426 Y158.11 E11.54437
G1 X61.051 Y157.995 E11.55742
G1 X60.132 Y157.696 E11.58956
G1 X59.777 Y157.574 E11.60205
G1 X58.949 Y157.273 E11.63135
G1 X58.583 Y157.132 E11.6444
G1 X57.552 Y156.715 E11.68139
G1 X57.191 Y156.562 E11.69443
G1 X56.461 Y156.236 E11.72102
G1 X56.134 Y156.083 E11.73303
G1 X55.17 Y155.614 E11.76868
G1 X54.817 Y155.435 E11.78185
G1 X54.031 Y155.017 E11.81145
G1 X53.698 Y154.833 E11.82411
G1 X52.809 Y154.32 E11.85825
G1 X52.482 Y154.123 E11.87094
G1 X51.75 Y153.666 E11.89965
G1 X51.42 Y153.452 E11.91273
G1 X50.555 Y152.868 E11.94744
G1 X50.245 Y152.651 E11.96003
G1 X49.492 Y152.104 E11.99098
G1 X49.182 Y151.87 E12.0039
G1 X48.417 Y151.272 E12.0362
G1 X48.127 Y151.037 E12.04861
G1 X47.417 Y150.442 E12.07942
G1 X47.12 Y150.184 E12.09251
G1 X46.374 Y149.512 E12.1259
G1 X46.094 Y149.251 E12.13863
G1 X45.42 Y148.6 E12.1698
G1 X45.155 Y148.335 E12.18226
G1 X44.537 Y147.696 E12.21183
G1 X44.284 Y147.426 E12.22414
G1 X43.634 Y146.707 E12.25637
G1 X43.379 Y146.415 E12.26927
G1 X42.761 Y145.681 E12.30118
G1 X42.516 Y145.379 E12.31412
G1 X41.898 Y144.59 E12.34745
G1 X41.666 Y144.283 E12.36025
G1 X41.13 Y143.547 E12.39053
G1 X40.918 Y143.245 E12.4028
G1 X40.364 Y142.428 E12.43564
G1 X40.149 Y142.099 E12.44871
G1 X39.646 Y141.297 E12.48019
G1 X39.445 Y140.962 E12.49319
G1 X38.96 Y140.124 E12.52539
G1 X38.782 Y139.806 E12.53751
G1 X38.343 Y138.986 E12.56845
G1 X38.158 Y138.623 E12.582
G1 X37.707 Y137.7 E12.61617
G1 X37.552 Y137.369 E12.62832
G1 X37.194 Y136.57 E12.65744
G1 X37.045 Y136.221 E12.67007
G1 X36.654 Y135.261 E12.70454
G1 X36.506 Y134.878 E12.7182
G1 X36.185 Y133.997 E12.74939
G1 X36.062 Y133.642 E12.76188
G1 X35.787 Y132.799 E12.79137
G1 X35.679 Y132.446 E12.80365
G1 X35.385 Y131.43 E12.83883
G1 X35.28 Y131.043 E12.85217
G1 X35.06 Y130.164 E12.88231
G1 X34.976 Y129.803 E12.89463
G1 X34.77 Y128.844 E12.92726
G1 X34.695 Y128.459 E12.9403
G1 X34.532 Y127.542 E12.97128
G1 X34.472 Y127.168 E12.98388
G1 X34.329 Y126.164 E13.01761
G1 X34.282 Y125.784 E13.03034
G1 X34.187 Y124.897 E13.06001
G1 X34.152 Y124.512 E13.07287
G1 X34.082 Y123.535 E13.10545
G1 X34.061 Y123.147 E13.11838
G1 X34.024 Y122.126 E13.15236
G1 X34.017 Y121.768 E13.16427
G1 X34.014 Y120.937 E13.1919
G1 X34.02 Y120.533 E13.20534
G1 X34.056 Y119.446 E13.24152
G1 X34.075 Y119.061 E13.25434
G1 X34.137 Y118.152 E13.28464
G1 X34.171 Y117.766 E13.29753
G1 X34.268 Y116.831 E13.32879
G1 X34.313 Y116.456 E13.34136
G1 X34.452 Y115.453 E13.37504
G1 X34.513 Y115.064 E13.38813
G1 X34.666 Y114.191 E13.41761
G1 X34.735 Y113.832 E13.42977
G1 X34.942 Y112.845 E13.46331
G1 X35.032 Y112.454 E13.47666
G1 X35.264 Y111.519 E13.5087
G1 X35.358 Y111.163 E13.52094
G1 X35.619 Y110.244 E13.55272
G1 X35.732 Y109.872 E13.56565
G1 X36.023 Y108.97 E13.59717
G1 X36.15 Y108.599 E13.61022
G1 X36.47 Y107.716 E13.64145
G1 X36.605 Y107.364 E13.65399
G1 X36.979 Y106.433 E13.68736
G1 X37.132 Y106.07 E13.70046
G1 X37.508 Y105.223 E13.73129
G1 X37.664 Y104.886 E13.74364
G1 X38.099 Y103.989 E13.7768
G1 X38.276 Y103.641 E13.78978
G1 X38.706 Y102.829 E13.82034
G1 X38.895 Y102.486 E13.83337
G1 X39.376 Y101.651 E13.86542
G1 X39.565 Y101.335 E13.87766
G1 X40.056 Y100.545 E13.9086
G1 X40.263 Y100.225 E13.92128
G1 X40.825 Y99.387 E13.95484
G1 X41.057 Y99.056 E13.96828
G1 X41.63 Y98.266 E14.00074
G1 X41.853 Y97.968 E14.01312
G1 X42.425 Y97.233 E14.0441
G1 X42.669 Y96.931 E14.05701
G1 X43.283 Y96.197 E14.08884
G1 X43.529 Y95.913 E14.10133
G1 X44.152 Y95.218 E14.13238
G1 X44.419 Y94.93 E14.14544
G1 X45.146 Y94.175 E14.1803
G1 X45.439 Y93.883 E14.19406
G1 X46.147 Y93.201 E14.22676
G1 X46.416 Y92.95 E14.23899
G1 X47.091 Y92.342 E14.26921
G1 X47.378 Y92.092 E14.28187
G1 X48.134 Y91.457 E14.31471
G1 X48.438 Y91.211 E14.32771
G1 X49.187 Y90.626 E14.35932
G1 X49.497 Y90.392 E14.37224
G1 X50.248 Y89.847 E14.4031
G1 X50.552 Y89.635 E14.41543
G1 X51.418 Y89.05 E14.45019
G1 X51.75 Y88.834 E14.46336
G1 X52.127 Y88.599 E14.47814
G0 F1350 X52.482 Y88.377
G0 X52.809 Y88.18
G0 F7500 X53.009 Y88.527
G1 F1500 X53.898 Y88.014 E14.51228
G1 X54.219 Y87.836 E14.52448
G1 X55.005 Y87.418 E14.55409
G1 X55.341 Y87.247 E14.56663
G1 X56.306 Y86.777 E14.60233
G1 X56.64 Y86.622 E14.61458
G1 X57.409 Y86.28 E14.64257
G1 X57.726 Y86.145 E14.65403
G1 X58.649 Y85.77 E14.68717
G1 X59.027 Y85.625 E14.70063
G1 X59.976 Y85.281 E14.73421
G1 X60.308 Y85.166 E14.74589
G1 X61.15 Y84.892 E14.77534
G1 X61.511 Y84.782 E14.7879
G1 X62.492 Y84.501 E14.82184
G1 X62.843 Y84.407 E14.83392
G1 X63.724 Y84.187 E14.86412
G1 X64.074 Y84.106 E14.87607
G1 X65.06 Y83.895 E14.90961
G1 X65.462 Y83.817 E14.92323
G1 X66.365 Y83.66 E14.95371
G1 X66.703 Y83.607 E14.96509
G1 X67.683 Y83.469 E14.99801
G1 X68.044 Y83.424 E15.01011
G1 X68.978 Y83.325 E15.04135
G1 X69.36 Y83.292 E15.0541
G1 X70.338 Y83.224 E15.08671
G1 X70.704 Y83.204 E15.0989
G1 X71.623 Y83.172 E15.12948
G1 X71.992 Y83.166 E15.14176
G1 X73.007 Y83.166 E15.17552
G1 X73.375 Y83.172 E15.18776
G1 X74.296 Y83.204 E15.21841
G1 X74.665 Y83.224 E15.2307
G1 X75.641 Y83.292 E15.26324
G1 X76.02 Y83.325 E15.2759
G1 X76.955 Y83.424 E15.30717
G1 X77.317 Y83.469 E15.3193
G1 X78.297 Y83.607 E15.35222
G1 X78.646 Y83.662 E15.36397
G1 X79.566 Y83.823 E15.39503
G1 X79.945 Y83.896 E15.40787
G1 X81.114 Y84.145 E15.44762
G1 X83.62 Y84.641 E15.53259
G1 X86.152 Y85.068 E15.61799
G1 X88.641 Y85.415 E15.70158
G1 X91.151 Y85.693 E15.78557
G1 X93.648 Y85.899 E15.86891
G1 X96.191 Y86.036 E15.95361
G1 X98.738 Y86.101 E16.03835
G1 X101.249 Y86.094 E16.12187
G1 X103.792 Y86.015 E16.20649
G1 X106.311 Y85.865 E16.29042
G1 X108.805 Y85.647 E16.37368
G1 X111.341 Y85.352 E16.4586
G1 X113.829 Y84.991 E16.54222
G1 X116.346 Y84.553 E16.62719
G1 X118.752 Y84.063 E16.70886
G1 X121.269 Y83.477 E16.79481
G1 X123.705 Y82.836 E16.87859
G1 X126.168 Y82.112 E16.96398
G1 X128.523 Y81.348 E17.04633
G1 X130.914 Y80.496 E17.13075
G1 X133.287 Y79.575 E17.21541
G1 X135.58 Y78.61 E17.29816
G1 X139.035 Y77.012 E17.42477
G1 X139.631 Y76.723 E17.4468
G1 X140.476 Y76.357 E17.47742
G1 X141.35 Y76.067 E17.50805
G1 X142.245 Y75.853 E17.53866
G1 X143.156 Y75.718 E17.56929
G1 X143.896 Y75.667 E17.59396
G1 X144.221 Y75.656 E17.60478
G1 X144.58 Y75.65 E17.61672
G1 X186.795 Y75.651 E19.02079
G1 X187.493 Y75.661 E19.04401
G1 X188.412 Y75.714 E19.07463
G1 X189.323 Y75.847 E19.10525
G1 X190.219 Y76.058 E19.13587
G1 X191.093 Y76.346 E19.16647
G1 X191.94 Y76.709 E19.19712
G1 X192.751 Y77.144 E19.22773
G1 X193.521 Y77.648 E19.25834
G1 X194.245 Y78.217 E19.28897
G1 X194.917 Y78.847 E19.31961
G1 X195.532 Y79.532 E19.35022
G1 X196.085 Y80.268 E19.38084
G1 X196.572 Y81.049 E19.41146
G1 X196.989 Y81.87 E19.44208
G1 X197.334 Y82.724 E19.47272
G1 X197.603 Y83.604 E19.50332
G1 X197.795 Y84.505 E19.53396
G1 X197.908 Y85.418 E19.56456
G1 X197.937 Y85.962 E19.58268
G1 X197.95 Y86.575 E19.60307
G1 X197.955 Y97.797 E19.97632
G1 X198.028 Y100.333 E20.0607
G1 X198.174 Y102.889 E20.14585
G1 X198.384 Y105.345 E20.22784
G1 X198.679 Y107.924 E20.31417
G1 X199.03 Y110.384 E20.39682
G1 X199.462 Y112.891 E20.48144
G1 X199.942 Y115.286 E20.56268
G1 X200.031 Y115.702 E20.57683
G1 X200.1 Y116.054 E20.58876
G1 X200.193 Y116.574 E20.60633
G1 X200.254 Y116.952 E20.61906
G1 X200.351 Y117.636 E20.64204
G1 X200.396 Y117.996 E20.65411
G1 X200.454 Y118.538 E20.67224
G1 X200.486 Y118.901 E20.68436
G1 X200.532 Y119.537 E20.70557
G1 X200.553 Y119.917 E20.71822
G1 X200.585 Y120.932 E20.752
G1 X200.587 Y121.296 E20.76411
G1 X200.582 Y121.677 E20.77678
G1 X200.556 Y122.53 E20.80516
G1 X200.536 Y122.936 E20.81868
G1 X200.498 Y123.487 E20.83705
G1 X200.468 Y123.841 E20.84887
G1 X200.411 Y124.396 E20.86743
G1 X200.365 Y124.774 E20.88009
G1 X200.269 Y125.464 E20.90326
G1 X200.214 Y125.817 E20.91514
G1 X200.128 Y126.312 E20.93185
