;FLAVOR:Marlin
M117 Time Left 0h44m01s
;TIME:2641
;Filament used: 0.952562m
;Layer height: 0.12
;MINX:50.314
;MINY:92.697
;MINZ:0.12
;MAXX:184.651
;MAXY:142.173
;MAXZ:11.4
;POSTPROCESSED
;Generated with Cura_SteamEngine 5.2.1
M140 S60
M105
M190 S60
M104 S205
M105
M109 S205
M82 ;absolute extrusion mode
; Ender 3 Custom Start G-code
G92 E0 ; Reset Extruder
G28 ; Home all axes
G1 Z2.0 F3000 ; Move Z Axis up little to prevent scratching of Heat Bed
G1 X0.1 Y20 Z0.3 F5000.0 ; Move to start position
G1 X0.1 Y200.0 Z0.3 F1500.0 E15 ; Draw the first line
G1 X0.4 Y200.0 Z0.3 F5000.0 ; Move to side a little
G1 X0.4 Y20 Z0.3 F1500.0 E30 ; Draw the second line
G92 E0 ; Reset Extruder
G1 Z2.0 F3000 ; Move Z Axis up little to prevent scratching of Heat Bed
G1 X5 Y20 Z0.3 F5000.0 ; Move over to prevent blob squish
G92 E0
G92 E0
G1 F2700 E-5
;LAYER_COUNT:95
;LAYER:0
M107
M204 S500
M205 X12 Y12
G0 F6000 X56.981 Y94.577 Z0.12
;TYPE:SKIRT
G1 F2700 E0
G1 F1200 X57.801 Y94.117 E0.01872
G1 X58.45 Y93.814 E0.03297
G1 X58.756 Y93.683 E0.0396
G1 X59.635 Y93.35 E0.05831
G1 X60.359 Y93.138 E0.07333
G1 X60.624 Y93.07 E0.07877
G1 X61.543 Y92.875 E0.09748
G1 X62.385 Y92.764 E0.11438
G1 X63.323 Y92.697 E0.1331
G1 X64.035 Y92.699 E0.14727
G1 X64.427 Y92.713 E0.15508
G1 X65.365 Y92.787 E0.17381
G1 X66.688 Y93.03 E0.20059
G1 X67.446 Y93.219 E0.21614
G1 X81.674 Y96.968 E0.50903
G1 X82.366 Y97.161 E0.52333
G1 X82.962 Y97.346 E0.53576
G1 X84 Y97.7 E0.55759
G1 X84.337 Y97.807 E0.56462
G1 X85.119 Y98.077 E0.58109
G1 X87.508 Y98.83 E0.63096
G1 X89.957 Y99.525 E0.68163
G1 X92.382 Y100.139 E0.73143
G1 X94.847 Y100.69 E0.78171
G1 X97.318 Y101.171 E0.83182
G1 X99.79 Y101.578 E0.88169
G1 X102.3 Y101.921 E0.93212
G1 X104.765 Y102.184 E0.98146
G1 X107.31 Y102.386 E1.03229
G1 X109.789 Y102.51 E1.08169
G1 X113.127 Y102.571 E1.14815
G1 X164.73 Y102.569 E2.17537
G1 X165.595 Y102.58 E2.19259
G1 X166.533 Y102.633 E2.21129
G1 X167.464 Y102.766 E2.23001
G1 X168.633 Y103.044 E2.25393
G1 X169.647 Y103.386 E2.27524
G1 X170.509 Y103.762 E2.29396
G1 X171.541 Y104.334 E2.31744
G1 X171.892 Y104.554 E2.32569
G1 X172.667 Y105.087 E2.34441
G1 X173.393 Y105.683 E2.36311
G1 X174.067 Y106.339 E2.38183
G1 X174.77 Y107.164 E2.40341
G1 X175.308 Y107.861 E2.42094
G1 X181.801 Y116.517 E2.63633
G1 X182.298 Y117.198 E2.65312
G1 X182.978 Y118.253 E2.6781
G1 X183.147 Y118.551 E2.68492
G1 X183.575 Y119.388 E2.70364
G1 X183.931 Y120.258 E2.72235
G1 X184.188 Y121.066 E2.73923
G1 X184.258 Y121.32 E2.74447
G1 X184.469 Y122.236 E2.76318
G1 X184.601 Y123.167 E2.7819
G1 X184.651 Y124.545 E2.80935
G1 X184.641 Y124.927 E2.81696
G1 X184.577 Y125.865 E2.83567
G1 X184.433 Y126.794 E2.85438
G1 X184.21 Y127.707 E2.87309
G1 X183.769 Y128.95 E2.89935
G1 X183.63 Y129.278 E2.90644
G1 X183.227 Y130.127 E2.92515
G1 X182.753 Y130.938 E2.94385
G1 X182.212 Y131.707 E2.96256
G1 X181.735 Y132.288 E2.97753
G1 X181.095 Y132.977 E2.99625
G1 X180.4 Y133.61 E3.01496
G1 X179.654 Y134.181 E3.03366
G1 X179.132 Y134.524 E3.04609
G1 X178.744 Y134.764 E3.05517
G1 X177.924 Y135.225 E3.0739
G1 X177.068 Y135.613 E3.09261
G1 X176.182 Y135.928 E3.11133
G1 X175.273 Y136.166 E3.13003
G1 X174.347 Y136.326 E3.14874
G1 X173.143 Y136.415 E3.17277
G1 X171.889 Y136.437 E3.19774
G1 X133.424 Y136.437 E3.96343
G1 X130.819 Y136.474 E4.01529
G1 X128.299 Y136.581 E4.0655
G1 X125.809 Y136.757 E4.11519
G1 X123.311 Y137.005 E4.16516
G1 X120.795 Y137.327 E4.21565
G1 X118.317 Y137.716 E4.26558
G1 X115.832 Y138.178 E4.3159
G1 X113.419 Y138.696 E4.36503
G1 X110.926 Y139.308 E4.41612
G1 X108.515 Y139.972 E4.46591
G1 X106.122 Y140.704 E4.51572
G1 X104.557 Y141.23 E4.54859
G1 X104.066 Y141.388 E4.55885
G1 X103.16 Y141.637 E4.57756
G1 X102.235 Y141.809 E4.59629
G1 X101.634 Y141.878 E4.60833
G1 X101.031 Y141.923 E4.62036
G1 X97.055 Y142.124 E4.69961
G1 X95.648 Y142.168 E4.72763
G1 X91.475 Y142.173 E4.8107
G1 X90.803 Y142.163 E4.82408
G1 X89.864 Y142.109 E4.8428
G1 X88.934 Y141.975 E4.86151
G1 X88.018 Y141.763 E4.88022
G1 X87.123 Y141.474 E4.89895
G1 X86.257 Y141.11 E4.91765
G1 X85.424 Y140.673 E4.93637
G1 X84.632 Y140.168 E4.95507
G1 X83.676 Y139.417 E4.97927
G1 X82.897 Y138.733 E4.9999
G1 X80.892 Y137.022 E5.05237
G1 X78.962 Y135.466 E5.10172
G1 X75.999 Y133.241 E5.17548
G1 X75.206 Y132.659 E5.19507
G1 X74.224 Y131.846 E5.22044
G1 X73.822 Y131.471 E5.23139
G1 X72.407 Y130.112 E5.27044
G1 X70.577 Y128.452 E5.31962
G1 X68.629 Y126.784 E5.37067
G1 X66.676 Y125.204 E5.42068
G1 X64.716 Y123.708 E5.46976
G1 X62.618 Y122.199 E5.52121
G1 X60.604 Y120.835 E5.56963
G1 X57.669 Y118.984 E5.6387
G1 X56.608 Y118.343 E5.66338
G1 X55.966 Y117.923 E5.67865
G1 X55.733 Y117.759 E5.68432
G1 X54.988 Y117.186 E5.70303
G1 X54.378 Y116.638 E5.71935
G1 X53.717 Y115.97 E5.73806
G1 X53.29 Y115.471 E5.75113
G1 X53.104 Y115.24 E5.75704
G1 X52.546 Y114.484 E5.77574
G1 X52.218 Y113.966 E5.78794
G1 X52.075 Y113.726 E5.79351
G1 X51.629 Y112.899 E5.81221
G1 X51.365 Y112.312 E5.82502
G1 X51.254 Y112.045 E5.83078
G1 X50.93 Y111.162 E5.8495
G1 X50.737 Y110.483 E5.86355
G1 X50.672 Y110.223 E5.86889
G1 X50.483 Y109.302 E5.8876
G1 X50.384 Y108.545 E5.9028
G1 X50.316 Y107.607 E5.92152
G1 X50.314 Y107.006 E5.93349
G1 X50.323 Y106.636 E5.94085
G1 X50.386 Y105.698 E5.95957
G1 X50.528 Y104.769 E5.97827
G1 X50.632 Y104.298 E5.98788
G1 X50.792 Y103.639 E6.00138
G1 X51.143 Y102.33 E6.02835
G1 X51.358 Y101.628 E6.04297
G1 X51.446 Y101.372 E6.04836
G1 X51.789 Y100.497 E6.06707
G1 X52.14 Y99.768 E6.08317
G1 X52.595 Y98.946 E6.10187
G1 X52.976 Y98.366 E6.11569
G1 X53.145 Y98.125 E6.12155
G1 X53.717 Y97.379 E6.14026
G1 X54.224 Y96.81 E6.15543
G1 X54.889 Y96.146 E6.17414
G1 X55.351 Y95.746 E6.1863
G1 X55.578 Y95.56 E6.19214
G1 X56.329 Y94.996 E6.21084
G1 X56.981 Y94.577 E6.22627
G0 F6000 X57.202 Y94.935
G1 F1200 X58.007 Y94.484 E6.24464
G1 X58.615 Y94.2 E6.25799
G1 X58.921 Y94.069 E6.26462
G1 X59.784 Y93.743 E6.28298
G1 X60.463 Y93.545 E6.29706
G1 X60.728 Y93.477 E6.30251
G1 X61.63 Y93.286 E6.32086
G1 X62.433 Y93.181 E6.33698
G1 X63.353 Y93.116 E6.35534
G1 X64.02 Y93.119 E6.36862
G1 X64.412 Y93.133 E6.37643
G1 X65.331 Y93.206 E6.39478
G1 X66.587 Y93.437 E6.4202
G1 X67.185 Y93.585 E6.43246
G1 X81.561 Y97.373 E6.7284
G1 X82.253 Y97.566 E6.7427
G1 X82.827 Y97.743 E6.75466
G1 X84.074 Y98.168 E6.78089
G1 X84.2 Y98.204 E6.78349
G1 X84.966 Y98.469 E6.79963
G1 X87.41 Y99.239 E6.85064
G1 X89.841 Y99.929 E6.90094
G1 X92.297 Y100.551 E6.95137
G1 X94.778 Y101.105 E7.00198
G1 X97.239 Y101.584 E7.05189
G1 X99.704 Y101.991 E7.10162
G1 X102.233 Y102.335 E7.15243
G1 X104.757 Y102.605 E7.20296
G1 X107.256 Y102.803 E7.25286
G1 X109.791 Y102.93 E7.30338
G1 X113.119 Y102.991 E7.36964
G1 X164.73 Y102.989 E8.39702
G1 X165.589 Y103 E8.41412
G1 X166.509 Y103.053 E8.43246
G1 X167.422 Y103.186 E8.45083
G1 X168.518 Y103.448 E8.47326
G1 X169.513 Y103.785 E8.49417
G1 X170.357 Y104.155 E8.51252
G1 X171.318 Y104.69 E8.53441
G1 X171.669 Y104.91 E8.54266
G1 X172.429 Y105.433 E8.56102
G1 X173.14 Y106.02 E8.57938
G1 X173.797 Y106.666 E8.59772
G1 X174.438 Y107.42 E8.61742
G1 X174.972 Y108.113 E8.63483
G1 X181.465 Y116.769 E8.85023
G1 X181.958 Y117.445 E8.86689
G1 X182.613 Y118.46 E8.89093
G1 X182.782 Y118.758 E8.89775
G1 X183.201 Y119.579 E8.9161
G1 X183.548 Y120.433 E8.93445
G1 X183.783 Y121.178 E8.95
G1 X183.853 Y121.432 E8.95525
G1 X184.059 Y122.33 E8.97359
G1 X184.187 Y123.243 E8.99194
G1 X184.231 Y124.534 E9.01765
G1 X184.221 Y124.916 E9.02526
G1 X184.157 Y125.836 E9.04362
G1 X184.014 Y126.747 E9.06197
G1 X183.792 Y127.641 E9.08031
G1 X183.382 Y128.786 E9.10452
G1 X183.243 Y129.114 E9.11161
G1 X182.847 Y129.946 E9.12995
G1 X182.38 Y130.741 E9.14831
G1 X181.846 Y131.493 E9.16667
G1 X181.415 Y132.016 E9.18016
G1 X180.787 Y132.691 E9.19851
G1 X180.104 Y133.31 E9.21686
G1 X179.369 Y133.867 E9.23522
G1 X178.911 Y134.167 E9.24612
G1 X178.523 Y134.407 E9.2552
G1 X177.719 Y134.858 E9.27355
G1 X176.878 Y135.237 E9.29191
G1 X176.008 Y135.542 E9.31026
G1 X175.115 Y135.77 E9.32861
G1 X174.205 Y135.92 E9.34697
G1 X173.135 Y135.995 E9.36832
G1 X171.889 Y136.017 E9.39313
G1 X133.418 Y136.017 E10.15894
G1 X130.795 Y136.054 E10.21116
G1 X128.289 Y136.161 E10.26109
G1 X125.773 Y136.339 E10.3113
G1 X123.251 Y136.589 E10.36175
G1 X120.746 Y136.909 E10.41202
G1 X118.244 Y137.303 E10.46244
G1 X115.778 Y137.761 E10.51236
G1 X113.3 Y138.292 E10.56281
G1 X110.825 Y138.901 E10.61355
G1 X108.383 Y139.573 E10.66397
G1 X106.009 Y140.299 E10.71338
G1 X104.563 Y140.786 E10.74376
G1 X103.937 Y140.988 E10.75685
G1 X103.048 Y141.232 E10.7752
G1 X102.141 Y141.398 E10.79356
G1 X101.597 Y141.459 E10.80445
G1 X101.01 Y141.503 E10.81617
G1 X96.865 Y141.712 E10.89879
G1 X95.647 Y141.748 E10.92304
G1 X91.481 Y141.753 E11.00597
G1 X90.809 Y141.743 E11.01935
G1 X89.888 Y141.689 E11.03772
G1 X88.976 Y141.556 E11.05606
G1 X88.079 Y141.344 E11.07441
G1 X87.203 Y141.055 E11.09277
G1 X86.356 Y140.692 E11.11112
G1 X85.543 Y140.256 E11.12948
G1 X84.772 Y139.752 E11.14782
G1 X83.953 Y139.102 E11.16863
G1 X83.114 Y138.366 E11.19085
G1 X81.189 Y136.722 E11.24124
G1 X79.211 Y135.128 E11.29181
G1 X76.247 Y132.903 E11.36558
G1 X75.454 Y132.32 E11.38518
G1 X74.509 Y131.539 E11.40958
G1 X74.24 Y131.289 E11.41689
G1 X72.701 Y129.812 E11.45935
G1 X70.853 Y128.136 E11.50901
G1 X68.887 Y126.452 E11.56054
G1 X66.954 Y124.888 E11.61004
G1 X64.942 Y123.352 E11.66043
G1 X62.882 Y121.871 E11.71093
G1 X60.809 Y120.467 E11.76077
G1 X57.878 Y118.619 E11.82975
G1 X56.826 Y117.983 E11.85422
G1 X56.208 Y117.58 E11.8689
G1 X55.975 Y117.416 E11.87458
G1 X55.244 Y116.853 E11.89294
G1 X54.664 Y116.331 E11.90848
G1 X54.016 Y115.675 E11.92683
G1 X53.617 Y115.208 E11.93906
G1 X53.431 Y114.977 E11.94496
G1 X52.885 Y114.234 E11.96332
G1 X52.579 Y113.751 E11.9747
G1 X52.436 Y113.511 E11.98026
G1 X51.999 Y112.699 E11.99862
G1 X51.752 Y112.151 E12.01058
G1 X51.641 Y111.884 E12.01634
G1 X51.325 Y111.018 E12.03469
G1 X51.144 Y110.381 E12.04787
G1 X51.079 Y110.121 E12.0532
G1 X50.832 Y108.764 E12.08066
G1 X50.801 Y108.496 E12.08603
G1 X50.735 Y107.577 E12.10437
G1 X50.734 Y107.017 E12.11552
G1 X50.743 Y106.647 E12.12289
G1 X50.806 Y105.727 E12.14124
G1 X51.04 Y104.397 E12.16813
G1 X51.27 Y103.466 E12.18722
G1 X51.548 Y102.44 E12.20838
G1 X51.755 Y101.764 E12.22245
G1 X51.843 Y101.508 E12.22784
G1 X52.181 Y100.65 E12.24619
G1 X52.515 Y99.956 E12.26153
G1 X52.963 Y99.15 E12.27988
G1 X53.32 Y98.607 E12.29282
G1 X53.489 Y98.366 E12.29868
G1 X54.05 Y97.635 E12.31702
G1 X54.533 Y97.094 E12.33146
G1 X55.186 Y96.443 E12.34981
G1 X55.844 Y95.885 E12.36699
G1 X56.582 Y95.332 E12.38534
G1 X57.202 Y94.935 E12.4
G0 F6000 X57.424 Y95.292
G1 F1200 X58.212 Y94.85 E12.41798
G1 X58.781 Y94.586 E12.43047
G1 X59.087 Y94.455 E12.4371
G1 X59.932 Y94.136 E12.45508
G1 X60.567 Y93.951 E12.46824
G1 X60.832 Y93.883 E12.47369
G1 X61.717 Y93.698 E12.49169
G1 X62.481 Y93.598 E12.50702
G1 X63.382 Y93.535 E12.525
G1 X64.005 Y93.539 E12.5374
G1 X64.397 Y93.553 E12.54521
G1 X65.298 Y93.625 E12.56321
G1 X66.486 Y93.845 E12.58726
G1 X67.084 Y93.993 E12.59952
G1 X81.448 Y97.777 E12.89521
G1 X82.14 Y97.97 E12.90951
G1 X82.691 Y98.141 E12.92099
G1 X83.875 Y98.545 E12.9459
G1 X84.063 Y98.601 E12.9498
G1 X84.857 Y98.875 E12.96652
G1 X87.26 Y99.633 E13.01668
G1 X89.734 Y100.335 E13.06787
G1 X92.205 Y100.96 E13.11861
G1 X94.682 Y101.514 E13.16913
G1 X97.166 Y101.997 E13.21951
G1 X99.678 Y102.412 E13.27019
G1 X102.168 Y102.751 E13.32021
G1 X104.718 Y103.024 E13.37126
G1 X107.237 Y103.223 E13.42156
G1 X109.762 Y103.35 E13.47189
G1 X113.112 Y103.411 E13.53859
G1 X164.73 Y103.409 E14.5661
G1 X165.583 Y103.42 E14.58309
G1 X166.485 Y103.473 E14.60107
G1 X167.379 Y103.605 E14.61906
G1 X168.405 Y103.853 E14.64007
G1 X169.378 Y104.183 E14.66053
G1 X170.204 Y104.548 E14.6785
G1 X171.095 Y105.046 E14.69882
G1 X171.446 Y105.266 E14.70707
G1 X172.19 Y105.779 E14.72506
G1 X172.885 Y106.356 E14.74304
G1 X173.527 Y106.992 E14.76103
G1 X174.105 Y107.677 E14.77887
G1 X174.636 Y108.365 E14.79617
G1 X181.129 Y117.021 E15.01157
G1 X181.619 Y117.693 E15.02812
G1 X182.247 Y118.667 E15.05119
G1 X182.416 Y118.965 E15.05801
G1 X182.827 Y119.77 E15.076
G1 X183.164 Y120.608 E15.09398
G1 X183.378 Y121.289 E15.10819
G1 X183.448 Y121.543 E15.11344
G1 X183.649 Y122.424 E15.13142
G1 X183.772 Y123.319 E15.14941
G1 X183.812 Y124.523 E15.17339
G1 X183.802 Y124.905 E15.18099
G1 X183.738 Y125.806 E15.19898
G1 X183.595 Y126.699 E15.21698
G1 X183.374 Y127.575 E15.23496
G1 X182.996 Y128.622 E15.25712
G1 X182.857 Y128.95 E15.26421
G1 X182.468 Y129.765 E15.28219
G1 X182.008 Y130.543 E15.30018
G1 X181.18 Y131.653 E15.32775
G1 X180.479 Y132.405 E15.34821
G1 X179.808 Y133.01 E15.3662
G1 X179.086 Y133.553 E15.38418
G1 X178.69 Y133.81 E15.39358
G1 X178.302 Y134.05 E15.40266
G1 X177.513 Y134.491 E15.42065
G1 X176.689 Y134.86 E15.43862
G1 X175.835 Y135.155 E15.45661
G1 X174.958 Y135.374 E15.4746
G1 X174.065 Y135.514 E15.4926
G1 X173.127 Y135.575 E15.51131
G1 X171.889 Y135.597 E15.53596
G1 X133.412 Y135.597 E16.30189
G1 X130.806 Y135.634 E16.35377
G1 X128.241 Y135.743 E16.40487
G1 X125.737 Y135.92 E16.45484
G1 X123.195 Y136.172 E16.50569
G1 X120.691 Y136.493 E16.55594
G1 X118.177 Y136.888 E16.6066
G1 X115.688 Y137.35 E16.657
G1 X113.214 Y137.881 E16.70736
G1 X110.715 Y138.495 E16.75859
G1 X108.291 Y139.162 E16.80864
G1 X105.863 Y139.905 E16.85918
G1 X104.429 Y140.388 E16.8893
G1 X103.809 Y140.588 E16.90227
G1 X102.937 Y140.827 E16.92027
G1 X102.048 Y140.987 E16.93825
G1 X101.561 Y141.041 E16.948
G1 X100.988 Y141.084 E16.95944
G1 X96.85 Y141.292 E17.04192
G1 X95.646 Y141.328 E17.06589
G1 X91.487 Y141.333 E17.14868
G1 X90.815 Y141.323 E17.16206
G1 X89.913 Y141.269 E17.18005
G1 X89.019 Y141.137 E17.19804
G1 X88.141 Y140.925 E17.21602
G1 X87.285 Y140.637 E17.234
G1 X86.457 Y140.274 E17.25199
G1 X85.665 Y139.839 E17.26998
G1 X84.914 Y139.336 E17.28797
G1 X84.23 Y138.786 E17.30545
G1 X83.443 Y138.095 E17.32629
G1 X81.428 Y136.375 E17.37903
G1 X79.475 Y134.801 E17.42896
G1 X76.531 Y132.59 E17.50225
G1 X75.703 Y131.982 E17.5227
G1 X74.795 Y131.231 E17.54616
G1 X74.404 Y130.866 E17.55681
G1 X72.977 Y129.495 E17.5962
G1 X71.112 Y127.804 E17.64631
G1 X69.184 Y126.153 E17.69684
G1 X67.193 Y124.542 E17.74782
G1 X65.201 Y123.022 E17.7977
G1 X63.122 Y121.526 E17.84869
G1 X61.043 Y120.118 E17.89867
G1 X58.111 Y118.27 E17.96766
G1 X57.043 Y117.624 E17.99251
G1 X56.449 Y117.236 E18.00663
G1 X56.216 Y117.072 E18.0123
G1 X55.501 Y116.52 E18.03028
G1 X54.95 Y116.023 E18.04505
G1 X54.315 Y115.379 E18.06306
G1 X53.945 Y114.944 E18.07442
G1 X53.759 Y114.713 E18.08033
G1 X53.224 Y113.985 E18.09831
G1 X52.797 Y113.296 E18.11445
G1 X52.369 Y112.5 E18.13244
G1 X52.14 Y111.989 E18.14358
G1 X52.029 Y111.722 E18.14934
G1 X51.72 Y110.874 E18.16731
G1 X51.552 Y110.279 E18.17961
G1 X51.487 Y110.019 E18.18495
G1 X51.25 Y108.716 E18.21131
G1 X51.219 Y108.448 E18.21668
G1 X51.155 Y107.547 E18.23466
G1 X51.154 Y107.027 E18.24501
G1 X51.163 Y106.657 E18.25238
G1 X51.225 Y105.755 E18.27038
G1 X51.448 Y104.496 E18.29583
G1 X51.675 Y103.576 E18.31469
G1 X51.953 Y102.55 E18.33585
G1 X52.153 Y101.901 E18.34937
G1 X52.241 Y101.645 E18.35476
G1 X52.764 Y100.398 E18.38168
G1 X52.891 Y100.144 E18.38733
G1 X53.33 Y99.354 E18.40532
G1 X53.664 Y98.848 E18.41739
G1 X53.833 Y98.607 E18.42325
G1 X54.74 Y97.479 E18.45206
G1 X55.483 Y96.741 E18.47291
G1 X56.11 Y96.21 E18.48927
G1 X57.206 Y95.427 E18.51608
G1 X57.424 Y95.292 E18.52118
G1 F2700 E13.52118
;MESH:to_test2 (Meshed).stl
G0 F6000 X100.881 Y112.958
G0 X100.783 Y114.051
G0 X165.198 Y114.845
G0 X172.536 Y124.336
;TYPE:WALL-INNER
G1 F2700 E18.52118
G1 F1200 X166.736 Y116.604 E18.71359
G1 X165.286 Y114.67 E18.76171
G1 X100.726 Y114.668 E20.04685
G1 X81.065 Y111.099 E20.44462
G1 X80.811 Y110.982 E20.45019
G1 X80.524 Y110.765 E20.45735
G1 X80.212 Y110.386 E20.46712
G1 X80.068 Y110.086 E20.47375
G1 X79.992 Y109.813 E20.47939
G1 X79.526 Y109.428 E20.49142
G1 X79.005 Y108.926 E20.50582
G1 X78.829 Y108.733 E20.51102
G1 X63.862 Y104.79 E20.81912
G1 X63.566 Y104.798 E20.82502
G1 X63.304 Y104.885 E20.83051
G1 X63.088 Y105.036 E20.83576
G1 X62.919 Y105.243 E20.84108
G1 X62.807 Y105.517 E20.84697
