;FLAVOR:Marlin
M117 Time Left 0h13m31s
;TIME:811
;Filament used: 0.3365m
;Layer height: 0.12
;MINX:83.777
;MINY:93.725
;MINZ:0.12
;MAXX:151.218
;MAXY:141.258
;MAXZ:5.04
;POSTPROCESSED
;Generated with Cura_SteamEngine 5.2.1
M140 S60
M105
M190 S60
M104 S205
M105
M109 S205
M82 ;absolute extrusion mode
; Ender 3 Custom Start G-code
G92 E0 ; Reset Extruder
G28 ; Home all axes
G1 Z2.0 F3000 ; Move Z Axis up little to prevent scratching of Heat Bed
G1 X0.1 Y20 Z0.3 F5000.0 ; Move to start position
G1 X0.1 Y200.0 Z0.3 F1500.0 E15 ; Draw the first line
G1 X0.4 Y200.0 Z0.3 F5000.0 ; Move to side a little
G1 X0.4 Y20 Z0.3 F1500.0 E30 ; Draw the second line
G92 E0 ; Reset Extruder
G1 Z2.0 F3000 ; Move Z Axis up little to prevent scratching of Heat Bed
G1 X5 Y20 Z0.3 F5000.0 ; Move over to prevent blob squish
G92 E0
G92 E0
G1 F2700 E-5
;LAYER_COUNT:42
;LAYER:0
M107
M204 S500
M205 X12 Y12
G0 F6000 X87.594 Y96.435 Z0.12
;TYPE:SKIRT
G1 F2700 E0
G1 F1200 X88.33 Y95.85 E0.01872
G1 X89.113 Y95.33 E0.03743
G1 X89.937 Y94.878 E0.05613
G1 X90.797 Y94.498 E0.07485
G1 X91.686 Y94.192 E0.09357
G1 X92.597 Y93.963 E0.11226
G1 X93.525 Y93.812 E0.13098
G1 X94.647 Y93.737 E0.15337
G1 X95.43 Y93.725 E0.16895
G1 X108.692 Y93.726 E0.43295
G1 X109.395 Y93.736 E0.44694
G1 X110.334 Y93.789 E0.46567
G1 X111.264 Y93.922 E0.48437
G1 X112.18 Y94.134 E0.50308
G1 X113.075 Y94.422 E0.5218
G1 X113.942 Y94.786 E0.54052
G1 X114.774 Y95.222 E0.55922
G1 X115.567 Y95.727 E0.57793
G1 X116.314 Y96.298 E0.59665
G1 X117.01 Y96.93 E0.61536
G1 X117.43 Y97.369 E0.62746
G1 X118.058 Y98.063 E0.64609
G1 X119.79 Y99.92 E0.69664
G1 X121.567 Y101.722 E0.74701
G1 X123.39 Y103.469 E0.79728
G1 X125.265 Y105.166 E0.84762
G1 X127.164 Y106.789 E0.89734
G1 X129.117 Y108.366 E0.94731
G1 X131.116 Y109.887 E0.99731
G1 X133.164 Y111.357 E1.0475
G1 X135.252 Y112.769 E1.09767
G1 X137.374 Y114.116 E1.14771
G1 X139.543 Y115.41 E1.19798
G1 X141.701 Y116.615 E1.24718
G1 X144.696 Y118.163 E1.31429
G1 X145.057 Y118.341 E1.32231
G1 X145.882 Y118.793 E1.34103
G1 X146.665 Y119.313 E1.35974
G1 X147.401 Y119.897 E1.37845
G1 X148.085 Y120.542 E1.39716
G1 X148.711 Y121.243 E1.41587
G1 X149.276 Y121.994 E1.43458
G1 X149.775 Y122.791 E1.4533
G1 X150.204 Y123.627 E1.472
G1 X150.561 Y124.497 E1.49072
G1 X150.842 Y125.394 E1.50943
G1 X151.046 Y126.311 E1.52813
G1 X151.172 Y127.243 E1.54685
G1 X151.218 Y128.182 E1.56557
G1 X151.204 Y128.815 E1.57817
G1 X151.185 Y129.187 E1.58559
G1 X151.097 Y130.367 E1.60914
G1 X151.019 Y131.227 E1.62633
G1 X150.894 Y132.159 E1.64505
G1 X150.689 Y133.076 E1.66375
G1 X150.407 Y133.973 E1.68247
G1 X150.05 Y134.843 E1.70119
G1 X149.62 Y135.679 E1.7199
G1 X149.121 Y136.475 E1.73861
G1 X148.556 Y137.226 E1.75731
G1 X147.929 Y137.927 E1.77604
G1 X147.245 Y138.571 E1.79474
G1 X146.508 Y139.155 E1.81345
G1 X145.725 Y139.675 E1.83217
G1 X144.9 Y140.126 E1.85088
G1 X144.04 Y140.505 E1.86959
G1 X143.151 Y140.81 E1.8883
G1 X142.239 Y141.038 E1.90701
G1 X141.311 Y141.188 E1.92572
G1 X140.374 Y141.258 E1.94443
G1 X139.463 Y141.25 E1.96256
G1 X138.786 Y141.212 E1.97606
G1 X94.839 Y137.816 E2.85349
G1 X94.01 Y137.742 E2.87006
G1 X93.078 Y137.618 E2.88877
G1 X92.161 Y137.415 E2.90747
G1 X91.263 Y137.135 E2.92619
G1 X90.393 Y136.78 E2.9449
G1 X89.556 Y136.352 E2.96361
G1 X88.759 Y135.854 E2.98232
G1 X88.006 Y135.291 E3.00103
G1 X87.305 Y134.665 E3.01974
G1 X86.659 Y133.982 E3.03846
G1 X86.073 Y133.247 E3.05717
G1 X85.552 Y132.465 E3.07587
G1 X85.1 Y131.641 E3.09458
G1 X84.719 Y130.781 E3.11331
G1 X84.412 Y129.893 E3.13201
G1 X84.182 Y128.981 E3.15073
G1 X84.031 Y128.054 E3.16943
G1 X83.959 Y127.129 E3.1879
G1 X83.939 Y126.457 E3.20128
G1 X83.777 Y105.567 E3.61713
G1 X83.781 Y104.721 E3.63397
G1 X83.827 Y103.783 E3.65267
G1 X83.952 Y102.851 E3.67139
G1 X84.155 Y101.933 E3.6901
G1 X84.436 Y101.036 E3.70881
G1 X84.793 Y100.166 E3.72753
G1 X85.221 Y99.33 E3.74623
G1 X85.72 Y98.533 E3.76495
G1 X86.284 Y97.781 E3.78366
G1 X86.91 Y97.08 E3.80237
G1 X87.594 Y96.435 E3.82108
G0 F6000 X88.004 Y96.637
G1 F1200 X88.735 Y96.076 E3.83942
G1 X89.513 Y95.581 E3.85778
G1 X90.33 Y95.155 E3.87612
G1 X91.182 Y94.801 E3.89449
G1 X92.061 Y94.522 E3.91285
G1 X92.96 Y94.321 E3.93118
G1 X93.874 Y94.198 E3.94954
G1 X94.654 Y94.156 E3.96509
G1 X95.253 Y94.146 E3.97702
G1 X108.535 Y94.145 E4.24141
G1 X109.389 Y94.156 E4.25841
G1 X110.31 Y94.209 E4.27678
G1 X111.222 Y94.342 E4.29512
G1 X112.119 Y94.553 E4.31346
G1 X112.995 Y94.841 E4.33182
G1 X113.843 Y95.204 E4.35018
G1 X114.656 Y95.639 E4.36854
G1 X115.428 Y96.143 E4.38689
G1 X116.153 Y96.712 E4.40524
G1 X117.118 Y97.651 E4.43204
G1 X117.704 Y98.298 E4.44942
G1 X119.498 Y100.222 E4.50178
G1 X121.291 Y102.041 E4.55262
G1 X123.097 Y103.77 E4.60239
G1 X124.97 Y105.466 E4.65269
G1 X126.906 Y107.121 E4.70339
G1 X128.856 Y108.696 E4.75329
G1 X130.857 Y110.218 E4.80334
G1 X132.925 Y111.702 E4.854
G1 X135.033 Y113.127 E4.90466
G1 X137.149 Y114.471 E4.95455
G1 X139.324 Y115.769 E5.00497
G1 X141.505 Y116.986 E5.05469
G1 X144.527 Y118.548 E5.12241
G1 X144.871 Y118.718 E5.13005
G1 X145.68 Y119.161 E5.14841
G1 X146.446 Y119.673 E5.16675
G1 X147.166 Y120.249 E5.1851
G1 X147.833 Y120.886 E5.20346
G1 X148.442 Y121.578 E5.22181
G1 X148.99 Y122.32 E5.24017
G1 X149.47 Y123.107 E5.25852
G1 X149.881 Y123.932 E5.27687
G1 X150.219 Y124.79 E5.29523
G1 X150.481 Y125.674 E5.31358
G1 X150.665 Y126.577 E5.33193
G1 X150.771 Y127.493 E5.35028
G1 X150.784 Y128.793 E5.37616
G1 X150.748 Y129.439 E5.38904
G1 X150.679 Y130.335 E5.40693
G1 X150.601 Y131.189 E5.424
G1 X150.477 Y132.102 E5.44234
G1 X150.274 Y133.002 E5.46071
G1 X149.994 Y133.88 E5.47905
G1 X149.639 Y134.731 E5.49741
G1 X149.211 Y135.548 E5.51577
G1 X148.714 Y136.324 E5.53411
G1 X148.152 Y137.055 E5.55247
G1 X147.529 Y137.734 E5.57081
G1 X146.849 Y138.357 E5.58917
G1 X146.118 Y138.918 E5.60751
G1 X145.34 Y139.414 E5.62588
G1 X144.523 Y139.841 E5.64423
G1 X143.672 Y140.195 E5.66258
G1 X142.793 Y140.475 E5.68094
G1 X141.894 Y140.677 E5.69928
G1 X140.98 Y140.8 E5.71764
G1 X140.059 Y140.844 E5.73599
G1 X139.484 Y140.831 E5.74744
G1 X138.818 Y140.793 E5.76072
G1 X94.736 Y137.386 E6.64084
G1 X94.048 Y137.324 E6.6546
G1 X93.134 Y137.202 E6.67295
G1 X92.234 Y137 E6.69131
G1 X91.356 Y136.722 E6.70964
G1 X90.504 Y136.368 E6.72801
G1 X89.686 Y135.942 E6.74637
G1 X88.909 Y135.447 E6.76471
G1 X88.177 Y134.887 E6.78306
G1 X87.496 Y134.264 E6.80143
G1 X86.872 Y133.586 E6.81977
G1 X86.31 Y132.856 E6.83811
G1 X85.812 Y132.079 E6.85648
G1 X85.384 Y131.263 E6.87482
G1 X85.028 Y130.413 E6.89317
G1 X84.747 Y129.534 E6.91154
G1 X84.543 Y128.635 E6.92989
G1 X84.418 Y127.722 E6.94823
G1 X84.379 Y127.114 E6.96036
G1 X84.359 Y126.453 E6.97352
G1 X84.197 Y105.563 E7.38938
G1 X84.201 Y104.724 E7.40608
G1 X84.246 Y103.803 E7.42443
G1 X84.371 Y102.89 E7.44278
G1 X84.575 Y101.99 E7.46115
G1 X84.856 Y101.112 E7.4795
G1 X85.211 Y100.262 E7.49784
G1 X85.64 Y99.445 E7.5162
G1 X86.137 Y98.669 E7.53455
G1 X86.699 Y97.938 E7.5529
G1 X87.323 Y97.26 E7.57125
G1 X88.004 Y96.637 E7.58962
G0 F6000 X88.413 Y96.845
G1 F1200 X89.14 Y96.308 E7.60761
G1 X89.911 Y95.838 E7.62558
G1 X90.722 Y95.438 E7.64359
G1 X91.564 Y95.112 E7.66156
G1 X92.432 Y94.861 E7.67955
G1 X93.319 Y94.688 E7.69753
G1 X94.661 Y94.576 E7.72434
G1 X95.26 Y94.566 E7.73627
G1 X108.535 Y94.565 E8.00052
G1 X109.383 Y94.576 E8.0174
G1 X110.285 Y94.629 E8.03539
G1 X111.179 Y94.761 E8.05338
G1 X112.058 Y94.972 E8.07137
G1 X112.914 Y95.26 E8.08935
G1 X113.742 Y95.622 E8.10734
G1 X114.534 Y96.056 E8.12532
G1 X115.285 Y96.559 E8.14331
G1 X115.989 Y97.125 E8.16129
G1 X116.807 Y97.933 E8.18418
G1 X117.415 Y98.604 E8.20221
G1 X119.189 Y100.507 E8.25399
G1 X120.981 Y102.325 E8.30481
G1 X122.821 Y104.087 E8.35552
G1 X124.694 Y105.782 E8.40581
G1 X126.628 Y107.435 E8.45645
G1 X128.6 Y109.029 E8.50693
G1 X130.615 Y110.562 E8.55733
G1 X132.702 Y112.059 E8.60845
G1 X134.773 Y113.459 E8.65821
G1 X136.951 Y114.842 E8.70957
G1 X139.12 Y116.136 E8.75985
G1 X141.295 Y117.35 E8.80943
G1 X144.357 Y118.933 E8.87805
G1 X144.685 Y119.095 E8.88533
G1 X145.477 Y119.53 E8.90332
G1 X146.227 Y120.033 E8.92129
G1 X146.93 Y120.601 E8.93929
G1 X147.58 Y121.229 E8.95728
G1 X148.172 Y121.912 E8.97527
G1 X148.701 Y122.644 E8.99325
G1 X149.163 Y123.421 E9.01124
G1 X149.555 Y124.235 E9.02923
G1 X149.873 Y125.081 E9.04722
G1 X150.116 Y125.951 E9.0652
G1 X150.28 Y126.839 E9.08318
G1 X150.365 Y127.739 E9.10117
G1 X150.365 Y128.772 E9.12173
G1 X150.329 Y129.407 E9.13439
G1 X150.26 Y130.303 E9.15228
G1 X150.183 Y131.15 E9.16921
G1 X150.06 Y132.045 E9.1872
G1 X149.859 Y132.926 E9.20518
G1 X149.581 Y133.786 E9.22318
G1 X149.228 Y134.618 E9.24117
G1 X148.802 Y135.415 E9.25916
G1 X148.308 Y136.171 E9.27713
G1 X147.749 Y136.881 E9.29512
G1 X147.129 Y137.538 E9.3131
G1 X146.454 Y138.139 E9.3311
G1 X145.728 Y138.677 E9.34908
G1 X144.957 Y139.149 E9.36708
G1 X144.148 Y139.55 E9.38505
G1 X143.307 Y139.879 E9.40303
G1 X142.439 Y140.132 E9.42103
G1 X141.553 Y140.308 E9.43901
G1 X140.654 Y140.404 E9.457
G1 X139.505 Y140.411 E9.47988
G1 X138.85 Y140.375 E9.49294
G1 X94.903 Y136.979 E10.37036
G1 X94.086 Y136.906 E10.38669
G1 X93.19 Y136.785 E10.40469
G1 X92.309 Y136.585 E10.42267
G1 X91.449 Y136.309 E10.44065
G1 X90.616 Y135.957 E10.45865
G1 X89.818 Y135.533 E10.47664
G1 X89.061 Y135.041 E10.49461
G1 X88.35 Y134.483 E10.5126
G1 X87.691 Y133.864 E10.5306
G1 X87.09 Y133.19 E10.54858
G1 X86.55 Y132.465 E10.56657
G1 X86.077 Y131.696 E10.58454
G1 X85.674 Y130.887 E10.60254
G1 X85.343 Y130.046 E10.62053
G1 X85.088 Y129.179 E10.63852
G1 X84.911 Y128.293 E10.6565
G1 X84.798 Y127.099 E10.68038
G1 X84.779 Y126.45 E10.6933
G1 X84.617 Y105.56 E11.10915
G1 X84.621 Y104.726 E11.12576
G1 X84.666 Y103.824 E11.14373
G1 X84.791 Y102.929 E11.16172
G1 X84.995 Y102.049 E11.1797
G1 X85.275 Y101.19 E11.19769
G1 X85.63 Y100.359 E11.21568
G1 X86.058 Y99.563 E11.23367
G1 X86.554 Y98.808 E11.25165
G1 X87.114 Y98.099 E11.26964
G1 X87.736 Y97.443 E11.28763
G1 X88.413 Y96.845 E11.30561
G1 F2700 E6.30561
;MESH:soporte_grande_test.stl
G0 F6000 X95.249 Y104.11
G0 X95.249 Y105.199
G0 X96.065 Y114.528
;TYPE:WALL-INNER
G1 F2700 E11.30561
G1 F996 X96.273 Y114.137 E11.31623
G1 F1285.7 X96.362 Y113.351 E11.33093
G1 F1194.3 X96.607 Y112.017 E11.35806
G1 F1200 X96.886 Y110.675 E11.38534
G1 X97.243 Y109.181 E11.41592
G1 X97.54 Y108.083 E11.43856
G1 X97.785 Y107.304 E11.45482
G1 X98.015 Y106.71 E11.4675
G1 X98.269 Y106.285 E11.47735
G1 X98.582 Y105.944 E11.48657
G1 X98.863 Y105.825 E11.49264
G1 X95.881 Y105.826 E11.552
G1 F1194.3 X95.941 Y113.32 E11.70189
G1 F1285.7 X95.916 Y114.111 E11.7166
G1 F996 X96.065 Y114.528 E11.72722
G0 F6000 X95.972 Y120.684
G0 X96.095 Y122.529
G0 X96.254 Y124.513
G1 F820.8 X96.121 Y124.168 E11.73798
G1 X96.132 Y125.682 E11.78204
G1 X97.25 Y125.768 E11.81467
G1 F961.8 X97.823 Y125.904 E11.82929
G1 X97.253 Y125.759 E11.8439
G1 F820.8 X96.93 Y125.486 E11.85621
G1 X96.676 Y125.208 E11.86717
G1 X96.45 Y124.884 E11.87866
G1 X96.254 Y124.513 E11.89087
G0 F6000 X96.023 Y121.901
G0 X95.708 Y105.655
G0 X95.458 Y105.406
G1 F1200 X95.549 Y116.919 E12.12006
G1 F1002 X95.634 Y117.338 E12.13025
G1 F906.5 X95.619 Y119.509 E12.18746
G1 F958.2 X95.636 Y121.637 E12.24052
G1 F908.1 X95.675 Y122.953 E12.27515
G1 F1004 X95.598 Y123.465 E12.28747
G1 F1200 X95.618 Y126.161 E12.34114
G1 X99.105 Y126.428 E12.41075
G1 F1002 X99.529 Y126.377 E12.42093
G1 F870.5 X100.049 Y126.426 E12.43527
G1 F881.1 X139.374 Y129.465 E13.50456
G1 X139.396 Y129.18 E13.51231
G1 X139.418 Y128.895 E13.52006
G1 X100.109 Y125.856 E14.58892
G1 F870.5 X99.59 Y125.795 E14.60326
G1 F1002 X99.186 Y125.657 E14.61344
G1 F1200 X97.879 Y125.481 E14.63969
G1 X97.573 Y125.352 E14.6463
G1 X97.309 Y125.134 E14.65312
G1 X97.055 Y124.852 E14.66067
G1 X96.912 Y124.642 E14.66573
G1 X96.743 Y124.331 E14.67277
G1 X96.559 Y123.862 E14.6828
G1 X96.428 Y123.383 E14.69269
G1 F1032.8 X96.279 Y122.959 E14.70308
G1 F884.2 X96.256 Y122.915 E14.70442
G1 F890.5 X96.198 Y122.288 E14.72132
G1 F938.5 X96.162 Y121.589 E14.73913
G1 F965.5 X96.142 Y120.671 E14.76185
G1 X96.145 Y119.487 E14.79114
G1 F933.3 X96.178 Y118.23 E14.82332
G1 F884.2 X96.22 Y117.355 E14.84699
G1 F1002 X96.332 Y116.954 E14.85691
G1 F1200 X96.441 Y115.837 E14.87925
G1 X96.582 Y114.699 E14.90208
G1 X96.782 Y113.399 E14.92826
G1 X97.015 Y112.118 E14.95418
G1 X97.295 Y110.773 E14.98153
G1 X97.648 Y109.291 E15.01186
G1 X97.953 Y108.166 E15.03506
G1 X98.199 Y107.394 E15.05119
G1 X98.392 Y106.897 E15.0618
G1 X98.629 Y106.501 E15.07099
G1 X98.798 Y106.317 E15.07596
G1 F1004 X99.124 Y106.066 E15.08575
G1 F866 X108.532 Y106.065 E15.34526
G1 F869 X108.532 Y105.485 E15.36121
G1 F863 X99.066 Y105.488 E15.62322
G1 F1000 X98.588 Y105.406 E15.6348
G1 F1200 X95.458 Y105.406 E15.69711
G1 F2700 E10.69711
G0 F6000 X95.708 Y105.655
G0 X98.254 Y106.021
G0 X98.392 Y106.358
G1 F2700 E15.69711
G0 F6000 X98.989 Y106.718
;TYPE:WALL-OUTER
G1 F1200 X99.203 Y106.569 E15.7023
G1 X109.032 Y106.565 E15.89796
G1 X109.032 Y104.985 E15.92941
G1 X95.034 Y104.986 E16.20806
G1 X95.201 Y126.55 E16.63733
G1 X139.831 Y129.999 E17.52839
G1 X139.891 Y129.218 E17.54398
G1 X139.952 Y128.439 E17.55953
G1 X100.175 Y125.364 E18.35371
G1 X97.935 Y125.065 E18.39869
G1 X97.641 Y124.871 E18.4057
G1 X97.411 Y124.626 E18.41239
G1 X97.247 Y124.385 E18.41819
G1 X97.114 Y124.134 E18.42385
G1 X96.964 Y123.749 E18.43207
G1 X96.841 Y123.304 E18.44126
G1 X96.755 Y122.853 E18.4504
G1 X96.681 Y122.255 E18.4624
G1 X96.635 Y121.576 E18.47595
G1 X96.611 Y120.674 E18.49391
G1 X96.618 Y119.505 E18.51718
G1 X96.664 Y118.263 E18.54192
G1 X96.75 Y116.995 E18.56722
G1 X96.858 Y115.889 E18.58934
G1 X96.997 Y114.763 E18.61192
G1 X97.196 Y113.474 E18.63789
G1 X97.43 Y112.188 E18.66391
G1 X97.704 Y110.87 E18.6907
G1 X98.054 Y109.401 E18.72076
G1 X98.353 Y108.293 E18.74361
G1 X98.591 Y107.546 E18.75922
G1 X98.767 Y107.094 E18.76887
G1 X98.989 Y106.718 E18.77756
G0 F6000 X98.392 Y106.358
G0 X97.99 Y107.324
G0 X97.833 Y107.868
G0 X96.065 Y114.528
;TYPE:WALL-INNER
G1 F826.2 X96.028 Y115.169 E18.79613
G1 F958.2 X95.99 Y115.811 E18.81216
G1 F1188.7 X95.942 Y116.917 E18.83441
G0 F6000 X95.997 Y121.61
G0 X96.221 Y123.459
G0 X96.527 Y124.388
G0 X96.873 Y124.963
G0 X97.823 Y125.904
G1 F1275.9 X99.135 Y126.041 E18.8591
G0 F6000 X97.622 Y125.665
G0 X96.912 Y125.027
G0 X96.527 Y124.388
G0 X96.221 Y123.459
G0 X95.997 Y121.61
G0 X96.026 Y118.234
G0 X96.364 Y114.68
G0 X97.008 Y111.131
G0 X98.186 Y106.247
;TYPE:SKIN
G1 F1200 X97.854 Y105.915 E18.86756
G0 F6000 X97.316 Y105.915
G1 F1200 X97.985 Y106.583 E18.88459
G0 F6000 X97.822 Y106.958
G1 F1200 X96.779 Y105.915 E18.91115
G0 F6000 X96.242 Y105.915
G1 F1200 X97.676 Y107.35 E18.94769
G0 F6000 X97.548 Y107.758
G1 F1200 X95.973 Y106.184 E18.98779
G0 F6000 X95.977 Y106.725
G1 F1200 X97.423 Y108.171 E19.02462
G0 F6000 X97.309 Y108.594
G1 F1200 X95.981 Y107.267 E19.05843
G0 F6000 X95.985 Y107.808
G1 F1200 X97.194 Y109.017 E19.08923
G0 F6000 X97.087 Y109.447
G1 F1200 X95.989 Y108.349 E19.11719
G0 F6000 X95.993 Y108.891
G1 F1200 X96.983 Y109.881 E19.14241
G0 F6000 X96.88 Y110.315
G1 F1200 X95.997 Y109.432 E19.1649
G0 F6000 X96.001 Y109.974
G1 F1200 X96.779 Y110.752 E19.18472
G0 F6000 X96.686 Y111.196
G1 F1200 X96.006 Y110.515 E19.20205
G0 F6000 X96.009 Y111.056
G1 F1200 X96.593 Y111.64 E19.21692
G0 F6000 X96.502 Y112.087
G1 F1200 X96.013 Y111.598 E19.22938
G0 F6000 X96.018 Y112.14
G1 F1200 X96.417 Y112.539 E19.23954
G0 F6000 X96.027 Y112.686
G1 F1200 X96.333 Y112.992 E19.24734
G0 F6000 X96.035 Y113.231
G1 F1200 X96.211 Y113.408 E19.25183
G0 F6000 X96.121 Y113.703
;MESH:NONMESH
G0 F300 X96.121 Y113.703 Z0.24
G0 F6000 X96.065 Y114.529
M117 Time Left 0h12m33s
;TIME_ELAPSED:57.447049
;LAYER:1
M106 S85
;TYPE:WALL-INNER
;MESH:soporte_grande_test.stl
G1 F1120.6 X96.273 Y114.138 E19.26245
G1 F1439.1 X96.367 Y113.311 E19.278
G1 F1337.3 X96.605 Y112.03 E19.30418
G1 F1350 X96.937 Y110.457 E19.33618
G1 X97.193 Y109.375 E19.35831
G1 X97.555 Y108.028 E19.38608
G1 X97.783 Y107.308 E19.40111
G1 X97.967 Y106.829 E19.41133
G1 X98.182 Y106.392 E19.42102
G1 X98.546 Y105.959 E19.43228
G1 X98.864 Y105.825 E19.43915
G1 X95.881 Y105.825 E19.49853
