;FLAVOR:Marlin
M117 Time Left 2h03m48s
;TIME:7428
;Filament used: 2.91298m
;Layer height: 0.12
;MINX:71.464
;MINY:71.461
;MINZ:0.12
;MAXX:163.536
;MAXY:163.539
;MAXZ:26.64
;POSTPROCESSED
;Generated with Cura_SteamEngine 5.2.1
M140 S60
M105
M190 S60
M104 S205
M105
M109 S205
M82 ;absolute extrusion mode
; Ender 3 Custom Start G-code
G92 E0 ; Reset Extruder
G28 ; Home all axes
G1 Z2.0 F3000 ; Move Z Axis up little to prevent scratching of Heat Bed
G1 X0.1 Y20 Z0.3 F5000.0 ; Move to start position
G1 X0.1 Y200.0 Z0.3 F1500.0 E15 ; Draw the first line
G1 X0.4 Y200.0 Z0.3 F5000.0 ; Move to side a little
G1 X0.4 Y20 Z0.3 F1500.0 E30 ; Draw the second line
G92 E0 ; Reset Extruder
G1 Z2.0 F3000 ; Move Z Axis up little to prevent scratching of Heat Bed
G1 X5 Y20 Z0.3 F5000.0 ; Move over to prevent blob squish
G92 E0
G92 E0
G1 F2700 E-5
;LAYER_COUNT:222
;LAYER:0
M107
M204 S500
M205 X12 Y12
G0 F6000 X85.096 Y84.795 Z0.12
;TYPE:SKIRT
G1 F2700 E0
G1 F1200 X86.221 Y83.717 E0.03102
G1 X86.503 Y83.457 E0.03865
G1 X87.374 Y82.684 E0.06183
G1 X88.546 Y81.705 E0.09223
G1 X88.834 Y81.473 E0.09959
G1 X89.779 Y80.741 E0.12339
G1 X90.088 Y80.511 E0.13106
G1 X91.361 Y79.6 E0.16222
G1 X92.299 Y78.969 E0.18472
G1 X92.624 Y78.759 E0.19242
G1 X93.99 Y77.915 E0.22439
G1 X94.983 Y77.341 E0.24722
G1 X95.319 Y77.155 E0.25486
G1 X96.691 Y76.431 E0.28574
G1 X97.743 Y75.915 E0.30907
G1 X98.093 Y75.751 E0.31676
G1 X99.205 Y75.253 E0.34102
G1 X100.591 Y74.679 E0.37088
G1 X100.944 Y74.541 E0.37842
G1 X102.429 Y73.997 E0.40991
G1 X103.893 Y73.517 E0.44058
G1 X105.033 Y73.18 E0.46424
G1 X106.527 Y72.787 E0.49499
G1 X106.895 Y72.698 E0.50253
G1 X108.407 Y72.367 E0.53334
G1 X109.979 Y72.078 E0.56516
G1 X111.449 Y71.86 E0.59474
G1 X113.058 Y71.675 E0.62698
G1 X114.204 Y71.578 E0.64987
G1 X115.738 Y71.494 E0.68045
G1 X117.307 Y71.461 E0.71169
G1 X117.693 Y71.461 E0.71938
G1 X119.263 Y71.494 E0.75064
G1 X120.794 Y71.578 E0.78116
G1 X122.314 Y71.713 E0.81154
G1 X123.913 Y71.909 E0.8436
G1 X125.021 Y72.078 E0.86591
G1 X126.593 Y72.367 E0.89773
G1 X128.105 Y72.698 E0.92854
G1 X128.48 Y72.788 E0.93622
G1 X129.615 Y73.083 E0.95956
G1 X131.101 Y73.516 E0.99037
G1 X131.465 Y73.63 E0.99797
G1 X132.579 Y74.001 E1.02134
G1 X134.048 Y74.538 E1.05247
G1 X134.398 Y74.674 E1.05995
G1 X135.807 Y75.257 E1.0903
G1 X137.257 Y75.915 E1.122
G1 X138.309 Y76.431 E1.14533
G1 X139.681 Y77.155 E1.17621
G1 X140.021 Y77.344 E1.18395
G1 X141.318 Y78.101 E1.21384
G1 X142.372 Y78.757 E1.23856
G1 X142.696 Y78.967 E1.24624
G1 X143.93 Y79.803 E1.27591
G1 X145.218 Y80.739 E1.30761
G1 X146.454 Y81.704 E1.33882
G1 X147.63 Y82.688 E1.36935
G1 X148.499 Y83.46 E1.39248
G1 X149.639 Y84.535 E1.42368
G1 X149.913 Y84.805 E1.43133
G1 X151.005 Y85.925 E1.46247
G1 X151.776 Y86.762 E1.48512
G1 X152.039 Y87.058 E1.49301
G1 X153.072 Y88.272 E1.52474
G1 X153.765 Y89.136 E1.54678
G1 X154.723 Y90.406 E1.57845
G1 X154.953 Y90.724 E1.58626
G1 X155.825 Y91.988 E1.61683
G1 X156.471 Y92.985 E1.64048
G1 X157.263 Y94.292 E1.6709
G1 X157.454 Y94.623 E1.67851
G1 X158.062 Y95.72 E1.70348
G1 X158.735 Y97.021 E1.73263
G1 X159.421 Y98.467 E1.76449
G1 X159.58 Y98.82 E1.7722
G1 X160.189 Y100.256 E1.80325
G1 X160.728 Y101.656 E1.83311
G1 X161.133 Y102.808 E1.85742
G1 X161.596 Y104.259 E1.88774
G1 X161.709 Y104.644 E1.89573
G1 X162.029 Y105.806 E1.91972
G1 X162.387 Y107.267 E1.94966
G1 X162.468 Y107.63 E1.95706
G1 X162.784 Y109.196 E1.98887
G1 X163.037 Y110.717 E2.01956
G1 X163.243 Y112.274 E2.05082
G1 X163.358 Y113.407 E2.07349
G1 X163.389 Y113.779 E2.08092
G1 X163.49 Y115.359 E2.11244
G1 X163.53 Y116.526 E2.13568
G1 X163.536 Y118.094 E2.1669
G1 X163.53 Y118.472 E2.17442
G1 X163.49 Y119.64 E2.19769
G1 X163.389 Y121.221 E2.22922
G1 X163.243 Y122.725 E2.2593
G1 X163.037 Y124.282 E2.29057
G1 X162.981 Y124.65 E2.29798
G1 X162.784 Y125.805 E2.3213
G1 X162.463 Y127.397 E2.35363
G1 X162.138 Y128.776 E2.38183
G1 X162.046 Y129.136 E2.38923
G1 X161.723 Y130.308 E2.41343
G1 X161.612 Y130.684 E2.42123
G1 X161.13 Y132.198 E2.45286
G1 X160.599 Y133.692 E2.48442
G1 X160.05 Y135.084 E2.51421
G1 X159.579 Y136.183 E2.53801
G1 X158.901 Y137.64 E2.57
G1 X158.235 Y138.956 E2.59936
G1 X157.452 Y140.38 E2.63171
G1 X156.674 Y141.687 E2.66199
G1 X155.834 Y142.998 E2.69298
G1 X155.617 Y143.322 E2.70074
G1 X154.727 Y144.588 E2.73155
G1 X153.774 Y145.853 E2.76308
G1 X153.082 Y146.718 E2.78513
G1 X152.027 Y147.955 E2.81749
G1 X151.016 Y149.064 E2.84736
G1 X149.908 Y150.2 E2.87895
G1 X149.639 Y150.465 E2.88647
G1 X148.773 Y151.288 E2.91025
G1 X147.646 Y152.298 E2.94038
G1 X146.455 Y153.295 E2.97129
G1 X145.219 Y154.26 E3.00251
G1 X144.914 Y154.488 E3.01009
G1 X143.636 Y155.402 E3.04137
G1 X142.699 Y156.032 E3.06384
G1 X141.326 Y156.895 E3.09612
G1 X140.014 Y157.66 E3.12636
G1 X139.686 Y157.842 E3.13382
G1 X138.309 Y158.569 E3.16482
G1 X137.257 Y159.085 E3.18814
G1 X135.803 Y159.744 E3.21992
G1 X134.405 Y160.323 E3.25004
G1 X134.049 Y160.462 E3.25765
G1 X132.575 Y161.001 E3.28889
G1 X131.459 Y161.372 E3.3123
G1 X129.969 Y161.819 E3.34327
G1 X129.601 Y161.921 E3.35087
G1 X128.113 Y162.3 E3.38144
G1 X126.964 Y162.557 E3.40488
G1 X125.396 Y162.858 E3.43666
G1 X125.023 Y162.921 E3.44419
G1 X123.55 Y163.14 E3.47383
G1 X121.942 Y163.325 E3.50605
G1 X120.797 Y163.422 E3.52893
G1 X119.261 Y163.506 E3.55955
G1 X117.693 Y163.539 E3.59077
G1 X117.307 Y163.539 E3.59845
G1 X115.739 Y163.506 E3.62967
G1 X114.204 Y163.422 E3.66027
G1 X113.058 Y163.325 E3.68317
G1 X111.449 Y163.14 E3.71541
G1 X109.977 Y162.921 E3.74503
G1 X109.606 Y162.858 E3.75252
G1 X108.408 Y162.633 E3.77679
G1 X106.904 Y162.305 E3.80743
G1 X106.518 Y162.212 E3.81533
G1 X105.033 Y161.82 E3.84591
G1 X103.893 Y161.483 E3.86957
G1 X102.422 Y161 E3.90039
G1 X100.947 Y160.46 E3.93166
G1 X99.539 Y159.891 E3.96189
G1 X99.189 Y159.741 E3.96947
G1 X97.75 Y159.088 E4.00093
G1 X96.698 Y158.573 E4.02424
G1 X95.319 Y157.845 E4.05528
G1 X94.984 Y157.659 E4.06291
G1 X93.674 Y156.895 E4.0931
G1 X92.301 Y156.032 E4.12538
G1 X91.364 Y155.402 E4.14786
G1 X90.084 Y154.486 E4.17919
G1 X89.781 Y154.26 E4.18671
G1 X88.838 Y153.53 E4.21045
G1 X87.637 Y152.541 E4.24142
G1 X87.353 Y152.297 E4.24887
G1 X86.227 Y151.288 E4.27897
G1 X85.36 Y150.464 E4.30278
G1 X85.091 Y150.199 E4.3103
G1 X83.994 Y149.075 E4.34156
G1 X83.223 Y148.238 E4.36422
G1 X82.96 Y147.942 E4.3721
G1 X81.927 Y146.728 E4.40383
G1 X81.001 Y145.563 E4.43345
G1 X80.049 Y144.278 E4.46529
G1 X79.173 Y143.008 E4.496
G1 X78.521 Y142.001 E4.51988
G1 X77.737 Y140.707 E4.55
G1 X76.941 Y139.285 E4.58244
G1 X76.765 Y138.956 E4.58986
G1 X76.263 Y137.975 E4.6118
G1 X75.577 Y136.529 E4.64366
G1 X75.42 Y136.178 E4.65131
G1 X74.814 Y134.75 E4.68219
G1 X74.272 Y133.344 E4.71219
G1 X73.867 Y132.192 E4.7365
G1 X73.403 Y130.736 E4.76692
G1 X73.293 Y130.361 E4.7747
G1 X72.877 Y128.831 E4.80626
G1 X72.53 Y127.365 E4.83625
G1 X72.216 Y125.804 E4.86794
G1 X71.963 Y124.283 E4.89864
G1 X71.757 Y122.725 E4.92992
G1 X71.611 Y121.22 E4.96002
G1 X71.51 Y119.64 E4.99154
G1 X71.47 Y118.473 E5.01478
G1 X71.464 Y116.907 E5.04595
G1 X71.47 Y116.529 E5.05348
G1 X71.51 Y115.36 E5.07676
G1 X71.611 Y113.78 E5.10828
G1 X71.757 Y112.276 E5.13836
G1 X71.963 Y110.717 E5.16966
G1 X72.019 Y110.352 E5.17701
G1 X72.283 Y108.837 E5.20762
G1 X72.534 Y107.61 E5.23256
G1 X72.618 Y107.234 E5.24022
G1 X72.954 Y105.865 E5.26828
G1 X73.386 Y104.322 E5.30018
G1 X73.752 Y103.155 E5.32453
G1 X73.871 Y102.798 E5.33202
G1 X74.401 Y101.308 E5.3635
G1 X74.952 Y99.912 E5.39337
G1 X75.574 Y98.477 E5.42451
G1 X76.095 Y97.366 E5.44893
G1 X76.263 Y97.024 E5.45652
G1 X76.939 Y95.716 E5.48583
G1 X77.549 Y94.617 E5.51085
G1 X77.743 Y94.284 E5.51852
G1 X78.524 Y92.996 E5.54851
G1 X79.382 Y91.68 E5.57978
G1 X80.055 Y90.714 E5.60321
G1 X80.27 Y90.417 E5.61051
G1 X81.225 Y89.148 E5.64213
G1 X81.916 Y88.284 E5.66415
G1 X82.164 Y87.985 E5.67188
G1 X82.969 Y87.048 E5.69647
G1 X83.983 Y85.936 E5.72643
G1 X84.243 Y85.662 E5.73395
G1 X85.096 Y84.795 E5.75816
G0 F6000 X85.396 Y85.09
G1 F1200 X86.511 Y84.021 E5.78891
G1 X86.782 Y83.772 E5.79624
G1 X87.922 Y82.768 E5.82647
G1 X89.091 Y81.805 E5.85662
G1 X90.333 Y80.851 E5.8878
G1 X91.316 Y80.143 E5.91191
G1 X92.534 Y79.318 E5.9412
G1 X92.846 Y79.116 E5.9486
G1 X94.2 Y78.279 E5.98028
G1 X95.193 Y77.705 E6.00312
G1 X95.516 Y77.526 E6.01047
G1 X96.876 Y76.808 E6.04108
G1 X98.264 Y76.134 E6.0718
G1 X99.376 Y75.636 E6.09605
G1 X100.75 Y75.067 E6.12565
G1 X101.09 Y74.934 E6.13292
G1 X102.218 Y74.516 E6.15687
G1 X103.675 Y74.026 E6.18747
G1 X104.013 Y73.92 E6.19452
G1 X105.498 Y73.487 E6.22531
G1 X106.632 Y73.193 E6.24863
G1 X108.134 Y72.852 E6.27929
G1 X109.681 Y72.555 E6.31065
G1 X110.042 Y72.494 E6.31793
G1 X111.499 Y72.277 E6.34726
G1 X112.736 Y72.13 E6.37206
G1 X114.239 Y71.997 E6.40209
G1 X115.759 Y71.914 E6.43239
G1 X117.314 Y71.881 E6.46335
G1 X117.686 Y71.881 E6.47076
G1 X119.242 Y71.914 E6.50174
G1 X120.759 Y71.997 E6.53198
G1 X122.264 Y72.13 E6.56206
G1 X123.501 Y72.277 E6.58686
G1 X124.958 Y72.494 E6.61618
G1 X125.319 Y72.555 E6.62347
G1 X126.516 Y72.78 E6.64771
G1 X128.014 Y73.108 E6.67824
G1 X128.374 Y73.195 E6.68561
G1 X129.843 Y73.582 E6.71585
G1 X130.982 Y73.918 E6.73949
G1 X131.333 Y74.029 E6.74682
G1 X132.774 Y74.514 E6.77708
G1 X133.902 Y74.931 E6.80102
G1 X135.303 Y75.498 E6.83111
G1 X135.635 Y75.64 E6.8383
G1 X137.072 Y76.292 E6.86971
G1 X138.124 Y76.808 E6.89303
G1 X139.484 Y77.526 E6.92365
G1 X139.811 Y77.707 E6.93109
G1 X140.803 Y78.281 E6.9539
G1 X142.15 Y79.113 E6.98542
G1 X143.398 Y79.944 E7.01526
G1 X144.67 Y80.854 E7.0464
G1 X144.961 Y81.071 E7.05362
G1 X146.186 Y82.027 E7.08456
G1 X147.08 Y82.769 E7.10768
G1 X148.22 Y83.774 E7.13794
G1 X149.35 Y84.84 E7.16886
G1 X150.464 Y85.966 E7.20039
G1 X151.467 Y87.047 E7.22974
G1 X151.721 Y87.332 E7.23734
G1 X152.524 Y88.269 E7.26191
G1 X153.437 Y89.399 E7.29083
G1 X154.387 Y90.658 E7.32222
G1 X154.608 Y90.964 E7.32974
G1 X155.472 Y92.217 E7.36003
G1 X156.311 Y93.522 E7.39092
G1 X156.903 Y94.508 E7.41381
G1 X157.694 Y95.924 E7.4461
G1 X158.361 Y97.213 E7.47499
G1 X159.041 Y98.645 E7.50654
G1 X159.194 Y98.985 E7.51397
G1 X159.665 Y100.085 E7.53779
G1 X160.207 Y101.461 E7.56723
G1 X160.331 Y101.795 E7.57432
G1 X160.847 Y103.28 E7.60561
G1 X161.195 Y104.385 E7.62867
G1 X161.304 Y104.756 E7.63637
G1 X161.71 Y106.249 E7.66717
G1 X162.057 Y107.714 E7.69714
G1 X162.37 Y109.266 E7.72866
G1 X162.621 Y110.773 E7.75907
G1 X162.825 Y112.317 E7.79007
G1 X162.97 Y113.807 E7.81987
G1 X163.07 Y115.374 E7.85113
G1 X163.11 Y116.541 E7.87437
G1 X163.116 Y118.094 E7.90529
G1 X163.07 Y119.626 E7.9358
G1 X162.97 Y121.192 E7.96703
G1 X162.825 Y122.682 E7.99683
G1 X162.782 Y123.042 E8.00405
G1 X162.567 Y124.579 E8.03494
G1 X162.304 Y126.086 E8.06539
G1 X162.052 Y127.313 E8.09033
G1 X161.73 Y128.678 E8.11825
G1 X161.318 Y130.196 E8.14956
G1 X161.211 Y130.558 E8.15707
G1 X160.734 Y132.059 E8.18842
G1 X160.333 Y133.201 E8.21252
G1 X160.207 Y133.539 E8.2197
G1 X159.664 Y134.918 E8.2492
G1 X159.193 Y136.017 E8.273
G1 X158.521 Y137.461 E8.30471
G1 X158.363 Y137.783 E8.31185
G1 X157.694 Y139.078 E8.34086
G1 X157.085 Y140.176 E8.36586
G1 X156.9 Y140.496 E8.37321
G1 X156.133 Y141.762 E8.40268
G1 X155.482 Y142.77 E8.42657
G1 X155.273 Y143.081 E8.43402
G1 X154.39 Y144.337 E8.46459
G1 X153.446 Y145.591 E8.49583
G1 X152.754 Y146.456 E8.51788
G1 X151.709 Y147.681 E8.54993
G1 X150.706 Y148.78 E8.57955
G1 X150.461 Y149.039 E8.58665
G1 X149.609 Y149.906 E8.61085
G1 X148.484 Y150.983 E8.64185
G1 X147.367 Y151.984 E8.67171
G1 X147.093 Y152.219 E8.67889
G1 X145.906 Y153.197 E8.70951
G1 X144.962 Y153.928 E8.73327
G1 X143.684 Y154.856 E8.76471
G1 X142.464 Y155.683 E8.79405
G1 X142.155 Y155.883 E8.80138
G1 X140.798 Y156.722 E8.83314
G1 X139.488 Y157.472 E8.86319
G1 X138.443 Y158.029 E8.88676
G1 X137.072 Y158.708 E8.91722
G1 X136.743 Y158.862 E8.92445
G1 X135.308 Y159.5 E8.95571
G1 X133.903 Y160.069 E8.98588
G1 X132.775 Y160.486 E9.00982
G1 X131.326 Y160.973 E9.04025
G1 X129.85 Y161.416 E9.07093
G1 X129.495 Y161.514 E9.07826
G1 X128.021 Y161.89 E9.10854
G1 X126.872 Y162.147 E9.13198
G1 X125.319 Y162.445 E9.16346
G1 X124.959 Y162.506 E9.17072
G1 X123.5 Y162.723 E9.20009
G1 X122.261 Y162.87 E9.22492
G1 X120.761 Y163.003 E9.2549
G1 X119.24 Y163.086 E9.28522
G1 X117.686 Y163.119 E9.31616
G1 X117.314 Y163.119 E9.32357
G1 X115.76 Y163.086 E9.35451
G1 X114.239 Y163.003 E9.38483
G1 X112.737 Y162.87 E9.41485
G1 X111.499 Y162.723 E9.43967
G1 X110.04 Y162.506 E9.46903
G1 X109.684 Y162.445 E9.47622
G1 X108.143 Y162.15 E9.50745
G1 X106.624 Y161.806 E9.53845
G1 X105.49 Y161.511 E9.56178
G1 X104.013 Y161.08 E9.59241
G1 X102.555 Y160.601 E9.62296
G1 X101.093 Y160.066 E9.65395
G1 X99.698 Y159.502 E9.6839
G1 X98.25 Y158.858 E9.71544
G1 X96.883 Y158.195 E9.74569
G1 X96.56 Y158.03 E9.75291
G1 X95.194 Y157.296 E9.78378
G1 X94.199 Y156.721 E9.80665
G1 X92.845 Y155.883 E9.83835
G1 X92.536 Y155.683 E9.84568
G1 X91.314 Y154.855 E9.87506
G1 X90.038 Y153.928 E9.90646
G1 X89.095 Y153.198 E9.9302
G1 X87.905 Y152.218 E9.96088
G1 X86.776 Y151.222 E9.99085
G1 X86.516 Y150.983 E9.99788
G1 X85.39 Y149.905 E10.02891
G1 X84.539 Y149.039 E10.05308
G1 X83.532 Y147.953 E10.08256
G1 X83.278 Y147.668 E10.09016
G1 X82.475 Y146.731 E10.11473
G1 X81.562 Y145.601 E10.14365
G1 X81.338 Y145.311 E10.15094
G1 X80.394 Y144.038 E10.18249
G1 X79.526 Y142.779 E10.21293
G1 X78.683 Y141.467 E10.24397
G1 X78.097 Y140.491 E10.26663
G1 X77.308 Y139.082 E10.29878
G1 X76.637 Y137.783 E10.32788
G1 X75.957 Y136.35 E10.35946
G1 X75.336 Y134.915 E10.39058
G1 X74.795 Y133.544 E10.41992
G1 X74.669 Y133.205 E10.42712
G1 X74.151 Y131.714 E10.45854
G1 X73.804 Y130.61 E10.48158
G1 X73.698 Y130.249 E10.48907
G1 X73.285 Y128.733 E10.52035
G1 X72.941 Y127.28 E10.55007
G1 X72.696 Y126.087 E10.57431
G1 X72.63 Y125.733 E10.58148
G1 X72.379 Y124.227 E10.61187
G1 X72.218 Y123.045 E10.63562
G1 X72.06 Y121.548 E10.66559
G1 X72.03 Y121.192 E10.6727
G1 X71.93 Y119.625 E10.70395
G1 X71.89 Y118.458 E10.7272
G1 X71.884 Y116.907 E10.75807
G1 X71.89 Y116.543 E10.76532
G1 X71.948 Y115.021 E10.79564
G1 X72.03 Y113.808 E10.81984
G1 X72.175 Y112.318 E10.84964
G1 X72.379 Y110.773 E10.88066
G1 X72.63 Y109.266 E10.91107
G1 X72.946 Y107.695 E10.94297
G1 X73.026 Y107.332 E10.95037
G1 X73.273 Y106.308 E10.97134
G1 X73.682 Y104.805 E11.00235
G1 X73.787 Y104.448 E11.00976
G1 X74.267 Y102.937 E11.04131
G1 X74.668 Y101.796 E11.06539
G1 X75.203 Y100.409 E11.09498
G1 X75.338 Y100.077 E11.10212
G1 X75.81 Y98.977 E11.12594
G1 X76.476 Y97.545 E11.15738
G1 X76.637 Y97.215 E11.16469
G1 X77.138 Y96.236 E11.18658
G1 X77.917 Y94.821 E11.21874
G1 X78.102 Y94.5 E11.22611
G1 X78.694 Y93.516 E11.24897
G1 X79.523 Y92.225 E11.27951
G1 X79.727 Y91.921 E11.2868
G1 X80.607 Y90.668 E11.31728
G1 X81.553 Y89.411 E11.3486
G1 X82.244 Y88.547 E11.37062
G1 X82.483 Y88.259 E11.37807
G1 X83.523 Y87.057 E11.40971
G1 X84.292 Y86.22 E11.43233
G1 X85.396 Y85.09 E11.46378
G0 F6000 X85.695 Y85.384
G1 F1200 X86.8 Y84.325 E11.49425
G1 X87.061 Y84.086 E11.50129
G1 X88.19 Y83.091 E11.53125
G1 X89.349 Y82.137 E11.56113
G1 X90.579 Y81.192 E11.59201
G1 X91.83 Y80.297 E11.62263
G1 X92.768 Y79.666 E11.64513
G1 X94.121 Y78.816 E11.67694
G1 X95.403 Y78.069 E11.70647
G1 X95.714 Y77.896 E11.71356
G1 X97.061 Y77.185 E11.74388
G1 X98.113 Y76.669 E11.7672
G1 X99.548 Y76.02 E11.79855
G1 X100.91 Y75.456 E11.8279
G1 X101.236 Y75.328 E11.83487
G1 X102.694 Y74.794 E11.86578
G1 X103.808 Y74.424 E11.88915
G1 X105.272 Y73.986 E11.91957
G1 X106.738 Y73.6 E11.94974
G1 X107.078 Y73.518 E11.9567
G1 X108.562 Y73.193 E11.98695
G1 X110.106 Y72.909 E12.0182
G1 X111.548 Y72.694 E12.04722
G1 X113.129 Y72.512 E12.0789
G1 X114.275 Y72.415 E12.10179
G1 X115.78 Y72.333 E12.13179
G1 X117.322 Y72.301 E12.1625
G1 X117.678 Y72.301 E12.16958
G1 X119.22 Y72.333 E12.20029
G1 X120.723 Y72.415 E12.23025
G1 X122.215 Y72.547 E12.26007
G1 X123.452 Y72.694 E12.28486
G1 X124.894 Y72.909 E12.31388
G1 X125.241 Y72.968 E12.32089
G1 X126.774 Y73.262 E12.35196
G1 X128.268 Y73.601 E12.38246
G1 X129.724 Y73.985 E12.41243
G1 X131.2 Y74.427 E12.4431
G1 X132.628 Y74.908 E12.4731
G1 X134.08 Y75.451 E12.50396
G1 X135.144 Y75.886 E12.52684
