;FLAVOR:Marlin
M117 Time Left 0h04m24s
;TIME:264
;Filament used: 0.249415m
;Layer height: 0.2
;MINX:93.286
;MINY:71.582
;MINZ:0.28
;MAXX:141.702
;MAXY:163.415
;MAXZ:2.08
;POSTPROCESSED
;Generated with Cura_SteamEngine 5.2.1
M140 S60
M105
M190 S60
M104 S205
M105
M109 S205
M82 ;absolute extrusion mode
; Ender 3 Custom Start G-code
G92 E0 ; Reset Extruder
G28 ; Home all axes
G1 Z2.0 F3000 ; Move Z Axis up little to prevent scratching of Heat Bed
G1 X0.1 Y20 Z0.3 F5000.0 ; Move to start position
G1 X0.1 Y200.0 Z0.3 F1500.0 E15 ; Draw the first line
G1 X0.4 Y200.0 Z0.3 F5000.0 ; Move to side a little
G1 X0.4 Y20 Z0.3 F1500.0 E30 ; Draw the second line
G92 E0 ; Reset Extruder
G1 Z2.0 F3000 ; Move Z Axis up little to prevent scratching of Heat Bed
G1 X5 Y20 Z0.3 F5000.0 ; Move over to prevent blob squish
G92 E0
G92 E0
G1 F2700 E-6
;LAYER_COUNT:10
;LAYER:0
M107
M204 S500
M205 X5 Y5
G0 F7500 X95.866 Y75.611 Z0.28
M205 X8 Y8
;TYPE:SKIRT
G1 F2700 E0
G1 F1500 X96.499 Y74.912 E0.04458
G1 X97.189 Y74.269 E0.08917
G1 X97.931 Y73.687 E0.13376
G1 X98.72 Y73.17 E0.17835
G1 X99.55 Y72.722 E0.22294
G1 X100.415 Y72.345 E0.26755
G1 X101.308 Y72.043 E0.31212
G1 X102.224 Y71.818 E0.35672
G1 X103.156 Y71.671 E0.40132
G1 X104.164 Y71.602 E0.44909
G1 X105.034 Y71.582 E0.49023
G1 X105.977 Y71.6 E0.53482
G1 X106.915 Y71.698 E0.57941
G1 X107.842 Y71.876 E0.62404
G1 X108.727 Y72.118 E0.66741
G1 X109.702 Y72.471 E0.71644
G1 X110.559 Y72.865 E0.76103
G1 X111.469 Y73.388 E0.81065
G1 X111.754 Y73.57 E0.82664
G1 X112.526 Y74.111 E0.87121
G1 X113.25 Y74.715 E0.91578
G1 X113.921 Y75.379 E0.96041
G1 X114.532 Y76.097 E1.00498
G1 X115.028 Y76.783 E1.045
G1 X115.205 Y77.049 E1.06011
G1 X115.694 Y77.856 E1.10472
G1 X116.112 Y78.701 E1.14929
G1 X116.342 Y79.259 E1.17782
G1 X117.413 Y82.076 E1.3203
G1 X118.373 Y84.395 E1.43896
G1 X119.39 Y86.667 E1.55665
G1 X120.497 Y88.963 E1.67715
G1 X121.637 Y91.165 E1.79438
G1 X122.861 Y93.378 E1.91394
G1 X124.146 Y95.548 E2.03317
G1 X125.486 Y97.676 E2.15206
G1 X126.803 Y99.644 E2.26402
G1 X127.55 Y100.731 E2.32637
G1 X128.051 Y101.53 E2.37096
G1 X128.491 Y102.388 E2.41655
G1 X128.743 Y102.936 E2.44506
G1 X129.888 Y105.334 E2.57069
G1 X131.027 Y107.554 E2.68866
G1 X132.231 Y109.745 E2.80685
G1 X133.499 Y111.907 E2.92535
G1 X134.851 Y114.069 E3.0459
G1 X136.222 Y116.131 E3.16297
G1 X137.675 Y118.186 E3.28195
G1 X139.396 Y120.481 E3.41757
G1 X139.929 Y121.259 E3.46216
G1 X140.395 Y122.079 E3.50675
G1 X140.789 Y122.936 E3.55134
G1 X141.12 Y123.839 E3.59681
G1 X141.403 Y124.855 E3.64667
G1 X141.578 Y125.782 E3.69127
G1 X141.683 Y126.91 E3.74483
G1 X141.702 Y127.359 E3.76608
G1 X141.702 Y128.302 E3.81066
G1 X141.622 Y129.242 E3.85526
G1 X141.463 Y130.171 E3.89982
G1 X141.225 Y131.084 E3.94443
G1 X140.911 Y131.973 E3.989
G1 X140.523 Y132.833 E4.03361
G1 X139.96 Y133.821 E4.08737
G1 X139.742 Y134.162 E4.1065
G1 X139.201 Y134.935 E4.15111
G1 X138.596 Y135.659 E4.19572
G1 X137.932 Y136.328 E4.24028
G1 X137.214 Y136.94 E4.28488
G1 X136.779 Y137.263 E4.3105
G1 X134.38 Y138.954 E4.44926
G1 X132.37 Y140.463 E4.56808
G1 X130.391 Y142.036 E4.6876
G1 X128.467 Y143.656 E4.80651
G1 X126.602 Y145.32 E4.92468
G1 X124.799 Y147.021 E5.04187
G1 X122.978 Y148.841 E5.16359
G1 X121.284 Y150.631 E5.2801
G1 X119.578 Y152.54 E5.40114
G1 X117.981 Y154.433 E5.51823
G1 X116.393 Y156.425 E5.63867
G1 X115.009 Y158.262 E5.74741
G1 X114.741 Y158.629 E5.76889
G1 X114.152 Y159.366 E5.81349
G1 X113.502 Y160.05 E5.8581
G1 X112.797 Y160.676 E5.90268
G1 X111.955 Y161.3 E5.95223
G1 X111.625 Y161.521 E5.971
G1 X110.82 Y162.012 E6.01558
G1 X109.976 Y162.433 E6.06017
G1 X109.1 Y162.781 E6.10473
G1 X108.197 Y163.054 E6.14933
G1 X107.274 Y163.249 E6.19393
G1 X106.338 Y163.365 E6.23852
G1 X105.646 Y163.4 E6.27128
G1 X104.857 Y163.415 E6.30859
G1 X104.276 Y163.413 E6.33606
G1 X103.334 Y163.36 E6.38066
G1 X102.401 Y163.227 E6.42522
G1 X101.481 Y163.016 E6.46984
G1 X100.583 Y162.727 E6.51444
G1 X99.713 Y162.364 E6.55901
G1 X98.877 Y161.928 E6.60359
G1 X98.08 Y161.422 E6.64822
G1 X97.329 Y160.852 E6.69279
G1 X96.63 Y160.219 E6.73738
G1 X95.986 Y159.53 E6.78196
G1 X95.403 Y158.788 E6.82658
G1 X94.885 Y158 E6.87116
G1 X94.435 Y157.171 E6.91575
G1 X94.058 Y156.307 E6.96032
G1 X93.755 Y155.414 E7.0049
G1 X93.528 Y154.498 E7.04952
G1 X93.381 Y153.566 E7.09413
G1 X93.309 Y152.52 E7.1437
G1 X93.287 Y151.461 E7.19377
G1 X93.286 Y83.213 E10.42035
G1 X93.296 Y82.555 E10.45146
G1 X93.351 Y81.613 E10.49607
G1 X93.484 Y80.68 E10.54063
G1 X93.697 Y79.761 E10.58523
G1 X93.986 Y78.863 E10.62983
G1 X94.351 Y77.993 E10.67443
G1 X94.788 Y77.157 E10.71903
G1 X95.294 Y76.361 E10.76362
G1 X95.866 Y75.611 E10.80821
M205 X5 Y5
G0 F7500 X96.309 Y75.783
M205 X8 Y8
G1 F1500 X96.94 Y75.108 E10.8519
G1 X97.626 Y74.49 E10.89555
G1 X98.364 Y73.933 E10.93926
G1 X99.146 Y73.443 E10.98289
G1 X99.969 Y73.021 E11.02662
G1 X100.824 Y72.673 E11.07026
G1 X101.707 Y72.4 E11.11396
G1 X102.61 Y72.204 E11.15764
G1 X103.526 Y72.086 E11.2013
G1 X104.175 Y72.052 E11.23203
G1 X105.045 Y72.032 E11.27317
G1 X105.968 Y72.051 E11.31682
G1 X106.887 Y72.149 E11.36051
G1 X107.794 Y72.327 E11.40421
G1 X108.597 Y72.55 E11.44361
G1 X109.549 Y72.894 E11.49147
G1 X110.387 Y73.283 E11.53514
G1 X111.226 Y73.767 E11.58094
G1 X111.511 Y73.949 E11.59692
G1 X112.268 Y74.48 E11.64064
G1 X112.976 Y75.073 E11.6843
G1 X113.629 Y75.726 E11.72796
G1 X114.224 Y76.433 E11.77165
G1 X114.653 Y77.032 E11.80648
G1 X114.83 Y77.298 E11.82159
G1 X115.308 Y78.089 E11.86528
G1 X115.716 Y78.918 E11.90896
G1 X115.921 Y79.419 E11.93456
G1 X116.991 Y82.235 E12.07697
G1 X117.956 Y84.565 E12.1962
G1 X118.989 Y86.873 E12.31575
G1 X120.08 Y89.136 E12.43452
G1 X121.254 Y91.403 E12.55522
G1 X122.469 Y93.599 E12.67387
G1 X123.763 Y95.786 E12.79401
G1 X125.1 Y97.908 E12.91258
G1 X126.408 Y99.863 E13.02379
G1 X127.18 Y100.986 E13.08822
G1 X127.669 Y101.769 E13.13186
G1 X128.083 Y102.576 E13.17474
G1 X128.356 Y103.171 E13.20569
G1 X129.478 Y105.518 E13.32868
G1 X130.628 Y107.76 E13.44781
G1 X131.852 Y109.989 E13.56803
G1 X133.125 Y112.158 E13.68693
G1 X134.447 Y114.274 E13.80489
G1 X135.86 Y116.399 E13.92553
G1 X137.316 Y118.457 E14.04472
G1 X139.036 Y120.751 E14.18027
G1 X139.558 Y121.514 E14.22398
G1 X140.011 Y122.318 E14.26761
G1 X140.394 Y123.159 E14.3113
G1 X140.694 Y123.984 E14.3528
G1 X140.969 Y124.976 E14.40147
G1 X141.138 Y125.884 E14.44513
G1 X141.233 Y126.929 E14.49474
G1 X141.252 Y127.378 E14.51599
G1 X141.252 Y128.302 E14.55967
G1 X141.171 Y129.222 E14.60333
G1 X141.011 Y130.132 E14.64702
G1 X140.772 Y131.025 E14.69072
G1 X140.458 Y131.893 E14.73436
G1 X140.07 Y132.732 E14.77806
G1 X139.581 Y133.579 E14.8243
G1 X139.363 Y133.92 E14.84343
G1 X138.832 Y134.676 E14.88711
G1 X138.238 Y135.383 E14.93077
G1 X137.585 Y136.037 E14.97446
G1 X136.519 Y136.895 E15.03915
G1 X134.131 Y138.578 E15.17727
G1 X132.078 Y140.119 E15.29863
G1 X130.123 Y141.673 E15.4167
G1 X128.196 Y143.296 E15.53581
G1 X126.275 Y145.01 E15.65753
G1 X124.454 Y146.728 E15.77589
G1 X122.687 Y148.495 E15.89403
G1 X120.94 Y150.34 E16.01416
G1 X119.253 Y152.228 E16.13386
G1 X117.619 Y154.164 E16.25363
G1 X116.065 Y156.114 E16.37151
G1 X114.611 Y158.044 E16.48575
G1 X114.378 Y158.363 E16.50443
G1 X113.8 Y159.084 E16.54812
G1 X113.162 Y159.753 E16.59182
G1 X112.469 Y160.363 E16.63547
G1 X111.705 Y160.926 E16.68034
G1 X111.375 Y161.147 E16.69912
G1 X110.586 Y161.627 E16.74278
G1 X109.758 Y162.037 E16.78646
G1 X108.898 Y162.375 E16.83015
G1 X108.012 Y162.636 E16.87381
G1 X107.106 Y162.82 E16.91752
G1 X106.189 Y162.925 E16.96116
G1 X105.638 Y162.95 E16.98723
G1 X104.849 Y162.965 E17.02454
G1 X104.282 Y162.963 E17.05135
G1 X103.36 Y162.91 E17.09501
G1 X102.446 Y162.778 E17.13867
G1 X101.546 Y162.567 E17.18237
G1 X100.668 Y162.278 E17.22607
G1 X99.819 Y161.916 E17.26971
G1 X99.003 Y161.481 E17.31342
G1 X98.229 Y160.977 E17.35709
G1 X97.501 Y160.408 E17.40077
G1 X96.825 Y159.778 E17.44446
G1 X96.206 Y159.092 E17.48815
G1 X95.648 Y158.356 E17.53181
G1 X95.157 Y157.573 E17.57551
G1 X94.735 Y156.752 E17.61915
G1 X94.385 Y155.896 E17.66287
G1 X94.111 Y155.014 E17.70653
G1 X93.914 Y154.112 E17.75018
G1 X93.796 Y153.195 E17.79389
G1 X93.759 Y152.511 E17.82628
G1 X93.737 Y151.452 E17.87636
G1 X93.736 Y83.22 E21.10217
G1 X93.746 Y82.562 E21.13329
G1 X93.8 Y81.639 E21.177
G1 X93.934 Y80.725 E21.22067
G1 X94.146 Y79.826 E21.26434
G1 X94.435 Y78.949 E21.30799
G1 X94.799 Y78.099 E21.35171
G1 X95.235 Y77.285 E21.39536
G1 X95.739 Y76.511 E21.43903
G1 X96.309 Y75.783 E21.48274
M205 X5 Y5
G0 F7500 X96.752 Y75.96
M205 X8 Y8
G1 F1500 X97.38 Y75.309 E21.52551
G1 X98.062 Y74.716 E21.56823
G1 X98.795 Y74.185 E21.61103
G1 X99.571 Y73.722 E21.65375
G1 X100.385 Y73.329 E21.69648
G1 X101.231 Y73.009 E21.73924
G1 X102.102 Y72.765 E21.78201
G1 X102.991 Y72.599 E21.82476
G1 X104.185 Y72.502 E21.8814
G1 X105.055 Y72.482 E21.92254
G1 X105.959 Y72.501 E21.96529
G1 X106.858 Y72.6 E22.00805
G1 X107.744 Y72.778 E22.05077
G1 X108.545 Y73.009 E22.09018
G1 X109.395 Y73.318 E22.13294
G1 X110.214 Y73.701 E22.17569
G1 X110.984 Y74.146 E22.21773
G1 X111.269 Y74.328 E22.23372
G1 X112.009 Y74.848 E22.27648
G1 X112.7 Y75.431 E22.31922
G1 X113.337 Y76.073 E22.36198
G1 X113.914 Y76.769 E22.40472
G1 X114.279 Y77.282 E22.43449
G1 X114.456 Y77.548 E22.44959
G1 X114.923 Y78.322 E22.49233
G1 X115.32 Y79.134 E22.53506
G1 X115.501 Y79.579 E22.55777
G1 X116.571 Y82.394 E22.70015
G1 X117.545 Y84.748 E22.82059
G1 X118.59 Y87.08 E22.9414
G1 X119.684 Y89.351 E23.06058
G1 X120.855 Y91.612 E23.18096
G1 X122.068 Y93.805 E23.29944
G1 X123.375 Y96.013 E23.42075
G1 X124.732 Y98.165 E23.54102
G1 X126.009 Y100.076 E23.64969
G1 X126.809 Y101.24 E23.71646
G1 X127.287 Y102.008 E23.75923
G1 X127.674 Y102.764 E23.79938
G1 X127.969 Y103.406 E23.83278
G1 X129.066 Y105.702 E23.95309
G1 X130.235 Y107.982 E24.07422
G1 X131.449 Y110.192 E24.19343
G1 X132.725 Y112.367 E24.31265
G1 X134.087 Y114.545 E24.43409
G1 X135.482 Y116.642 E24.55316
G1 X136.958 Y118.729 E24.67401
G1 X138.676 Y121.021 E24.80944
G1 X139.186 Y121.768 E24.8522
G1 X139.628 Y122.557 E24.89495
G1 X139.998 Y123.381 E24.93766
G1 X140.267 Y124.127 E24.97515
G1 X140.535 Y125.096 E25.02268
G1 X140.697 Y125.985 E25.0654
G1 X140.784 Y126.948 E25.11112
G1 X140.803 Y127.397 E25.13236
G1 X140.801 Y128.301 E25.1751
G1 X140.719 Y129.201 E25.21783
G1 X140.559 Y130.091 E25.26058
G1 X140.32 Y130.963 E25.30332
G1 X140.005 Y131.811 E25.34609
G1 X139.616 Y132.627 E25.38883
G1 X139.202 Y133.337 E25.42769
G1 X138.984 Y133.678 E25.44682
G1 X138.464 Y134.417 E25.48954
G1 X137.88 Y135.108 E25.53231
G1 X137.238 Y135.744 E25.57504
G1 X136.26 Y136.527 E25.63427
G1 X133.867 Y138.214 E25.77269
G1 X131.809 Y139.758 E25.89432
G1 X129.834 Y141.328 E26.0136
G1 X127.888 Y142.967 E26.13389
G1 X125.985 Y144.665 E26.25447
G1 X124.145 Y146.4 E26.37403
G1 X122.36 Y148.185 E26.49337
G1 X120.596 Y150.049 E26.61471
G1 X118.925 Y151.919 E26.73327
G1 X117.275 Y153.874 E26.85421
G1 X115.69 Y155.862 E26.97442
G1 X114.014 Y158.097 E27.10649
G1 X113.448 Y158.802 E27.14923
G1 X112.822 Y159.455 E27.192
G1 X112.141 Y160.049 E27.23472
G1 X111.455 Y160.552 E27.27494
G1 X111.125 Y160.773 E27.29371
G1 X110.352 Y161.242 E27.33646
G1 X109.541 Y161.642 E27.37921
G1 X108.697 Y161.968 E27.42199
G1 X107.828 Y162.218 E27.46474
G1 X106.941 Y162.391 E27.50746
G1 X105.629 Y162.5 E27.5697
G1 X104.84 Y162.515 E27.60701
G1 X104.289 Y162.513 E27.63306
G1 X103.386 Y162.46 E27.67583
G1 X102.491 Y162.328 E27.7186
G1 X101.612 Y162.117 E27.76134
G1 X100.755 Y161.83 E27.80406
G1 X99.926 Y161.468 E27.84683
G1 X99.133 Y161.034 E27.88957
G1 X98.381 Y160.532 E27.93231
G1 X97.677 Y159.965 E27.97505
G1 X97.025 Y159.338 E28.01782
G1 X96.431 Y158.656 E28.06057
G1 X95.9 Y157.924 E28.10333
G1 X95.436 Y157.148 E28.14607
G1 X95.041 Y156.335 E28.18881
G1 X94.721 Y155.489 E28.23157
G1 X94.476 Y154.619 E28.2743
G1 X94.309 Y153.73 E28.31706
G1 X94.209 Y152.501 E28.37536
G1 X94.187 Y151.442 E28.42544
G1 X94.186 Y83.227 E31.65045
G1 X94.196 Y82.569 E31.68156
G1 X94.25 Y81.666 E31.72433
G1 X94.383 Y80.772 E31.76706
G1 X94.595 Y79.893 E31.80981
G1 X94.883 Y79.036 E31.85255
G1 X95.247 Y78.208 E31.89531
G1 X95.681 Y77.415 E31.93805
G1 X96.185 Y76.664 E31.98081
G1 X96.752 Y75.96 E32.02355
M205 X5 Y5
G1 F2700 E26.02355
;MESH:prueba001.stl
G0 F7500 X103.745 Y83.141
G0 X104.849 Y83.141
G0 X105.285 Y130.502
G1 F2700 E32.02355
G0 F7500 X105.254 Y130.754
M205 X8 Y8
;TYPE:WALL-INNER
G1 F1166.4 X105.516 Y130.334 E32.05699
G1 F1500 X105.686 Y129.9 E32.08147
G1 X105.933 Y129.466 E32.1077
G1 X106.178 Y129.126 E32.12972
G1 X106.416 Y128.859 E32.14851
G1 X106.801 Y128.513 E32.1757
G1 X107.178 Y128.251 E32.19981
G1 X107.516 Y128.065 E32.22008
G1 X107.968 Y127.88 E32.24574
G1 X108.41 Y127.761 E32.26978
G1 F1503 X108.752 Y127.708 E32.28792
G1 F1530.6 X109.148 Y127.69 E32.30833
G1 F1716.2 X110.49 Y127.735 E32.36998
G1 F1344.1 X110.938 Y127.569 E32.39799
G1 X110.515 Y127.345 E32.42605
G1 F1685.4 X108.665 Y127.155 E32.51299
G1 F1503 X108.217 Y126.933 E32.53921
G1 F1500 X107.647 Y126.427 E32.57924
G1 X107.365 Y125.856 E32.6127
G1 X107.183 Y125.343 E32.64129
G1 X107.075 Y124.879 E32.66632
G1 X106.997 Y124.369 E32.69342
G1 X106.936 Y123.727 E32.72729
G1 X106.898 Y122.913 E32.7701
G1 X106.888 Y121.763 E32.83051
G1 X106.914 Y120.604 E32.89141
G1 X106.975 Y119.426 E32.95337
G1 X107.069 Y118.242 E33.01577
G1 X107.21 Y116.941 E33.08451
G1 X107.394 Y115.642 E33.15343
G1 X107.61 Y114.365 E33.22146
G1 X107.869 Y113.056 E33.29156
G1 X108.207 Y111.556 E33.37233
G1 X108.479 Y110.473 E33.43098
G1 X108.715 Y109.646 E33.47616
G1 X108.92 Y109.015 E33.51101
G1 X109.089 Y108.568 E33.53612
G1 X109.308 Y108.16 E33.56044
G1 X109.552 Y107.895 E33.57936
G1 F1356.2 X110.037 Y107.508 E33.61541
G1 F1297.6 X109.732 Y107.435 E33.63446
G1 F1428.6 X109.34 Y107.411 E33.65612
G1 F1500 X109.158 Y107.41 E33.66568
G1 X108.75 Y107.383 E33.68716
G1 X108.378 Y107.32 E33.70698
G1 X107.949 Y107.2 E33.73038
G1 X107.491 Y107.012 E33.75638
G1 X107.116 Y106.799 E33.77904
G1 X106.755 Y106.541 E33.80235
G1 X106.435 Y106.25 E33.82507
G1 X106.141 Y105.917 E33.8484
G1 X105.88 Y105.541 E33.87245
G1 X105.685 Y105.18 E33.894
G1 X105.511 Y104.753 E33.91822
G1 F1168.2 X105.252 Y104.332 E33.95156
G1 X105.111 Y104.807 E33.98498
G1 F1500 X105.11 Y130.278 E35.32298
G1 F1166.4 X105.254 Y130.754 E35.35657
M205 X5 Y5
G1 F2700 E29.35657
G0 F7500 X105.285 Y130.502
G0 X105.762 Y129.344
G0 X106.68 Y128.34
G0 X107.912 Y127.677
G0 X109.163 Y127.45
G0 X108.204 Y127.162
G0 X107.388 Y126.387
G0 X106.867 Y124.91
G0 X106.655 Y122.907
G0 X106.902 Y118.264
G0 X107.238 Y115.585
G0 X107.707 Y113.027
G0 X108.563 Y109.581
G0 X108.897 Y108.644
G0 X109.397 Y107.733
G1 F2700 E35.35657
G0 F7500 X109.755 Y108.082
M205 X8 Y8
;TYPE:WALL-OUTER
G1 F1500 X109.903 Y107.979 E35.3651
G1 X110.156 Y107.885 E35.37786
G1 X117.81 Y107.883 E35.73972
G1 X117.957 Y107.825 E35.74719
G1 X118.072 Y107.648 E35.75717
G1 X118.084 Y107.398 E35.769
G1 X117.958 Y107.195 E35.7803
G1 X117.809 Y107.136 E35.78787
G1 X109.173 Y107.135 E36.19616
G1 X108.83 Y107.115 E36.2124
G1 X108.434 Y107.051 E36.23137
G1 X108.03 Y106.937 E36.25121
G1 X107.672 Y106.794 E36.26944
G1 X107.273 Y106.573 E36.291
G1 X106.978 Y106.367 E36.30801
G1 X106.672 Y106.098 E36.32727
G1 X106.397 Y105.798 E36.34651
G1 X106.12 Y105.407 E36.36917
G1 X105.939 Y105.074 E36.38709
G1 X105.776 Y104.679 E36.40729
G1 X105.664 Y104.266 E36.42752
G1 X105.604 Y103.881 E36.44594
G1 X105.586 Y103.569 E36.46072
G1 X105.585 Y83.464 E37.41122
G1 X105.466 Y83.246 E37.42297
G1 X105.246 Y83.127 E37.43479
G1 X104.836 Y83.127 E37.45418
G1 X104.836 Y151.873 E40.70429
G1 X105.248 Y151.873 E40.72377
G1 X105.466 Y151.755 E40.73549
G1 X105.585 Y151.536 E40.74728
G1 X105.585 Y131.543 E41.69249
G1 X105.609 Y131.165 E41.71039
G1 X105.666 Y130.822 E41.72683
G1 X105.78 Y130.409 E41.74709
G1 X105.926 Y130.042 E41.76576
G1 X106.135 Y129.661 E41.78631
G1 X106.383 Y129.309 E41.80666
G1 X106.621 Y129.043 E41.82354
G1 X106.96 Y128.737 E41.84513
G1 X107.311 Y128.492 E41.86537
G1 X107.631 Y128.315 E41.88266
G1 X108.021 Y128.152 E41.90264
G1 X108.454 Y128.033 E41.92387
