;FLAVOR:Marlin
M117 Time Left 0h26m56s
;TIME:1616
;Filament used: 0.507818m
;Layer height: 0.12
;MINX:50.201
;MINY:93.95
;MINZ:0.12
;MAXX:184.805
;MAXY:141.06
;MAXZ:9.36
;POSTPROCESSED
;Generated with Cura_SteamEngine 5.2.1
M140 S60
M105
M190 S60
M104 S205
M105
M109 S205
M82 ;absolute extrusion mode
; Ender 3 Custom Start G-code
G92 E0 ; Reset Extruder
G28 ; Home all axes
G1 Z2.0 F3000 ; Move Z Axis up little to prevent scratching of Heat Bed
G1 X0.1 Y20 Z0.3 F5000.0 ; Move to start position
G1 X0.1 Y200.0 Z0.3 F1500.0 E15 ; Draw the first line
G1 X0.4 Y200.0 Z0.3 F5000.0 ; Move to side a little
G1 X0.4 Y20 Z0.3 F1500.0 E30 ; Draw the second line
G92 E0 ; Reset Extruder
G1 Z2.0 F3000 ; Move Z Axis up little to prevent scratching of Heat Bed
G1 X5 Y20 Z0.3 F5000.0 ; Move over to prevent blob squish
G92 E0
G92 E0
G1 F2700 E-5
;LAYER_COUNT:78
;LAYER:0
M107
M204 S500
M205 X12 Y12
G0 F6000 X62.908 Y103.066 Z0.12
;TYPE:SKIRT
G1 F2700 E0
G1 F1200 X63.727 Y102.605 E0.01871
G1 X64.582 Y102.215 E0.03742
G1 X65.477 Y101.896 E0.05633
G1 X65.756 Y101.81 E0.06214
G1 X66.665 Y101.572 E0.08085
G1 X67.592 Y101.412 E0.09957
G1 X68.842 Y101.321 E0.12452
G1 X69.432 Y101.312 E0.13627
G1 X73.573 Y101.312 E0.2187
G1 X74.274 Y101.322 E0.23265
G1 X75.212 Y101.375 E0.25135
G1 X76.138 Y101.508 E0.26998
G1 X77.856 Y101.835 E0.30479
G1 X80.315 Y102.258 E0.35446
G1 X82.811 Y102.614 E0.40465
G1 X85.309 Y102.899 E0.4547
G1 X87.828 Y103.114 E0.50502
G1 X90.312 Y103.256 E0.55455
G1 X92.859 Y103.328 E0.60527
G1 X95.356 Y103.329 E0.65498
G1 X97.869 Y103.26 E0.70502
G1 X100.42 Y103.116 E0.75588
G1 X102.878 Y102.908 E0.80499
G1 X105.397 Y102.623 E0.85545
G1 X107.877 Y102.27 E0.90531
G1 X110.424 Y101.834 E0.95675
G1 X112.027 Y101.523 E0.98926
G1 X112.956 Y101.383 E1.00796
G1 X113.821 Y101.324 E1.02522
G1 X114.452 Y101.311 E1.03778
G1 X116.252 Y101.311 E1.07361
G1 X118.857 Y101.274 E1.12547
G1 X121.374 Y101.167 E1.17562
G1 X123.872 Y100.99 E1.22547
G1 X126.359 Y100.744 E1.27522
G1 X128.891 Y100.42 E1.32603
G1 X131.348 Y100.034 E1.37554
G1 X133.829 Y99.572 E1.42578
G1 X136.297 Y99.041 E1.47603
G1 X138.721 Y98.447 E1.52571
G1 X141.16 Y97.776 E1.57607
G1 X143.581 Y97.035 E1.62647
G1 X145.949 Y96.236 E1.67622
G1 X148.298 Y95.37 E1.72605
G1 X149.652 Y94.83 E1.75507
G1 X150.184 Y94.631 E1.76638
G1 X151.079 Y94.344 E1.78509
G1 X151.995 Y94.134 E1.80379
G1 X152.926 Y94.003 E1.82251
G1 X154.038 Y93.95 E1.84467
G1 X154.7 Y93.958 E1.85785
G1 X171.959 Y94.572 E2.20163
G1 X172.631 Y94.606 E2.21502
G1 X173.567 Y94.694 E2.23373
G1 X174.777 Y94.928 E2.25827
G1 X175.736 Y95.192 E2.27807
G1 X177.105 Y95.711 E2.30721
G1 X178.365 Y96.368 E2.3355
G1 X178.587 Y96.501 E2.34065
G1 X179.372 Y97.018 E2.35936
G1 X179.836 Y97.371 E2.37097
G1 X180.046 Y97.54 E2.37633
G1 X180.752 Y98.16 E2.39504
G1 X181.155 Y98.566 E2.40642
G1 X181.389 Y98.814 E2.41321
G1 X182.005 Y99.524 E2.43192
G1 X182.58 Y100.318 E2.45144
G1 X182.719 Y100.529 E2.45647
G1 X183.39 Y101.697 E2.48328
G1 X183.519 Y101.957 E2.48906
G1 X183.9 Y102.816 E2.50776
G1 X184.183 Y103.614 E2.52462
G1 X184.442 Y104.517 E2.54332
G1 X184.615 Y105.358 E2.56041
G1 X184.749 Y106.288 E2.57911
G1 X184.805 Y107.541 E2.60408
G1 X184.789 Y108.839 E2.62992
G1 X184.744 Y109.918 E2.65142
G1 X184.658 Y110.854 E2.67013
G1 X184.392 Y112.197 E2.69738
G1 X184.29 Y112.584 E2.70535
G1 X184.012 Y113.482 E2.72406
G1 X183.748 Y114.152 E2.7384
G1 X183.63 Y114.425 E2.74432
G1 X183.221 Y115.271 E2.76302
G1 X182.818 Y115.965 E2.779
G1 X182.298 Y116.748 E2.79771
G1 X181.931 Y117.224 E2.80967
G1 X181.738 Y117.461 E2.81576
G1 X181.114 Y118.164 E2.83447
G1 X180.655 Y118.612 E2.84724
G1 X180.453 Y118.798 E2.8527
G1 X179.735 Y119.405 E2.87142
G1 X179.241 Y119.766 E2.8836
G1 X178.993 Y119.937 E2.8896
G1 X178.197 Y120.437 E2.90831
G1 X177.563 Y120.772 E2.92258
G1 X177.066 Y121.011 E2.93356
G1 X174.508 Y122.178 E2.98953
G1 X172.236 Y123.297 E3.03994
G1 X170.049 Y124.451 E3.08917
G1 X167.83 Y125.704 E3.13989
G1 X165.691 Y126.992 E3.1896
G1 X163.56 Y128.359 E3.24
G1 X161.468 Y129.786 E3.2904
G1 X159.986 Y130.851 E3.32673
G1 X158.313 Y132.072 E3.36796
G1 X156.248 Y133.604 E3.41915
G1 X154.271 Y135.159 E3.46922
G1 X152.325 Y136.782 E3.51966
G1 X150.543 Y138.34 E3.56678
G1 X149.808 Y138.926 E3.58549
G1 X149.025 Y139.447 E3.60421
G1 X148.202 Y139.9 E3.62291
G1 X147.342 Y140.282 E3.64164
G1 X146.454 Y140.589 E3.66035
G1 X145.543 Y140.819 E3.67905
G1 X144.615 Y140.971 E3.69777
G1 X143.452 Y141.049 E3.72097
G1 X142.685 Y141.06 E3.73624
G1 X139.176 Y141.06 E3.80609
G1 X137.924 Y141.036 E3.83102
G1 X134.272 Y140.857 E3.9038
G1 X133.389 Y140.801 E3.92142
G1 X132.454 Y140.7 E3.94014
G1 X131.531 Y140.521 E3.95885
G1 X130.923 Y140.357 E3.97139
G1 X130.253 Y140.144 E3.98538
G1 X127.731 Y139.262 E4.03857
G1 X125.334 Y138.498 E4.08865
G1 X122.932 Y137.806 E4.13841
G1 X120.465 Y137.172 E4.18911
G1 X118.049 Y136.621 E4.23844
G1 X115.566 Y136.13 E4.28882
G1 X113.062 Y135.707 E4.33938
G1 X110.616 Y135.364 E4.38854
G1 X108.084 Y135.083 E4.43925
G1 X105.583 Y134.878 E4.48921
G1 X103.103 Y134.743 E4.53865
G1 X99.4 Y134.669 E4.61237
G1 X62.431 Y134.668 E5.34829
G1 X61.728 Y134.658 E5.36228
G1 X60.789 Y134.605 E5.381
G1 X59.859 Y134.472 E5.3997
G1 X58.943 Y134.26 E5.41842
G1 X58.166 Y134.017 E5.43463
G1 X57.287 Y133.682 E5.45335
G1 X56.441 Y133.274 E5.47205
G1 X55.632 Y132.795 E5.49076
G1 X54.952 Y132.317 E5.50731
G1 X54.218 Y131.73 E5.52602
G1 X53.537 Y131.082 E5.54473
G1 X52.913 Y130.379 E5.56344
G1 X52.19 Y129.382 E5.58796
G1 X51.999 Y129.085 E5.59499
G1 X51.525 Y128.273 E5.6137
G1 X51.121 Y127.425 E5.6324
G1 X50.791 Y126.544 E5.65113
G1 X50.49 Y125.459 E5.67354
G1 X50.301 Y124.423 E5.69451
G1 X50.211 Y123.488 E5.7132
G1 X50.201 Y122.548 E5.73192
G1 X50.247 Y121.822 E5.7464
G1 X50.29 Y121.382 E5.7552
G1 X50.422 Y120.451 E5.77392
G1 X50.631 Y119.535 E5.79262
G1 X50.838 Y118.867 E5.80654
G1 X50.95 Y118.541 E5.8134
G1 X51.293 Y117.665 E5.83213
G1 X51.662 Y116.909 E5.84888
G1 X51.795 Y116.661 E5.85448
G1 X52.265 Y115.865 E5.87288
G1 X52.502 Y115.5 E5.88154
G1 X52.846 Y115.002 E5.89359
G1 X53.416 Y114.223 E5.9128
G1 X59.257 Y106.433 E6.10662
G1 X59.671 Y105.897 E6.12011
G1 X60.277 Y105.179 E6.13881
G1 X60.941 Y104.514 E6.15752
G1 X61.66 Y103.908 E6.17623
G1 X62.592 Y103.262 E6.19881
G1 X62.908 Y103.066 E6.20621
G0 F6000 X63.129 Y103.423
G1 F1200 X63.933 Y102.971 E6.22457
G1 X64.773 Y102.591 E6.24292
G1 X65.601 Y102.298 E6.26041
G1 X65.88 Y102.212 E6.26622
G1 X66.772 Y101.979 E6.28457
G1 X67.681 Y101.824 E6.30293
G1 X68.849 Y101.741 E6.32623
G1 X69.439 Y101.732 E6.33798
G1 X73.567 Y101.732 E6.42015
G1 X74.268 Y101.742 E6.43411
G1 X75.188 Y101.795 E6.45245
G1 X76.061 Y101.921 E6.47001
G1 X77.778 Y102.248 E6.5048
G1 X80.254 Y102.674 E6.55482
G1 X82.743 Y103.029 E6.60486
G1 X85.295 Y103.32 E6.65599
G1 X87.768 Y103.531 E6.7054
G1 X90.31 Y103.676 E6.75608
G1 X92.848 Y103.748 E6.80663
G1 X95.368 Y103.749 E6.85679
G1 X97.903 Y103.679 E6.90727
G1 X100.411 Y103.538 E6.95728
G1 X102.923 Y103.325 E7.00746
G1 X105.469 Y103.037 E7.05846
G1 X107.932 Y102.687 E7.10799
G1 X110.492 Y102.249 E7.15969
G1 X112.107 Y101.935 E7.19244
G1 X113.019 Y101.799 E7.21079
G1 X113.833 Y101.744 E7.22703
G1 X114.452 Y101.731 E7.23936
G1 X116.258 Y101.731 E7.27531
G1 X118.881 Y101.694 E7.32753
G1 X121.387 Y101.587 E7.37746
G1 X123.905 Y101.409 E7.42771
G1 X126.423 Y101.16 E7.47807
G1 X128.936 Y100.838 E7.52851
G1 X131.421 Y100.447 E7.57858
G1 X133.926 Y99.982 E7.6293
G1 X136.376 Y99.454 E7.67919
G1 X138.831 Y98.853 E7.7295
G1 X141.284 Y98.178 E7.78015
G1 X143.694 Y97.44 E7.83032
G1 X146.085 Y96.634 E7.88055
G1 X148.489 Y95.747 E7.93155
G1 X149.808 Y95.221 E7.95982
G1 X150.329 Y95.025 E7.9709
G1 X151.207 Y94.744 E7.98925
G1 X152.106 Y94.54 E8.0076
G1 X153.02 Y94.415 E8.02597
G1 X154.037 Y94.37 E8.04623
G1 X154.685 Y94.378 E8.05913
G1 X171.778 Y94.985 E8.3996
G1 X172.61 Y95.026 E8.41619
G1 X173.528 Y95.112 E8.43454
G1 X174.675 Y95.335 E8.4578
G1 X175.609 Y95.593 E8.47709
G1 X176.932 Y96.095 E8.50526
G1 X178.149 Y96.728 E8.53256
G1 X178.371 Y96.861 E8.53771
G1 X179.141 Y97.369 E8.55608
G1 X179.783 Y97.868 E8.57226
G1 X180.475 Y98.476 E8.5906
G1 X180.85 Y98.854 E8.6012
G1 X181.084 Y99.102 E8.60799
G1 X181.687 Y99.799 E8.62633
G1 X182.229 Y100.549 E8.64475
G1 X182.368 Y100.76 E8.64978
G1 X183.013 Y101.883 E8.67556
G1 X183.142 Y102.143 E8.68134
G1 X183.516 Y102.986 E8.6997
G1 X183.785 Y103.746 E8.71575
G1 X184.038 Y104.633 E8.73411
G1 X184.202 Y105.435 E8.7504
G1 X184.333 Y106.348 E8.76876
G1 X184.385 Y107.536 E8.79243
G1 X184.369 Y108.834 E8.81827
G1 X184.324 Y109.898 E8.83947
G1 X184.24 Y110.816 E8.85782
G1 X183.986 Y112.09 E8.88368
G1 X183.884 Y112.477 E8.89165
G1 X183.611 Y113.358 E8.91001
G1 X183.363 Y113.986 E8.92345
G1 X183.245 Y114.259 E8.92937
G1 X182.842 Y115.088 E8.94772
G1 X182.459 Y115.748 E8.96291
G1 X181.948 Y116.515 E8.98126
G1 X181.606 Y116.958 E8.9924
G1 X181.413 Y117.195 E8.99848
G1 X180.8 Y117.884 E9.01684
G1 X180.37 Y118.303 E9.02879
G1 X180.168 Y118.489 E9.03426
G1 X179.464 Y119.083 E9.05259
G1 X179.002 Y119.42 E9.06398
G1 X178.754 Y119.591 E9.06997
G1 X177.973 Y120.081 E9.08833
G1 X177.379 Y120.395 E9.1017
G1 X176.891 Y120.629 E9.11247
G1 X174.321 Y121.802 E9.16871
G1 X172.071 Y122.91 E9.21863
G1 X169.835 Y124.09 E9.26896
G1 X167.608 Y125.347 E9.31987
G1 X165.463 Y126.638 E9.3697
G1 X163.337 Y128.002 E9.41999
G1 X161.238 Y129.434 E9.47057
G1 X159.677 Y130.556 E9.50883
G1 X158.133 Y131.683 E9.54689
G1 X155.979 Y133.281 E9.60027
G1 X154.001 Y134.837 E9.65037
G1 X152.057 Y136.458 E9.70076
G1 X150.267 Y138.023 E9.74809
G1 X149.546 Y138.597 E9.76643
G1 X148.777 Y139.107 E9.7848
G1 X147.967 Y139.548 E9.80316
G1 X147.123 Y139.917 E9.8215
G1 X146.249 Y140.211 E9.83985
G1 X145.353 Y140.429 E9.85821
G1 X144.442 Y140.568 E9.87655
G1 X143.446 Y140.629 E9.89642
G1 X142.527 Y140.641 E9.91471
G1 X139.181 Y140.64 E9.98132
G1 X137.945 Y140.616 E10.00593
G1 X134.126 Y140.428 E10.08204
G1 X133.416 Y140.382 E10.0962
G1 X132.499 Y140.282 E10.11457
G1 X131.595 Y140.104 E10.13291
G1 X131.044 Y139.954 E10.14427
G1 X130.392 Y139.747 E10.15789
G1 X127.886 Y138.871 E10.21074
G1 X125.477 Y138.103 E10.26107
G1 X123.01 Y137.392 E10.31218
G1 X120.595 Y136.771 E10.36181
G1 X118.114 Y136.206 E10.41247
G1 X115.649 Y135.718 E10.46249
G1 X113.116 Y135.29 E10.51362
G1 X110.655 Y134.946 E10.56309
G1 X108.129 Y134.665 E10.61368
G1 X105.603 Y134.457 E10.66414
G1 X103.135 Y134.324 E10.71334
G1 X99.408 Y134.249 E10.78754
G1 X62.437 Y134.248 E11.52349
G1 X61.734 Y134.238 E11.53749
G1 X60.813 Y134.185 E11.55585
G1 X59.901 Y134.052 E11.5742
G1 X59.004 Y133.841 E11.59254
G1 X58.298 Y133.619 E11.60727
G1 X57.437 Y133.289 E11.62563
G1 X56.608 Y132.887 E11.64397
G1 X55.817 Y132.414 E11.66231
G1 X55.2 Y131.979 E11.67734
G1 X54.481 Y131.402 E11.69569
G1 X53.814 Y130.765 E11.71405
G1 X53.205 Y130.073 E11.7324
G1 X52.543 Y129.155 E11.75493
G1 X52.352 Y128.858 E11.76196
G1 X51.888 Y128.061 E11.78032
G1 X51.494 Y127.228 E11.79866
G1 X51.174 Y126.363 E11.81702
G1 X50.9 Y125.363 E11.83766
G1 X50.714 Y124.348 E11.8582
G1 X50.628 Y123.43 E11.87656
G1 X50.622 Y122.508 E11.89491
G1 X50.665 Y121.863 E11.90778
G1 X50.708 Y121.423 E11.91658
G1 X50.838 Y120.51 E11.93494
G1 X51.046 Y119.612 E11.95329
G1 X51.235 Y119.003 E11.96598
G1 X51.347 Y118.677 E11.97284
G1 X51.684 Y117.819 E11.99119
G1 X52.032 Y117.107 E12.00697
G1 X52.165 Y116.859 E12.01257
G1 X52.618 Y116.094 E12.03027
G1 X52.855 Y115.729 E12.03893
G1 X53.185 Y115.25 E12.05051
G1 X53.752 Y114.475 E12.06962
G1 X59.589 Y106.69 E12.26332
G1 X60.003 Y106.154 E12.2768
G1 X60.598 Y105.45 E12.29515
G1 X61.251 Y104.799 E12.3135
G1 X61.959 Y104.208 E12.33186
G1 X62.813 Y103.619 E12.35251
G1 X63.129 Y103.423 E12.35991
G0 F6000 X63.35 Y103.779
G1 F1200 X64.139 Y103.338 E12.37791
G1 X64.963 Y102.967 E12.39589
G1 X65.724 Y102.699 E12.41195
G1 X66.003 Y102.613 E12.41777
G1 X66.878 Y102.385 E12.43577
G1 X67.769 Y102.236 E12.45375
G1 X68.855 Y102.161 E12.47542
G1 X69.445 Y102.152 E12.48716
G1 X73.561 Y102.152 E12.5691
G1 X74.262 Y102.162 E12.58305
G1 X75.164 Y102.215 E12.60104
G1 X75.985 Y102.333 E12.61755
G1 X77.054 Y102.532 E12.6392
G1 X77.699 Y102.661 E12.65229
G1 X80.192 Y103.089 E12.70264
G1 X82.701 Y103.448 E12.7531
G1 X85.212 Y103.734 E12.8034
G1 X87.781 Y103.953 E12.85473
G1 X90.274 Y104.096 E12.90444
G1 X92.835 Y104.168 E12.95544
G1 X95.379 Y104.169 E13.00608
G1 X97.904 Y104.099 E13.05636
G1 X100.468 Y103.955 E13.10748
G1 X102.97 Y103.743 E13.15746
G1 X105.505 Y103.456 E13.20825
G1 X107.993 Y103.102 E13.25827
G1 X110.552 Y102.664 E13.30995
G1 X112.187 Y102.347 E13.34311
G1 X113.081 Y102.214 E13.3611
G1 X113.845 Y102.164 E13.37634
G1 X114.452 Y102.151 E13.38842
G1 X116.264 Y102.151 E13.42449
G1 X118.87 Y102.114 E13.47638
G1 X121.435 Y102.005 E13.52748
G1 X123.939 Y101.828 E13.57745
G1 X126.482 Y101.576 E13.62832
G1 X128.985 Y101.255 E13.67855
G1 X131.494 Y100.861 E13.72911
G1 X133.981 Y100.399 E13.77946
G1 X136.495 Y99.858 E13.83065
G1 X138.932 Y99.261 E13.8806
G1 X141.384 Y98.586 E13.93122
G1 X143.851 Y97.831 E13.98258
G1 X146.221 Y97.031 E14.03237
G1 X148.621 Y96.146 E14.08329
G1 X149.963 Y95.611 E14.11205
G1 X150.474 Y95.419 E14.12292
G1 X151.335 Y95.144 E14.14091
G1 X152.217 Y94.947 E14.1589
G1 X153.112 Y94.829 E14.17687
G1 X154.035 Y94.79 E14.19526
G1 X154.67 Y94.797 E14.2079
G1 X171.763 Y95.404 E14.54837
G1 X172.589 Y95.445 E14.56484
G1 X173.488 Y95.531 E14.58281
G1 X174.572 Y95.743 E14.6048
G1 X175.482 Y95.993 E14.62359
G1 X176.762 Y96.478 E14.65083
G1 X177.933 Y97.089 E14.67713
G1 X178.155 Y97.222 E14.68228
G1 X178.909 Y97.72 E14.70027
G1 X179.519 Y98.195 E14.71566
G1 X180.197 Y98.792 E14.73364
G1 X180.778 Y99.39 E14.75024
G1 X181.369 Y100.074 E14.76823
G1 X181.878 Y100.78 E14.78556
G1 X182.017 Y100.991 E14.79058
G1 X182.637 Y102.07 E14.81536
G1 X182.766 Y102.33 E14.82113
G1 X183.132 Y103.156 E14.83912
G1 X183.386 Y103.879 E14.85437
G1 X183.634 Y104.748 E14.87236
G1 X183.789 Y105.513 E14.8879
G1 X183.917 Y106.408 E14.9059
G1 X183.965 Y107.531 E14.92827
G1 X183.949 Y108.829 E14.95411
G1 X183.905 Y109.877 E14.97499
G1 X183.821 Y110.777 E14.99299
G1 X183.58 Y111.983 E15.01747
G1 X183.478 Y112.37 E15.02543
G1 X183.209 Y113.233 E15.04343
G1 X182.977 Y113.819 E15.05597
G1 X182.859 Y114.092 E15.0619
G1 X182.464 Y114.905 E15.07989
G1 X182.099 Y115.53 E15.0943
G1 X181.598 Y116.282 E15.11228
G1 X181.087 Y116.93 E15.12871
G1 X180.486 Y117.605 E15.1467
G1 X180.086 Y117.994 E15.15781
G1 X179.884 Y118.18 E15.16327
G1 X179.193 Y118.762 E15.18126
G1 X178.764 Y119.075 E15.19183
G1 X178.516 Y119.246 E15.19783
G1 X177.75 Y119.725 E15.21581
G1 X177.195 Y120.017 E15.22829
G1 X176.717 Y120.246 E15.23884
G1 X174.164 Y121.411 E15.29471
G1 X171.891 Y122.53 E15.34514
G1 X169.606 Y123.736 E15.39657
G1 X167.416 Y124.972 E15.44663
G1 X165.246 Y126.279 E15.49706
G1 X163.09 Y127.662 E15.54804
G1 X160.988 Y129.096 E15.5987
G1 X159.491 Y130.172 E15.6354
G1 X157.883 Y131.346 E15.67503
G1 X155.727 Y132.946 E15.72847
G1 X153.713 Y134.53 E15.77948
G1 X151.789 Y136.135 E15.82935
G1 X149.992 Y137.706 E15.87687
G1 X149.284 Y138.268 E15.89486
G1 X148.53 Y138.765 E15.91284
G1 X147.734 Y139.194 E15.93084
G1 X146.904 Y139.551 E15.94882
G1 X146.045 Y139.832 E15.96682
G1 X145.165 Y140.037 E15.9848
G1 X144.271 Y140.163 E16.00277
G1 X143.44 Y140.209 E16.01934
G1 X142.527 Y140.221 E16.03752
G1 X139.187 Y140.22 E16.104
G1 X137.965 Y140.197 E16.12833
G1 X134.153 Y140.009 E16.20431
G1 X133.443 Y139.963 E16.21847
G1 X132.545 Y139.864 E16.23646
G1 X131.659 Y139.687 E16.25444
G1 X131.165 Y139.552 E16.26463
G1 X130.53 Y139.351 E16.27789
G1 X128.008 Y138.469 E16.33108
G1 X125.567 Y137.691 E16.38208
G1 X123.138 Y136.991 E16.4324
G1 X120.675 Y136.358 E16.48302
G1 X118.227 Y135.8 E16.533
G1 X115.691 Y135.298 E16.58446
G1 X113.209 Y134.879 E16.63457
G1 X110.721 Y134.531 E16.68458
G1 X108.176 Y134.248 E16.73555
G1 X105.626 Y134.038 E16.78648
G1 X103.137 Y133.904 E16.8361
G1 X99.416 Y133.829 E16.91019
G1 X62.443 Y133.828 E17.64618
G1 X61.74 Y133.818 E17.66017
G1 X60.838 Y133.765 E17.67816
G1 X59.944 Y133.633 E17.69615
G1 X58.563 Y133.271 E17.72457
