;FLAVOR:Marlin
M117 Time Left 3h25m21s
;TIME:12321
;Filament used: 5.19738m
;Layer height: 0.12
;MINX:71.633
;MINY:75.601
;MINZ:0.12
;MAXX:163.386
;MAXY:159.428
;MAXZ:30
;POSTPROCESSED
;Generated with Cura_SteamEngine 5.2.1
M140 S60
M105
M190 S60
M104 S205
M105
M109 S205
M82 ;absolute extrusion mode
; Ender 3 Custom Start G-code
G92 E0 ; Reset Extruder
G28 ; Home all axes
G1 Z2.0 F3000 ; Move Z Axis up little to prevent scratching of Heat Bed
G1 X0.1 Y20 Z0.3 F5000.0 ; Move to start position
G1 X0.1 Y200.0 Z0.3 F1500.0 E15 ; Draw the first line
G1 X0.4 Y200.0 Z0.3 F5000.0 ; Move to side a little
G1 X0.4 Y20 Z0.3 F1500.0 E30 ; Draw the second line
G92 E0 ; Reset Extruder
G1 Z2.0 F3000 ; Move Z Axis up little to prevent scratching of Heat Bed
G1 X5 Y20 Z0.3 F5000.0 ; Move over to prevent blob squish
G92 E0
G92 E0
G1 F2700 E-5
;LAYER_COUNT:250
;LAYER:0
M107
M204 S500
M205 X12 Y12
G0 F6000 X75.864 Y139.349 Z0.12
;TYPE:SKIRT
G1 F2700 E0
G1 F1200 X144.315 Y78.723 E1.8202
G1 X144.81 Y78.299 E1.83317
G1 X145.549 Y77.718 E1.85188
G1 X146.335 Y77.203 E1.87059
G1 X147.162 Y76.756 E1.8893
G1 X148.024 Y76.38 E1.90802
G1 X148.914 Y76.08 E1.92672
G1 X149.734 Y75.873 E1.94356
G1 X150.659 Y75.703 E1.96228
G1 X151.594 Y75.612 E1.98098
G1 X152.534 Y75.601 E1.99969
G1 X153.472 Y75.67 E2.01841
G1 X154.4 Y75.818 E2.03712
G1 X155.312 Y76.045 E2.05583
G1 X156.202 Y76.348 E2.07454
G1 X157.063 Y76.726 E2.09326
G1 X157.888 Y77.176 E2.11197
G1 X158.673 Y77.694 E2.13069
G1 X159.41 Y78.277 E2.1494
G1 X160.095 Y78.92 E2.1681
G1 X160.998 Y79.959 E2.1955
G1 X161.605 Y80.819 E2.21645
G1 X162.08 Y81.63 E2.23516
G1 X162.483 Y82.479 E2.25387
G1 X162.814 Y83.359 E2.27259
G1 X163.068 Y84.264 E2.2913
G1 X163.245 Y85.187 E2.31001
G1 X163.36 Y86.561 E2.33745
G1 X163.386 Y87.865 E2.36342
G1 X163.385 Y147.794 E3.55637
G1 X163.375 Y148.521 E3.57085
G1 X163.322 Y149.459 E3.58955
G1 X163.19 Y150.39 E3.60827
G1 X162.979 Y151.306 E3.62698
G1 X162.69 Y152.201 E3.6457
G1 X162.327 Y153.068 E3.66441
G1 X161.892 Y153.901 E3.68312
G1 X161.387 Y154.694 E3.70183
G1 X160.817 Y155.441 E3.72054
G1 X160.185 Y156.137 E3.73925
G1 X159.496 Y156.777 E3.75797
G1 X158.756 Y157.356 E3.77667
G1 X157.968 Y157.87 E3.7954
G1 X157.141 Y158.315 E3.8141
G1 X156.278 Y158.688 E3.83281
G1 X155.387 Y158.987 E3.85152
G1 X154.473 Y159.208 E3.87024
G1 X153.544 Y159.352 E3.88895
G1 X152.638 Y159.415 E3.90703
G1 X152.006 Y159.428 E3.91961
G1 X83.358 Y159.421 E5.28613
G1 X82.658 Y159.411 E5.30007
G1 X81.72 Y159.357 E5.31877
G1 X80.789 Y159.225 E5.33749
G1 X79.873 Y159.013 E5.35621
G1 X78.979 Y158.724 E5.37491
G1 X78.112 Y158.361 E5.39362
G1 X77.279 Y157.925 E5.41234
G1 X76.486 Y157.419 E5.43106
G1 X75.739 Y156.849 E5.44977
G1 X75.044 Y156.217 E5.46847
G1 X74.423 Y155.557 E5.4865
G1 X73.774 Y154.748 E5.50715
G1 X73.249 Y153.968 E5.52587
G1 X72.793 Y153.146 E5.54458
G1 X72.409 Y152.288 E5.56329
G1 X72.098 Y151.401 E5.582
G1 X71.865 Y150.491 E5.6007
G1 X71.709 Y149.563 E5.61943
G1 X71.633 Y148.627 E5.63813
G1 X71.637 Y147.687 E5.65684
G1 X71.721 Y146.75 E5.67556
G1 X71.975 Y145.425 E5.70242
G1 X72.269 Y144.446 E5.72277
G1 X72.614 Y143.572 E5.74147
G1 X73.032 Y142.73 E5.76019
G1 X73.52 Y141.927 E5.77889
G1 X74.075 Y141.168 E5.79761
G1 X74.693 Y140.459 E5.81633
G1 X75.247 Y139.914 E5.8318
G1 X75.864 Y139.349 E5.84845
G0 F6000 X76.279 Y139.54
G1 F1200 X144.455 Y79.157 E7.66135
G1 X145.083 Y78.618 E7.67782
G1 X145.808 Y78.049 E7.69617
G1 X146.58 Y77.545 E7.71452
G1 X147.393 Y77.11 E7.73287
G1 X148.241 Y76.747 E7.75124
G1 X149.117 Y76.459 E7.76959
G1 X149.828 Y76.283 E7.78417
G1 X150.735 Y76.117 E7.80253
G1 X151.653 Y76.03 E7.82088
G1 X152.574 Y76.023 E7.83922
G1 X153.494 Y76.096 E7.85759
G1 X154.403 Y76.248 E7.87593
G1 X155.296 Y76.478 E7.89429
G1 X156.165 Y76.785 E7.91264
G1 X157.004 Y77.166 E7.93098
G1 X157.808 Y77.619 E7.94935
G1 X158.569 Y78.139 E7.9677
G1 X159.282 Y78.723 E7.98604
G1 X159.942 Y79.367 E8.0044
G1 X160.671 Y80.224 E8.0268
G1 X161.261 Y81.061 E8.04718
G1 X161.725 Y81.858 E8.06554
G1 X162.118 Y82.692 E8.08389
G1 X162.437 Y83.557 E8.10225
G1 X162.679 Y84.446 E8.12059
G1 X162.844 Y85.353 E8.13894
G1 X162.941 Y86.57 E8.16324
G1 X162.964 Y87.636 E8.18446
G1 X162.965 Y147.788 E9.38186
G1 X162.955 Y148.515 E9.39633
G1 X162.902 Y149.436 E9.4147
G1 X162.77 Y150.348 E9.43304
G1 X162.559 Y151.246 E9.4514
G1 X162.272 Y152.122 E9.46975
G1 X161.909 Y152.969 E9.4881
G1 X161.474 Y153.782 E9.50645
G1 X160.971 Y154.555 E9.52481
G1 X160.402 Y155.28 E9.54316
G1 X159.773 Y155.954 E9.56151
G1 X159.088 Y156.571 E9.57986
G1 X158.352 Y157.126 E9.59821
G1 X157.57 Y157.615 E9.61657
G1 X156.749 Y158.035 E9.63493
G1 X155.895 Y158.382 E9.65328
G1 X155.014 Y158.653 E9.67163
G1 X154.113 Y158.848 E9.68998
G1 X153.198 Y158.963 E9.70833
G1 X152.626 Y158.995 E9.71974
G1 X152.006 Y159.008 E9.73208
G1 X83.364 Y159.001 E11.09848
G1 X82.664 Y158.991 E11.11242
G1 X81.744 Y158.938 E11.13076
G1 X80.831 Y158.805 E11.14913
G1 X79.934 Y158.594 E11.16747
G1 X79.058 Y158.306 E11.18583
G1 X78.211 Y157.943 E11.20417
G1 X77.398 Y157.508 E11.22253
G1 X76.626 Y157.004 E11.24088
G1 X75.9 Y156.435 E11.25924
G1 X75.227 Y155.805 E11.27759
G1 X74.678 Y155.204 E11.2938
G1 X74.101 Y154.485 E11.31215
G1 X73.589 Y153.719 E11.33049
G1 X73.145 Y152.911 E11.34884
G1 X72.773 Y152.067 E11.3672
G1 X72.475 Y151.195 E11.38554
G1 X72.254 Y150.299 E11.40391
G1 X72.112 Y149.389 E11.42225
G1 X72.048 Y148.469 E11.44061
G1 X72.065 Y147.547 E11.45896
G1 X72.162 Y146.63 E11.47732
G1 X72.384 Y145.524 E11.49977
G1 X72.671 Y144.567 E11.51966
G1 X73.012 Y143.71 E11.53802
G1 X73.426 Y142.886 E11.55638
G1 X73.909 Y142.101 E11.57473
G1 X74.459 Y141.361 E11.59308
G1 X75.071 Y140.671 E11.61144
G1 X75.531 Y140.223 E11.62422
G1 X76.279 Y139.54 E11.64439
G0 F6000 X76.432 Y139.968
G1 F1200 X144.861 Y79.361 E13.46401
G1 X145.356 Y78.937 E13.47698
G1 X146.068 Y78.38 E13.49497
G1 X146.826 Y77.888 E13.51296
G1 X147.624 Y77.465 E13.53094
G1 X148.457 Y77.115 E13.54893
G1 X149.802 Y76.714 E13.57687
G1 X150.81 Y76.53 E13.59726
G1 X151.71 Y76.448 E13.61525
G1 X152.614 Y76.445 E13.63325
G1 X153.514 Y76.522 E13.65123
G1 X154.404 Y76.678 E13.66922
G1 X155.276 Y76.912 E13.68719
G1 X156.125 Y77.223 E13.70519
G1 X156.943 Y77.607 E13.72318
G1 X157.723 Y78.062 E13.74115
G1 X158.46 Y78.584 E13.75913
G1 X159.149 Y79.17 E13.77713
G1 X159.782 Y79.814 E13.79511
G1 X160.347 Y80.491 E13.81266
G1 X160.917 Y81.303 E13.83241
G1 X161.37 Y82.085 E13.8504
G1 X161.751 Y82.904 E13.86838
G1 X162.058 Y83.754 E13.88637
G1 X162.289 Y84.627 E13.90435
G1 X162.442 Y85.518 E13.92234
G1 X162.521 Y86.579 E13.94352
G1 X162.544 Y87.645 E13.96475
G1 X162.545 Y147.782 E15.16185
G1 X162.535 Y148.509 E15.17632
G1 X162.483 Y149.411 E15.1943
G1 X162.351 Y150.305 E15.21229
G1 X162.14 Y151.184 E15.23029
G1 X161.853 Y152.041 E15.24828
G1 X161.491 Y152.869 E15.26627
G1 X161.057 Y153.661 E15.28425
G1 X160.555 Y154.412 E15.30223
G1 X159.989 Y155.116 E15.32021
G1 X159.362 Y155.767 E15.3382
G1 X158.681 Y156.36 E15.35618
G1 X157.949 Y156.891 E15.37418
G1 X157.174 Y157.355 E15.39216
G1 X156.36 Y157.748 E15.41015
G1 X155.515 Y158.068 E15.42814
G1 X154.645 Y158.312 E15.44613
G1 X153.757 Y158.478 E15.46411
G1 X152.614 Y158.575 E15.48694
G1 X152.006 Y158.588 E15.49905
G1 X83.37 Y158.581 E16.86533
G1 X82.67 Y158.571 E16.87927
G1 X81.768 Y158.518 E16.89725
G1 X80.874 Y158.386 E16.91524
G1 X79.996 Y158.175 E16.93322
G1 X79.139 Y157.887 E16.95121
G1 X78.312 Y157.525 E16.96918
G1 X77.519 Y157.091 E16.98718
G1 X76.768 Y156.588 E17.00517
G1 X76.065 Y156.021 E17.02315
G1 X75.073 Y155.027 E17.0511
G1 X74.43 Y154.222 E17.07161
G1 X73.929 Y153.47 E17.0896
G1 X73.498 Y152.676 E17.10759
G1 X73.138 Y151.847 E17.12558
G1 X72.853 Y150.99 E17.14355
G1 X72.645 Y150.11 E17.16155
G1 X72.516 Y149.216 E17.17953
G1 X72.466 Y148.314 E17.19752
G1 X72.496 Y147.411 E17.2155
G1 X72.605 Y146.514 E17.23349
G1 X72.793 Y145.618 E17.25171
G1 X73.074 Y144.688 E17.27105
G1 X73.41 Y143.849 E17.28904
G1 X73.819 Y143.043 E17.30704
G1 X74.298 Y142.277 E17.32502
G1 X74.842 Y141.556 E17.343
G1 X75.448 Y140.886 E17.36098
G1 X75.815 Y140.533 E17.37112
G1 X76.432 Y139.968 E17.38777
G1 F2700 E12.38777
;MESH:triangulo.stl
G0 F6000 X82.759 Y147.114
G0 X83.472 Y147.918
G0 X145.36 Y95.192
G0 X146.055 Y94.816
G0 X146.817 Y94.609
G0 X147.606 Y94.581
G0 X148.382 Y94.732
G0 X149.102 Y95.056
G0 X149.61 Y95.444
G0 X151.289 Y97.157
;TYPE:WALL-INNER
G1 F2700 E17.38777
G1 F1208.6 X151.286 Y88.71 E17.55472
G1 F1200 X145.489 Y93.847 E17.70891
G1 F1217.4 X145.119 Y94.165 E17.71848
G1 F1282.4 X144.849 Y94.384 E17.72495
G1 F1365.9 X144.432 Y94.741 E17.73455
G1 F1400 X93.623 Y139.744 E18.89264
G1 F1362.2 X93.261 Y140.076 E18.90126
G1 F1263.2 X92.913 Y140.411 E18.91039
G1 F1200 X85.11 Y147.322 E19.11788
G1 X95.186 Y147.323 E19.31846
G1 F1223.3 X95.679 Y147.33 E19.32809
G1 F1302.3 X96.163 Y147.349 E19.33697
G1 F1373.3 X113.243 Y147.351 E19.63406
G1 F1384.6 X130.323 Y147.354 E19.92873
G1 F1396.1 X147.403 Y147.357 E20.22096
G1 F1292.3 X148.696 Y147.327 E20.24487
G1 F1200 X151.286 Y147.328 E20.29643
G1 F1214.5 X151.291 Y143.825 E20.36533
G1 X151.162 Y144.315 E20.3753
G1 F1200 X150.958 Y144.786 E20.38551
G1 X150.734 Y145.179 E20.39452
G1 X150.466 Y145.549 E20.40361
G1 X150.157 Y145.883 E20.41267
G1 X149.86 Y146.149 E20.42061
G1 X149.442 Y146.436 E20.4307
G1 X149.093 Y146.63 E20.43865
G1 X148.623 Y146.817 E20.44872
G1 F1211.5 X148.231 Y146.925 E20.45673
G1 F1275.9 X147.839 Y146.974 E20.46413
G1 F1369.6 X147.393 Y146.998 E20.47192
G1 F1403.9 X96.516 Y146.996 E21.3376
G1 F1373.3 X96.059 Y146.972 E21.34556
G1 F1282.4 X95.657 Y146.92 E21.35311
G1 F1223.3 X95.195 Y146.789 E21.36248
G1 F1208.6 X94.722 Y146.578 E21.37272
G1 F1200 X94.369 Y146.377 E21.38081
G1 X93.953 Y146.062 E21.39119
G1 X93.653 Y145.785 E21.39932
G1 X93.348 Y145.429 E21.40865
G1 X93.065 Y144.994 E21.41898
G1 X92.857 Y144.579 E21.42822
G1 X92.711 Y144.203 E21.43625
G1 X92.611 Y143.798 E21.44456
G1 X92.535 Y143.286 E21.45486
G1 X92.533 Y142.756 E21.46541
G1 X92.567 Y142.41 E21.47233
G1 X92.671 Y141.894 E21.48281
G1 X92.802 Y141.51 E21.49089
G1 X93.018 Y141.037 E21.50124
G1 F1232.3 X93.269 Y140.639 E21.51036
G1 F1295.6 X93.535 Y140.336 E21.51779
G1 F1365.9 X93.912 Y139.967 E21.52702
G1 F1400 X144.718 Y94.968 E22.68502
G1 F1365.9 X145.074 Y94.687 E22.69296
G1 F1272.7 X145.399 Y94.465 E22.70034
G1 F1208.6 X145.774 Y94.283 E22.70858
G1 F1200 X146.272 Y94.108 E22.71909
G1 X146.787 Y94.007 E22.72954
G1 X147.131 Y93.976 E22.73641
G1 X147.65 Y93.979 E22.74674
G1 X148.056 Y94.035 E22.7549
G1 X148.567 Y94.156 E22.76536
G1 X148.937 Y94.301 E22.77327
G1 X149.353 Y94.509 E22.78252
G1 X149.795 Y94.797 E22.79303
G1 X150.188 Y95.145 E22.80348
G1 X150.462 Y95.44 E22.81149
G1 X150.704 Y95.772 E22.81967
G1 X150.968 Y96.219 E22.83
G1 X151.165 Y96.702 E22.84039
G1 F1208.6 X151.289 Y97.157 E22.84971
G0 F6000 X150.706 Y96.164
G0 X150.012 Y95.173
G0 X149.83 Y95.382
G1 F1200 X150.114 Y95.683 E22.85794
G1 X150.364 Y96.019 E22.86628
G1 X150.572 Y96.376 E22.87451
G1 X150.74 Y96.76 E22.88285
G1 F1202.9 X150.861 Y97.154 E22.89103
G1 X150.938 Y97.571 E22.89946
G1 F1200 X150.965 Y97.983 E22.90767
G1 X150.965 Y143.015 E23.80409
G1 X150.947 Y143.349 E23.81075
G1 X150.882 Y143.754 E23.81891
G1 X150.75 Y144.21 E23.82836
G1 X150.591 Y144.583 E23.83643
G1 X150.391 Y144.937 E23.84453
G1 X150.152 Y145.269 E23.85267
G1 X149.929 Y145.519 E23.85934
G1 X149.627 Y145.794 E23.86747
G1 X149.238 Y146.069 E23.87695
G1 X148.875 Y146.266 E23.88518
G1 X148.505 Y146.414 E23.89311
G1 X148.108 Y146.525 E23.90131
G1 X147.705 Y146.589 E23.90944
G1 X147.371 Y146.608 E23.9161
G1 X96.539 Y146.607 E24.92797
G1 X96.127 Y146.58 E24.93619
G1 X95.709 Y146.504 E24.94464
G1 X95.381 Y146.406 E24.95146
G1 X94.995 Y146.245 E24.95978
G1 X94.632 Y146.043 E24.96805
G1 X94.291 Y145.797 E24.97642
G1 X93.933 Y145.466 E24.98613
G1 X93.663 Y145.144 E24.99449
G1 X93.438 Y144.8 E25.00268
G1 X93.277 Y144.49 E25.00963
G1 X93.103 Y144.036 E25.01931
G1 X93.006 Y143.63 E25.02762
G1 X92.96 Y143.289 E25.03447
G1 X92.951 Y142.797 E25.04426
G1 X92.985 Y142.452 E25.05116
G1 X93.069 Y142.042 E25.05949
G1 X93.2 Y141.646 E25.0678
G1 X93.374 Y141.269 E25.07606
G1 X93.595 Y140.91 E25.08445
G1 X93.848 Y140.584 E25.09267
G1 X94.145 Y140.284 E25.10107
G1 X144.958 Y95.275 E26.45232
G1 X145.229 Y95.064 E26.45915
G1 X145.579 Y94.843 E26.46739
G1 X145.952 Y94.663 E26.47564
G1 X146.345 Y94.527 E26.48392
G1 X146.755 Y94.437 E26.49227
G1 X147.17 Y94.394 E26.50058
G1 X147.656 Y94.404 E26.51025
G1 X148.067 Y94.464 E26.51852
G1 X148.406 Y94.549 E26.52548
G1 X148.842 Y94.718 E26.53479
G1 X149.161 Y94.882 E26.54193
G1 X149.51 Y95.112 E26.55025
G1 X149.83 Y95.382 E26.55858
G1 F2700 E21.55858
G0 F6000 X150.012 Y95.173
G0 X149.125 Y94.635
G0 X148.038 Y94.175
G1 F2700 E26.55858
G0 F6000 X147.942 Y94.867
;TYPE:WALL-OUTER
G1 F1200 X148.329 Y94.965 E26.56653
G1 X148.65 Y95.092 E26.5734
G1 X148.99 Y95.268 E26.58102
G1 X149.295 Y95.475 E26.58836
G1 X149.556 Y95.7 E26.59522
G1 X149.822 Y95.988 E26.60302
G1 X150.037 Y96.285 E26.61032
G1 X150.208 Y96.584 E26.61718
G1 X150.36 Y96.944 E26.62496
G1 X150.464 Y97.299 E26.63232
G1 X150.524 Y97.642 E26.63925
G1 X150.546 Y98.007 E26.64653
G1 X150.546 Y142.991 E27.54199
G1 X150.527 Y143.325 E27.54865
G1 X150.468 Y143.682 E27.55585
G1 X150.362 Y144.05 E27.56348
G1 X150.223 Y144.38 E27.5706
G1 X150.048 Y144.695 E27.57778
G1 X149.853 Y144.971 E27.5845
G1 X149.598 Y145.256 E27.59212
G1 X149.328 Y145.495 E27.5993
G1 X149.033 Y145.702 E27.60647
G1 X148.739 Y145.866 E27.61317
G1 X148.408 Y146.003 E27.6203
G1 X148.038 Y146.111 E27.62797
G1 X147.704 Y146.167 E27.63472
G1 X147.347 Y146.188 E27.64183
G1 X96.563 Y146.188 E28.65275
G1 X96.198 Y146.166 E28.66003
G1 X95.854 Y146.107 E28.66698
G1 X95.478 Y145.995 E28.67479
G1 X95.138 Y145.848 E28.68216
G1 X94.82 Y145.665 E28.68946
G1 X94.522 Y145.444 E28.69685
G1 X94.269 Y145.211 E28.7037
G1 X94.028 Y144.931 E28.71105
G1 X93.811 Y144.606 E28.71883
G1 X93.65 Y144.296 E28.72578
G1 X93.511 Y143.935 E28.73348
G1 X93.422 Y143.574 E28.74088
G1 X93.376 Y143.233 E28.74773
G1 X93.369 Y142.838 E28.7556
G1 X93.403 Y142.493 E28.7625
G1 X93.48 Y142.13 E28.76989
G1 X93.607 Y141.759 E28.77769
G1 X93.765 Y141.428 E28.78499
G1 X93.951 Y141.133 E28.79193
G1 X94.177 Y140.846 E28.79921
G1 X94.449 Y140.574 E28.80686
G1 X145.216 Y95.607 E30.15687
G1 X145.487 Y95.396 E30.1637
G1 X145.801 Y95.2 E30.17107
G1 X146.152 Y95.035 E30.17879
G1 X146.479 Y94.925 E30.18566
G1 X146.865 Y94.844 E30.19351
G1 X147.209 Y94.812 E30.20039
G1 X147.599 Y94.82 E30.20815
G1 X147.942 Y94.867 E30.21505
G0 F6000 X148.038 Y94.175
G0 X149.308 Y94.712
G0 X150.008 Y95.249
G0 X150.461 Y95.799
G0 X151.289 Y97.157
;TYPE:WALL-INNER
G1 F1312.5 X151.319 Y97.506 E30.22142
G1 F1495.5 X151.336 Y98.02 E30.22964
G1 F1570.1 X151.335 Y143.036 E30.91451
G1 F1522.7 X151.326 Y143.37 E30.91975
G1 F1344 X151.291 Y143.825 E30.92786
G1 F2700 E25.92786
G0 F6000 X150.346 Y145.378
G0 X149.736 Y145.988
G0 X149.005 Y146.448
G0 X148.192 Y146.732
G0 X147.721 Y146.785
G0 X84.569 Y147.527
G1 F2700 E30.92786
G0 F6000 X84.003 Y147.742
G1 F1200 X151.706 Y147.748 E32.27557
G1 X151.706 Y87.777 E33.46936
G1 X84.003 Y147.742 E35.26969
G0 F6000 X84.569 Y147.527
G0 X83.515 Y147.927
G0 X82.896 Y148.162
;TYPE:WALL-OUTER
G1 F1200 X152.126 Y148.168 E36.6478
G1 X152.126 Y86.862 E37.86817
G1 X152.1 Y86.867 E37.86869
G1 X82.896 Y148.162 E39.70894
G0 F6000 X83.515 Y147.927
G0 X93.084 Y140.375
;TYPE:SKIN
G1 F1200 X93.234 Y140.526 E39.71278
G0 F6000 X93.026 Y140.854
G1 F1200 X92.799 Y140.627 E39.71856
G0 F6000 X92.514 Y140.88
G1 F1200 X92.84 Y141.207 E39.72687
G0 F6000 X92.682 Y141.586
G1 F1200 X92.229 Y141.132 E39.73842
G0 F6000 X91.945 Y141.386
G1 F1200 X92.557 Y141.998 E39.75401
G0 F6000 X92.472 Y142.45
G1 F1200 X91.66 Y141.638 E39.77469
G0 F6000 X91.375 Y141.89
G1 F1200 X92.442 Y142.957 E39.80187
G0 F6000 X92.481 Y143.534
G1 F1200 X91.09 Y142.143 E39.8373
G0 F6000 X90.805 Y142.395
G1 F1200 X92.62 Y144.21 E39.88353
G0 F6000 X93.13 Y145.258
G1 F1200 X90.52 Y142.648 E39.95001
G0 F6000 X93.117 Y140.503
G0 X92.446 Y143.84
G0 X93.8 Y145.645
G0 X95.329 Y146.919
