;FLAVOR:Marlin
;TIME:2757
;Filament used: 3.5009m
;Layer height: 0.28
;MINX:84.5
;MINY:99.001
;MINZ:0.285
;MAXX:150.5
;MAXY:166
;MAXZ:29.965
;Generated with Cura_SteamEngine 4.6.1
M140 S60
M105
M190 S60
M104 S200
M105
M109 S200
M82 ;absolute extrusion mode
; Ender 3 Custom Start G-code
G92 E0 ; Reset Extruder
G28 ; Home all axes
G1 Z2.0 F3000 ; Move Z Axis up little to prevent scratching of Heat Bed
G1 X0.1 Y20 Z0.3 F5000.0 ; Move to start position
G1 X0.1 Y200.0 Z0.3 F1500.0 E15 ; Draw the first line
G1 X0.4 Y200.0 Z0.3 F5000.0 ; Move to side a little
G1 X0.4 Y20 Z0.3 F1500.0 E30 ; Draw the second line
G92 E0 ; Reset Extruder
G1 Z2.0 F3000 ; Move Z Axis up little to prevent scratching of Heat Bed
G1 X5 Y20 Z0.3 F5000.0 ; Move over to prevent blob squish
G92 E0
G92 E0
G1 F2700 E-6
;LAYER_COUNT:107
;LAYER:0
M107
M204 S500
M205 X8 Y8
G0 F7500 X119.764 Y99.819 Z0.285
;TYPE:SKIRT
G1 F2700 E0
G1 F1500 X120.354 Y99.848 E0.0266
G1 X121.716 Y99.949 E0.08809
G1 X122.393 Y100.009 E0.11869
G1 X123.555 Y100.179 E0.17157
G1 X124.573 Y100.391 E0.21839
G1 X125.395 Y100.577 E0.25634
G1 X126.027 Y100.729 E0.2856
G1 X127.15 Y101.068 E0.33842
G1 X128.263 Y101.478 E0.39183
G1 X128.906 Y101.728 E0.42289
G1 X129.559 Y101.992 E0.45461
G1 X130.621 Y102.494 E0.5075
G1 X131.599 Y103.029 E0.55769
G1 X132.294 Y103.427 E0.59375
G1 X132.841 Y103.749 E0.62233
G1 X133.835 Y104.415 E0.6762
G1 X134.722 Y105.09 E0.72639
G1 X135.324 Y105.565 E0.76092
G1 X135.857 Y105.998 E0.79184
G1 X136.721 Y106.786 E0.84449
G1 X137.508 Y107.594 E0.89528
G1 X138.028 Y108.15 E0.92955
G1 X138.489 Y108.654 E0.96031
G1 X139.236 Y109.571 E1.01356
G1 X139.857 Y110.436 E1.06151
G1 X140.342 Y111.136 E1.09985
G1 X140.696 Y111.663 E1.12844
G1 X141.294 Y112.675 E1.18136
G1 X141.817 Y113.693 E1.23289
G1 X142.149 Y114.369 E1.2668
G1 X142.333 Y114.755 E1.28606
G1 X142.482 Y115.082 E1.30224
G1 X143.012 Y116.312 E1.36254
G1 X148.041 Y128.888 E1.97238
G1 X148.231 Y129.381 E1.99617
G1 X148.35 Y129.708 E2.01184
G1 X148.644 Y130.556 E2.05225
G1 X148.751 Y130.882 E2.0677
G1 X148.876 Y131.286 E2.08674
G1 X149.101 Y132.142 E2.12659
G1 X149.289 Y133.01 E2.16658
G1 X149.359 Y133.361 E2.1827
G1 X149.444 Y133.833 E2.20429
G1 X149.561 Y134.692 E2.24333
G1 X149.591 Y135.013 E2.25784
G1 X149.62 Y135.4 E2.27532
G1 X149.689 Y136.734 E2.33546
G1 X149.7 Y137.307 E2.36127
G1 X149.699 Y154.39 E3.13044
G1 X149.69 Y155.117 E3.16318
G1 X149.639 Y156.019 E3.20386
G1 X149.508 Y156.913 E3.24454
G1 X149.299 Y157.791 E3.28518
G1 X149.013 Y158.648 E3.32586
G1 X148.652 Y159.476 E3.36653
G1 X148.22 Y160.268 E3.40715
G1 X147.719 Y161.02 E3.44784
G1 X147.153 Y161.724 E3.48851
G1 X146.528 Y162.375 E3.52914
G1 X145.847 Y162.969 E3.56983
G1 X145.116 Y163.5 E3.61051
G1 X144.342 Y163.964 E3.65114
G1 X143.529 Y164.358 E3.69182
G1 X142.685 Y164.678 E3.73246
G1 X141.815 Y164.923 E3.77316
G1 X140.928 Y165.089 E3.81379
G1 X139.777 Y165.187 E3.8658
G1 X139.17 Y165.2 E3.89314
G1 X96.075 Y165.199 E5.83353
G1 X95.377 Y165.19 E5.86496
G1 X94.476 Y165.139 E5.9056
G1 X93.582 Y165.007 E5.94629
G1 X92.704 Y164.798 E5.98692
G1 X91.847 Y164.511 E6.02762
G1 X91.02 Y164.15 E6.06825
G1 X90.227 Y163.717 E6.10893
G1 X89.476 Y163.216 E6.14958
G1 X88.772 Y162.65 E6.19025
G1 X88.121 Y162.024 E6.23091
G1 X87.528 Y161.343 E6.27157
G1 X86.998 Y160.612 E6.31223
G1 X86.534 Y159.837 E6.3529
G1 X86.14 Y159.024 E6.39358
G1 X85.82 Y158.18 E6.43422
G1 X85.576 Y157.31 E6.4749
G1 X85.41 Y156.422 E6.51558
G1 X85.313 Y155.267 E6.56776
G1 X85.3 Y154.658 E6.59519
G1 X85.301 Y137.488 E7.36829
G1 X85.309 Y136.925 E7.39364
G1 X85.319 Y136.596 E7.40846
G1 X85.359 Y135.736 E7.44722
G1 X85.379 Y135.418 E7.46157
G1 X85.411 Y135.007 E7.48013
G1 X85.526 Y134.081 E7.52215
G1 X85.752 Y132.782 E7.58151
G1 X85.802 Y132.534 E7.5929
G1 X86.046 Y131.569 E7.63772
G1 X86.332 Y130.633 E7.68179
G1 X86.535 Y130.027 E7.71057
G1 X86.633 Y129.757 E7.7235
G1 X87.072 Y128.604 E7.77905
G1 X92.057 Y116.147 E8.38318
G1 X92.434 Y115.253 E8.42687
G1 X92.784 Y114.499 E8.46429
G1 X93.266 Y113.518 E8.51351
G1 X93.519 Y113.019 E8.5387
G1 X93.681 Y112.711 E8.55437
G1 X93.833 Y112.435 E8.56856
G1 X94.286 Y111.691 E8.60778
G1 X94.742 Y111.011 E8.64464
G1 X95.278 Y110.237 E8.68703
G1 X95.653 Y109.711 E8.71612
G1 X96.391 Y108.792 E8.76919
G1 X97.121 Y107.987 E8.81812
G1 X97.649 Y107.424 E8.85287
G1 X98.116 Y106.938 E8.88322
G1 X99.002 Y106.119 E8.93754
G1 X99.851 Y105.424 E8.98695
G1 X100.491 Y104.918 E9.02368
G1 X100.992 Y104.533 E9.05213
G1 X101.972 Y103.867 E9.10548
G1 X102.956 Y103.281 E9.15705
G1 X103.64 Y102.89 E9.19252
G1 X104.185 Y102.587 E9.2206
G1 X105.276 Y102.063 E9.27509
G1 X106.275 Y101.655 E9.32368
G1 X107.052 Y101.353 E9.36122
G1 X107.632 Y101.136 E9.3891
G1 X108.77 Y100.784 E9.44273
G1 X109.878 Y100.513 E9.49409
G1 X110.626 Y100.344 E9.52862
G1 X111.267 Y100.208 E9.55813
G1 X112.447 Y100.029 E9.61186
G1 X113.569 Y99.927 E9.66259
G1 X114.324 Y99.872 E9.69668
G1 X115.367 Y99.813 E9.74371
G1 X115.898 Y99.802 E9.76763
G1 X118.782 Y99.801 E9.89748
G1 X119.764 Y99.819 E9.94171
G0 F7500 X120.047 Y99.43
G1 F1500 X120.383 Y99.449 E9.95686
G1 X121.752 Y99.55 E10.01867
G1 X122.429 Y99.61 E10.04927
G1 X123.635 Y99.788 E10.10416
G1 X124.66 Y100.001 E10.1513
G1 X125.489 Y100.188 E10.18956
G1 X126.121 Y100.34 E10.21883
G1 X127.287 Y100.693 E10.27368
G1 X128.408 Y101.105 E10.32746
G1 X129.056 Y101.357 E10.35876
G1 X129.709 Y101.621 E10.39047
G1 X130.813 Y102.143 E10.44546
G1 X131.797 Y102.682 E10.49598
G1 X132.497 Y103.082 E10.53228
G1 X133.044 Y103.404 E10.56086
G1 X134.077 Y104.097 E10.61687
G1 X134.969 Y104.776 E10.66734
G1 X135.577 Y105.255 E10.70219
G1 X136.11 Y105.688 E10.73311
G1 X137.007 Y106.506 E10.78777
G1 X137.8 Y107.321 E10.83897
G1 X138.324 Y107.88 E10.87347
G1 X138.785 Y108.384 E10.90423
G1 X139.56 Y109.337 E10.95953
G1 X140.186 Y110.208 E11.00783
G1 X140.674 Y110.913 E11.04644
G1 X141.028 Y111.44 E11.07502
G1 X141.649 Y112.491 E11.12999
G1 X142.176 Y113.516 E11.18188
G1 X142.694 Y114.583 E11.23529
G1 X142.849 Y114.923 E11.25211
G1 X143.383 Y116.164 E11.31294
G1 X148.414 Y128.744 E11.92298
G1 X148.604 Y129.237 E11.94677
G1 X148.728 Y129.577 E11.96307
G1 X149.022 Y130.425 E12.00348
G1 X149.133 Y130.764 E12.01954
G1 X149.258 Y131.168 E12.03858
G1 X149.492 Y132.057 E12.07997
G1 X149.68 Y132.925 E12.11996
G1 X149.752 Y133.29 E12.13671
G1 X149.837 Y133.762 E12.15831
G1 X149.959 Y134.655 E12.19889
G1 X149.989 Y134.976 E12.2134
G1 X150.019 Y135.378 E12.23156
G1 X150.089 Y136.723 E12.2922
G1 X150.1 Y137.307 E12.3185
G1 X150.099 Y154.395 E13.0879
G1 X150.09 Y155.122 E13.12064
G1 X150.039 Y156.041 E13.16208
G1 X149.908 Y156.953 E13.20356
G1 X149.698 Y157.849 E13.245
G1 X149.412 Y158.724 E13.28645
G1 X149.051 Y159.571 E13.32791
G1 X148.617 Y160.383 E13.36936
G1 X148.115 Y161.155 E13.41082
G1 X147.547 Y161.88 E13.45229
G1 X146.919 Y162.553 E13.49374
G1 X146.235 Y163.169 E13.53519
G1 X145.5 Y163.723 E13.57663
G1 X144.72 Y164.212 E13.61808
G1 X143.9 Y164.631 E13.65954
G1 X143.047 Y164.977 E13.70099
G1 X142.167 Y165.248 E13.74245
G1 X141.267 Y165.441 E13.78389
G1 X140.353 Y165.556 E13.82537
G1 X139.788 Y165.587 E13.85085
G1 X139.17 Y165.6 E13.87868
G1 X96.07 Y165.599 E15.8193
G1 X95.372 Y165.59 E15.85073
G1 X94.453 Y165.538 E15.89217
G1 X93.542 Y165.407 E15.93361
G1 X92.646 Y165.197 E15.97505
G1 X91.771 Y164.91 E16.01651
G1 X90.924 Y164.548 E16.05799
G1 X90.112 Y164.114 E16.09944
G1 X89.341 Y163.612 E16.14087
G1 X88.616 Y163.044 E16.18233
G1 X87.943 Y162.415 E16.22381
G1 X87.328 Y161.731 E16.26523
G1 X86.774 Y160.996 E16.30667
G1 X86.286 Y160.215 E16.34814
G1 X85.867 Y159.395 E16.3896
G1 X85.521 Y158.542 E16.43104
G1 X85.251 Y157.662 E16.47249
G1 X85.058 Y156.761 E16.51398
G1 X84.944 Y155.848 E16.55541
G1 X84.913 Y155.277 E16.58115
G1 X84.9 Y154.658 E16.60903
G1 X84.901 Y137.482 E17.3824
G1 X84.909 Y136.919 E17.40775
G1 X84.919 Y136.578 E17.42311
G1 X84.959 Y135.718 E17.46187
G1 X84.98 Y135.387 E17.47681
G1 X85.012 Y134.976 E17.49537
G1 X85.131 Y134.014 E17.53901
G1 X85.36 Y132.703 E17.59894
G1 X85.41 Y132.455 E17.61033
G1 X85.664 Y131.452 E17.65691
G1 X85.95 Y130.516 E17.70098
G1 X86.157 Y129.896 E17.73041
G1 X86.259 Y129.616 E17.74383
G1 X86.7 Y128.456 E17.79971
G1 X91.688 Y115.993 E18.40414
G1 X92.069 Y115.089 E18.44831
G1 X92.425 Y114.323 E18.48634
G1 X92.909 Y113.338 E18.53576
G1 X93.162 Y112.839 E18.56095
G1 X93.331 Y112.518 E18.57728
G1 X93.483 Y112.242 E18.59147
G1 X93.953 Y111.469 E18.6322
G1 X94.412 Y110.783 E18.66937
G1 X94.952 Y110.005 E18.71201
G1 X95.327 Y109.479 E18.7411
G1 X96.095 Y108.524 E18.79627
G1 X96.829 Y107.714 E18.84549
G1 X97.361 Y107.147 E18.8805
G1 X97.828 Y106.661 E18.91085
G1 X98.748 Y105.81 E18.96728
G1 X99.603 Y105.111 E19.017
G1 X100.247 Y104.601 E19.05399
G1 X100.748 Y104.216 E19.08244
G1 X101.766 Y103.524 E19.13786
G1 X102.757 Y102.934 E19.18979
G1 X103.445 Y102.541 E19.22547
G1 X103.99 Y102.238 E19.25354
G1 X105.124 Y101.692 E19.31021
G1 X106.129 Y101.283 E19.35907
G1 X106.912 Y100.978 E19.3969
G1 X107.492 Y100.761 E19.42479
G1 X108.674 Y100.396 E19.48049
G1 X109.789 Y100.123 E19.53217
G1 X110.543 Y99.953 E19.56698
G1 X111.184 Y99.817 E19.59648
G1 X112.41 Y99.631 E19.65231
G1 X113.539 Y99.528 E19.70336
G1 X114.299 Y99.473 E19.73767
G1 X115.021 Y99.429 E19.77024
G1 X115.595 Y99.407 E19.7961
G1 X115.897 Y99.402 E19.8097
G1 X118.788 Y99.401 E19.93987
G1 X120.047 Y99.43 E19.99657
G0 F7500 X120.064 Y99.03
G1 F1500 X120.412 Y99.05 E20.01227
G1 X121.787 Y99.152 E20.07435
G1 X122.464 Y99.212 E20.10495
G1 X123.716 Y99.396 E20.16193
G1 X124.748 Y99.61 E20.20938
G1 X125.582 Y99.799 E20.24789
G1 X126.214 Y99.951 E20.27716
G1 X127.425 Y100.317 E20.33412
G1 X128.552 Y100.732 E20.38819
G1 X129.206 Y100.986 E20.41978
G1 X129.859 Y101.25 E20.4515
G1 X131.004 Y101.792 E20.50854
G1 X131.995 Y102.334 E20.55939
G1 X132.7 Y102.738 E20.59598
G1 X133.247 Y103.06 E20.62456
G1 X134.319 Y103.778 E20.68265
G1 X135.216 Y104.461 E20.73342
G1 X135.829 Y104.944 E20.76856
G1 X136.362 Y105.377 E20.79948
G1 X137.293 Y106.227 E20.85624
G1 X138.091 Y107.047 E20.90776
G1 X138.619 Y107.61 E20.94251
G1 X139.08 Y108.114 E20.97326
G1 X139.884 Y109.103 E21.03065
G1 X140.515 Y109.98 E21.0793
G1 X141.006 Y110.69 E21.11817
G1 X141.36 Y111.217 E21.14675
G1 X142.005 Y112.308 E21.20382
G1 X142.535 Y113.34 E21.25606
G1 X142.872 Y114.025 E21.29043
G1 X143.056 Y114.411 E21.30968
G1 X143.216 Y114.764 E21.32713
G1 X143.754 Y116.015 E21.38845
G1 X148.787 Y128.6 E21.99873
G1 X148.977 Y129.093 E22.02252
G1 X149.106 Y129.446 E22.03944
G1 X149.4 Y130.294 E22.07986
G1 X149.515 Y130.646 E22.09653
G1 X149.64 Y131.05 E22.11557
G1 X149.883 Y131.973 E22.15855
G1 X150.071 Y132.841 E22.19853
G1 X150.146 Y133.219 E22.21589
G1 X150.231 Y133.691 E22.23748
G1 X150.357 Y134.617 E22.27956
G1 X150.387 Y134.938 E22.29408
G1 X150.418 Y135.356 E22.31295
G1 X150.488 Y136.713 E22.37413
G1 X150.5 Y137.307 E22.40088
G1 X150.499 Y154.4 E23.17051
G1 X150.49 Y155.127 E23.20324
G1 X150.439 Y156.064 E23.2455
G1 X150.307 Y156.992 E23.2877
G1 X150.098 Y157.906 E23.32992
G1 X149.811 Y158.799 E23.37215
G1 X149.449 Y159.665 E23.41441
G1 X149.015 Y160.496 E23.45662
G1 X148.511 Y161.287 E23.49885
G1 X147.942 Y162.032 E23.54106
G1 X147.311 Y162.727 E23.58333
G1 X146.624 Y163.365 E23.62554
G1 X145.885 Y163.942 E23.66776
G1 X145.099 Y164.454 E23.71
G1 X144.273 Y164.897 E23.7522
G1 X143.411 Y165.269 E23.79447
G1 X142.522 Y165.565 E23.83666
G1 X141.61 Y165.785 E23.8789
G1 X140.683 Y165.926 E23.92112
G1 X139.799 Y165.987 E23.96102
G1 X139.17 Y166 E23.98935
G1 X96.065 Y165.999 E25.93019
G1 X95.367 Y165.99 E25.96162
G1 X94.431 Y165.938 E26.00383
G1 X93.502 Y165.806 E26.04608
G1 X92.588 Y165.596 E26.0883
G1 X91.695 Y165.309 E26.13054
G1 X90.83 Y164.946 E26.17277
G1 X89.999 Y164.512 E26.21499
G1 X89.208 Y164.008 E26.25722
G1 X88.463 Y163.438 E26.29945
G1 X87.769 Y162.807 E26.34169
G1 X87.132 Y162.12 E26.38387
G1 X86.555 Y161.38 E26.42612
G1 X86.043 Y160.594 E26.46836
G1 X85.6 Y159.767 E26.5106
G1 X85.229 Y158.906 E26.55281
G1 X84.933 Y158.016 E26.59504
G1 X84.714 Y157.104 E26.63727
G1 X84.573 Y156.177 E26.67949
G1 X84.513 Y155.288 E26.71961
G1 X84.5 Y154.658 E26.74799
G1 X84.501 Y137.477 E27.52158
G1 X84.509 Y136.914 E27.54693
G1 X84.52 Y136.559 E27.56292
G1 X84.56 Y135.699 E27.60168
G1 X84.581 Y135.356 E27.61716
G1 X84.613 Y134.945 E27.63572
G1 X84.737 Y133.947 E27.681
G1 X84.968 Y132.624 E27.74147
G1 X85.018 Y132.376 E27.75286
G1 X85.281 Y131.336 E27.80116
G1 X85.567 Y130.4 E27.84523
G1 X85.779 Y129.765 E27.87537
G1 X85.885 Y129.474 E27.88932
G1 X86.329 Y128.307 E27.94554
G1 X91.318 Y115.839 E28.5502
G1 X91.704 Y114.926 E28.59483
G1 X92.066 Y114.147 E28.6335
G1 X92.552 Y113.157 E28.68316
G1 X92.805 Y112.658 E28.70835
G1 X92.981 Y112.326 E28.72527
G1 X93.133 Y112.05 E28.73946
G1 X93.621 Y111.247 E28.78177
G1 X94.083 Y110.556 E28.81919
G1 X94.626 Y109.772 E28.86213
G1 X95.001 Y109.246 E28.89122
G1 X95.798 Y108.255 E28.94848
G1 X96.536 Y107.441 E28.99795
G1 X97.072 Y106.869 E29.03325
G1 X97.539 Y106.383 E29.0636
G1 X98.494 Y105.5 E29.12216
G1 X99.354 Y104.797 E29.17217
G1 X100.003 Y104.284 E29.20942
G1 X100.504 Y103.899 E29.23787
G1 X101.561 Y103.18 E29.29543
G1 X102.558 Y102.586 E29.34768
G1 X103.251 Y102.191 E29.3836
G1 X103.796 Y101.888 E29.41168
G1 X104.973 Y101.322 E29.47048
G1 X105.984 Y100.91 E29.51964
G1 X106.771 Y100.603 E29.55767
G1 X107.351 Y100.386 E29.58556
G1 X108.578 Y100.007 E29.64338
G1 X109.7 Y99.733 E29.69538
G1 X110.46 Y99.562 E29.73046
G1 X111.101 Y99.426 E29.75996
G1 X112.373 Y99.233 E29.81789
G1 X113.509 Y99.129 E29.86925
G1 X114.275 Y99.073 E29.90383
G1 X114.997 Y99.029 E29.9364
G1 X115.583 Y99.007 E29.96281
G1 X115.897 Y99.002 E29.97695
G1 X118.794 Y99.001 E30.10739
G1 X120.064 Y99.03 E30.16459
G1 F2700 E24.16459
;MESH:exterior_movil.stl
G0 F7500 X117.033 Y115.754
G0 X116.378 Y114.004
G0 X114.585 Y116.267
;TYPE:WALL-INNER
G1 F2700 E30.16459
G1 F1800 X114.501 Y116.93 E30.19468
G1 X114.5 Y123.06 E30.47069
G1 X114.579 Y123.718 E30.50052
G1 X114.836 Y124.395 E30.53313
G1 X115.246 Y124.989 E30.56563
G1 X115.789 Y125.475 E30.59844
G1 X116.433 Y125.811 E30.63115
G1 X117.136 Y125.985 E30.66375
G1 X117.843 Y125.985 E30.69559
G1 X118.545 Y125.819 E30.72807
G1 X119.188 Y125.486 E30.76067
G1 X119.736 Y125.01 E30.79335
G1 X120.153 Y124.414 E30.82611
G1 X120.413 Y123.739 E30.85867
G1 X120.497 Y123.079 E30.88863
G1 X120.5 Y116.941 E31.165
G1 X120.424 Y116.292 E31.19442
G1 X120.167 Y115.612 E31.22715
G1 X119.759 Y115.014 E31.25975
G1 X119.217 Y114.531 E31.29244
G1 X118.576 Y114.194 E31.32504
G1 X117.873 Y114.017 E31.35768
G1 X117.152 Y114.014 E31.39015
G1 X116.446 Y114.184 E31.42285
G1 X115.801 Y114.519 E31.45557
G1 X115.257 Y114.998 E31.48821
G1 X114.844 Y115.591 E31.52074
G1 X114.585 Y116.267 E31.55334
G0 F7500 X114.976 Y116.365
G1 F1800 X114.901 Y116.955 E31.58012
G1 X114.9 Y123.036 E31.85392
G1 X114.97 Y123.622 E31.88049
G1 X115.193 Y124.208 E31.90873
G1 X115.548 Y124.723 E31.93689
G1 X116.018 Y125.143 E31.96527
G1 X116.576 Y125.434 E31.99361
G1 X117.185 Y125.585 E32.02186
G1 X117.796 Y125.585 E32.04937
G1 X118.405 Y125.441 E32.07754
G1 X118.962 Y125.153 E32.10578
G1 X119.436 Y124.74 E32.13408
G1 X119.797 Y124.225 E32.1624
G1 X120.022 Y123.64 E32.19062
G1 X120.097 Y123.053 E32.21727
G1 X120.1 Y116.964 E32.49143
G1 X120.032 Y116.387 E32.51759
G1 X119.81 Y115.798 E32.54593
G1 X119.456 Y115.28 E32.57418
G1 X118.987 Y114.862 E32.60247
G1 X118.432 Y114.57 E32.63071
G1 X117.823 Y114.417 E32.65898
G1 X117.198 Y114.414 E32.68712
G1 X116.587 Y114.561 E32.71542
G1 X116.029 Y114.851 E32.74373
G1 X115.558 Y115.266 E32.772
G1 X115.2 Y115.78 E32.8002
G1 X114.976 Y116.365 E32.82841
G0 F7500 X115.367 Y116.463
;TYPE:WALL-OUTER
G1 F1800 X115.301 Y116.98 E32.8507
G1 X115.3 Y123.012 E33.10872
G1 X115.361 Y123.526 E33.13086
G1 X115.55 Y124.021 E33.15352
G1 X115.85 Y124.457 E33.17616
G1 X116.247 Y124.811 E33.19891
G1 X116.719 Y125.057 E33.22168
G1 X117.234 Y125.185 E33.24438
G1 X117.749 Y125.185 E33.26641
G1 X118.265 Y125.063 E33.28909
G1 X118.736 Y124.82 E33.31176
G1 X119.136 Y124.471 E33.33446
G1 X119.441 Y124.036 E33.35719
