;FLAVOR:Marlin
;TIME:8620
;Filament used: 5.67166m
;Layer height: 0.2
;MINX:84.5
;MINY:66.5
;MINZ:0.2
;MAXX:150.5
;MAXY:152.5
;MAXZ:15
;Generated with Cura_SteamEngine 4.6.1
M140 S60
M105
M190 S60
M104 S200
M105
M109 S200
M82 ;absolute extrusion mode
; Ender 3 Custom Start G-code
G92 E0 ; Reset Extruder
G28 ; Home all axes
G1 Z2.0 F3000 ; Move Z Axis up little to prevent scratching of Heat Bed
G1 X0.1 Y20 Z0.3 F5000.0 ; Move to start position
G1 X0.1 Y200.0 Z0.3 F1500.0 E15 ; Draw the first line
G1 X0.4 Y200.0 Z0.3 F5000.0 ; Move to side a little
G1 X0.4 Y20 Z0.3 F1500.0 E30 ; Draw the second line
G92 E0 ; Reset Extruder
G1 Z2.0 F3000 ; Move Z Axis up little to prevent scratching of Heat Bed
G1 X5 Y20 Z0.3 F5000.0 ; Move over to prevent blob squish
G92 E0
G92 E0
G1 F2700 E-6
;LAYER_COUNT:75
;LAYER:0
M107
M204 S500
M205 X8 Y8
G0 F7500 X139.637 Y67.311 Z0.2
;TYPE:SKIRT
G1 F2700 E0
G1 F1500 X140.539 Y67.364 E0.02855
G1 X141.432 Y67.496 E0.05707
G1 X142.31 Y67.707 E0.0856
G1 X143.166 Y67.995 E0.11414
G1 X143.993 Y68.357 E0.14267
G1 X144.785 Y68.792 E0.17122
G1 X145.536 Y69.294 E0.19976
G1 X146.239 Y69.861 E0.2283
G1 X146.889 Y70.488 E0.25683
G1 X147.481 Y71.17 E0.28537
G1 X148.011 Y71.901 E0.3139
G1 X148.473 Y72.677 E0.34243
G1 X148.866 Y73.49 E0.37097
G1 X149.184 Y74.335 E0.39949
G1 X149.427 Y75.205 E0.42804
G1 X149.592 Y76.093 E0.45657
G1 X149.687 Y77.223 E0.49241
G1 X149.7 Y77.83 E0.51159
G1 X149.699 Y84.915 E0.73545
G1 X149.681 Y85.926 E0.7674
G1 X149.652 Y86.609 E0.789
G1 X149.578 Y89.237 E0.87207
G1 X149.578 Y91.771 E0.95214
G1 X149.651 Y94.339 E1.03332
G1 X149.679 Y94.945 E1.05248
G1 X149.7 Y95.83 E1.08046
G1 X149.699 Y102.915 E1.30432
G1 X149.681 Y103.926 E1.33627
G1 X149.652 Y104.609 E1.35787
G1 X149.578 Y107.237 E1.44094
G1 X149.578 Y109.771 E1.52101
G1 X149.651 Y112.339 E1.60218
G1 X149.679 Y112.945 E1.62135
G1 X149.7 Y113.83 E1.64932
G1 X149.699 Y120.915 E1.87319
G1 X149.681 Y121.931 E1.9053
G1 X149.628 Y123.149 E1.94382
G1 X149.591 Y123.813 E1.96483
G1 X149.522 Y126.332 E2.04445
G1 X149.524 Y128.855 E2.12417
G1 X149.693 Y133.455 E2.26962
G1 X149.7 Y133.83 E2.28147
G1 X149.699 Y140.905 E2.50502
G1 X149.689 Y141.631 E2.52796
G1 X149.637 Y142.533 E2.55651
G1 X149.505 Y143.426 E2.58503
G1 X149.294 Y144.305 E2.61359
G1 X149.007 Y145.161 E2.64212
G1 X148.645 Y145.988 E2.67065
G1 X148.211 Y146.78 E2.69918
G1 X147.709 Y147.531 E2.72772
G1 X147.143 Y148.235 E2.75627
G1 X146.516 Y148.885 E2.7848
G1 X145.835 Y149.478 E2.81333
G1 X145.103 Y150.007 E2.84187
G1 X144.328 Y150.471 E2.87041
G1 X143.515 Y150.863 E2.89893
G1 X142.67 Y151.183 E2.92748
G1 X141.8 Y151.426 E2.95602
G1 X140.913 Y151.591 E2.98453
G1 X139.777 Y151.687 E3.02055
G1 X139.17 Y151.7 E3.03974
G1 X96.075 Y151.699 E4.40141
G1 X95.377 Y151.69 E4.42347
G1 X94.476 Y151.639 E4.45199
G1 X93.582 Y151.507 E4.48054
G1 X92.704 Y151.298 E4.50906
G1 X91.847 Y151.011 E4.53761
G1 X91.02 Y150.65 E4.56613
G1 X90.227 Y150.217 E4.59467
G1 X89.476 Y149.716 E4.6232
G1 X88.772 Y149.15 E4.65174
G1 X88.121 Y148.524 E4.68028
G1 X87.528 Y147.843 E4.70881
G1 X86.998 Y147.112 E4.73734
G1 X86.534 Y146.337 E4.76588
G1 X86.14 Y145.524 E4.79443
G1 X85.82 Y144.68 E4.82295
G1 X85.576 Y143.81 E4.8515
G1 X85.41 Y142.922 E4.88004
G1 X85.313 Y141.767 E4.91667
G1 X85.3 Y141.158 E4.93591
G1 X85.301 Y134.063 E5.16009
G1 X85.319 Y133.067 E5.19157
G1 X85.372 Y131.851 E5.23003
G1 X85.409 Y131.187 E5.25104
G1 X85.478 Y128.659 E5.33095
G1 X85.476 Y126.145 E5.41038
G1 X85.307 Y121.545 E5.55583
G1 X85.3 Y121.17 E5.56768
G1 X85.301 Y114.065 E5.79218
G1 X85.319 Y113.055 E5.8241
G1 X85.348 Y112.367 E5.84585
G1 X85.422 Y109.763 E5.92817
G1 X85.422 Y107.23 E6.0082
G1 X85.349 Y104.661 E6.08941
G1 X85.321 Y104.056 E6.10854
G1 X85.3 Y103.171 E6.13652
G1 X85.301 Y96.065 E6.36104
G1 X85.319 Y95.055 E6.39296
G1 X85.348 Y94.367 E6.41472
G1 X85.422 Y91.763 E6.49703
G1 X85.422 Y89.229 E6.5771
G1 X85.349 Y86.664 E6.65818
G1 X85.321 Y86.056 E6.67741
G1 X85.3 Y85.171 E6.70538
G1 X85.301 Y78.021 E6.9313
G1 X85.311 Y77.356 E6.95232
G1 X85.365 Y76.454 E6.98087
G1 X85.498 Y75.561 E7.0094
G1 X85.709 Y74.683 E7.03793
G1 X85.998 Y73.827 E7.06647
G1 X86.361 Y73 E7.09501
G1 X86.795 Y72.209 E7.12352
G1 X87.298 Y71.458 E7.15208
G1 X87.866 Y70.756 E7.18061
G1 X88.493 Y70.106 E7.20915
G1 X89.175 Y69.514 E7.23768
G1 X89.907 Y68.985 E7.26622
G1 X90.683 Y68.523 E7.29476
G1 X91.497 Y68.132 E7.32329
G1 X92.342 Y67.813 E7.35183
G1 X93.212 Y67.571 E7.38036
G1 X94.1 Y67.407 E7.40889
G1 X95.223 Y67.313 E7.4445
G1 X95.83 Y67.3 E7.46369
G1 X138.837 Y67.301 E8.82258
G0 F1350 X138.939 Y67.301
G0 X139.637 Y67.311
G0 F7500 X139.643 Y66.911
G1 F1500 X140.562 Y66.964 E8.85167
G1 X141.473 Y67.097 E8.88076
G1 X142.369 Y67.308 E8.90985
G1 X143.243 Y67.596 E8.93892
G1 X144.09 Y67.959 E8.96804
G1 X144.901 Y68.394 E8.99712
G1 X145.671 Y68.898 E9.0262
G1 X146.395 Y69.467 E9.05529
G1 X147.067 Y70.097 E9.0844
G1 X147.682 Y70.782 E9.11348
G1 X148.235 Y71.518 E9.14257
G1 X148.722 Y72.299 E9.17165
G1 X149.139 Y73.12 E9.20075
G1 X149.484 Y73.974 E9.22985
G1 X149.753 Y74.854 E9.25893
G1 X149.945 Y75.755 E9.28804
G1 X150.058 Y76.668 E9.31711
G1 X150.087 Y77.212 E9.33432
G1 X150.1 Y77.83 E9.35385
G1 X150.099 Y84.92 E9.57787
G1 X150.081 Y85.943 E9.6102
G1 X150.052 Y86.638 E9.63218
G1 X149.978 Y89.248 E9.71468
G1 X149.978 Y91.76 E9.79405
G1 X150.051 Y94.352 E9.87599
G1 X150.079 Y94.933 E9.89437
G1 X150.1 Y95.83 E9.92272
G1 X150.099 Y102.92 E10.14674
G1 X150.081 Y103.943 E10.17907
G1 X150.052 Y104.638 E10.20105
G1 X149.978 Y107.248 E10.28355
G1 X149.978 Y109.76 E10.36292
G1 X150.051 Y112.352 E10.44485
G1 X150.079 Y112.933 E10.46323
G1 X150.1 Y113.83 E10.49158
G1 X150.099 Y120.92 E10.71561
G1 X150.08 Y121.948 E10.74809
G1 X150.028 Y123.171 E10.78677
G1 X149.99 Y123.845 E10.8081
G1 X149.922 Y126.346 E10.88716
G1 X149.924 Y128.841 E10.96599
G1 X150.093 Y133.441 E11.11144
G1 X150.1 Y133.83 E11.12373
G1 X150.099 Y140.911 E11.34747
G1 X150.089 Y141.637 E11.37041
G1 X150.036 Y142.556 E11.3995
G1 X149.904 Y143.467 E11.42858
G1 X149.693 Y144.363 E11.45767
G1 X149.406 Y145.238 E11.48676
G1 X149.043 Y146.084 E11.51585
G1 X148.609 Y146.896 E11.54494
G1 X148.105 Y147.667 E11.57405
G1 X147.537 Y148.391 E11.60313
G1 X146.908 Y149.063 E11.63221
G1 X146.223 Y149.678 E11.6613
G1 X145.487 Y150.232 E11.6904
G1 X144.706 Y150.719 E11.71949
G1 X143.885 Y151.137 E11.7486
G1 X143.032 Y151.482 E11.77767
G1 X142.152 Y151.751 E11.80674
G1 X141.251 Y151.944 E11.83586
G1 X140.338 Y152.057 E11.86493
G1 X139.788 Y152.087 E11.88233
G1 X139.17 Y152.1 E11.90186
G1 X96.07 Y152.099 E13.2637
G1 X95.372 Y152.09 E13.28576
G1 X94.453 Y152.038 E13.31484
G1 X93.542 Y151.907 E13.34392
G1 X92.646 Y151.697 E13.373
G1 X91.771 Y151.41 E13.4021
G1 X90.924 Y151.048 E13.4312
G1 X90.112 Y150.614 E13.46029
G1 X89.341 Y150.112 E13.48936
G1 X88.616 Y149.544 E13.51846
G1 X87.943 Y148.915 E13.54757
G1 X87.328 Y148.231 E13.57663
G1 X86.774 Y147.496 E13.60572
G1 X86.286 Y146.715 E13.63481
G1 X85.867 Y145.895 E13.66391
G1 X85.521 Y145.042 E13.693
G1 X85.251 Y144.162 E13.72208
G1 X85.058 Y143.261 E13.7512
G1 X84.944 Y142.348 E13.78027
G1 X84.913 Y141.777 E13.79834
G1 X84.9 Y141.158 E13.8179
G1 X84.901 Y134.057 E14.04227
G1 X84.92 Y133.05 E14.07409
G1 X84.972 Y131.829 E14.11271
G1 X85.01 Y131.155 E14.13404
G1 X85.078 Y128.649 E14.21325
G1 X85.076 Y126.159 E14.29193
G1 X84.907 Y121.559 E14.43737
G1 X84.9 Y121.17 E14.44967
G1 X84.901 Y114.059 E14.67435
G1 X84.92 Y113.038 E14.70662
G1 X84.947 Y112.408 E14.72654
G1 X85.022 Y109.752 E14.8105
G1 X85.022 Y107.241 E14.88984
G1 X84.949 Y104.648 E14.9718
G1 X84.921 Y104.067 E14.99018
G1 X84.9 Y103.171 E15.0185
G1 X84.901 Y96.059 E15.24322
G1 X84.92 Y95.038 E15.27549
G1 X84.947 Y94.408 E15.29541
G1 X85.022 Y91.752 E15.37937
G1 X85.022 Y89.241 E15.45871
G1 X84.949 Y86.65 E15.54061
G1 X84.921 Y86.067 E15.55905
G1 X84.9 Y85.171 E15.58737
G1 X84.901 Y78.015 E15.81348
G1 X84.911 Y77.35 E15.83449
G1 X84.965 Y76.431 E15.86358
G1 X85.098 Y75.52 E15.89267
G1 X85.31 Y74.624 E15.92176
G1 X85.599 Y73.749 E15.95088
G1 X85.963 Y72.904 E15.97995
G1 X86.398 Y72.093 E16.00903
G1 X86.903 Y71.322 E16.03815
G1 X87.472 Y70.599 E16.06722
G1 X88.102 Y69.927 E16.09633
G1 X88.788 Y69.313 E16.12542
G1 X89.524 Y68.761 E16.15449
G1 X90.306 Y68.274 E16.1836
G1 X91.127 Y67.858 E16.21268
G1 X91.981 Y67.514 E16.24177
G1 X92.861 Y67.245 E16.27084
G1 X93.762 Y67.054 E16.29995
G1 X94.676 Y66.942 E16.32904
G1 X95.212 Y66.913 E16.346
G1 X95.83 Y66.9 E16.36553
G1 X138.843 Y66.901 E17.72462
G0 F1350 X138.945 Y66.901
G0 X139.643 Y66.911
G0 F7500 X139.649 Y66.511
G1 F1500 X140.585 Y66.565 E17.75424
G1 X141.513 Y66.697 E17.78386
G1 X142.427 Y66.909 E17.81351
G1 X143.319 Y67.198 E17.84314
G1 X144.184 Y67.561 E17.87278
G1 X145.014 Y67.997 E17.9024
G1 X145.805 Y68.502 E17.93205
G1 X146.549 Y69.073 E17.96169
G1 X147.242 Y69.705 E17.99132
G1 X147.879 Y70.393 E18.02095
G1 X148.454 Y71.134 E18.05058
G1 X148.965 Y71.92 E18.08021
G1 X149.407 Y72.748 E18.10986
G1 X149.776 Y73.61 E18.13949
G1 X150.071 Y74.5 E18.16912
G1 X150.289 Y75.412 E18.19874
G1 X150.429 Y76.34 E18.2284
G1 X150.487 Y77.201 E18.25566
G1 X150.5 Y77.83 E18.27554
G1 X150.499 Y84.926 E18.49976
G1 X150.48 Y85.96 E18.53243
G1 X150.454 Y86.573 E18.55182
G1 X150.378 Y89.259 E18.63672
G1 X150.378 Y91.749 E18.7154
G1 X150.451 Y94.321 E18.7967
G1 X150.478 Y94.922 E18.81571
G1 X150.5 Y95.83 E18.84441
G1 X150.499 Y102.926 E19.06862
G1 X150.48 Y103.96 E19.1013
G1 X150.454 Y104.573 E19.12069
G1 X150.378 Y107.259 E19.20559
G1 X150.378 Y109.749 E19.28427
G1 X150.451 Y112.321 E19.36557
G1 X150.478 Y112.922 E19.38458
G1 X150.5 Y113.83 E19.41327
G1 X150.499 Y120.926 E19.63749
G1 X150.48 Y121.965 E19.67032
G1 X150.427 Y123.193 E19.70916
G1 X150.391 Y123.843 E19.72973
G1 X150.322 Y126.361 E19.80932
G1 X150.324 Y128.825 E19.88718
G1 X150.493 Y133.426 E20.03265
G1 X150.5 Y133.83 E20.04542
G1 X150.499 Y140.917 E20.26935
G1 X150.489 Y141.643 E20.29229
G1 X150.436 Y142.579 E20.32191
G1 X150.304 Y143.507 E20.35153
G1 X150.093 Y144.421 E20.38117
G1 X149.804 Y145.314 E20.41083
G1 X149.441 Y146.178 E20.44044
G1 X149.006 Y147.009 E20.47007
G1 X148.501 Y147.8 E20.49973
G1 X147.931 Y148.544 E20.52934
G1 X147.3 Y149.238 E20.55898
G1 X146.611 Y149.875 E20.58863
G1 X145.871 Y150.451 E20.61826
G1 X145.085 Y150.962 E20.64788
G1 X144.258 Y151.404 E20.67751
G1 X143.396 Y151.774 E20.70715
G1 X142.506 Y152.07 E20.73679
G1 X141.594 Y152.288 E20.76641
G1 X140.666 Y152.428 E20.79607
G1 X139.799 Y152.487 E20.82353
G1 X139.17 Y152.5 E20.8434
G1 X96.065 Y152.499 E22.2054
G1 X95.367 Y152.49 E22.22746
G1 X94.431 Y152.438 E22.25708
G1 X93.502 Y152.306 E22.28672
G1 X92.588 Y152.096 E22.31636
G1 X91.695 Y151.809 E22.34599
G1 X90.83 Y151.446 E22.37564
G1 X89.999 Y151.012 E22.40526
G1 X89.208 Y150.508 E22.43489
G1 X88.463 Y149.938 E22.46453
G1 X87.769 Y149.307 E22.49417
G1 X87.132 Y148.62 E22.52377
G1 X86.555 Y147.88 E22.55342
G1 X86.043 Y147.094 E22.58306
G1 X85.6 Y146.267 E22.61271
G1 X85.229 Y145.406 E22.64233
G1 X84.933 Y144.516 E22.67197
G1 X84.714 Y143.604 E22.7016
G1 X84.573 Y142.677 E22.73123
G1 X84.513 Y141.788 E22.75938
G1 X84.5 Y141.158 E22.77929
G1 X84.501 Y134.051 E23.00385
G1 X84.52 Y133.033 E23.03602
G1 X84.573 Y131.807 E23.0748
G1 X84.609 Y131.157 E23.09537
G1 X84.678 Y128.639 E23.17496
G1 X84.676 Y126.175 E23.25282
G1 X84.507 Y121.574 E23.39829
G1 X84.5 Y121.17 E23.41106
G1 X84.501 Y114.054 E23.6359
G1 X84.52 Y113.021 E23.66855
G1 X84.547 Y112.379 E23.68885
G1 X84.622 Y109.741 E23.77224
G1 X84.622 Y107.252 E23.85088
G1 X84.549 Y104.679 E23.93222
G1 X84.522 Y104.079 E23.95119
G1 X84.5 Y103.171 E23.97989
G1 X84.501 Y96.054 E24.20477
G1 X84.52 Y95.021 E24.23742
G1 X84.547 Y94.379 E24.25772
G1 X84.622 Y91.741 E24.34111
G1 X84.622 Y89.252 E24.41975
G1 X84.549 Y86.681 E24.50102
G1 X84.522 Y86.079 E24.52006
G1 X84.5 Y85.171 E24.54876
G1 X84.501 Y78.009 E24.77506
G1 X84.511 Y77.344 E24.79607
G1 X84.565 Y76.407 E24.82573
G1 X84.699 Y75.479 E24.85535
G1 X84.911 Y74.565 E24.885
G1 X85.2 Y73.673 E24.91463
G1 X85.565 Y72.809 E24.94426
G1 X86.001 Y71.979 E24.97389
G1 X86.507 Y71.189 E25.00353
G1 X87.078 Y70.445 E25.03316
G1 X87.71 Y69.752 E25.0628
G1 X88.399 Y69.116 E25.09243
G1 X89.14 Y68.541 E25.12206
G1 X89.927 Y68.031 E25.15169
G1 X90.755 Y67.59 E25.18134
G1 X91.617 Y67.221 E25.21096
G1 X92.508 Y66.927 E25.24061
G1 X93.42 Y66.709 E25.27024
G1 X94.347 Y66.571 E25.29985
G1 X95.201 Y66.513 E25.3269
G1 X95.83 Y66.5 E25.34678
G1 X138.849 Y66.501 E26.70605
G0 F1350 X138.951 Y66.501
G0 X139.649 Y66.511
G1 F2700 E20.70605
;MESH:exterior_part1.stl
G0 F7500 X130.847 Y81.103
G0 X131.284 Y79.26
G0 X103.072 Y80.022
G0 X102.5 Y83.95
;TYPE:WALL-INNER
G1 F2700 E26.70605
G1 F1500 X132.5 Y83.95 E27.65397
G1 X132.5 Y79.456 E27.79596
G1 X131.283 Y79.45 E27.83442
G1 X102.5 Y79.45 E28.74388
G1 X102.5 Y83.15 E28.86079
G0 F1350 X102.5 Y83.95
G0 F7500 X102.9 Y83.55
G1 F1500 X132.1 Y83.55 E29.78342
G1 X132.1 Y79.854 E29.90021
G1 X131.282 Y79.85 E29.92605
G1 X102.9 Y79.85 E30.82284
G1 X102.9 Y82.75 E30.91448
G0 F1350 X102.9 Y83.55
G0 F7500 X103.3 Y83.15
;TYPE:WALL-OUTER
G1 F1500 X131.7 Y83.15 E31.76697
G1 X131.7 Y80.252 E31.85396
G1 X131.281 Y80.25 E31.86653
G1 X103.3 Y80.25 E32.70645
G1 X103.3 Y82.35 E32.76948
G0 F1350 X103.3 Y83.15
G0 F7500 X103.7 Y83.15
G0 X103.7 Y83.59
G1 F2700 E26.76948
G0 F7500 X102.304 Y84.146
G0 X102.304 Y84.29
G0 X96.5 Y84.5
;TYPE:WALL-INNER
G1 F2700 E32.76948
G1 F1500 X96.5 Y78.5 E32.95907
G1 X138.5 Y78.5 E34.28614
G1 X138.5 Y84.5 E34.47573
G1 X97.3 Y84.5 E35.77753
G0 F1350 X96.5 Y84.5
G0 F7500 X96.1 Y84.9
G1 F1500 X96.1 Y78.1 E35.99239
G1 X138.9 Y78.1 E37.34475
G1 X138.9 Y84.9 E37.55961
G1 X96.9 Y84.9 E38.88669
G0 F1350 X96.1 Y84.9
G0 F7500 X95.7 Y85.3
;TYPE:WALL-OUTER
G1 F1500 X95.7 Y77.7 E39.11482
G1 X139.3 Y77.7 E40.42357
G1 X139.3 Y85.3 E40.6517
G1 X96.5 Y85.3 E41.93644
G0 F1350 X95.7 Y85.3
G0 F7500 X95.7 Y84.9
G0 X96.14 Y84.86
G0 X96.61 Y84.11
G0 X96.89 Y84.11
;TYPE:SKIN
G1 F1500 X96.89 Y78.89 E42.10138
G1 X138.11 Y78.89 E43.40381
G1 X138.11 Y84.11 E43.56875
G1 X132.89 Y84.11 E43.73369
G1 X132.89 Y79.068 E43.893
G1 X131.285 Y79.06 E43.94371
G1 X102.11 Y79.06 E44.86556
G1 X102.11 Y84.11 E45.02512
G1 X97.69 Y84.11 E45.16478
G0 F1350 X96.89 Y84.11
G0 F7500 X97.526 Y83.949
G1 F1500 X97.048 Y83.472 E45.18612
G0 F7500 X97.048 Y82.906
G1 F1500 X98.091 Y83.949 E45.23273
G0 F7500 X98.657 Y83.949
G1 F1500 X97.048 Y82.341 E45.3046
G0 F7500 X97.048 Y81.775
G1 F1500 X99.223 Y83.949 E45.40177
G0 F7500 X99.789 Y83.949
G1 F1500 X97.048 Y81.209 E45.52423
G0 F7500 X97.048 Y80.644
G1 F1500 X100.354 Y83.949 E45.67194
G0 F7500 X100.92 Y83.949
G1 F1500 X97.048 Y80.078 E45.84494
G0 F7500 X97.048 Y79.512
G1 F1500 X101.486 Y83.949 E46.04323
G0 F7500 X101.949 Y83.847
G1 F1500 X97.152 Y79.05 E46.25758
G0 F7500 X97.717 Y79.05
G1 F1500 X101.949 Y83.281 E46.44667
G0 F7500 X101.949 Y82.715
G1 F1500 X98.283 Y79.05 E46.61046
G0 F7500 X98.849 Y79.05
G1 F1500 X101.949 Y82.15 E46.74898
G0 F7500 X101.949 Y81.584
G1 F1500 X99.414 Y79.05 E46.86224
G0 F7500 X99.98 Y79.05
G1 F1500 X101.949 Y81.018 E46.9502
G0 F7500 X101.949 Y80.453
G1 F1500 X100.546 Y79.05 E47.01289
G0 F7500 X101.112 Y79.05
G1 F1500 X101.949 Y79.887 E47.05029
G0 F7500 X101.949 Y79.321
G1 F1500 X101.677 Y79.05 E47.06243
G1 F2700 E41.06243
G0 F7500 X101.677 Y78.61
G0 X132.61 Y78.71
G0 X132.606 Y79.266
G0 X132.61 Y79.346
G0 X133.049 Y79.309
G1 F2700 E47.06243
G1 F1500 X137.689 Y83.949 E47.26976
G0 F7500 X137.949 Y83.643
G1 F1500 X133.356 Y79.05 E47.475
G0 F7500 X133.921 Y79.05
G1 F1500 X137.949 Y83.077 E47.65497
G0 F7500 X137.949 Y82.512
G1 F1500 X134.487 Y79.05 E47.80967
G0 F7500 X135.053 Y79.05
G1 F1500 X137.949 Y81.946 E47.93908
G0 F7500 X137.949 Y81.38
G1 F1500 X135.618 Y79.05 E48.04322
G0 F7500 X136.184 Y79.05
G1 F1500 X137.949 Y80.815 E48.12209
G0 F7500 X137.949 Y80.249
G1 F1500 X136.75 Y79.05 E48.17567
G0 F7500 X137.315 Y79.05
G1 F1500 X137.949 Y79.683 E48.20397
G0 F7500 X137.949 Y79.118
G1 F1500 X137.881 Y79.05 E48.20701
G1 F2700 E42.20701
G0 F7500 X137.881 Y78.61
G0 X132.61 Y78.71
G0 X132.606 Y79.266
G0 X132.61 Y79.874
G0 X133.049 Y79.874
