;FLAVOR:Marlin
;TIME:8402
;Filament used: 5.60279m
;Layer height: 0.2
;MINX:84.5
;MINY:82.5
;MINZ:0.2
;MAXX:150.5
;MAXY:168.5
;MAXZ:15
;Generated with Cura_SteamEngine 4.6.1
M140 S60
M105
M190 S60
M104 S200
M105
M109 S200
M82 ;absolute extrusion mode
; Ender 3 Custom Start G-code
G92 E0 ; Reset Extruder
G28 ; Home all axes
G1 Z2.0 F3000 ; Move Z Axis up little to prevent scratching of Heat Bed
G1 X0.1 Y20 Z0.3 F5000.0 ; Move to start position
G1 X0.1 Y200.0 Z0.3 F1500.0 E15 ; Draw the first line
G1 X0.4 Y200.0 Z0.3 F5000.0 ; Move to side a little
G1 X0.4 Y20 Z0.3 F1500.0 E30 ; Draw the second line
G92 E0 ; Reset Extruder
G1 Z2.0 F3000 ; Move Z Axis up little to prevent scratching of Heat Bed
G1 X5 Y20 Z0.3 F5000.0 ; Move over to prevent blob squish
G92 E0
G92 E0
G1 F2700 E-6
;LAYER_COUNT:75
;LAYER:0
M107
M204 S500
M205 X8 Y8
G0 F7500 X139.637 Y83.311 Z0.2
;TYPE:SKIRT
G1 F2700 E0
G1 F1500 X140.539 Y83.364 E0.02855
G1 X141.432 Y83.496 E0.05707
G1 X142.31 Y83.707 E0.0856
G1 X143.166 Y83.995 E0.11414
G1 X143.993 Y84.357 E0.14267
G1 X144.785 Y84.792 E0.17122
G1 X145.536 Y85.294 E0.19976
G1 X146.239 Y85.861 E0.2283
G1 X146.889 Y86.488 E0.25683
G1 X147.481 Y87.17 E0.28537
G1 X148.011 Y87.901 E0.3139
G1 X148.473 Y88.677 E0.34243
G1 X148.866 Y89.49 E0.37097
G1 X149.184 Y90.335 E0.39949
G1 X149.427 Y91.205 E0.42804
G1 X149.592 Y92.093 E0.45657
G1 X149.687 Y93.223 E0.49241
G1 X149.7 Y93.83 E0.51159
G1 X149.699 Y100.915 E0.73545
G1 X149.681 Y101.931 E0.76756
G1 X149.628 Y103.149 E0.80608
G1 X149.591 Y103.813 E0.8271
G1 X149.522 Y106.332 E0.90672
G1 X149.524 Y108.855 E0.98644
G1 X149.693 Y113.455 E1.13188
G1 X149.7 Y113.83 E1.14374
G1 X149.699 Y120.914 E1.36757
G1 X149.681 Y121.928 E1.39961
G1 X149.652 Y122.612 E1.42125
G1 X149.578 Y125.237 E1.50422
G1 X149.578 Y127.77 E1.58426
G1 X149.651 Y130.339 E1.66546
G1 X149.679 Y130.944 E1.6846
G1 X149.7 Y131.829 E1.71257
G1 X149.699 Y138.914 E1.93644
G1 X149.681 Y139.928 E1.96848
G1 X149.652 Y140.612 E1.99011
G1 X149.578 Y143.237 E2.07309
G1 X149.578 Y145.771 E2.15316
G1 X149.651 Y148.336 E2.23423
G1 X149.679 Y148.944 E2.25347
G1 X149.7 Y149.829 E2.28144
G1 X149.699 Y156.904 E2.50499
G1 X149.689 Y157.631 E2.52796
G1 X149.637 Y158.533 E2.55651
G1 X149.505 Y159.426 E2.58503
G1 X149.294 Y160.305 E2.61359
G1 X149.007 Y161.161 E2.64212
G1 X148.645 Y161.988 E2.67065
G1 X148.211 Y162.78 E2.69918
G1 X147.709 Y163.531 E2.72772
G1 X147.143 Y164.234 E2.75624
G1 X146.516 Y164.885 E2.7848
G1 X145.835 Y165.477 E2.81331
G1 X145.104 Y166.007 E2.84184
G1 X144.328 Y166.47 E2.87039
G1 X143.515 Y166.863 E2.89893
G1 X142.67 Y167.183 E2.92748
G1 X141.801 Y167.426 E2.95599
G1 X140.913 Y167.591 E2.98453
G1 X139.777 Y167.687 E3.02055
G1 X139.17 Y167.7 E3.03973
G1 X96.075 Y167.699 E4.40141
G1 X95.377 Y167.69 E4.42347
G1 X94.476 Y167.639 E4.45198
G1 X93.582 Y167.507 E4.48054
G1 X92.704 Y167.298 E4.50905
G1 X91.847 Y167.011 E4.53761
G1 X91.02 Y166.65 E4.56612
G1 X90.227 Y166.217 E4.59467
G1 X89.476 Y165.716 E4.62319
G1 X88.772 Y165.15 E4.65174
G1 X88.121 Y164.524 E4.68027
G1 X87.528 Y163.843 E4.70881
G1 X86.998 Y163.112 E4.73734
G1 X86.534 Y162.337 E4.76588
G1 X86.14 Y161.524 E4.79442
G1 X85.82 Y160.68 E4.82294
G1 X85.576 Y159.81 E4.85149
G1 X85.41 Y158.922 E4.88004
G1 X85.313 Y157.767 E4.91666
G1 X85.3 Y157.158 E4.93591
G1 X85.301 Y150.065 E5.16003
G1 X85.319 Y149.056 E5.19191
G1 X85.348 Y148.367 E5.2137
G1 X85.422 Y145.763 E5.29601
G1 X85.422 Y143.229 E5.37608
G1 X85.349 Y140.661 E5.45726
G1 X85.321 Y140.055 E5.47642
G1 X85.3 Y139.17 E5.5044
G1 X85.301 Y132.065 E5.72889
G1 X85.319 Y131.056 E5.76078
G1 X85.348 Y130.367 E5.78257
G1 X85.422 Y127.763 E5.86488
G1 X85.422 Y125.229 E5.94495
G1 X85.349 Y122.661 E6.02612
G1 X85.321 Y122.055 E6.04529
G1 X85.3 Y121.17 E6.07326
G1 X85.301 Y114.063 E6.29782
G1 X85.319 Y113.067 E6.3293
G1 X85.372 Y111.851 E6.36776
G1 X85.409 Y111.187 E6.38877
G1 X85.478 Y108.659 E6.46868
G1 X85.476 Y106.145 E6.54811
G1 X85.307 Y101.545 E6.69356
G1 X85.3 Y101.17 E6.70541
G1 X85.301 Y94.021 E6.9313
G1 X85.311 Y93.356 E6.95231
G1 X85.365 Y92.454 E6.98086
G1 X85.498 Y91.561 E7.00939
G1 X85.709 Y90.683 E7.03792
G1 X85.998 Y89.827 E7.06647
G1 X86.361 Y89 E7.09501
G1 X86.795 Y88.209 E7.12352
G1 X87.298 Y87.458 E7.15208
G1 X87.866 Y86.756 E7.18061
G1 X88.493 Y86.106 E7.20914
G1 X89.175 Y85.514 E7.23768
G1 X89.907 Y84.985 E7.26622
G1 X90.683 Y84.523 E7.29475
G1 X91.497 Y84.132 E7.32329
G1 X92.342 Y83.813 E7.35182
G1 X93.212 Y83.571 E7.38036
G1 X94.1 Y83.407 E7.40889
G1 X95.223 Y83.313 E7.4445
G1 X95.83 Y83.3 E7.46368
G1 X138.837 Y83.301 E8.82258
G0 F1350 X138.939 Y83.301
G0 X139.637 Y83.311
G0 F7500 X139.643 Y82.911
G1 F1500 X140.562 Y82.964 E8.85167
G1 X141.473 Y83.097 E8.88076
G1 X142.369 Y83.308 E8.90984
G1 X143.243 Y83.596 E8.93892
G1 X144.09 Y83.959 E8.96803
G1 X144.901 Y84.394 E8.99711
G1 X145.671 Y84.898 E9.02619
G1 X146.395 Y85.467 E9.05529
G1 X147.067 Y86.097 E9.08439
G1 X147.682 Y86.782 E9.11348
G1 X148.235 Y87.518 E9.14257
G1 X148.722 Y88.299 E9.17165
G1 X149.139 Y89.12 E9.20075
G1 X149.484 Y89.974 E9.22985
G1 X149.753 Y90.854 E9.25892
G1 X149.945 Y91.755 E9.28803
G1 X150.058 Y92.668 E9.3171
G1 X150.087 Y93.212 E9.33431
G1 X150.1 Y93.83 E9.35385
G1 X150.099 Y100.92 E9.57787
G1 X150.08 Y101.948 E9.61036
G1 X150.028 Y103.171 E9.64903
G1 X149.99 Y103.845 E9.67036
G1 X149.922 Y106.346 E9.74942
G1 X149.924 Y108.841 E9.82825
G1 X150.093 Y113.441 E9.9737
G1 X150.1 Y113.83 E9.98599
G1 X150.099 Y120.92 E10.21001
G1 X150.081 Y121.945 E10.24241
G1 X150.052 Y122.642 E10.26445
G1 X149.978 Y125.248 E10.34682
G1 X149.978 Y127.759 E10.42616
G1 X150.051 Y130.352 E10.50813
G1 X150.079 Y130.933 E10.52651
G1 X150.1 Y131.829 E10.55483
G1 X150.099 Y138.92 E10.77888
G1 X150.081 Y139.945 E10.81127
G1 X150.052 Y140.642 E10.83332
G1 X149.978 Y143.248 E10.91569
G1 X149.978 Y145.759 E10.99503
G1 X150.051 Y148.35 E11.07693
G1 X150.079 Y148.933 E11.09538
G1 X150.1 Y149.829 E11.12369
G1 X150.099 Y156.91 E11.34743
G1 X150.089 Y157.637 E11.37041
G1 X150.036 Y158.556 E11.39949
G1 X149.904 Y159.467 E11.42858
G1 X149.693 Y160.363 E11.45766
G1 X149.406 Y161.238 E11.48676
G1 X149.043 Y162.084 E11.51585
G1 X148.609 Y162.896 E11.54494
G1 X148.105 Y163.667 E11.57404
G1 X147.537 Y164.391 E11.60312
G1 X146.908 Y165.063 E11.6322
G1 X146.223 Y165.678 E11.66129
G1 X145.487 Y166.231 E11.69038
G1 X144.706 Y166.719 E11.71948
G1 X143.886 Y167.137 E11.74856
G1 X143.032 Y167.482 E11.77766
G1 X142.152 Y167.751 E11.80674
G1 X141.251 Y167.944 E11.83585
G1 X140.338 Y168.057 E11.86492
G1 X139.788 Y168.087 E11.88233
G1 X139.17 Y168.1 E11.90186
G1 X96.07 Y168.099 E13.26369
G1 X95.372 Y168.09 E13.28575
G1 X94.453 Y168.038 E13.31483
G1 X93.542 Y167.907 E13.34392
G1 X92.646 Y167.697 E13.37299
G1 X91.771 Y167.41 E13.40209
G1 X90.924 Y167.048 E13.43119
G1 X90.112 Y166.614 E13.46029
G1 X89.341 Y166.112 E13.48936
G1 X88.616 Y165.544 E13.51846
G1 X87.943 Y164.915 E13.54756
G1 X87.328 Y164.231 E13.57663
G1 X86.774 Y163.496 E13.60571
G1 X86.286 Y162.715 E13.63481
G1 X85.867 Y161.895 E13.66391
G1 X85.521 Y161.042 E13.69299
G1 X85.251 Y160.162 E13.72208
G1 X85.058 Y159.261 E13.75119
G1 X84.944 Y158.348 E13.78026
G1 X84.913 Y157.777 E13.79833
G1 X84.9 Y157.158 E13.81789
G1 X84.901 Y150.059 E14.0422
G1 X84.92 Y149.039 E14.07444
G1 X84.947 Y148.408 E14.09439
G1 X85.022 Y145.752 E14.17835
G1 X85.022 Y143.24 E14.25772
G1 X84.949 Y140.648 E14.33965
G1 X84.921 Y140.067 E14.35803
G1 X84.9 Y139.17 E14.38638
G1 X84.901 Y132.059 E14.61107
G1 X84.92 Y131.039 E14.6433
G1 X84.947 Y130.408 E14.66326
G1 X85.022 Y127.752 E14.74722
G1 X85.022 Y125.24 E14.82659
G1 X84.949 Y122.648 E14.90852
G1 X84.921 Y122.067 E14.9269
G1 X84.9 Y121.17 E14.95525
G1 X84.901 Y114.057 E15.18
G1 X84.92 Y113.05 E15.21182
G1 X84.972 Y111.829 E15.25044
G1 X85.01 Y111.155 E15.27177
G1 X85.078 Y108.649 E15.35098
G1 X85.076 Y106.159 E15.42966
G1 X84.907 Y101.559 E15.5751
G1 X84.9 Y101.17 E15.5874
G1 X84.901 Y94.015 E15.81347
G1 X84.911 Y93.35 E15.83449
G1 X84.965 Y92.431 E15.86357
G1 X85.098 Y91.52 E15.89266
G1 X85.31 Y90.624 E15.92176
G1 X85.599 Y89.749 E15.95087
G1 X85.963 Y88.904 E15.97995
G1 X86.398 Y88.093 E16.00902
G1 X86.903 Y87.322 E16.03815
G1 X87.472 Y86.599 E16.06722
G1 X88.102 Y85.927 E16.09632
G1 X88.788 Y85.313 E16.12541
G1 X89.524 Y84.761 E16.15448
G1 X90.306 Y84.274 E16.18359
G1 X91.127 Y83.858 E16.21267
G1 X91.981 Y83.514 E16.24176
G1 X92.861 Y83.245 E16.27084
G1 X93.762 Y83.054 E16.29994
G1 X94.676 Y82.942 E16.32904
G1 X95.212 Y82.913 E16.346
G1 X95.83 Y82.9 E16.36553
G1 X138.843 Y82.901 E17.72461
G0 F1350 X138.945 Y82.901
G0 X139.643 Y82.911
G0 F7500 X139.649 Y82.511
G1 F1500 X140.585 Y82.565 E17.75424
G1 X141.513 Y82.697 E17.78386
G1 X142.427 Y82.909 E17.8135
G1 X143.319 Y83.198 E17.84313
G1 X144.184 Y83.561 E17.87277
G1 X145.014 Y83.997 E17.90239
G1 X145.805 Y84.502 E17.93205
G1 X146.549 Y85.073 E17.96168
G1 X147.242 Y85.705 E17.99132
G1 X147.879 Y86.393 E18.02094
G1 X148.454 Y87.134 E18.05058
G1 X148.965 Y87.92 E18.0802
G1 X149.407 Y88.748 E18.10986
G1 X149.776 Y89.61 E18.13948
G1 X150.071 Y90.5 E18.16911
G1 X150.289 Y91.412 E18.19874
G1 X150.429 Y92.34 E18.22839
G1 X150.487 Y93.201 E18.25566
G1 X150.5 Y93.83 E18.27554
G1 X150.499 Y100.926 E18.49975
G1 X150.48 Y101.965 E18.53259
G1 X150.427 Y103.193 E18.57142
G1 X150.391 Y103.843 E18.59199
G1 X150.322 Y106.361 E18.67158
G1 X150.324 Y108.825 E18.74944
G1 X150.493 Y113.426 E18.89492
G1 X150.5 Y113.83 E18.90768
G1 X150.499 Y120.926 E19.1319
G1 X150.48 Y121.962 E19.16464
G1 X150.454 Y122.573 E19.18396
G1 X150.378 Y125.259 E19.26886
G1 X150.378 Y127.748 E19.34751
G1 X150.451 Y130.321 E19.42884
G1 X150.478 Y130.921 E19.44782
G1 X150.5 Y131.829 E19.47652
G1 X150.499 Y138.926 E19.70076
G1 X150.48 Y139.962 E19.7335
G1 X150.454 Y140.573 E19.75283
G1 X150.378 Y143.259 E19.83773
G1 X150.378 Y145.748 E19.91637
G1 X150.451 Y148.319 E19.99764
G1 X150.478 Y148.921 E20.01668
G1 X150.5 Y149.829 E20.04538
G1 X150.499 Y156.915 E20.26928
G1 X150.489 Y157.642 E20.29225
G1 X150.436 Y158.579 E20.32191
G1 X150.304 Y159.507 E20.35152
G1 X150.093 Y160.421 E20.38116
G1 X149.804 Y161.313 E20.41079
G1 X149.441 Y162.178 E20.44043
G1 X149.006 Y163.009 E20.47007
G1 X148.501 Y163.799 E20.49969
G1 X147.931 Y164.544 E20.52933
G1 X147.3 Y165.238 E20.55897
G1 X146.611 Y165.875 E20.58862
G1 X145.871 Y166.451 E20.61825
G1 X145.085 Y166.962 E20.64787
G1 X144.258 Y167.404 E20.6775
G1 X143.396 Y167.774 E20.70714
G1 X142.506 Y168.069 E20.73677
G1 X141.594 Y168.288 E20.7664
G1 X140.667 Y168.428 E20.79603
G1 X139.799 Y168.487 E20.82352
G1 X139.17 Y168.5 E20.84339
G1 X96.065 Y168.499 E22.20539
G1 X95.367 Y168.49 E22.22745
G1 X94.431 Y168.438 E22.25707
G1 X93.502 Y168.306 E22.28671
G1 X92.588 Y168.096 E22.31635
G1 X91.695 Y167.809 E22.34598
G1 X90.83 Y167.446 E22.37562
G1 X89.999 Y167.012 E22.40525
G1 X89.208 Y166.508 E22.43488
G1 X88.463 Y165.938 E22.46452
G1 X87.769 Y165.307 E22.49416
G1 X87.132 Y164.62 E22.52376
G1 X86.555 Y163.88 E22.55341
G1 X86.043 Y163.094 E22.58305
G1 X85.6 Y162.267 E22.6127
G1 X85.229 Y161.406 E22.64232
G1 X84.933 Y160.516 E22.67195
G1 X84.714 Y159.604 E22.70159
G1 X84.573 Y158.677 E22.73122
G1 X84.513 Y157.788 E22.75937
G1 X84.5 Y157.158 E22.77928
G1 X84.501 Y150.054 E23.00375
G1 X84.52 Y149.022 E23.03636
G1 X84.547 Y148.379 E23.0567
G1 X84.622 Y145.741 E23.14008
G1 X84.622 Y143.251 E23.21876
G1 X84.549 Y140.679 E23.30006
G1 X84.522 Y140.078 E23.31907
G1 X84.5 Y139.17 E23.34777
G1 X84.501 Y132.054 E23.57261
G1 X84.52 Y131.022 E23.60523
G1 X84.547 Y130.379 E23.62556
G1 X84.622 Y127.741 E23.70895
G1 X84.622 Y125.251 E23.78763
G1 X84.549 Y122.679 E23.86893
G1 X84.522 Y122.078 E23.88794
G1 X84.5 Y121.17 E23.91663
G1 X84.501 Y114.051 E24.14157
G1 X84.52 Y113.033 E24.17375
G1 X84.573 Y111.807 E24.21252
G1 X84.609 Y111.157 E24.23309
G1 X84.678 Y108.639 E24.31268
G1 X84.676 Y106.175 E24.39054
G1 X84.507 Y101.574 E24.53601
G1 X84.5 Y101.17 E24.54878
G1 X84.501 Y94.009 E24.77505
G1 X84.511 Y93.344 E24.79606
G1 X84.565 Y92.407 E24.82572
G1 X84.699 Y91.479 E24.85534
G1 X84.911 Y90.565 E24.88499
G1 X85.2 Y89.673 E24.91462
G1 X85.565 Y88.809 E24.94425
G1 X86.001 Y87.979 E24.97388
G1 X86.507 Y87.189 E25.00352
G1 X87.078 Y86.445 E25.03315
G1 X87.71 Y85.752 E25.06279
G1 X88.399 Y85.116 E25.09242
G1 X89.14 Y84.541 E25.12205
G1 X89.927 Y84.031 E25.15168
G1 X90.755 Y83.59 E25.18133
G1 X91.617 Y83.221 E25.21095
G1 X92.508 Y82.927 E25.2406
G1 X93.42 Y82.709 E25.27023
G1 X94.347 Y82.571 E25.29984
G1 X95.201 Y82.513 E25.32689
G1 X95.83 Y82.5 E25.34677
G1 X138.849 Y82.501 E26.70604
G0 F1350 X138.951 Y82.501
G0 X139.649 Y82.511
G1 F2700 E20.70604
;MESH:exterior_part2.stl(1)
G0 F7500 X108.651 Y97.015
G0 X108.651 Y95.18
G0 X103.022 Y95.922
G0 X102.45 Y100.05
;TYPE:WALL-INNER
G1 F2700 E26.70604
G1 F1500 X132.55 Y100.05 E27.65712
G1 X132.55 Y95.362 E27.80524
G1 X131.334 Y95.35 E27.84367
G1 X102.45 Y95.35 E28.75632
G1 X102.45 Y99.25 E28.87955
G0 F1350 X102.45 Y100.05
G0 F7500 X102.85 Y99.65
G1 F1500 X132.15 Y99.65 E29.80534
G1 X132.15 Y95.758 E29.92832
G1 X131.332 Y95.75 E29.95417
G1 X102.85 Y95.75 E30.85412
G1 X102.85 Y98.85 E30.95207
G0 F1350 X102.85 Y99.65
G0 F7500 X103.25 Y99.25
;TYPE:WALL-OUTER
G1 F1500 X131.75 Y99.25 E31.80756
G1 X131.75 Y96.154 E31.90049
G1 X131.33 Y96.15 E31.9131
G1 X103.25 Y96.15 E32.75599
G1 X103.25 Y98.45 E32.82503
G0 F1350 X103.25 Y99.25
G0 F7500 X103.65 Y99.25
G0 X103.65 Y99.69
G1 F2700 E26.82503
G0 F7500 X102.254 Y100.246
G0 X96.5 Y100.5
;TYPE:WALL-INNER
G1 F2700 E32.82503
G1 F1500 X96.5 Y94.5 E33.01461
G1 X138.5 Y94.5 E34.34169
G1 X138.5 Y100.5 E34.53127
G1 X97.3 Y100.5 E35.83307
G0 F1350 X96.5 Y100.5
G0 F7500 X96.1 Y100.9
G1 F1500 X96.1 Y94.1 E36.04793
G1 X138.9 Y94.1 E37.40029
G1 X138.9 Y100.9 E37.61515
G1 X96.9 Y100.9 E38.94223
G0 F1350 X96.1 Y100.9
G0 F7500 X95.7 Y101.3
;TYPE:WALL-OUTER
G1 F1500 X95.7 Y93.7 E39.17036
G1 X139.3 Y93.7 E40.47911
G1 X139.3 Y101.3 E40.70725
G1 X96.5 Y101.3 E41.99198
G0 F1350 X95.7 Y101.3
G0 F7500 X95.7 Y100.9
G0 X96.14 Y100.86
G0 X96.61 Y100.11
G0 X96.89 Y100.11
;TYPE:SKIN
G1 F1500 X96.89 Y94.89 E42.15692
G1 X138.11 Y94.89 E43.45936
G1 X138.11 Y100.11 E43.62429
G1 X132.94 Y100.11 E43.78765
G1 X132.94 Y94.976 E43.94987
G1 X131.336 Y94.96 E44.00055
G1 X102.06 Y94.96 E44.92559
G1 X102.06 Y100.11 E45.08832
G1 X97.69 Y100.11 E45.2264
G0 F1350 X96.89 Y100.11
G0 F7500 X97.121 Y99.949
G1 F1500 X97.049 Y99.878 E45.22959
G0 F7500 X97.049 Y99.312
G1 F1500 X97.686 Y99.949 E45.25806
G0 F7500 X98.252 Y99.949
G1 F1500 X97.049 Y98.746 E45.31181
G0 F7500 X97.049 Y98.181
G1 F1500 X98.818 Y99.949 E45.39084
G0 F7500 X99.383 Y99.949
G1 F1500 X97.049 Y97.615 E45.49513
G0 F7500 X97.049 Y97.049
G1 F1500 X99.949 Y99.949 E45.62472
G0 F7500 X100.515 Y99.949
G1 F1500 X97.049 Y96.484 E45.77957
G0 F7500 X97.049 Y95.918
G1 F1500 X101.08 Y99.949 E45.9597
G0 F7500 X101.646 Y99.949
G1 F1500 X97.049 Y95.352 E46.16512
G0 F7500 X97.312 Y95.05
G1 F1500 X101.899 Y99.636 E46.37007
G0 F7500 X101.899 Y99.07
G1 F1500 X97.878 Y95.05 E46.54972
G0 F7500 X98.444 Y95.05
G1 F1500 X101.899 Y98.504 E46.70409
G0 F7500 X101.899 Y97.939
G1 F1500 X99.009 Y95.05 E46.8332
G0 F7500 X99.575 Y95.05
G1 F1500 X101.899 Y97.373 E46.93703
G0 F7500 X101.899 Y96.807
G1 F1500 X100.141 Y95.05 E47.01556
G0 F7500 X100.706 Y95.05
G1 F1500 X101.899 Y96.242 E47.06885
G0 F7500 X101.899 Y95.676
G1 F1500 X101.272 Y95.05 E47.09685
G0 F7500 X101.838 Y95.05
G1 F1500 X101.899 Y95.11 E47.09955
G1 F2700 E41.09955
G0 F7500 X102.31 Y95.21
G0 X132.66 Y95.198
G0 X133.099 Y95.198
G1 F2700 E47.09955
G1 F1500 X137.85 Y99.949 E47.31185
G0 F7500 X137.949 Y99.482
G1 F1500 X133.516 Y95.05 E47.50992
G0 F7500 X134.082 Y95.05
G1 F1500 X137.949 Y98.917 E47.68271
G0 F7500 X137.949 Y98.351
G1 F1500 X134.647 Y95.05 E47.83024
G0 F7500 X135.213 Y95.05
G1 F1500 X137.949 Y97.785 E47.95248
G0 F7500 X137.949 Y97.22
G1 F1500 X135.779 Y95.05 E48.04944
G0 F7500 X136.345 Y95.05
G1 F1500 X137.949 Y96.654 E48.12112
G0 F7500 X137.949 Y96.088
G1 F1500 X136.91 Y95.05 E48.16752
G0 F7500 X137.476 Y95.05
G1 F1500 X137.949 Y95.523 E48.18866
G0 F7500 X138.39 Y95.523
G0 X138.318 Y100.318
G0 X137.284 Y100.39
