;FLAVOR:Marlin
;TIME:1215
;Filament used: 0.555182m
;Layer height: 0.12
;MINX:66.286
;MINY:83.124
;MINZ:0.2
;MAXX:152.311
;MAXY:184.932
;MAXZ:0.56
;Generated with Cura_SteamEngine 4.6.1
M140 S60
M105
M190 S60
M104 S200
M105
M109 S200
M82 ;absolute extrusion mode
; Ender 3 Custom Start G-code
G92 E0 ; Reset Extruder
G28 ; Home all axes
G1 Z2.0 F3000 ; Move Z Axis up little to prevent scratching of Heat Bed
G1 X0.1 Y20 Z0.3 F5000.0 ; Move to start position
G1 X0.1 Y200.0 Z0.3 F1500.0 E15 ; Draw the first line
G1 X0.4 Y200.0 Z0.3 F5000.0 ; Move to side a little
G1 X0.4 Y20 Z0.3 F1500.0 E30 ; Draw the second line
G92 E0 ; Reset Extruder
G1 Z2.0 F3000 ; Move Z Axis up little to prevent scratching of Heat Bed
G1 X5 Y20 Z0.3 F5000.0 ; Move over to prevent blob squish
G92 E0
G92 E0
G1 F2700 E-6
;LAYER_COUNT:4
;LAYER:0
M107
M204 S500
M205 X8 Y8
G0 F7500 X84.306 Y84.018 Z0.2
;TYPE:SKIRT
G1 F2700 E0
G1 F1500 X86.961 Y84.138 E0.08398
G1 X89.527 Y84.182 E0.16507
G1 X92.027 Y84.153 E0.24406
G1 X94.567 Y84.052 E0.32438
G1 X95.123 Y84.016 E0.34199
G1 X96.208 Y83.959 E0.37632
G1 X97.416 Y83.967 E0.41449
G1 X97.673 Y83.984 E0.42263
G1 X98.089 Y84.02 E0.43582
G1 X98.904 Y84.112 E0.46174
G1 X100.145 Y84.281 E0.50131
G1 X100.523 Y84.338 E0.51339
G1 X103.034 Y84.645 E0.59332
G1 X105.576 Y84.883 E0.67399
G1 X108.149 Y85.05 E0.75546
G1 X109.708 Y85.115 E0.80476
G1 X111.069 Y85.164 E0.8478
G1 X111.452 Y85.188 E0.85992
G1 X114.074 Y85.311 E0.94286
G1 X116.576 Y85.359 E1.02193
G1 X119.148 Y85.334 E1.1032
G1 X121.676 Y85.239 E1.18314
G1 X123.461 Y85.123 E1.23966
G1 X123.916 Y85.1 E1.25405
G1 X124.893 Y85.097 E1.28492
G1 X125.18 Y85.11 E1.294
G1 X125.791 Y85.157 E1.31336
G1 X126.33 Y85.214 E1.33049
G1 X127.21 Y85.346 E1.35861
G1 X128.707 Y85.642 E1.40682
G1 X131.178 Y86.089 E1.48617
G1 X133.703 Y86.472 E1.56686
G1 X136.25 Y86.785 E1.64794
G1 X137.838 Y86.939 E1.69836
G1 X138.685 Y87.031 E1.72528
G1 X139.578 Y87.168 E1.75382
G1 X140.27 Y87.331 E1.77629
G1 X140.629 Y87.429 E1.78804
G1 X140.987 Y87.534 E1.79983
G1 X141.358 Y87.65 E1.81211
G1 X142.207 Y87.957 E1.84064
G1 X142.786 Y88.218 E1.86071
G1 X143.155 Y88.398 E1.87368
G1 X143.579 Y88.617 E1.88876
G1 X143.95 Y88.82 E1.90212
G1 X144.722 Y89.288 E1.93065
G1 X145.393 Y89.777 E1.95688
G1 X145.95 Y90.223 E1.97943
G1 X146.237 Y90.463 E1.99125
G1 X146.904 Y91.073 E2.01981
G1 X147.312 Y91.506 E2.03861
G1 X147.458 Y91.67 E2.04555
G1 X147.716 Y91.97 E2.05805
G1 X148.023 Y92.343 E2.07331
G1 X148.565 Y93.065 E2.10184
G1 X148.895 Y93.58 E2.12116
G1 X149.196 Y94.082 E2.13966
G1 X149.626 Y94.876 E2.16819
G1 X149.896 Y95.483 E2.18918
G1 X150.226 Y96.294 E2.21685
G1 X150.529 Y97.144 E2.24536
G1 X150.784 Y98.157 E2.27837
G1 X150.942 Y98.955 E2.30407
G1 X151.078 Y99.848 E2.33261
G1 X151.129 Y100.553 E2.35495
G1 X151.176 Y101.936 E2.39867
G1 X151.179 Y102.413 E2.41374
G1 X151.178 Y108.133 E2.59448
G1 X151.156 Y109.577 E2.64011
G1 X151.115 Y111.043 E2.68645
G1 X151.115 Y113.582 E2.76667
G1 X151.187 Y116.116 E2.84677
G1 X151.334 Y118.717 E2.92909
G1 X151.435 Y120.011 E2.9701
G1 X151.46 Y120.449 E2.98396
G1 X151.508 Y121.946 E3.03129
G1 X151.511 Y122.433 E3.04668
G1 X151.51 Y128.14 E3.227
G1 X151.5 Y128.837 E3.24903
G1 X151.476 Y129.408 E3.26708
G1 X151.387 Y130.644 E3.30624
G1 X151.347 Y131.112 E3.32108
G1 X151.203 Y133.626 E3.40065
G1 X151.131 Y136.186 E3.48157
G1 X151.13 Y138.733 E3.56204
G1 X151.189 Y141.421 E3.647
G1 X151.188 Y142.264 E3.67363
G1 X151.188 Y147.961 E3.85364
G1 X151.178 Y148.676 E3.87624
G1 X151.154 Y149.245 E3.89423
G1 X151.067 Y150.488 E3.9336
G1 X150.917 Y152.984 E4.01261
G1 X150.838 Y155.512 E4.09253
G1 X150.829 Y158.103 E4.1744
G1 X150.853 Y159.383 E4.21485
G1 X150.907 Y161.535 E4.28287
G1 X150.911 Y162.009 E4.29784
G1 X150.91 Y167.789 E4.48048
G1 X150.9 Y168.509 E4.50323
G1 X150.848 Y169.41 E4.53174
G1 X150.755 Y170.087 E4.55334
G1 X150.618 Y170.888 E4.57901
G1 X150.426 Y171.77 E4.60753
G1 X150.223 Y172.446 E4.62984
G1 X149.994 Y173.107 E4.65194
G1 X149.845 Y173.508 E4.66546
G1 X149.494 Y174.339 E4.69396
G1 X149.262 Y174.797 E4.71018
G1 X149.166 Y174.975 E4.71657
G1 X148.918 Y175.408 E4.73234
G1 X148.599 Y175.936 E4.75183
G1 X148.099 Y176.687 E4.78034
G1 X147.665 Y177.239 E4.80253
G1 X147.449 Y177.495 E4.81311
G1 X147.178 Y177.803 E4.82607
G1 X146.855 Y178.156 E4.84119
G1 X145.903 Y179.07 E4.88289
G1 X145.744 Y179.204 E4.88946
G1 X145.314 Y179.547 E4.90684
G1 X144.919 Y179.845 E4.92247
G1 X144.175 Y180.356 E4.95099
G1 X143.62 Y180.678 E4.97127
G1 X143.053 Y180.984 E4.99163
G1 X141.919 Y181.509 E5.03111
G1 X141.54 Y181.657 E5.04397
G1 X140.602 Y181.972 E5.07523
G1 X140.131 Y182.105 E5.0907
G1 X139.252 Y182.312 E5.11923
G1 X138.694 Y182.401 E5.13708
G1 X138.391 Y182.441 E5.14674
G1 X137.909 Y182.493 E5.16206
G1 X137.209 Y182.548 E5.18424
G1 X136.393 Y182.594 E5.21007
G1 X133.782 Y182.777 E5.29277
G1 X131.235 Y183.028 E5.37364
G1 X128.767 Y183.342 E5.45225
G1 X125.139 Y183.926 E5.56836
G1 X124.787 Y183.977 E5.5796
G1 X124.317 Y184.036 E5.59456
G1 X123.829 Y184.085 E5.61006
G1 X123.452 Y184.114 E5.62201
G1 X122.185 Y184.132 E5.66205
G1 X121.933 Y184.12 E5.67002
G1 X121.314 Y184.072 E5.68964
G1 X120.772 Y184.013 E5.70686
G1 X119.665 Y183.83 E5.74231
G1 X118.864 Y183.652 E5.76824
G1 X116.302 Y183.115 E5.85095
G1 X113.793 Y182.663 E5.93151
G1 X111.307 Y182.288 E6.01094
G1 X107.238 Y181.811 E6.14039
G1 X106.179 Y181.63 E6.17434
G1 X105.43 Y181.461 E6.1986
G1 X102.917 Y180.932 E6.27975
G1 X100.403 Y180.476 E6.36048
G1 X97.865 Y180.09 E6.44159
G1 X95.373 Y179.783 E6.52093
G1 X92.869 Y179.545 E6.6004
G1 X90.309 Y179.376 E6.68147
G1 X87.778 Y179.28 E6.7615
G1 X85.19 Y179.255 E6.84328
G1 X83.455 Y179.279 E6.8981
G1 X82.845 Y179.294 E6.91738
G1 X81.977 Y179.278 E6.94481
G1 X81.749 Y179.264 E6.95203
G1 X81.266 Y179.223 E6.96735
G1 X80.735 Y179.165 E6.98422
G1 X79.843 Y179.027 E7.01274
G1 X79.242 Y178.888 E7.03224
G1 X78.969 Y178.816 E7.04116
G1 X78.549 Y178.695 E7.05497
G1 X78.062 Y178.544 E7.07108
G1 X77.212 Y178.239 E7.09961
G1 X76.51 Y177.919 E7.12399
G1 X76.199 Y177.763 E7.13498
G1 X75.894 Y177.604 E7.14585
G1 X75.479 Y177.378 E7.16078
G1 X74.706 Y176.911 E7.18932
G1 X74.07 Y176.452 E7.2141
G1 X73.757 Y176.207 E7.22666
G1 X73.495 Y175.995 E7.23731
G1 X73.181 Y175.732 E7.25025
G1 X72.232 Y174.827 E7.29169
G1 X72.078 Y174.66 E7.29886
G1 X71.697 Y174.223 E7.31718
G1 X71.378 Y173.835 E7.33305
G1 X70.836 Y173.112 E7.3616
G1 X70.528 Y172.634 E7.37957
G1 X70.233 Y172.146 E7.39759
G1 X69.952 Y171.655 E7.41546
G1 X69.376 Y170.444 E7.45784
G1 X69.274 Y170.187 E7.46657
G1 X69.091 Y169.686 E7.48343
G1 X68.932 Y169.215 E7.49913
G1 X68.681 Y168.348 E7.52765
G1 X68.56 Y167.774 E7.54619
G1 X68.433 Y167.074 E7.56867
G1 X68.292 Y165.938 E7.60484
G1 X68.262 Y165.492 E7.61896
G1 X68.239 Y164.809 E7.64056
G1 X68.238 Y160.413 E7.77946
G1 X68.201 Y157.806 E7.86184
G1 X68.092 Y155.24 E7.94299
G1 X67.914 Y152.733 E8.0224
G1 X67.665 Y150.216 E8.10232
G1 X67.321 Y147.536 E8.1877
G1 X67.222 Y146.85 E8.2096
G1 X67.12 Y145.617 E8.24869
G1 X67.093 Y144.258 E8.29164
G1 X67.086 Y138.269 E8.48087
G1 X67.095 Y137.584 E8.50252
G1 X67.16 Y136.555 E8.5351
G1 X67.431 Y134.194 E8.61019
G1 X67.65 Y131.67 E8.69024
G1 X67.8 Y129.106 E8.77139
G1 X67.876 Y126.594 E8.8508
G1 X67.888 Y125.079 E8.89867
G1 X67.889 Y118.602 E9.10333
G1 X67.899 Y117.908 E9.12526
G1 X67.923 Y117.335 E9.14338
G1 X67.962 Y116.777 E9.16105
G1 X68.11 Y114.17 E9.24356
G1 X68.183 Y111.63 E9.32385
G1 X68.183 Y109.095 E9.40395
G1 X68.151 Y107.93 E9.44077
G1 X68.079 Y104.669 E9.54383
G1 X68.072 Y98.696 E9.73256
G1 X68.08 Y98.053 E9.75288
G1 X68.166 Y96.852 E9.79093
G1 X68.231 Y96.357 E9.8067
G1 X68.341 Y95.691 E9.82803
G1 X68.399 Y95.4 E9.83741
G1 X68.679 Y94.31 E9.87297
G1 X68.823 Y93.856 E9.88802
G1 X69.019 Y93.296 E9.90676
G1 X69.159 Y92.93 E9.91914
G1 X69.519 Y92.101 E9.9477
G1 X69.759 Y91.639 E9.96415
G1 X69.984 Y91.232 E9.97885
G1 X70.225 Y90.82 E9.99393
G1 X70.406 Y90.526 E10.00484
G1 X70.913 Y89.778 E10.03339
G1 X71.286 Y89.307 E10.05237
G1 X71.593 Y88.942 E10.06744
G1 X71.926 Y88.565 E10.08334
G1 X72.188 Y88.283 E10.0955
G1 X72.832 Y87.65 E10.12403
G1 X73.217 Y87.32 E10.14005
G1 X73.509 Y87.082 E10.15196
G1 X73.874 Y86.797 E10.16659
G1 X74.13 Y86.607 E10.17666
G1 X74.878 Y86.102 E10.20518
G1 X75.411 Y85.797 E10.22458
G1 X76.002 Y85.482 E10.24574
G1 X77.091 Y84.981 E10.28362
G1 X77.483 Y84.828 E10.29692
G1 X78.477 Y84.498 E10.33001
G1 X78.926 Y84.374 E10.34473
G1 X79.806 Y84.172 E10.37326
G1 X80.328 Y84.091 E10.38995
G1 X80.721 Y84.04 E10.40247
G1 X81.213 Y83.988 E10.4181
G1 X81.597 Y83.957 E10.43027
G1 X82.5 Y83.924 E10.45882
G1 X83.021 Y83.942 E10.4753
G1 X83.508 Y83.971 E10.49071
G0 F1350 X84.306 Y84.018
G0 F7500 X84.35 Y83.62
G1 F1500 X86.986 Y83.74 E10.57409
G1 X89.494 Y83.782 E10.65334
G1 X92.007 Y83.753 E10.73275
G1 X94.56 Y83.652 E10.81348
G1 X95.102 Y83.617 E10.83065
G1 X96.187 Y83.56 E10.86498
G1 X97.443 Y83.568 E10.90466
G1 X97.7 Y83.585 E10.9128
G1 X98.131 Y83.623 E10.92647
G1 X98.958 Y83.715 E10.95276
G1 X100.558 Y83.939 E11.00381
G1 X103.083 Y84.248 E11.08419
G1 X105.603 Y84.484 E11.16416
G1 X108.148 Y84.649 E11.24475
G1 X109.818 Y84.719 E11.29756
G1 X111.094 Y84.765 E11.3379
G1 X111.5 Y84.79 E11.35076
G1 X114.064 Y84.911 E11.43186
G1 X116.579 Y84.959 E11.51134
G1 X119.129 Y84.934 E11.59192
G1 X121.67 Y84.839 E11.67226
G1 X123.441 Y84.724 E11.72834
G1 X123.896 Y84.701 E11.74274
G1 X124.911 Y84.698 E11.77481
G1 X125.198 Y84.711 E11.78388
G1 X125.833 Y84.759 E11.80401
G1 X126.372 Y84.816 E11.82113
G1 X127.286 Y84.953 E11.85033
G1 X128.753 Y85.244 E11.89759
G1 X131.272 Y85.699 E11.97847
G1 X133.74 Y86.073 E12.05734
G1 X136.301 Y86.388 E12.13887
G1 X137.882 Y86.541 E12.18906
G1 X138.729 Y86.633 E12.21598
G1 X139.639 Y86.772 E12.24507
G1 X140.375 Y86.945 E12.26896
G1 X140.734 Y87.043 E12.28072
G1 X141.106 Y87.152 E12.29297
G1 X141.477 Y87.268 E12.30525
G1 X142.343 Y87.581 E12.33434
G1 X142.961 Y87.858 E12.35574
G1 X143.33 Y88.038 E12.36871
G1 X143.771 Y88.266 E12.3844
G1 X144.142 Y88.469 E12.39776
G1 X144.93 Y88.946 E12.42687
G1 X145.641 Y89.463 E12.45465
G1 X146.207 Y89.916 E12.47755
G1 X146.494 Y90.156 E12.48937
G1 X147.174 Y90.777 E12.51847
G1 X147.611 Y91.24 E12.53859
G1 X147.757 Y91.404 E12.54553
G1 X148.024 Y91.716 E12.5585
G1 X148.331 Y92.089 E12.57377
G1 X148.885 Y92.824 E12.60285
G1 X149.238 Y93.374 E12.6235
G1 X149.539 Y93.876 E12.64199
G1 X149.978 Y94.685 E12.67107
G1 X150.266 Y95.332 E12.69345
G1 X150.596 Y96.143 E12.72112
G1 X150.906 Y97.01 E12.75021
G1 X151.176 Y98.079 E12.78505
G1 X151.334 Y98.877 E12.81075
G1 X151.474 Y99.787 E12.83984
G1 X151.529 Y100.538 E12.86364
G1 X151.569 Y101.602 E12.89728
G1 X151.576 Y101.933 E12.90774
G1 X151.579 Y102.41 E12.92281
G1 X151.578 Y108.139 E13.10383
G1 X151.556 Y109.588 E13.14962
G1 X151.515 Y111.054 E13.19596
G1 X151.515 Y113.571 E13.27549
G1 X151.587 Y116.116 E13.35594
G1 X151.731 Y118.664 E13.43658
G1 X151.834 Y119.98 E13.47829
G1 X151.86 Y120.435 E13.49269
G1 X151.908 Y121.944 E13.54039
G1 X151.911 Y122.431 E13.55578
G1 X151.91 Y128.146 E13.73636
G1 X151.9 Y128.843 E13.75838
G1 X151.875 Y129.436 E13.77714
G1 X151.786 Y130.679 E13.81651
G1 X151.746 Y131.138 E13.83107
G1 X151.603 Y133.659 E13.91085
G1 X151.531 Y136.198 E13.99111
G1 X151.53 Y138.769 E14.07235
G1 X151.589 Y141.422 E14.1562
G1 X151.588 Y142.265 E14.18283
G1 X151.588 Y147.966 E14.36297
G1 X151.578 Y148.681 E14.38556
G1 X151.553 Y149.273 E14.40428
G1 X151.466 Y150.512 E14.44353
G1 X151.318 Y152.985 E14.52181
G1 X151.238 Y155.526 E14.60214
G1 X151.229 Y158.097 E14.68337
G1 X151.254 Y159.441 E14.72585
G1 X151.307 Y161.532 E14.79194
G1 X151.311 Y162.006 E14.80692
G1 X151.31 Y167.794 E14.9898
G1 X151.3 Y168.514 E15.01255
G1 X151.247 Y169.433 E15.04164
G1 X151.149 Y170.154 E15.06463
G1 X151.012 Y170.955 E15.09031
G1 X150.818 Y171.855 E15.1194
G1 X150.602 Y172.575 E15.14315
G1 X150.369 Y173.246 E15.16559
G1 X150.22 Y173.647 E15.17911
G1 X149.862 Y174.495 E15.20819
G1 X149.614 Y174.987 E15.2256
G1 X149.518 Y175.165 E15.23199
G1 X149.261 Y175.614 E15.24834
G1 X148.942 Y176.142 E15.26783
G1 X148.432 Y176.909 E15.29693
G1 X147.97 Y177.497 E15.32056
G1 X147.754 Y177.753 E15.33114
G1 X147.473 Y178.073 E15.3446
G1 X147.15 Y178.426 E15.35972
G1 X146.161 Y179.375 E15.40303
G1 X146.002 Y179.509 E15.4096
G1 X145.555 Y179.866 E15.42767
G1 X145.16 Y180.164 E15.44331
G1 X144.402 Y180.686 E15.47239
G1 X143.81 Y181.03 E15.49402
G1 X143.243 Y181.336 E15.51438
G1 X142.065 Y181.882 E15.55541
G1 X141.686 Y182.03 E15.56826
G1 X140.711 Y182.357 E15.60076
G1 X140.24 Y182.49 E15.61622
G1 X139.344 Y182.702 E15.64531
G1 X138.746 Y182.798 E15.66445
G1 X138.443 Y182.838 E15.67411
G1 X137.943 Y182.892 E15.69
G1 X137.231 Y182.947 E15.71256
G1 X136.444 Y182.991 E15.73747
G1 X133.812 Y183.176 E15.82084
G1 X131.293 Y183.424 E15.90081
G1 X128.821 Y183.738 E15.97955
G1 X125.203 Y184.321 E16.09534
G1 X124.837 Y184.373 E16.10702
G1 X124.367 Y184.432 E16.12199
G1 X123.86 Y184.484 E16.13809
G1 X123.483 Y184.513 E16.15004
G1 X122.166 Y184.532 E16.19166
G1 X121.914 Y184.52 E16.19963
G1 X121.271 Y184.47 E16.22001
G1 X120.729 Y184.411 E16.23724
G1 X119.578 Y184.221 E16.2741
G1 X118.774 Y184.042 E16.30012
G1 X116.22 Y183.507 E16.38257
G1 X113.695 Y183.052 E16.46364
G1 X111.265 Y182.685 E16.54129
G1 X107.191 Y182.208 E16.6709
G1 X106.091 Y182.02 E16.70616
G1 X105.339 Y181.85 E16.73052
G1 X102.828 Y181.321 E16.8116
G1 X100.349 Y180.872 E16.89121
G1 X97.822 Y180.487 E16.97197
G1 X95.358 Y180.184 E17.05042
G1 X92.805 Y179.942 E17.13144
G1 X90.266 Y179.773 E17.21185
G1 X87.794 Y179.68 E17.29001
G1 X85.192 Y179.655 E17.37223
G1 X83.468 Y179.679 E17.42671
G1 X82.854 Y179.694 E17.44611
G1 X81.952 Y179.677 E17.47462
G1 X81.724 Y179.663 E17.48184
G1 X81.223 Y179.62 E17.49773
G1 X80.692 Y179.562 E17.5146
G1 X79.782 Y179.423 E17.54369
G1 X79.14 Y179.275 E17.56451
G1 X78.867 Y179.203 E17.57343
G1 X78.431 Y179.077 E17.58777
G1 X77.944 Y178.926 E17.60388
G1 X77.077 Y178.616 E17.63297
G1 X76.33 Y178.277 E17.65889
G1 X76.019 Y178.121 E17.66989
G1 X75.702 Y177.955 E17.68119
G1 X75.287 Y177.729 E17.69612
G1 X74.499 Y177.254 E17.7252
G1 X73.823 Y176.767 E17.75152
G1 X73.51 Y176.522 E17.76408
G1 X73.238 Y176.301 E17.77516
G1 X72.924 Y176.038 E17.7881
G1 X71.938 Y175.098 E17.83114
G1 X71.784 Y174.931 E17.83832
G1 X71.388 Y174.477 E17.85735
G1 X71.069 Y174.089 E17.87323
G1 X70.516 Y173.353 E17.90231
G1 X70.186 Y172.841 E17.92156
G1 X69.891 Y172.353 E17.93958
G1 X69.603 Y171.85 E17.95789
G1 X69.189 Y171.027 E17.987
G1 X69.005 Y170.591 E18.00195
G1 X68.903 Y170.334 E18.01069
G1 X68.712 Y169.814 E18.0282
G1 X68.553 Y169.343 E18.0439
G1 X68.297 Y168.459 E18.07298
G1 X68.166 Y167.845 E18.09282
G1 X68.039 Y167.145 E18.1153
G1 X67.893 Y165.964 E18.1529
G1 X67.863 Y165.518 E18.16702
G1 X67.839 Y164.809 E18.18944
G1 X67.838 Y160.42 E18.32812
G1 X67.801 Y157.793 E18.41113
G1 X67.694 Y155.284 E18.49048
G1 X67.516 Y152.764 E18.5703
G1 X67.269 Y150.274 E18.64937
G1 X66.923 Y147.578 E18.73525
G1 X66.826 Y146.907 E18.75667
G1 X66.72 Y145.626 E18.79729
G1 X66.693 Y144.259 E18.84049
G1 X66.686 Y138.264 E19.02991
G1 X66.695 Y137.579 E19.05156
G1 X66.763 Y136.51 E19.08541
G1 X67.033 Y134.153 E19.16037
G1 X67.251 Y131.646 E19.23988
G1 X67.4 Y129.106 E19.32028
G1 X67.476 Y126.578 E19.40019
G1 X67.488 Y125.076 E19.44765
G1 X67.489 Y118.596 E19.6524
G1 X67.499 Y117.902 E19.67433
G1 X67.524 Y117.307 E19.69315
G1 X67.565 Y116.729 E19.71146
G1 X67.71 Y114.17 E19.79244
G1 X67.783 Y111.619 E19.87308
G1 X67.783 Y109.107 E19.95245
G1 X67.751 Y107.939 E19.98937
G1 X67.679 Y104.67 E20.09269
G1 X67.672 Y98.691 E20.28161
G1 X67.68 Y98.048 E20.30192
G1 X67.769 Y96.8 E20.34146
G1 X67.834 Y96.305 E20.35723
G1 X67.948 Y95.613 E20.37939
G1 X68.006 Y95.322 E20.38877
G1 X68.298 Y94.189 E20.42574
G1 X68.442 Y93.735 E20.44079
G1 X68.646 Y93.153 E20.46027
G1 X68.786 Y92.787 E20.47266
G1 X69.152 Y91.942 E20.50175
G1 X69.409 Y91.446 E20.5194
G1 X69.634 Y91.039 E20.5341
G1 X69.884 Y90.61 E20.54979
G1 X70.065 Y90.316 E20.56069
G1 X70.582 Y89.554 E20.58979
G1 X70.98 Y89.05 E20.61008
G1 X71.287 Y88.685 E20.62515
