;FLAVOR:Marlin
M117 Time Left 0h27m13s
;TIME:1633
;Filament used: 2.35453m
;Layer height: 0.28
;MINX:80.975
;MINY:81.927
;MINZ:0.28
;MAXX:154.025
;MAXY:143.099
;MAXZ:15.12
;POSTPROCESSED
;Generated with Cura_SteamEngine 5.2.1
M140 S60
M105
M190 S60
M104 S205
M105
M109 S205
M82 ;absolute extrusion mode
; Ender 3 Custom Start G-code
G92 E0 ; Reset Extruder
G28 ; Home all axes
G1 Z2.0 F3000 ; Move Z Axis up little to prevent scratching of Heat Bed
G1 X0.1 Y20 Z0.3 F5000.0 ; Move to start position
G1 X0.1 Y200.0 Z0.3 F1500.0 E15 ; Draw the first line
G1 X0.4 Y200.0 Z0.3 F5000.0 ; Move to side a little
G1 X0.4 Y20 Z0.3 F1500.0 E30 ; Draw the second line
G92 E0 ; Reset Extruder
G1 Z2.0 F3000 ; Move Z Axis up little to prevent scratching of Heat Bed
G1 X5 Y20 Z0.3 F5000.0 ; Move over to prevent blob squish
G92 E0
G92 E0
G1 F2700 E-6
;LAYER_COUNT:54
;LAYER:0
M107
M204 S500
M205 X5 Y5
G0 F7500 X84.166 Y85.008 Z0.28
M205 X8 Y8
;TYPE:SKIRT
G1 F2700 E0
G1 F1500 X84.852 Y84.388 E0.04372
G1 X85.588 Y83.83 E0.08738
G1 X86.37 Y83.338 E0.13106
G1 X87.192 Y82.916 E0.17474
G1 X88.047 Y82.566 E0.21842
G1 X88.929 Y82.291 E0.2621
G1 X89.831 Y82.094 E0.30575
G1 X90.748 Y81.975 E0.34947
G1 X91.36 Y81.94 E0.37845
G1 X91.98 Y81.927 E0.40777
G1 X142.643 Y81.927 E2.80297
G1 X143.494 Y81.938 E2.84321
G1 X144.416 Y81.991 E2.88687
G1 X145.331 Y82.124 E2.93058
G1 X146.23 Y82.335 E2.97424
G1 X147.108 Y82.624 E3.01794
G1 X147.957 Y82.987 E3.06159
G1 X148.772 Y83.422 E3.10527
G1 X149.547 Y83.926 E3.14897
G1 X150.274 Y84.495 E3.19262
G1 X150.95 Y85.125 E3.23631
G1 X151.569 Y85.811 E3.27999
G1 X152.126 Y86.548 E3.32367
G1 X152.618 Y87.33 E3.36735
G1 X153.04 Y88.152 E3.41103
G1 X153.389 Y89.008 E3.45473
G1 X153.663 Y89.89 E3.4984
G1 X153.86 Y90.793 E3.54209
G1 X153.978 Y91.709 E3.58576
G1 X154.012 Y92.312 E3.61431
G1 X154.025 Y92.932 E3.64363
G1 X154.024 Y99.725 E3.96478
G1 X154.014 Y100.441 E3.99864
G1 X153.988 Y101.046 E4.02726
G1 X153.859 Y102.781 E4.10952
G1 X153.718 Y105.289 E4.22828
G1 X153.647 Y107.827 E4.34831
G1 X153.649 Y110.336 E4.46693
G1 X153.722 Y112.879 E4.58721
G1 X153.868 Y115.435 E4.70824
G1 X153.982 Y116.883 E4.77691
G1 X154.01 Y117.401 E4.80144
G1 X154.025 Y118.054 E4.83232
G1 X154.024 Y130.011 E5.39761
G1 X154.013 Y130.769 E5.43345
G1 X153.96 Y131.691 E5.47711
G1 X153.839 Y132.584 E5.51972
G1 X153.665 Y133.491 E5.56338
G1 X153.413 Y134.38 E5.60707
G1 X153.205 Y134.954 E5.63593
G1 X153.031 Y135.394 E5.6583
G1 X152.654 Y136.237 E5.70196
G1 X152.206 Y137.045 E5.74564
G1 X151.665 Y137.845 E5.79129
G1 X151.373 Y138.237 E5.8144
G1 X150.789 Y138.953 E5.85809
G1 X150.146 Y139.617 E5.90178
G1 X149.399 Y140.26 E5.94838
G1 X149.033 Y140.547 E5.97037
G1 X148.282 Y141.085 E6.01405
G1 X147.487 Y141.557 E6.05776
G1 X146.706 Y141.935 E6.09878
G1 X146.258 Y142.13 E6.12188
G1 X145.396 Y142.462 E6.16555
G1 X144.508 Y142.718 E6.20924
G1 X143.496 Y142.911 E6.25795
G1 X142.981 Y142.984 E6.28254
G1 X141.871 Y143.083 E6.33522
G1 X141.263 Y143.098 E6.36398
G1 X94.064 Y143.099 E8.59541
G1 X93.305 Y143.088 E8.6313
G1 X92.383 Y143.035 E8.67496
G1 X91.883 Y142.972 E8.69879
G1 X91.468 Y142.91 E8.71863
G1 X90.561 Y142.734 E8.76231
G1 X89.672 Y142.48 E8.80602
G1 X89.123 Y142.281 E8.83363
G1 X88.685 Y142.108 E8.85589
G1 X87.842 Y141.731 E8.89955
G1 X87.034 Y141.283 E8.94323
G1 X86.23 Y140.74 E8.9891
G1 X85.838 Y140.448 E9.0122
G1 X85.122 Y139.864 E9.05589
G1 X84.458 Y139.221 E9.09959
G1 X83.817 Y138.477 E9.14601
G1 X83.529 Y138.11 E9.16807
G1 X82.991 Y137.359 E9.21175
G1 X82.519 Y136.565 E9.25542
G1 X82.134 Y135.77 E9.29718
G1 X81.94 Y135.323 E9.32021
G1 X81.61 Y134.46 E9.36389
G1 X81.355 Y133.572 E9.40757
G1 X81.164 Y132.571 E9.45575
G1 X81.091 Y132.056 E9.48034
G1 X80.991 Y130.918 E9.53435
G1 X80.977 Y130.323 E9.56249
G1 X80.976 Y118.279 E10.1319
G1 X80.986 Y117.582 E10.16485
G1 X81.012 Y116.981 E10.19329
G1 X81.141 Y115.246 E10.27554
G1 X81.282 Y112.738 E10.3943
G1 X81.353 Y110.199 E10.51439
G1 X81.351 Y107.677 E10.63362
G1 X81.278 Y105.148 E10.75323
G1 X81.132 Y102.592 E10.87427
G1 X81.017 Y101.132 E10.94351
G1 X80.988 Y100.592 E10.96908
G1 X80.975 Y99.972 E10.99839
G1 X80.976 Y93.132 E11.32177
G1 X80.985 Y92.467 E11.35321
G1 X81.037 Y91.544 E11.39692
G1 X81.169 Y90.63 E11.44058
G1 X81.38 Y89.73 E11.48428
G1 X81.668 Y88.852 E11.52797
G1 X82.03 Y88.002 E11.57165
G1 X82.465 Y87.187 E11.61532
G1 X82.968 Y86.412 E11.659
G1 X83.537 Y85.684 E11.70269
G1 X84.166 Y85.008 E11.74634
M205 X5 Y5
G0 F7500 X84.606 Y85.207
M205 X8 Y8
G1 F1500 X85.288 Y84.613 E11.7891
G1 X86.02 Y84.082 E11.83185
G1 X86.795 Y83.617 E11.87458
G1 X87.609 Y83.222 E11.91736
G1 X88.454 Y82.901 E11.96009
G1 X89.324 Y82.656 E12.00282
G1 X90.213 Y82.489 E12.04559
G1 X91.372 Y82.39 E12.10058
G1 X91.98 Y82.377 E12.12933
G1 X142.643 Y82.377 E14.52454
G1 X143.487 Y82.388 E14.56444
G1 X144.39 Y82.441 E14.60721
G1 X145.285 Y82.573 E14.64998
G1 X146.164 Y82.784 E14.69271
G1 X147.021 Y83.072 E14.73546
G1 X147.849 Y83.435 E14.7782
G1 X148.643 Y83.869 E14.82098
G1 X149.394 Y84.371 E14.86369
G1 X150.099 Y84.938 E14.90646
G1 X150.75 Y85.565 E14.94919
G1 X151.344 Y86.247 E14.99195
G1 X151.875 Y86.979 E15.0347
G1 X152.339 Y87.755 E15.07745
G1 X152.733 Y88.569 E15.1202
G1 X153.053 Y89.415 E15.16296
G1 X153.298 Y90.285 E15.20569
G1 X153.464 Y91.174 E15.24845
G1 X153.562 Y92.325 E15.30306
G1 X153.575 Y92.932 E15.33177
G1 X153.574 Y99.719 E15.65264
G1 X153.564 Y100.435 E15.68649
G1 X153.539 Y101.015 E15.71394
G1 X153.41 Y102.752 E15.79628
G1 X153.268 Y105.275 E15.91575
G1 X153.197 Y107.814 E16.03584
G1 X153.199 Y110.349 E16.15568
G1 X153.272 Y112.918 E16.27719
G1 X153.417 Y115.452 E16.39718
G1 X153.533 Y116.919 E16.46676
G1 X153.56 Y117.414 E16.49019
G1 X153.575 Y118.054 E16.52046
G1 X153.574 Y130.004 E17.08542
G1 X153.563 Y130.762 E17.12126
G1 X153.455 Y132.104 E17.18491
G1 X153.394 Y132.518 E17.2047
G1 X153.223 Y133.406 E17.24745
G1 X152.974 Y134.276 E17.29023
G1 X152.787 Y134.788 E17.316
G1 X152.613 Y135.228 E17.33837
G1 X152.243 Y136.054 E17.38116
G1 X151.802 Y136.843 E17.4239
G1 X151.304 Y137.576 E17.46579
G1 X151.012 Y137.968 E17.4889
G1 X150.44 Y138.669 E17.53167
G1 X149.809 Y139.316 E17.5744
G1 X149.121 Y139.906 E17.61725
G1 X148.755 Y140.193 E17.63924
G1 X148.02 Y140.719 E17.68197
G1 X147.241 Y141.178 E17.72472
G1 X146.527 Y141.522 E17.76219
G1 X146.079 Y141.717 E17.78529
G1 X145.235 Y142.041 E17.82803
G1 X144.365 Y142.289 E17.8708
G1 X143.433 Y142.466 E17.91565
G1 X142.918 Y142.539 E17.94024
G1 X141.855 Y142.633 E17.99069
G1 X141.263 Y142.648 E18.01869
G1 X94.219 Y142.65 E20.2428
G1 X93.312 Y142.638 E20.28568
G1 X92.409 Y142.585 E20.32844
G1 X91.949 Y142.527 E20.35036
G1 X91.534 Y142.465 E20.3702
G1 X90.647 Y142.292 E20.41293
G1 X89.778 Y142.041 E20.45569
G1 X89.289 Y141.862 E20.48031
G1 X88.851 Y141.689 E20.50257
G1 X88.025 Y141.32 E20.54534
G1 X87.236 Y140.88 E20.58805
G1 X86.499 Y140.379 E20.63018
G1 X86.107 Y140.087 E20.65329
G1 X85.406 Y139.515 E20.69607
G1 X84.759 Y138.884 E20.7388
G1 X84.171 Y138.199 E20.78148
G1 X83.883 Y137.832 E20.80353
G1 X83.357 Y137.097 E20.84626
G1 X82.898 Y136.318 E20.88901
G1 X82.547 Y135.591 E20.92717
G1 X82.353 Y135.144 E20.95021
G1 X82.03 Y134.299 E20.99298
G1 X81.783 Y133.429 E21.03574
G1 X81.609 Y132.508 E21.08005
G1 X81.536 Y131.993 E21.10464
G1 X81.441 Y130.903 E21.15637
G1 X81.427 Y130.323 E21.1838
G1 X81.425 Y118.434 E21.74588
G1 X81.436 Y117.588 E21.78588
G1 X81.461 Y117.012 E21.81313
G1 X81.59 Y115.275 E21.89548
G1 X81.732 Y112.74 E22.01551
G1 X81.803 Y110.211 E22.13513
G1 X81.801 Y107.67 E22.25526
G1 X81.728 Y105.109 E22.37638
G1 X81.583 Y102.575 E22.49638
G1 X81.466 Y101.096 E22.56652
G1 X81.438 Y100.579 E22.591
G1 X81.425 Y99.972 E22.6197
G1 X81.426 Y93.138 E22.9428
G1 X81.435 Y92.473 E22.97424
G1 X81.487 Y91.57 E23.017
G1 X81.619 Y90.675 E23.05977
G1 X81.829 Y89.796 E23.1025
G1 X82.116 Y88.939 E23.14523
G1 X82.478 Y88.11 E23.18799
G1 X82.912 Y87.316 E23.23077
G1 X83.414 Y86.564 E23.27352
G1 X83.98 Y85.859 E23.31626
G1 X84.606 Y85.207 E23.35899
M205 X5 Y5
G1 F2700 E17.35899
;MESH:piezas_banio_techo-exterior_parte1_v2 (Meshed).stl
G0 F7500 X92.089 Y91.937
G0 X92.089 Y93.041
G0 X92.53 Y93.482
G1 F2700 E23.35899
G0 F7500 X92.35 Y93.302
M205 X8 Y8
;TYPE:WALL-INNER
G1 F1500 X92.35 Y99.602 E23.68993
G1 X142.65 Y99.602 E26.3322
G1 X142.65 Y96.452 E26.49767
G1 X142.65 Y93.302 E26.66314
G1 X132.003 Y93.303 E27.22243
G1 F1334.5 X131.55 Y93.364 E27.24942
G1 F1196.2 X117.407 Y93.366 E28.18106
G1 F1188.6 X103.264 Y93.368 E29.11865
G1 F1282.1 X102.945 Y93.321 E29.13846
G1 F1445.1 X101.923 Y93.303 E29.1942
G1 F1500 X92.35 Y93.302 E29.69707
M205 X5 Y5
G0 F7500 X92.075 Y93.027
M205 X8 Y8
;TYPE:WALL-OUTER
G1 F1500 X92.075 Y99.877 E30.02092
G1 X142.925 Y99.877 E32.42496
G1 X142.925 Y96.452 E32.58689
G1 X142.925 Y93.027 E32.74881
G1 X92.075 Y93.027 E35.15286
M205 X5 Y5
G0 F7500 X92.075 Y93.227
G1 F2700 E29.15286
G0 F7500 X92.545 Y93.497
G0 X102.951 Y93.551
G0 X109.577 Y93.925
G0 X103.289 Y93.888
G0 X102.706 Y94.117
G0 X102.436 Y94.72
G0 X102.436 Y97.763
G0 X102.665 Y98.346
G0 X103.268 Y98.616
G0 X131.711 Y98.616
G0 X132.294 Y98.387
G0 X132.537 Y97.845
G0 X132.537 Y94.503
G1 F2700 E35.15286
G0 F7500 X132.342 Y94.578
M205 X8 Y8
;TYPE:WALL-INNER
G1 F1500 X132.4 Y94.903 E35.1702
G1 X132.4 Y97.602 E35.31198
G1 X132.329 Y97.942 E35.33023
G1 X132.149 Y98.205 E35.34697
G1 X131.902 Y98.367 E35.36248
G1 X131.639 Y98.452 E35.377
G1 X103.45 Y98.452 E36.85778
G1 X103.106 Y98.38 E36.87624
G1 X102.815 Y98.168 E36.89515
G1 X102.656 Y97.906 E36.91125
G1 X102.6 Y97.601 E36.92754
G1 X102.6 Y94.902 E37.06932
G1 X102.676 Y94.54 E37.08875
G1 F1445.1 X103.092 Y94.119 E37.12102
G1 F1286.4 X103.331 Y93.99 E37.13766
G1 F1196.2 X131.55 Y93.99 E38.99653
G1 F1334.5 X131.944 Y94.16 E39.02186
G1 F1500 X132.342 Y94.578 E39.05218
M205 X5 Y5
G1 F2700 E33.05218
G0 F7500 X132.537 Y94.503
G0 X132.564 Y97.784
G0 X132.294 Y98.387
G0 X131.711 Y98.616
G0 X103.268 Y98.616
G0 X102.665 Y98.346
G0 X102.436 Y97.763
G0 X102.436 Y95.025
G0 X102.504 Y94.417
G1 F2700 E39.05218
G0 F7500 X102.96 Y94.619
M205 X8 Y8
;TYPE:WALL-OUTER
G1 F1500 X103.197 Y94.394 E39.06763
G1 X103.395 Y94.327 E39.07751
G1 X131.55 Y94.327 E40.4086
G1 X131.833 Y94.411 E40.42256
G1 X132.058 Y94.649 E40.43804
G1 X132.125 Y94.903 E40.45046
G1 X132.125 Y97.602 E40.57806
G1 X132.089 Y97.774 E40.58637
G1 X131.954 Y98.012 E40.59931
G1 X131.605 Y98.177 E40.61756
G1 X103.45 Y98.177 E41.94865
G1 X103.167 Y98.092 E41.96262
G1 X103.021 Y97.986 E41.97115
G1 X102.902 Y97.753 E41.98352
G1 X102.875 Y97.601 E41.99082
G1 X102.875 Y94.902 E42.11842
G1 X102.96 Y94.619 E42.13239
M205 X5 Y5
G0 F7500 X103.105 Y94.481
G0 X102.908 Y93.97
G0 X131.685 Y93.862
G0 X131.771 Y93.703
M205 X8 Y8
;TYPE:SKIN
G1 F1500 X132.096 Y93.868 E42.14962
G1 X132.604 Y94.4 E42.18439
G1 X132.663 Y94.515 E42.19051
G1 X132.729 Y94.879 E42.20799
G1 X132.728 Y97.631 E42.3381
G1 X132.637 Y98.076 E42.35958
G1 X132.387 Y98.442 E42.38053
G1 F1496.7 X132.022 Y98.68 E42.40118
G1 F1461 X131.688 Y98.792 E42.41828
G1 F1430.1 X103.419 Y98.791 E43.82009
G1 F1448.5 X102.961 Y98.684 E43.84312
G1 F1483.5 X102.566 Y98.391 E43.86663
G1 F1500 X102.344 Y98.027 E43.88679
G1 X102.271 Y97.624 E43.90615
G1 X102.272 Y94.873 E44.03621
G1 X102.37 Y94.4 E44.05905
G1 X103.037 Y93.705 E44.10459
G1 X102.926 Y93.673 E44.11005
G1 X101.912 Y93.635 E44.15802
G1 X92.682 Y93.634 E44.59439
G1 X92.682 Y99.27 E44.86084
G1 X102.955 Y99.27 E45.34652
G1 F1464.2 X103.372 Y99.258 E45.36673
G1 F1430.1 X131.728 Y99.259 E46.77286
G1 F1464.2 X132.23 Y99.27 E46.79718
G1 F1500 X142.318 Y99.27 E47.27411
G1 X142.318 Y96.452 E47.40734
G1 X142.318 Y93.634 E47.54057
G1 X132.017 Y93.635 E48.02757
G1 X131.771 Y93.703 E48.03964
M205 X5 Y5
G0 F7500 X131.685 Y93.862
G0 X131.511 Y93.673
G0 X132.125 Y93.512
G0 X142.428 Y93.524
G0 X142.5 Y94.362
G0 X142.092 Y94.362
M205 X8 Y8
G1 F1500 X141.589 Y93.859 E48.07327
M205 X5 Y5
G0 F7500 X140.953 Y93.859
M205 X8 Y8
G1 F1500 X142.092 Y94.999 E48.14945
M205 X5 Y5
G0 F7500 X142.092 Y95.635
M205 X8 Y8
G1 F1500 X140.316 Y93.859 E48.2682
M205 X5 Y5
G0 F7500 X139.68 Y93.859
M205 X8 Y8
G1 F1500 X142.092 Y96.271 E48.42946
M205 X5 Y5
G0 F7500 X142.092 Y96.908
M205 X8 Y8
G1 F1500 X139.044 Y93.859 E48.63329
M205 X5 Y5
G0 F7500 X138.407 Y93.859
M205 X8 Y8
G1 F1500 X142.092 Y97.544 E48.87967
M205 X5 Y5
G0 F7500 X142.092 Y98.181
M205 X8 Y8
G1 F1500 X137.771 Y93.859 E49.1686
M205 X5 Y5
G0 F7500 X137.134 Y93.859
M205 X8 Y8
G1 F1500 X142.092 Y98.817 E49.50009
M205 X5 Y5
G0 F7500 X141.683 Y99.045
M205 X8 Y8
G1 F1500 X136.498 Y93.859 E49.8468
M205 X5 Y5
G0 F7500 X135.862 Y93.859
M205 X8 Y8
G1 F1500 X141.047 Y99.045 E50.1935
M205 X5 Y5
G0 F7500 X140.41 Y99.045
M205 X8 Y8
G1 F1500 X135.225 Y93.859 E50.5402
M205 X5 Y5
G0 F7500 X134.589 Y93.859
M205 X8 Y8
G1 F1500 X139.774 Y99.045 E50.8869
M205 X5 Y5
G0 F7500 X139.138 Y99.045
M205 X8 Y8
G1 F1500 X133.952 Y93.859 E51.23364
M205 X5 Y5
G0 F7500 X133.316 Y93.859
M205 X8 Y8
G1 F1500 X138.501 Y99.045 E51.58034
M205 X5 Y5
G0 F7500 X137.865 Y99.045
M205 X8 Y8
G1 F1500 X132.68 Y93.859 E51.92705
M205 X5 Y5
G0 F7500 X132.932 Y94.748
M205 X8 Y8
G1 F1500 X137.228 Y99.045 E52.21431
M205 X5 Y5
G0 F7500 X136.592 Y99.045
M205 X8 Y8
G1 F1500 X132.955 Y95.408 E52.45748
M205 X5 Y5
G0 F7500 X132.955 Y96.044
M205 X8 Y8
G1 F1500 X135.956 Y99.045 E52.65813
M205 X5 Y5
G0 F7500 X135.319 Y99.045
M205 X8 Y8
G1 F1500 X132.955 Y96.681 E52.81619
M205 X5 Y5
G0 F7500 X132.955 Y97.317
M205 X8 Y8
G1 F1500 X134.683 Y99.045 E52.93172
M205 X5 Y5
G0 F7500 X134.046 Y99.045
M205 X8 Y8
G1 F1500 X132.901 Y97.899 E53.00831
M205 X5 Y5
G0 F7500 X132.718 Y98.352
M205 X8 Y8
G1 F1500 X133.41 Y99.045 E53.05461
M205 X5 Y5
G0 F7500 X132.774 Y99.045
M205 X8 Y8
G1 F1500 X132.418 Y98.689 E53.07841
M205 X5 Y5
G0 F7500 X132.133 Y99.04
M205 X8 Y8
G1 F1500 X132.015 Y98.922 E53.0863
M205 X5 Y5
G1 F2700 E47.0863
G0 F7500 X131.858 Y98.546
G0 X103.078 Y98.584
G0 X102.657 Y98.307
G0 X102.389 Y97.598
G0 X102.468 Y94.53
G0 X103.022 Y93.897
G0 X103.303 Y93.68
G0 X102.951 Y93.551
G0 X92.572 Y93.524
G0 X92.572 Y99.38
G0 X102.864 Y99.452
G1 F2700 E53.0863
G0 F7500 X102.862 Y99.043
M205 X8 Y8
G1 F1500 X97.679 Y93.86 E53.43284
M205 X5 Y5
G0 F7500 X98.315 Y93.86
M205 X8 Y8
G1 F1500 X102.042 Y97.587 E53.68202
M205 X5 Y5
G0 F7500 X102.042 Y96.951
M205 X8 Y8
G1 F1500 X98.951 Y93.86 E53.88869
M205 X5 Y5
G0 F7500 X99.588 Y93.86
M205 X8 Y8
G1 F1500 X102.042 Y96.315 E54.0528
M205 X5 Y5
G0 F7500 X102.042 Y95.678
M205 X8 Y8
G1 F1500 X100.225 Y93.861 E54.17428
M205 X5 Y5
G0 F7500 X100.861 Y93.861
M205 X8 Y8
G1 F1500 X102.042 Y95.042 E54.25324
M205 X5 Y5
G0 F7500 X102.121 Y94.485
M205 X8 Y8
G1 F1500 X101.498 Y93.861 E54.29493
M205 X5 Y5
G0 F7500 X102.142 Y93.869
M205 X8 Y8
G1 F1500 X102.359 Y94.086 E54.30944
M205 X5 Y5
G0 F7500 X102.593 Y94.341
G0 X103.022 Y93.897
G0 X103.303 Y93.68
G0 X102.951 Y93.551
G0 X92.572 Y93.524
G0 X92.572 Y99.38
G0 X102.225 Y99.453
G0 X102.225 Y99.043
M205 X8 Y8
G1 F1500 X97.041 Y93.859 E54.65604
M205 X5 Y5
G0 F7500 X96.405 Y93.859
M205 X8 Y8
G1 F1500 X101.589 Y99.043 E55.00264
M205 X5 Y5
G0 F7500 X100.952 Y99.043
M205 X8 Y8
G1 F1500 X95.769 Y93.859 E55.34921
M205 X5 Y5
G0 F7500 X95.132 Y93.859
M205 X8 Y8
G1 F1500 X100.316 Y99.043 E55.69581
M205 X5 Y5
G0 F7500 X99.68 Y99.043
M205 X8 Y8
G1 F1500 X94.495 Y93.859 E56.04245
M205 X5 Y5
G0 F7500 X93.859 Y93.859
M205 X8 Y8
G1 F1500 X99.043 Y99.043 E56.38905
M205 X5 Y5
G0 F7500 X98.407 Y99.043
M205 X8 Y8
G1 F1500 X93.222 Y93.859 E56.73569
M205 X5 Y5
G0 F7500 X92.906 Y94.179
M205 X8 Y8
G1 F1500 X97.77 Y99.043 E57.0609
M205 X5 Y5
G0 F7500 X97.134 Y99.043
M205 X8 Y8
G1 F1500 X92.906 Y94.815 E57.34358
M205 X5 Y5
G0 F7500 X92.906 Y95.452
M205 X8 Y8
G1 F1500 X96.498 Y99.043 E57.58371
M205 X5 Y5
G0 F7500 X95.861 Y99.043
M205 X8 Y8
G1 F1500 X92.906 Y96.088 E57.78128
M205 X5 Y5
G0 F7500 X92.906 Y96.725
M205 X8 Y8
G1 F1500 X95.225 Y99.043 E57.9363
M205 X5 Y5
G0 F7500 X94.588 Y99.043
M205 X8 Y8
G1 F1500 X92.906 Y97.361 E58.04875
M205 X5 Y5
G0 F7500 X92.906 Y97.997
M205 X8 Y8
G1 F1500 X93.952 Y99.043 E58.11869
M205 X5 Y5
G0 F7500 X93.316 Y99.043
M205 X8 Y8
G1 F1500 X92.906 Y98.634 E58.14607
M205 X5 Y5
