;FLAVOR:Marlin
M117 Time Left 0h45m52s
;TIME:2752
;Filament used: 1.23714m
;Layer height: 0.2
;MINX:24.117
;MINY:89.998
;MINZ:0.2
;MAXX:210.88
;MAXY:145.01
;MAXZ:2.2
;POSTPROCESSED
;Generated with Cura_SteamEngine 4.7.1
M140 S80
M105
M190 S80
M104 S225
M105
M109 S225
M82 ;absolute extrusion mode
; Ender 3 Custom Start G-code
G21 ; Set to metric [change to G20 if you want Imperial]
G28 ; Home all axes
; ***SET NEW E STEP *** (93 is factory value - 95 mine - start)
G90                     ; Force coordinates to be absolute relative to the origin
M92 E95                 ; ***SET NEW E STEP *** (93 is factory value - 95 mine - end)
G90                     ; Force coordinates to be absolute relative to the origin
G28                     ; Home X/Y/Z axis
G92 E0                  ; Reset Extruder								
G28                     ; Home all axes		
G1 Z2.0 F3000           ; Move Z Axis up little to prevent scratching of Heat Bed
G1 X0.1 Y20 Z0.3 F5000.0        ; Move to start position
G1 X0.1 Y200.0 Z0.3 F1500.0 E15 ; Draw the first line
G1 X0.4 Y200.0 Z0.3 F5000.0     ; Move to side a little
G1 X0.4 Y20 Z0.3 F1500.0 E30    ; Draw the second line
G92 E0                  ; Reset Extruder
G1 Z2.0 F3000           ; Move Z Axis up little to prevent scratching of Heat Bed
G1 X5 Y20 Z0.3 F5000.0  ; Move over to prevent blob squish
G92 E0
G92 E0
G1 F2700 E-6
;LAYER_COUNT:10
;LAYER:0
M107
M204 S500
M205 X8 Y8
G1 F300 Z0.4
G0 F7500 X35.092 Y90.978 Z0.4
;TYPE:SKIRT
G1 F300 Z0.2
G1 F2700 E0
G1 F1500 X35.732 Y90.746 E0.02151
G1 X35.967 Y90.669 E0.02932
G1 X36.26 Y90.577 E0.03903
G1 X36.6 Y90.476 E0.05023
G1 X37.509 Y90.248 E0.07985
G1 X38.435 Y90.098 E0.10949
G1 X39 Y90.045 E0.12742
G1 X39.27 Y90.027 E0.13597
G1 X39.595 Y90.011 E0.14625
G1 X39.946 Y89.998 E0.15735
G1 X40.884 Y90.003 E0.18699
G1 X41.818 Y90.088 E0.21662
G1 X42.421 Y90.186 E0.23592
G1 X43.216 Y90.338 E0.2615
G1 X45.801 Y90.796 E0.34445
G1 X48.264 Y91.161 E0.42312
G1 X50.795 Y91.463 E0.50366
G1 X53.261 Y91.686 E0.5819
G1 X54.344 Y91.755 E0.61619
G1 X55.202 Y91.821 E0.64338
G1 X56.435 Y91.987 E0.68269
G1 X57.619 Y92.215 E0.72079
G1 X60.232 Y92.68 E0.80465
G1 X62.718 Y93.05 E0.88406
G1 X65.21 Y93.351 E0.96337
G1 X67.795 Y93.587 E1.04539
G1 X69.187 Y93.693 E1.0895
G1 X70.304 Y93.835 E1.12508
G1 X70.526 Y93.875 E1.13221
G1 X70.955 Y93.962 E1.14604
G1 X71.334 Y94.046 E1.15831
G1 X72.24 Y94.287 E1.18793
G1 X72.784 Y94.473 E1.20609
G1 X74.075 Y94.952 E1.2496
G1 X76.488 Y95.81 E1.33052
G1 X78.906 Y96.593 E1.41083
G1 X81.28 Y97.288 E1.48899
G1 X83.737 Y97.933 E1.56926
G1 X86.159 Y98.498 E1.64784
G1 X88.646 Y99.002 E1.72802
G1 X91.14 Y99.434 E1.80799
G1 X93.655 Y99.798 E1.88829
G1 X96.108 Y100.082 E1.96631
G1 X98.652 Y100.303 E2.047
G1 X101.146 Y100.45 E2.12594
G1 X103.67 Y100.526 E2.20573
G1 X105.487 Y100.531 E2.26314
G1 X106.005 Y100.539 E2.27951
G1 X106.635 Y100.567 E2.29944
G1 X107.912 Y100.66 E2.33989
G1 X110.467 Y100.809 E2.42076
G1 X112.99 Y100.885 E2.50052
G1 X115.518 Y100.89 E2.58039
G1 X118.035 Y100.824 E2.65995
G1 X120.526 Y100.687 E2.73878
G1 X121.654 Y100.599 E2.77453
G1 X122.29 Y100.559 E2.79466
G1 X123.214 Y100.541 E2.82386
G1 X124.547 Y100.572 E2.86599
G1 X124.832 Y100.582 E2.87501
G1 X127.379 Y100.602 E2.95549
G1 X129.041 Y100.568 E3.00801
G1 X129.157 Y100.571 E3.01168
G1 X131.763 Y100.51 E3.09404
G1 X134.318 Y100.415 E3.17483
G1 X136.821 Y100.25 E3.25409
G1 X139.351 Y100.012 E3.33438
G1 X141.838 Y99.706 E3.41356
G1 X144.332 Y99.328 E3.49326
G1 X146.833 Y98.877 E3.57356
G1 X149.272 Y98.364 E3.65231
G1 X151.674 Y97.789 E3.73035
G1 X154.173 Y97.114 E3.81214
G1 X156.565 Y96.395 E3.89106
G1 X158.934 Y95.61 E3.96992
G1 X160.952 Y94.878 E4.03775
G1 X161.029 Y94.854 E4.0403
G1 X162.194 Y94.42 E4.07958
G1 X163.432 Y94.041 E4.12049
G1 X163.654 Y93.987 E4.12771
G1 X164.335 Y93.844 E4.14969
G1 X164.589 Y93.799 E4.15784
G1 X165.122 Y93.718 E4.17488
G1 X165.374 Y93.686 E4.1829
G1 X165.968 Y93.633 E4.20175
G1 X165.968 Y93.628 E4.20191
G1 X168.609 Y93.428 E4.28559
G1 X171.163 Y93.162 E4.36673
G1 X173.613 Y92.837 E4.44482
G1 X176.114 Y92.432 E4.52487
G1 X177.149 Y92.234 E4.55817
G1 X177.251 Y92.219 E4.56143
G1 X178.518 Y91.986 E4.60213
G1 X179.154 Y91.889 E4.62246
G1 X179.412 Y91.857 E4.63067
G1 X180.078 Y91.795 E4.65181
G1 X180.286 Y91.782 E4.65839
G1 X182.905 Y91.582 E4.74139
G1 X185.392 Y91.322 E4.8204
G1 X187.855 Y90.995 E4.8989
G1 X191.522 Y90.378 E5.0164
G1 X192.412 Y90.21 E5.04502
G1 X193.105 Y90.102 E5.06718
G1 X193.308 Y90.077 E5.07364
G1 X194.243 Y90.003 E5.10328
G1 X195.005 Y90.001 E5.12735
G1 X195.629 Y90.021 E5.14708
G1 X196.565 Y90.091 E5.17674
G1 X197.491 Y90.24 E5.20637
G1 X198.317 Y90.444 E5.23326
G1 X198.543 Y90.509 E5.24069
G1 X198.939 Y90.63 E5.25377
G1 X199.307 Y90.751 E5.26601
G1 X200.185 Y91.082 E5.29566
G1 X200.996 Y91.468 E5.32404
G1 X201.628 Y91.826 E5.34699
G1 X201.862 Y91.969 E5.35566
G1 X202.051 Y92.087 E5.3627
G1 X202.331 Y92.266 E5.3732
G1 X203.099 Y92.804 E5.40282
G1 X203.818 Y93.406 E5.43245
G1 X204.244 Y93.816 E5.45114
G1 X204.437 Y94.012 E5.45983
G1 X204.682 Y94.269 E5.47105
G1 X204.922 Y94.529 E5.48223
G1 X205.528 Y95.245 E5.51187
G1 X206.071 Y96.009 E5.54148
G1 X206.326 Y96.423 E5.55685
G1 X206.451 Y96.636 E5.56465
G1 X206.632 Y96.956 E5.57627
G1 X206.81 Y97.284 E5.58806
G1 X207.222 Y98.127 E5.61771
G1 X207.56 Y99.002 E5.64734
G1 X207.752 Y99.628 E5.66803
G1 X207.833 Y99.924 E5.67773
G1 X207.891 Y100.144 E5.68492
G1 X207.972 Y100.466 E5.69541
G1 X208.157 Y101.356 E5.72413
G1 X208.196 Y101.592 E5.73169
G1 X208.24 Y101.882 E5.74096
G1 X208.279 Y102.172 E5.7502
G1 X210.722 Y120.99 E6.34979
G1 X210.793 Y121.599 E6.36916
G1 X210.864 Y122.609 E6.40115
G1 X210.88 Y123.275 E6.4222
G1 X210.841 Y124.502 E6.46099
G1 X210.828 Y124.65 E6.46569
G1 X210.706 Y125.579 E6.49529
G1 X210.57 Y126.239 E6.51658
G1 X210.518 Y126.457 E6.52367
G1 X210.42 Y126.837 E6.53607
G1 X210.329 Y127.166 E6.54685
G1 X210.041 Y128.059 E6.5765
G1 X209.542 Y129.201 E6.61588
G1 X209.459 Y129.365 E6.62168
G1 X209.195 Y129.856 E6.6393
G1 X208.975 Y130.241 E6.65331
G1 X208.475 Y131.034 E6.68293
G1 X207.91 Y131.783 E6.71258
G1 X207.528 Y132.221 E6.73094
G1 X207.316 Y132.452 E6.74085
G1 X207.115 Y132.665 E6.7501
G1 X206.903 Y132.884 E6.75973
G1 X206.223 Y133.529 E6.78935
G1 X205.394 Y134.184 E6.82273
G1 X205.345 Y134.219 E6.82463
G1 X204.944 Y134.492 E6.83996
G1 X204.747 Y134.62 E6.84738
G1 X204.461 Y134.8 E6.85806
G1 X204.171 Y134.976 E6.86878
G1 X203.365 Y135.42 E6.89785
G1 X202.509 Y135.803 E6.92749
G1 X201.887 Y136.029 E6.9484
G1 X201.635 Y136.112 E6.95678
G1 X201.384 Y136.191 E6.96509
G1 X201.054 Y136.291 E6.97599
G1 X200.146 Y136.525 E7.00562
G1 X199.149 Y136.689 E7.03754
G1 X198.582 Y136.742 E7.05554
G1 X197.58 Y136.811 E7.08727
G1 X194.942 Y137.029 E7.17091
G1 X192.443 Y137.306 E7.25035
G1 X189.944 Y137.656 E7.33009
G1 X187.493 Y138.07 E7.40863
G1 X187.038 Y138.16 E7.42328
G1 X185.793 Y138.386 E7.46326
G1 X184.588 Y138.536 E7.50163
G1 X183.778 Y138.592 E7.52729
G1 X181.172 Y138.806 E7.60991
G1 X178.676 Y139.083 E7.68926
G1 X176.168 Y139.434 E7.76927
G1 X173.714 Y139.848 E7.84791
G1 X172.796 Y140.029 E7.87747
G1 X171.807 Y140.21 E7.90924
G1 X170.584 Y140.362 E7.94818
G1 X170.319 Y140.38 E7.95658
G1 X170.031 Y140.396 E7.96569
G1 X169.694 Y140.41 E7.97635
G1 X168.439 Y140.39 E8.01601
G1 X167.504 Y140.283 E8.04574
G1 X166.812 Y140.173 E8.06788
G1 X164.292 Y139.812 E8.14832
G1 X161.769 Y139.522 E8.22856
G1 X159.302 Y139.309 E8.30681
G1 X156.731 Y139.16 E8.38818
G1 X154.252 Y139.087 E8.46654
G1 X151.729 Y139.083 E8.54626
G1 X149.198 Y139.152 E8.62626
G1 X146.696 Y139.29 E8.70544
G1 X144.177 Y139.502 E8.78531
G1 X142.476 Y139.685 E8.83937
G1 X142.187 Y139.712 E8.84854
G1 X141.91 Y139.733 E8.85732
G1 X140.808 Y139.8 E8.8922
G1 X140.404 Y139.819 E8.90498
G1 X137.899 Y140.004 E8.98435
G1 X135.406 Y140.258 E9.06353
G1 X132.881 Y140.588 E9.14399
G1 X130.437 Y140.979 E9.2222
G1 X129.014 Y141.244 E9.26793
G1 X128.778 Y141.285 E9.2755
G1 X127.931 Y141.424 E9.30262
G1 X126.725 Y141.554 E9.34095
G1 X126.515 Y141.565 E9.34759
G1 X125.784 Y141.579 E9.37069
G1 X123.253 Y141.543 E9.45067
G1 X120.73 Y141.579 E9.5304
G1 X118.208 Y141.686 E9.61016
G1 X115.717 Y141.863 E9.68907
G1 X113.208 Y142.111 E9.76873
G1 X110.707 Y142.431 E9.8484
G1 X108.237 Y142.819 E9.9274
G1 X105.751 Y143.281 E10.0073
G1 X103.28 Y143.812 E10.08716
G1 X101.781 Y144.179 E10.13592
G1 X101.167 Y144.321 E10.15583
G1 X100.485 Y144.455 E10.17779
G1 X100.16 Y144.507 E10.18819
G1 X99.702 Y144.573 E10.20281
G1 X97.69 Y144.839 E10.26694
G1 X96.84 Y144.94 E10.29399
G1 X95.905 Y145.01 E10.32361
G1 X94.663 Y144.98 E10.36287
G1 X93.668 Y144.898 E10.39441
G1 X91.667 Y144.702 E10.45794
G1 X90.906 Y144.617 E10.48214
G1 X89.621 Y144.395 E10.52334
G1 X88.555 Y144.145 E10.55794
G1 X88.189 Y144.053 E10.56986
G1 X86.355 Y143.556 E10.6299
G1 X83.847 Y142.914 E10.7117
G1 X81.388 Y142.359 E10.79135
G1 X78.962 Y141.881 E10.86948
G1 X76.443 Y141.461 E10.95017
G1 X73.929 Y141.113 E11.03037
G1 X71.433 Y140.841 E11.1097
G1 X68.95 Y140.64 E11.18841
G1 X66.382 Y140.504 E11.26967
G1 X65.251 Y140.469 E11.30542
G1 X64.834 Y140.448 E11.31861
G1 X64.373 Y140.416 E11.33321
G1 X63.149 Y140.261 E11.3722
G1 X62.381 Y140.12 E11.39687
G1 X62.21 Y140.087 E11.40237
G1 X61.125 Y139.87 E11.43734
G1 X58.63 Y139.445 E11.51731
G1 X56.128 Y139.091 E11.59715
G1 X53.624 Y138.809 E11.67677
G1 X51.063 Y138.592 E11.75798
G1 X50.377 Y138.544 E11.77971
G1 X49.161 Y138.39 E11.81844
G1 X47.74 Y138.128 E11.86409
G1 X47.609 Y138.106 E11.86829
G1 X47.346 Y138.054 E11.87676
G1 X44.846 Y137.636 E11.95685
G1 X42.396 Y137.297 E12.035
G1 X39.82 Y137.015 E12.11688
G1 X37.633 Y136.834 E12.18622
G1 X36.375 Y136.746 E12.22607
G1 X35.086 Y136.579 E12.26714
G1 X35.065 Y136.575 E12.26781
G1 X33.9 Y136.286 E12.30574
G1 X33.652 Y136.21 E12.31393
G1 X33.378 Y136.122 E12.32303
G1 X33.044 Y136.01 E12.33416
G1 X32.168 Y135.674 E12.3638
G1 X31.31 Y135.258 E12.39393
G1 X31.273 Y135.238 E12.39526
G1 X30.777 Y134.953 E12.41334
G1 X30.572 Y134.828 E12.42092
G1 X30.315 Y134.666 E12.43052
G1 X30.025 Y134.478 E12.44144
G1 X29.261 Y133.935 E12.47106
G1 X28.374 Y133.166 E12.50815
G1 X28.06 Y132.853 E12.52216
G1 X27.875 Y132.661 E12.53058
G1 X27.69 Y132.465 E12.5391
G1 X27.468 Y132.223 E12.54948
G1 X26.864 Y131.505 E12.57912
G1 X26.163 Y130.483 E12.61828
G1 X25.992 Y130.192 E12.62895
G1 X25.873 Y129.983 E12.63655
G1 X25.723 Y129.711 E12.64636
G1 X25.576 Y129.435 E12.65624
G1 X25.108 Y128.439 E12.69101
G1 X25.092 Y128.4 E12.69234
G1 X24.644 Y127.072 E12.73663
G1 X24.52 Y126.604 E12.75193
G1 X24.443 Y126.293 E12.76205
G1 X24.257 Y125.373 E12.79171
G1 X24.15 Y124.442 E12.82132
G1 X24.122 Y123.78 E12.84225
G1 X24.117 Y123.36 E12.85553
G1 X24.117 Y123.019 E12.8663
G1 X24.183 Y121.918 E12.90115
G1 X24.308 Y120.78 E12.93733
G1 X24.334 Y120.565 E12.94417
G1 X26.69 Y102.42 E13.52231
G1 X26.713 Y102.252 E13.52767
G1 X26.799 Y101.661 E13.54654
G1 X26.98 Y100.71 E13.57713
G1 X27.115 Y100.14 E13.59564
G1 X27.37 Y99.237 E13.62528
G1 X27.628 Y98.535 E13.64892
G1 X27.745 Y98.247 E13.65874
G1 X28.135 Y97.394 E13.68837
G1 X28.403 Y96.898 E13.70619
G1 X28.627 Y96.509 E13.72037
G1 X29.13 Y95.717 E13.75002
G1 X29.93 Y94.7 E13.7909
G1 X30.14 Y94.466 E13.80084
G1 X30.318 Y94.274 E13.80911
G1 X30.588 Y93.993 E13.82142
G1 X30.799 Y93.781 E13.83087
G1 X31.489 Y93.145 E13.86052
G1 X32.534 Y92.362 E13.90178
G1 X32.746 Y92.222 E13.90981
G1 X33.162 Y91.961 E13.92533
G1 X33.478 Y91.772 E13.93696
G1 X34.302 Y91.325 E13.96658
G1 X35.092 Y90.978 E13.99385
G0 F7500 X35.239 Y91.35
G1 F1500 X35.856 Y91.126 E14.01459
G1 X36.091 Y91.049 E14.0224
G1 X36.374 Y90.961 E14.03176
G1 X36.714 Y90.86 E14.04297
G1 X37.607 Y90.636 E14.07206
G1 X38.516 Y90.491 E14.10115
G1 X39.027 Y90.444 E14.11736
G1 X39.297 Y90.426 E14.12591
G1 X39.61 Y90.41 E14.13581
G1 X39.961 Y90.397 E14.14691
G1 X40.881 Y90.403 E14.17598
G1 X41.798 Y90.489 E14.20508
G1 X42.346 Y90.579 E14.22263
G1 X43.136 Y90.73 E14.24804
G1 X45.745 Y91.192 E14.33176
G1 X48.229 Y91.56 E14.41111
G1 X50.713 Y91.857 E14.49015
G1 X53.272 Y92.088 E14.57134
G1 X54.313 Y92.154 E14.6043
G1 X55.171 Y92.22 E14.63149
G1 X56.359 Y92.38 E14.66937
G1 X57.552 Y92.609 E14.70775
G1 X60.169 Y93.075 E14.79174
G1 X62.653 Y93.445 E14.87109
G1 X65.159 Y93.747 E14.95085
G1 X67.734 Y93.983 E15.03255
G1 X69.156 Y94.091 E15.07761
G1 X70.233 Y94.229 E15.11192
G1 X70.455 Y94.269 E15.11905
G1 X70.869 Y94.352 E15.13239
G1 X71.248 Y94.436 E15.14466
G1 X72.137 Y94.674 E15.17373
G1 X72.645 Y94.848 E15.1907
G1 X73.949 Y95.333 E15.23466
G1 X76.346 Y96.184 E15.31503
G1 X78.766 Y96.968 E15.39541
G1 X81.205 Y97.682 E15.47571
G1 X83.659 Y98.326 E15.55587
G1 X86.054 Y98.885 E15.63358
G1 X88.61 Y99.403 E15.71599
G1 X91.05 Y99.825 E15.79423
G1 X93.584 Y100.192 E15.87513
G1 X96.096 Y100.483 E15.95503
G1 X98.595 Y100.7 E16.03429
G1 X101.147 Y100.85 E16.11507
G1 X103.656 Y100.926 E16.19438
G1 X105.481 Y100.931 E16.25205
G1 X105.999 Y100.939 E16.26841
G1 X106.606 Y100.966 E16.28761
G1 X107.863 Y101.058 E16.32744
G1 X110.466 Y101.21 E16.40982
G1 X112.977 Y101.285 E16.4892
G1 X115.528 Y101.29 E16.5698
G1 X118.032 Y101.224 E16.64895
G1 X120.579 Y101.084 E16.72955
G1 X121.685 Y100.998 E16.7646
G1 X122.315 Y100.958 E16.78455
G1 X123.205 Y100.941 E16.81268
G1 X124.533 Y100.971 E16.85465
G1 X124.852 Y100.982 E16.86473
G1 X127.384 Y101.002 E16.94474
G1 X129.049 Y100.968 E16.99736
G1 X129.164 Y100.971 E17.00099
G1 X131.716 Y100.911 E17.08165
G1 X134.361 Y100.813 E17.16528
G1 X136.881 Y100.647 E17.24508
G1 X139.366 Y100.413 E17.32395
G1 X141.914 Y100.1 E17.40506
G1 X144.392 Y99.724 E17.48426
G1 X146.887 Y99.274 E17.56436
G1 X149.377 Y98.751 E17.64476
G1 X151.791 Y98.173 E17.72319
G1 X154.264 Y97.505 E17.80413
G1 X156.659 Y96.785 E17.88315
G1 X159.08 Y95.982 E17.96374
G1 X161.088 Y95.254 E18.03123
G1 X161.171 Y95.228 E18.03398
G1 X162.334 Y94.795 E18.07319
G1 X163.527 Y94.429 E18.11262
G1 X163.749 Y94.375 E18.11984
G1 X164.405 Y94.238 E18.14102
G1 X164.659 Y94.193 E18.14917
G1 X165.173 Y94.114 E18.1656
G1 X165.425 Y94.082 E18.17362
G1 X165.998 Y94.031 E18.1918
G1 X165.998 Y94.026 E18.19196
G1 X168.684 Y93.822 E18.27707
G1 X171.181 Y93.562 E18.3564
G1 X173.697 Y93.228 E18.43659
G1 X176.181 Y92.826 E18.5161
G1 X177.224 Y92.627 E18.54965
G1 X177.341 Y92.61 E18.55339
G1 X178.591 Y92.38 E18.59355
G1 X179.203 Y92.286 E18.61311
G1 X179.461 Y92.254 E18.62133
G1 X180.103 Y92.194 E18.6417
G1 X180.339 Y92.179 E18.64917
G1 X182.908 Y91.983 E18.73058
G1 X185.45 Y91.718 E18.81134
G1 X187.942 Y91.386 E18.89077
G1 X191.613 Y90.769 E19.00839
G1 X192.486 Y90.604 E19.03646
G1 X193.154 Y90.499 E19.05783
G1 X193.357 Y90.474 E19.06429
G1 X194.275 Y90.402 E19.09339
G1 X194.993 Y90.4 E19.11607
G1 X195.617 Y90.42 E19.1358
G1 X196.535 Y90.49 E19.16489
G1 X197.443 Y90.639 E19.19397
G1 X198.207 Y90.828 E19.21883
G1 X198.433 Y90.893 E19.22626
G1 X198.814 Y91.01 E19.23886
G1 X199.182 Y91.131 E19.2511
G1 X200.043 Y91.457 E19.28019
G1 X200.81 Y91.822 E19.30703
G1 X201.419 Y92.167 E19.32914
G1 X201.653 Y92.31 E19.33781
G1 X201.835 Y92.424 E19.34459
G1 X202.115 Y92.603 E19.35509
G1 X202.869 Y93.132 E19.3842
G1 X203.574 Y93.725 E19.41331
G1 X203.959 Y94.097 E19.43022
G1 X204.152 Y94.293 E19.43891
G1 X204.388 Y94.54 E19.44971
G1 X204.628 Y94.8 E19.46089
G1 X205.222 Y95.503 E19.48997
G1 X205.981 Y96.625 E19.53277
G1 X206.106 Y96.838 E19.54057
G1 X206.281 Y97.147 E19.55179
G1 X206.459 Y97.475 E19.56358
G1 X206.862 Y98.303 E19.59268
G1 X207.192 Y99.162 E19.62176
G1 X207.366 Y99.733 E19.64062
G1 X207.447 Y100.029 E19.65032
G1 X207.503 Y100.241 E19.65724
G1 X207.584 Y100.563 E19.66773
G1 X207.762 Y101.421 E19.69542
G1 X207.801 Y101.657 E19.70298
G1 X207.844 Y101.937 E19.71193
G1 X207.883 Y102.223 E19.72105
G1 X210.325 Y121.037 E20.32051
G1 X210.396 Y121.646 E20.33988
G1 X210.464 Y122.618 E20.37067
G1 X210.48 Y123.284 E20.39172
G1 X210.442 Y124.467 E20.42912
G1 X210.429 Y124.615 E20.43381
G1 X210.309 Y125.527 E20.46288
G1 X210.181 Y126.146 E20.48285
G1 X210.129 Y126.364 E20.48993
G1 X210.034 Y126.731 E20.50191
G1 X209.943 Y127.06 E20.51269
G1 X209.66 Y127.936 E20.54178
