;FLAVOR:Marlin
;TIME:11995
;Filament used: 4.85918m
;Layer height: 0.16
;MINX:13.109
;MINY:28.108
;MINZ:0.16
;MAXX:221.562
;MAXY:215.37
;MAXZ:4.32
;Generated with Cura_SteamEngine 4.5.0
M140 S60
M105
M190 S60
M104 S205
M105
M109 S205
M82 ;absolute extrusion mode
; Ender 3 Custom Start G-code
G92 E0 ; Reset Extruder
G28 ; Home all axes
G1 Z2.0 F3000 ; Move Z Axis up little to prevent scratching of Heat Bed
G1 X0.1 Y20 Z0.3 F5000.0 ; Move to start position
G1 X0.1 Y200.0 Z0.3 F1500.0 E15 ; Draw the first line
G1 X0.4 Y200.0 Z0.3 F5000.0 ; Move to side a little
G1 X0.4 Y20 Z0.3 F1500.0 E30 ; Draw the second line
G92 E0 ; Reset Extruder
G1 Z2.0 F3000 ; Move Z Axis up little to prevent scratching of Heat Bed
G1 X5 Y20 Z0.3 F5000.0 ; Move over to prevent blob squish
G92 E0
G92 E0
G1 F1500 E-6
;LAYER_COUNT:27
;LAYER:0
M107
M205 X20 Y20
G0 F7500 X21.679 Y36.126 Z0.16
;TYPE:SKIRT
G1 F1500 E0
G1 X31.453 Y30.485 E0.30027
G1 X32.025 Y30.165 E0.31771
G1 X32.834 Y29.756 E0.34183
G1 X33.659 Y29.385 E0.3659
G1 X34.126 Y29.189 E0.37938
G1 X35.006 Y28.863 E0.40435
G1 X35.99 Y28.595 E0.43149
G1 X36.506 Y28.48 E0.44555
G1 X36.934 Y28.394 E0.45717
G1 X37.54 Y28.284 E0.47356
G1 X38.469 Y28.156 E0.49851
G1 X39.659 Y28.108 E0.5302
G1 X40.158 Y28.115 E0.54348
G1 X41.121 Y28.153 E0.56912
G1 X42.056 Y28.235 E0.59409
G1 X43.297 Y28.47 E0.6277
G1 X44.133 Y28.684 E0.65066
G1 X44.957 Y28.918 E0.67345
G1 X46.114 Y29.276 E0.70568
G1 X46.813 Y29.502 E0.72523
G1 X49.196 Y30.199 E0.79129
G1 X51.643 Y30.84 E0.8586
G1 X54.13 Y31.417 E0.92653
G1 X56.569 Y31.911 E0.99275
G1 X59.064 Y32.342 E1.06012
G1 X61.47 Y32.691 E1.1248
G1 X62.466 Y32.883 E1.15179
G1 X63.06 Y33.026 E1.16805
G1 X63.428 Y33.121 E1.17816
G1 X63.943 Y33.264 E1.19239
G1 X64.835 Y33.553 E1.21733
G1 X65.912 Y34.02 E1.24857
G1 X66.425 Y34.276 E1.26382
G1 X66.762 Y34.452 E1.27394
G1 X67.25 Y34.717 E1.28872
G1 X68.022 Y35.178 E1.31264
G1 X68.644 Y35.587 E1.33245
G1 X69.95 Y36.471 E1.37441
G1 X72.074 Y37.823 E1.44141
G1 X74.235 Y39.114 E1.50839
G1 X76.412 Y40.333 E1.57477
G1 X78.674 Y41.516 E1.6427
G1 X80.919 Y42.611 E1.70916
G1 X83.219 Y43.652 E1.77633
G1 X85.53 Y44.622 E1.84302
G1 X87.903 Y45.54 E1.91072
G1 X90.276 Y46.379 E1.97769
G1 X92.628 Y47.138 E2.04345
G1 X95.075 Y47.852 E2.11128
G1 X97.519 Y48.491 E2.17849
G1 X99.943 Y49.052 E2.2447
G1 X102.455 Y49.56 E2.31289
G1 X104.912 Y49.982 E2.37922
G1 X107.4 Y50.339 E2.4461
G1 X109.89 Y50.625 E2.51279
G1 X112.384 Y50.84 E2.5794
G1 X114.938 Y50.987 E2.64747
G1 X117.427 Y51.06 E2.71373
G1 X119.951 Y51.064 E2.78088
G1 X122.47 Y50.995 E2.84793
G1 X124.989 Y50.855 E2.91506
G1 X127.484 Y50.645 E2.98169
G1 X129.996 Y50.363 E3.04895
G1 X132.47 Y50.014 E3.11543
G1 X134.973 Y49.588 E3.18298
G1 X137.413 Y49.101 E3.24919
G1 X139.872 Y48.538 E3.31631
G1 X142.335 Y47.9 E3.38401
G1 X144.741 Y47.204 E3.45065
G1 X147.121 Y46.441 E3.51715
G1 X149.519 Y45.597 E3.5848
G1 X151.849 Y44.703 E3.6512
G1 X154.182 Y43.731 E3.71845
G1 X156.486 Y42.694 E3.78568
G1 X158.709 Y41.619 E3.85138
G1 X159.566 Y41.239 E3.87633
G1 X160.453 Y40.934 E3.90128
G1 X161.362 Y40.705 E3.92623
G1 X162.288 Y40.554 E3.95119
G1 X163.223 Y40.483 E3.97614
G1 X164.161 Y40.492 E4.0011
G1 X165.095 Y40.58 E4.02606
G1 X166.017 Y40.748 E4.051
G1 X166.922 Y40.994 E4.07595
G1 X167.803 Y41.316 E4.10091
G1 X168.654 Y41.712 E4.12589
G1 X169.467 Y42.179 E4.15083
G1 X170.283 Y42.747 E4.17729
G1 X171.05 Y43.335 E4.203
G1 X171.398 Y43.614 E4.21487
G1 X172.538 Y44.565 E4.25437
G1 X173.042 Y44.998 E4.27205
G1 X173.515 Y45.429 E4.28908
G1 X174.098 Y45.992 E4.31065
G1 X174.344 Y46.237 E4.31988
G1 X174.728 Y46.632 E4.33454
G1 X175.157 Y47.1 E4.35144
G1 X175.449 Y47.438 E4.36332
G1 X176.824 Y49.068 E4.42006
G1 X178.473 Y50.912 E4.48588
G1 X181.173 Y53.729 E4.58971
G1 X182.569 Y55.126 E4.64226
G1 X182.862 Y55.427 E4.65344
G1 X183.142 Y55.725 E4.66432
G1 X184.098 Y56.783 E4.70226
G1 X184.318 Y57.035 E4.71116
G1 X184.793 Y57.594 E4.73068
G1 X185.47 Y58.478 E4.7603
G1 X185.877 Y59.071 E4.77944
G1 X186.322 Y59.747 E4.80098
G1 X186.714 Y60.36 E4.82034
G1 X187.3 Y61.395 E4.85198
G1 X187.654 Y62.111 E4.87324
G1 X187.981 Y62.798 E4.89348
G1 X188.281 Y63.451 E4.9126
G1 X188.621 Y64.28 E4.93644
G1 X188.903 Y65.094 E4.95936
G1 X189.126 Y65.787 E4.97874
G1 X189.26 Y66.225 E4.99092
G1 X189.423 Y66.806 E5.00698
G1 X189.533 Y67.244 E5.019
G1 X189.657 Y67.787 E5.03382
G1 X189.735 Y68.156 E5.04385
G1 X189.927 Y69.211 E5.07238
G1 X189.996 Y69.631 E5.08371
G1 X190.05 Y69.993 E5.09345
G1 X190.226 Y71.364 E5.13023
G1 X190.767 Y76.257 E5.26121
G1 X194.431 Y109.461 E6.15007
G1 X194.745 Y111.977 E6.21754
G1 X195.131 Y114.483 E6.285
G1 X195.583 Y116.958 E6.35195
G1 X196.099 Y119.398 E6.41831
G1 X196.686 Y121.826 E6.48477
G1 X197.36 Y124.307 E6.55318
G1 X198.087 Y126.71 E6.61998
G1 X198.873 Y129.065 E6.68604
G1 X199.732 Y131.417 E6.75267
G1 X200.686 Y133.818 E6.82141
G1 X201.668 Y136.095 E6.88739
G1 X202.734 Y138.388 E6.95468
G1 X203.868 Y140.658 E7.02219
G1 X205.028 Y142.825 E7.08759
G1 X206.297 Y145.042 E7.15557
G1 X207.602 Y147.177 E7.22215
G1 X208.991 Y149.315 E7.28998
G1 X210.402 Y151.355 E7.35598
G1 X211.903 Y153.4 E7.42348
G1 X213.457 Y155.396 E7.49079
G1 X215.025 Y157.297 E7.55636
G1 X217.031 Y159.566 E7.63694
G1 X217.636 Y160.269 E7.66162
G1 X217.984 Y160.693 E7.67622
G1 X218.194 Y160.957 E7.68519
G1 X218.53 Y161.393 E7.69984
G1 X219.07 Y162.16 E7.7248
G1 X219.635 Y163.147 E7.75506
G1 X219.874 Y163.62 E7.76916
G1 X220.033 Y163.948 E7.77886
G1 X220.281 Y164.482 E7.79453
G1 X220.639 Y165.348 E7.81946
G1 X220.984 Y166.482 E7.851
G1 X221.183 Y167.309 E7.87363
G1 X221.309 Y167.896 E7.88961
G1 X221.467 Y168.821 E7.91458
G1 X221.553 Y170.029 E7.9468
G1 X221.562 Y170.59 E7.96173
G1 X221.562 Y170.925 E7.97064
G1 X221.554 Y171.477 E7.98533
G1 X221.473 Y172.658 E8.01683
G1 X221.425 Y173.049 E8.02731
G1 X221.136 Y175.585 E8.09523
G1 X220.92 Y178.139 E8.16343
G1 X220.78 Y180.6 E8.22901
G1 X220.708 Y183.158 E8.29711
G1 X220.708 Y185.647 E8.36333
G1 X220.794 Y188.469 E8.43846
G1 X220.848 Y189.916 E8.47698
G1 X220.854 Y190.704 E8.49795
G1 X220.846 Y191.273 E8.51309
G1 X220.793 Y192.209 E8.53804
G1 X220.614 Y193.37 E8.5693
G1 X220.5 Y193.915 E8.58411
G1 X220.422 Y194.261 E8.59355
G1 X220.29 Y194.804 E8.60842
G1 X220.03 Y195.705 E8.63337
G1 X219.602 Y196.787 E8.66433
G1 X219.378 Y197.276 E8.67864
G1 X219.216 Y197.614 E8.68861
G1 X218.966 Y198.114 E8.70349
G1 X218.511 Y198.935 E8.72846
G1 X217.884 Y199.851 E8.758
G1 X217.526 Y200.322 E8.77374
G1 X217.267 Y200.651 E8.78488
G1 X216.916 Y201.078 E8.79959
G1 X216.331 Y201.734 E8.82298
G1 X215.747 Y202.337 E8.84531
G1 X207.734 Y210.348 E9.1468
G1 X207.245 Y210.823 E9.16494
G1 X206.558 Y211.437 E9.18946
G1 X205.907 Y211.966 E9.21178
G1 X205.467 Y212.307 E9.22659
G1 X204.702 Y212.849 E9.25154
G1 X203.75 Y213.399 E9.28079
G1 X203.329 Y213.615 E9.29338
G1 X202.986 Y213.784 E9.30356
G1 X202.405 Y214.057 E9.32064
G1 X201.54 Y214.419 E9.34559
G1 X200.434 Y214.763 E9.37641
G1 X199.922 Y214.893 E9.39046
G1 X199.572 Y214.976 E9.40003
G1 X198.993 Y215.103 E9.41581
G1 X198.069 Y215.264 E9.44076
G1 X196.887 Y215.355 E9.47231
G1 X196.016 Y215.37 E9.49548
G1 X195.431 Y215.365 E9.51105
G1 X194.494 Y215.317 E9.53602
G1 X193.301 Y215.138 E9.56811
G1 X192.428 Y214.953 E9.59186
G1 X191.896 Y214.827 E9.60641
G1 X190.993 Y214.572 E9.63137
G1 X189.853 Y214.125 E9.66395
G1 X189.058 Y213.756 E9.68728
G1 X188.555 Y213.508 E9.7022
G1 X187.732 Y213.058 E9.72716
G1 X186.749 Y212.389 E9.75879
G1 X185.887 Y211.723 E9.78778
G1 X183.835 Y210.145 E9.85666
G1 X181.768 Y208.648 E9.92456
G1 X179.72 Y207.251 E9.99053
G1 X177.579 Y205.877 E10.05822
G1 X175.429 Y204.581 E10.12502
G1 X173.234 Y203.342 E10.19208
G1 X171.019 Y202.173 E10.25872
G1 X168.741 Y201.052 E10.32628
G1 X166.459 Y200.008 E10.39305
G1 X164.145 Y199.028 E10.45992
G1 X161.777 Y198.101 E10.52758
G1 X159.442 Y197.266 E10.59356
G1 X157.024 Y196.476 E10.66125
G1 X154.637 Y195.77 E10.72748
G1 X152.18 Y195.118 E10.79512
G1 X149.736 Y194.543 E10.86193
G1 X147.251 Y194.03 E10.92944
G1 X144.822 Y193.604 E10.99506
G1 X142.278 Y193.229 E11.06348
G1 X139.828 Y192.939 E11.12913
G1 X137.291 Y192.711 E11.1969
G1 X134.784 Y192.556 E11.26374
G1 X132.069 Y192.47 E11.33601
G1 X131.619 Y192.447 E11.348
G1 X129.881 Y192.322 E11.39437
G1 X129.139 Y192.253 E11.4142
G1 X128.309 Y192.144 E11.43647
G1 X128.092 Y192.107 E11.44233
G1 X127.509 Y191.991 E11.45814
G1 X126.87 Y191.845 E11.47559
G1 X126.091 Y191.656 E11.49691
G1 X125.526 Y191.512 E11.51243
G1 X124.849 Y191.316 E11.53118
G1 X124.479 Y191.196 E11.54153
G1 X123.84 Y190.967 E11.55959
G1 X123.118 Y190.681 E11.58026
G1 X122.331 Y190.357 E11.6029
G1 X121.645 Y190.063 E11.62276
G1 X120.551 Y189.52 E11.65526
G1 X120.283 Y189.368 E11.66346
G1 X119.957 Y189.175 E11.67354
G1 X118.799 Y188.464 E11.70969
G1 X118.259 Y188.123 E11.72669
G1 X117.243 Y187.398 E11.7599
G1 X116.877 Y187.104 E11.77239
G1 X116.626 Y186.895 E11.78108
G1 X115.658 Y186.066 E11.81499
G1 X114.952 Y185.437 E11.84015
G1 X114.538 Y185.049 E11.85525
G1 X114.122 Y184.638 E11.87081
G1 X113.281 Y183.797 E11.90246
G1 X111.409 Y181.978 E11.97191
G1 X109.555 Y180.275 E12.03889
G1 X107.319 Y178.362 E12.11719
G1 X106.661 Y177.79 E12.14039
G1 X106.221 Y177.386 E12.15628
G1 X105.959 Y177.132 E12.16599
G1 X104.124 Y175.397 E12.23319
G1 X102.231 Y173.705 E12.30075
G1 X100.322 Y172.095 E12.36719
G1 X98.347 Y170.521 E12.43439
G1 X96.34 Y169.013 E12.50119
G1 X94.273 Y167.548 E12.5686
G1 X92.184 Y166.157 E12.63538
G1 X90.056 Y164.823 E12.70221
G1 X87.886 Y163.549 E12.76916
G1 X85.653 Y162.32 E12.83698
G1 X83.453 Y161.189 E12.9028
G1 X81.169 Y160.096 E12.97018
G1 X78.855 Y159.069 E13.03754
G1 X76.537 Y158.116 E13.10423
G1 X74.2 Y157.231 E13.17072
G1 X71.82 Y156.408 E13.23773
G1 X69.403 Y155.646 E13.30516
G1 X66.986 Y154.96 E13.37201
G1 X64.5 Y154.328 E13.44026
G1 X62.112 Y153.796 E13.50536
G1 X59.586 Y153.304 E13.57383
G1 X57.141 Y152.901 E13.63977
G1 X54.645 Y152.561 E13.7068
G1 X52.135 Y152.292 E13.77397
G1 X49.631 Y152.094 E13.8408
G1 X47.099 Y151.966 E13.90826
G1 X44.612 Y151.911 E13.97445
G1 X42.089 Y151.927 E14.04158
G1 X40.785 Y151.976 E14.0763
G1 X39.398 Y152.014 E14.11322
G1 X38.46 Y152 E14.13818
G1 X37.527 Y151.905 E14.16314
G1 X36.606 Y151.732 E14.18807
G1 X35.702 Y151.481 E14.21304
G1 X34.823 Y151.154 E14.23799
G1 X33.975 Y150.753 E14.26295
G1 X33.165 Y150.281 E14.28789
G1 X32.397 Y149.742 E14.31286
G1 X31.678 Y149.14 E14.33781
G1 X31.013 Y148.478 E14.36278
G1 X30.231 Y147.529 E14.3955
G1 X29.552 Y146.6 E14.42612
G1 X28.683 Y145.364 E14.46632
G1 X28.32 Y144.834 E14.48341
G1 X27.959 Y144.271 E14.50121
G1 X27.386 Y143.306 E14.53107
G1 X27.116 Y142.825 E14.54575
G1 X26.809 Y142.238 E14.56337
G1 X26.639 Y141.885 E14.5738
G1 X25.738 Y139.965 E14.63023
G1 X24.613 Y137.729 E14.69683
G1 X23.394 Y135.473 E14.76506
G1 X22.78 Y134.389 E14.79821
G1 X22.005 Y133.046 E14.83947
G1 X21.696 Y132.492 E14.85635
G1 X21.464 Y132.053 E14.86956
G1 X21.149 Y131.417 E14.88844
G1 X20.664 Y130.399 E14.91845
G1 X20.369 Y129.759 E14.9372
G1 X19.899 Y128.557 E14.97154
G1 X19.718 Y127.988 E14.98743
G1 X19.326 Y126.662 E15.02422
G1 X19.158 Y126.066 E15.0407
G1 X18.942 Y125.154 E15.06563
G1 X18.852 Y124.613 E15.08023
G1 X18.635 Y123.052 E15.12216
G1 X18.552 Y122.351 E15.14094
G1 X18.476 Y121.138 E15.17328
G1 X18.467 Y119.904 E15.20612
G1 X18.471 Y119.526 E15.21618
G1 X18.485 Y119.049 E15.22887
G1 X18.511 Y118.404 E15.24605
G1 X18.635 Y117.14 E15.27985
G1 X18.854 Y115.773 E15.31668
G1 X18.977 Y115.109 E15.33465
G1 X19.183 Y114.093 E15.36223
G1 X19.419 Y113.056 E15.39053
G1 X19.716 Y111.819 E15.42438
G1 X20.225 Y109.396 E15.49026
G1 X20.68 Y106.878 E15.55835
G1 X21.051 Y104.423 E15.62441
G1 X21.358 Y101.922 E15.69146
G1 X21.598 Y99.373 E15.75958
G1 X21.761 Y96.896 E15.82563
G1 X21.853 Y94.408 E15.89188
G1 X21.877 Y91.845 E15.96008
G1 X21.828 Y89.326 E16.02712
G1 X21.708 Y86.828 E16.09366
G1 X21.518 Y84.319 E16.16061
G1 X21.257 Y81.82 E16.22747
G1 X20.927 Y79.347 E16.29385
G1 X20.52 Y76.834 E16.36159
G1 X20.045 Y74.355 E16.42875
G1 X19.512 Y71.943 E16.49448
G1 X18.89 Y69.453 E16.56277
G1 X18.215 Y67.052 E16.62913
G1 X17.455 Y64.614 E16.69708
G1 X16.651 Y62.272 E16.76296
G1 X15.764 Y59.907 E16.83017
G1 X14.148 Y56 E16.94267
G1 X13.826 Y55.119 E16.96763
G1 X13.539 Y54.017 E16.99793
G1 X13.427 Y53.474 E17.01268
G1 X13.357 Y53.102 E17.02276
G1 X13.263 Y52.551 E17.03763
G1 X13.144 Y51.62 E17.0626
G1 X13.109 Y50.454 E17.09364
G1 X13.133 Y49.602 E17.11632
G1 X13.163 Y49.019 E17.13185
G1 X13.251 Y48.085 E17.15682
G1 X13.479 Y46.906 E17.18877
G1 X13.685 Y46.103 E17.21083
G1 X13.85 Y45.519 E17.22697
G1 X14.144 Y44.628 E17.25194
G1 X14.627 Y43.533 E17.28378
G1 X15.016 Y42.775 E17.30645
G1 X15.296 Y42.261 E17.32203
G1 X15.78 Y41.457 E17.347
G1 X16.48 Y40.512 E17.37829
G1 X16.815 Y40.107 E17.39227
G1 X17.055 Y39.826 E17.40211
G1 X17.441 Y39.39 E17.4176
G1 X18.092 Y38.715 E17.44255
G1 X18.973 Y37.961 E17.47341
G1 X19.427 Y37.612 E17.48864
G1 X19.724 Y37.392 E17.49848
G1 X20.165 Y37.076 E17.51291
G1 X20.824 Y36.643 E17.5339
G0 F1350 X20.915 Y36.583
G0 X21.679 Y36.126
G0 F7500 X21.879 Y36.473
G1 F1500 X31.649 Y30.834 E17.83405
G1 X32.221 Y30.514 E17.85149
G1 X33 Y30.12 E17.87472
G1 X33.814 Y29.754 E17.89847
G1 X34.281 Y29.558 E17.91194
G1 X35.144 Y29.239 E17.93642
G1 X36.077 Y28.986 E17.96215
G1 X36.593 Y28.871 E17.97621
G1 X37.006 Y28.787 E17.98743
G1 X37.612 Y28.677 E18.00381
G1 X38.524 Y28.552 E18.02831
G1 X39.654 Y28.508 E18.0584
G1 X40.153 Y28.515 E18.07168
G1 X41.103 Y28.553 E18.09697
G1 X42.02 Y28.634 E18.12147
G1 X43.2 Y28.858 E18.15343
G1 X44.026 Y29.069 E18.17611
G1 X44.839 Y29.3 E18.1986
G1 X45.991 Y29.657 E18.23069
G1 X46.66 Y29.873 E18.2494
G1 X49.119 Y30.592 E18.31756
G1 X51.548 Y31.229 E18.38438
G1 X54.039 Y31.806 E18.45242
G1 X56.486 Y32.303 E18.51886
G1 X59.016 Y32.74 E18.58717
G1 X61.412 Y33.087 E18.65159
G1 X62.372 Y33.271 E18.6776
G1 X62.966 Y33.414 E18.69386
G1 X63.321 Y33.506 E18.70361
G1 X63.836 Y33.649 E18.71784
G1 X64.712 Y33.934 E18.74235
G1 X65.733 Y34.378 E18.77197
G1 X66.246 Y34.634 E18.78723
G1 X66.571 Y34.804 E18.79699
G1 X67.059 Y35.069 E18.81176
G1 X67.803 Y35.513 E18.83481
G1 X68.42 Y35.918 E18.85445
G1 X69.717 Y36.796 E18.89613
G1 X71.876 Y38.17 E18.96422
G1 X74.04 Y39.463 E19.0313
G1 X76.238 Y40.693 E19.09832
G1 X78.478 Y41.866 E19.1656
G1 X80.744 Y42.971 E19.23268
G1 X83.065 Y44.022 E19.30047
G1 X85.38 Y44.993 E19.36727
G1 X87.773 Y45.919 E19.43554
G1 X90.124 Y46.75 E19.50189
G1 X92.531 Y47.527 E19.56919
G1 X94.967 Y48.238 E19.63671
G1 X97.408 Y48.875 E19.70384
G1 X99.878 Y49.447 E19.7713
G1 X102.373 Y49.951 E19.83903
G1 X104.859 Y50.379 E19.90615
G1 X107.331 Y50.734 E19.9726
G1 X109.847 Y51.022 E20.03998
G1 X112.398 Y51.242 E20.10811
G1 X114.903 Y51.386 E20.17487
G1 X117.414 Y51.46 E20.24171
G1 X119.961 Y51.464 E20.30949
G1 X122.47 Y51.395 E20.37627
G1 X125.01 Y51.254 E20.44396
G1 X127.522 Y51.043 E20.51103
G1 X130.064 Y50.757 E20.5791
G1 X132.556 Y50.406 E20.64606
G1 X135.012 Y49.987 E20.71235
G1 X137.516 Y49.488 E20.78029
G1 X139.981 Y48.924 E20.84758
G1 X142.408 Y48.295 E20.91429
G1 X144.868 Y47.584 E20.98242
G1 X147.271 Y46.813 E21.04957
G1 X149.647 Y45.977 E21.11659
G1 X151.966 Y45.087 E21.18268
G1 X154.363 Y44.088 E21.25178
G1 X156.676 Y43.047 E21.31927
G1 X158.886 Y41.978 E21.38459
G1 X159.728 Y41.606 E21.40909
G1 X160.599 Y41.308 E21.43358
G1 X161.493 Y41.087 E21.45809
G1 X162.402 Y40.944 E21.48257
G1 X163.321 Y40.88 E21.50708
G1 X164.241 Y40.897 E21.53157
G1 X165.157 Y40.993 E21.55607
G1 X166.061 Y41.169 E21.58058
G1 X166.946 Y41.422 E21.60507
G1 X167.806 Y41.751 E21.62957
G1 X168.634 Y42.154 E21.65407
G1 X169.424 Y42.627 E21.67857
G1 X170.039 Y43.065 E21.69866
G1 X170.806 Y43.653 E21.72438
G1 X171.142 Y43.921 E21.73581
G1 X172.278 Y44.869 E21.77518
G1 X172.782 Y45.302 E21.79286
G1 X173.237 Y45.717 E21.80925
G1 X173.82 Y46.28 E21.83081
G1 X174.057 Y46.516 E21.83971
G1 X174.441 Y46.911 E21.85437
G1 X174.855 Y47.362 E21.87066
G1 X175.143 Y47.696 E21.8824
G1 X176.52 Y49.329 E21.93923
G1 X178.167 Y51.171 E22.00498
G1 X180.909 Y54.031 E22.1104
G1 X182.283 Y55.405 E22.16211
