;FLAVOR:Marlin
M117 Time Left 0h16m07s
;TIME:967
;Filament used: 1.18859m
;Layer height: 0.28
;MINX:87.475
;MINY:93.175
;MINZ:0.28
;MAXX:147.525
;MAXY:141.825
;MAXZ:17.92
;POSTPROCESSED
;Generated with Cura_SteamEngine 5.2.1
M140 S60
M105
M190 S60
M104 S205
M105
M109 S205
M82 ;absolute extrusion mode
; Ender 3 Custom Start G-code
G92 E0 ; Reset Extruder
G28 ; Home all axes
G1 Z2.0 F3000 ; Move Z Axis up little to prevent scratching of Heat Bed
G1 X0.1 Y20 Z0.3 F5000.0 ; Move to start position
G1 X0.1 Y200.0 Z0.3 F1500.0 E15 ; Draw the first line
G1 X0.4 Y200.0 Z0.3 F5000.0 ; Move to side a little
G1 X0.4 Y20 Z0.3 F1500.0 E30 ; Draw the second line
G92 E0 ; Reset Extruder
G1 Z2.0 F3000 ; Move Z Axis up little to prevent scratching of Heat Bed
G1 X5 Y20 Z0.3 F5000.0 ; Move over to prevent blob squish
G92 E0
G92 E0
G1 F2700 E-6
;LAYER_COUNT:64
;LAYER:0
M107
M204 S500
M205 X5 Y5
G0 F7500 X106.384 Y96.542 Z0.28
M205 X8 Y8
;TYPE:SKIRT
G1 F2700 E0
G1 F1500 X107.046 Y95.898 E0.04366
G1 X107.761 Y95.313 E0.08734
G1 X108.524 Y94.792 E0.13102
G1 X109.329 Y94.339 E0.17469
G1 X110.17 Y93.957 E0.21836
G1 X111.042 Y93.649 E0.26208
G1 X111.936 Y93.418 E0.30573
G1 X112.847 Y93.266 E0.3494
G1 X113.827 Y93.19 E0.39587
G1 X114.48 Y93.175 E0.42675
G1 X136.143 Y93.175 E1.45092
G1 X136.994 Y93.186 E1.49115
G1 X137.916 Y93.239 E1.53481
G1 X138.831 Y93.372 E1.57853
G1 X139.73 Y93.583 E1.62219
G1 X140.608 Y93.872 E1.66589
G1 X141.457 Y94.235 E1.70954
G1 X142.272 Y94.67 E1.75321
G1 X143.047 Y95.174 E1.79692
G1 X143.774 Y95.743 E1.84057
G1 X144.45 Y96.373 E1.88425
G1 X145.069 Y97.059 E1.92794
G1 X145.626 Y97.796 E1.97161
G1 X146.118 Y98.578 E2.01529
G1 X146.54 Y99.4 E2.05898
G1 X146.889 Y100.256 E2.10268
G1 X147.163 Y101.138 E2.14634
G1 X147.36 Y102.041 E2.19004
G1 X147.478 Y102.957 E2.2337
G1 X147.512 Y103.56 E2.26226
G1 X147.525 Y104.18 E2.29157
G1 X147.524 Y107.995 E2.47194
G1 X147.514 Y108.698 E2.50518
G1 X147.461 Y109.62 E2.54884
G1 X147.328 Y110.535 E2.59255
G1 X147.117 Y111.434 E2.63621
G1 X146.829 Y112.312 E2.67989
G1 X146.466 Y113.161 E2.72355
G1 X146.031 Y113.976 E2.76722
G1 X145.527 Y114.751 E2.81093
G1 X144.958 Y115.479 E2.85461
G1 X144.229 Y116.251 E2.90481
G1 X143.423 Y117.024 E2.95761
G1 X141.607 Y118.816 E3.07823
G1 X139.87 Y120.63 E3.19696
G1 X138.14 Y122.541 E3.31883
G1 X136.529 Y124.426 E3.43606
G1 X134.928 Y126.409 E3.55656
G1 X133.405 Y128.411 E3.67548
G1 X131.928 Y130.47 E3.79528
G1 X130.508 Y132.572 E3.91521
G1 X129.168 Y134.682 E4.03338
G1 X128.268 Y136.193 E4.11653
G1 X127.938 Y136.731 E4.14636
G1 X127.421 Y137.496 E4.19002
G1 X126.839 Y138.214 E4.23371
G1 X126.198 Y138.879 E4.27738
G1 X125.501 Y139.486 E4.32108
G1 X124.755 Y140.03 E4.36473
G1 X123.964 Y140.508 E4.40842
G1 X123.135 Y140.916 E4.4521
G1 X122.274 Y141.25 E4.49576
G1 X121.387 Y141.509 E4.53945
G1 X120.481 Y141.69 E4.58313
G1 X119.14 Y141.812 E4.64679
G1 X118.52 Y141.825 E4.67611
G1 X98.719 Y141.824 E5.61224
G1 X98.021 Y141.815 E5.64525
G1 X97.099 Y141.763 E5.6889
G1 X96.184 Y141.632 E5.7326
G1 X95.285 Y141.422 E5.77625
G1 X94.407 Y141.135 E5.81992
G1 X93.556 Y140.773 E5.86364
G1 X92.741 Y140.339 E5.9073
G1 X91.966 Y139.836 E5.95098
G1 X91.237 Y139.268 E5.99467
G1 X90.56 Y138.639 E6.03836
G1 X89.941 Y137.954 E6.08201
G1 X89.382 Y137.218 E6.1257
G1 X88.89 Y136.436 E6.16938
G1 X88.467 Y135.615 E6.21304
G1 X88.116 Y134.76 E6.25674
G1 X87.841 Y133.878 E6.30042
G1 X87.643 Y132.975 E6.34412
G1 X87.524 Y132.059 E6.38779
G1 X87.488 Y131.429 E6.41763
G1 X87.475 Y130.808 E6.44699
G1 X87.476 Y127.005 E6.62679
G1 X87.486 Y126.302 E6.66003
G1 X87.539 Y125.38 E6.70369
G1 X87.672 Y124.465 E6.7474
G1 X87.883 Y123.566 E6.79106
G1 X88.171 Y122.688 E6.83474
G1 X88.534 Y121.839 E6.8784
G1 X88.969 Y121.024 E6.92207
G1 X89.473 Y120.249 E6.96578
G1 X90.342 Y119.185 E7.03073
G1 X90.661 Y118.842 E7.05287
G1 X92.418 Y116.899 E7.17672
G1 X94.046 Y114.993 E7.29523
G1 X95.645 Y113.009 E7.4157
G1 X97.162 Y111.015 E7.53415
G1 X98.631 Y108.967 E7.6533
G1 X100.062 Y106.847 E7.77423
G1 X101.402 Y104.736 E7.89244
G1 X102.709 Y102.54 E8.01326
G1 X103.922 Y100.365 E8.13099
G1 X104.292 Y99.659 E8.16868
G1 X104.765 Y98.784 E8.2157
G1 X105.239 Y97.991 E8.25938
G1 X105.78 Y97.242 E8.30306
G1 X106.384 Y96.542 E8.34677
M205 X5 Y5
G0 F7500 X106.751 Y96.809
M205 X8 Y8
G1 F1500 X107.403 Y96.182 E8.38954
G1 X108.108 Y95.616 E8.43228
G1 X108.86 Y95.113 E8.47505
G1 X109.653 Y94.68 E8.51777
G1 X110.482 Y94.318 E8.56054
G1 X111.339 Y94.031 E8.60326
G1 X112.219 Y93.82 E8.64605
G1 X113.113 Y93.688 E8.68877
G1 X113.841 Y93.64 E8.72326
G1 X114.48 Y93.625 E8.75348
G1 X136.143 Y93.625 E9.77765
G1 X136.987 Y93.636 E9.81755
G1 X137.89 Y93.689 E9.86032
G1 X138.785 Y93.821 E9.90309
G1 X139.664 Y94.032 E9.94583
G1 X140.521 Y94.32 E9.98857
G1 X141.349 Y94.683 E10.03131
G1 X142.143 Y95.117 E10.07409
G1 X142.894 Y95.619 E10.1168
G1 X143.599 Y96.186 E10.15957
G1 X144.25 Y96.813 E10.2023
G1 X144.844 Y97.495 E10.24506
G1 X145.375 Y98.227 E10.28781
G1 X145.839 Y99.003 E10.33056
G1 X146.233 Y99.817 E10.37331
G1 X146.553 Y100.663 E10.41608
G1 X146.798 Y101.533 E10.45881
G1 X146.964 Y102.422 E10.50156
G1 X147.062 Y103.573 E10.55618
G1 X147.075 Y104.18 E10.58488
G1 X147.074 Y107.988 E10.76491
G1 X147.064 Y108.691 E10.79815
G1 X147.011 Y109.594 E10.84091
G1 X146.879 Y110.489 E10.88369
G1 X146.668 Y111.368 E10.92642
G1 X146.38 Y112.225 E10.96917
G1 X146.018 Y113.054 E11.01193
G1 X145.584 Y113.847 E11.05467
G1 X145.081 Y114.598 E11.0974
G1 X144.514 Y115.303 E11.14018
G1 X143.917 Y115.926 E11.18097
G1 X143.145 Y116.666 E11.23153
G1 X141.284 Y118.503 E11.35515
G1 X139.513 Y120.352 E11.4762
G1 X137.83 Y122.21 E11.59472
G1 X136.173 Y124.15 E11.71534
G1 X134.584 Y126.118 E11.83492
G1 X133.02 Y128.174 E11.95705
G1 X131.58 Y130.181 E12.07383
G1 X130.124 Y132.337 E12.19683
G1 X128.781 Y134.452 E12.31528
G1 X127.881 Y135.963 E12.39842
G1 X127.555 Y136.495 E12.42792
G1 X127.048 Y137.244 E12.47068
G1 X126.477 Y137.945 E12.51343
G1 X125.846 Y138.592 E12.55615
G1 X125.16 Y139.182 E12.59893
G1 X124.425 Y139.708 E12.64166
G1 X123.646 Y140.168 E12.68443
G1 X122.83 Y140.557 E12.72717
G1 X121.983 Y140.872 E12.76989
G1 X121.111 Y141.112 E12.81265
G1 X120.221 Y141.273 E12.85541
G1 X119.128 Y141.362 E12.90726
G1 X118.52 Y141.375 E12.93601
G1 X98.725 Y141.374 E13.87186
G1 X98.027 Y141.365 E13.90486
G1 X97.124 Y141.314 E13.94762
G1 X96.23 Y141.182 E13.99035
G1 X95.35 Y140.973 E14.03311
G1 X94.493 Y140.686 E14.07584
G1 X93.664 Y140.325 E14.11858
G1 X92.87 Y139.892 E14.16134
G1 X92.118 Y139.39 E14.20409
G1 X91.412 Y138.824 E14.24687
G1 X90.76 Y138.198 E14.2896
G1 X90.165 Y137.517 E14.33235
G1 X89.633 Y136.786 E14.37509
G1 X89.168 Y136.011 E14.41782
G1 X88.773 Y135.197 E14.4606
G1 X88.451 Y134.352 E14.50335
G1 X88.206 Y133.482 E14.54608
G1 X88.038 Y132.594 E14.58881
G1 X87.938 Y131.417 E14.64465
G1 X87.925 Y130.808 E14.67345
G1 X87.926 Y127.012 E14.85292
G1 X87.936 Y126.309 E14.88616
G1 X87.989 Y125.406 E14.92892
G1 X88.121 Y124.511 E14.97169
G1 X88.332 Y123.632 E15.01443
G1 X88.62 Y122.775 E15.05717
G1 X88.982 Y121.946 E15.09994
G1 X89.416 Y121.153 E15.14268
G1 X89.919 Y120.402 E15.18541
G1 X90.672 Y119.491 E15.24129
G1 X91.005 Y119.133 E15.2644
G1 X92.742 Y117.212 E15.38684
G1 X94.401 Y115.269 E15.50763
G1 X96.002 Y113.283 E15.62824
G1 X97.522 Y111.286 E15.74689
G1 X99.001 Y109.223 E15.86689
G1 X100.435 Y107.098 E15.98809
G1 X101.789 Y104.965 E16.10754
G1 X103.077 Y102.801 E16.22659
G1 X104.334 Y100.55 E16.34848
G1 X104.688 Y99.873 E16.3846
G1 X105.161 Y98.998 E16.43163
G1 X105.626 Y98.222 E16.4744
G1 X106.157 Y97.49 E16.51715
G1 X106.751 Y96.809 E16.55987
M205 X5 Y5
G1 F2700 E10.55987
;MESH:sujeta_dvd.stl
G0 F7500 X113.485 Y104.289
G0 X114.589 Y104.289
G0 X135.928 Y104.772
G0 X135.928 Y107.628
G0 X121.198 Y108.113
G1 F2700 E16.55987
G0 F7500 X121.341 Y108.165
M205 X8 Y8
;TYPE:WALL-INNER
G1 F1500 X121.534 Y107.972 E16.57421
G1 X121.911 Y107.85 E16.59503
G1 X136.15 Y107.85 E17.343
G1 X136.15 Y106.2 E17.42968
G1 X136.15 Y104.55 E17.51635
G1 X114.851 Y104.551 E18.63519
G1 X114.85 Y126.393 E19.78256
G1 X114.742 Y126.694 E19.79936
G1 X114.598 Y126.905 E19.81278
G1 X114.351 Y127.065 E19.82824
G1 X114.089 Y127.15 E19.84271
G1 X98.85 Y127.15 E20.64321
G1 X98.85 Y130.45 E20.81656
G1 X118.15 Y130.45 E21.8304
G1 X118.15 Y126.3 E22.0484
G1 X118.209 Y126.017 E22.06358
G1 X118.367 Y125.733 E22.08066
G1 X118.505 Y125.61 E22.09037
G1 X118.874 Y125.45 E22.11149
G1 X121.15 Y125.45 E22.23105
G1 X121.15 Y108.574 E23.11755
G1 X121.341 Y108.165 E23.14126
M205 X5 Y5
G1 F2700 E17.14126
G0 F7500 X121.12 Y108.067
G0 X120.986 Y108.518
G0 X120.928 Y125.228
G0 X118.575 Y125.337
G0 X118.278 Y125.545
G1 F2700 E23.14126
G0 F7500 X118.576 Y125.912
M205 X8 Y8
;TYPE:WALL-OUTER
G1 F1500 X118.659 Y125.837 E23.14655
G1 X118.923 Y125.725 E23.16011
G1 X121.425 Y125.725 E23.2784
G1 X121.425 Y108.623 E24.08693
G1 X121.56 Y108.331 E24.10214
G1 X121.639 Y108.252 E24.10742
G1 X121.945 Y108.125 E24.12309
G1 X136.425 Y108.125 E24.80766
G1 X136.425 Y106.2 E24.89867
G1 X136.425 Y104.275 E24.98968
G1 X114.576 Y104.276 E26.02264
G1 X114.575 Y126.354 E27.06642
G1 X114.403 Y126.711 E27.08516
G1 X114.055 Y126.875 E27.10335
G1 X98.575 Y126.875 E27.8352
G1 X98.575 Y130.725 E28.01722
G1 X118.425 Y130.725 E28.95567
G1 X118.425 Y126.3 E29.16487
G1 X118.461 Y126.128 E29.17318
G1 X118.576 Y125.912 E29.18475
M205 X5 Y5
G0 F7500 X118.659 Y125.837
G0 X118.741 Y125.803
G0 X118.558 Y125.329
G0 X120.928 Y125.228
G0 X120.986 Y108.518
G0 X121.221 Y108.074
G0 X121.068 Y107.968
M205 X8 Y8
;TYPE:SKIN
G1 F1500 X121.298 Y107.752 E29.19966
G1 X121.549 Y107.618 E29.21312
G1 X121.864 Y107.521 E29.2287
G1 X135.818 Y107.518 E29.8884
G1 X135.818 Y106.2 E29.95072
G1 X135.818 Y104.882 E30.01303
G1 X115.184 Y104.884 E30.98854
G1 X115.179 Y126.442 E32.00775
G1 X115.049 Y126.829 E32.02705
G1 X114.834 Y127.137 E32.04481
G1 X114.477 Y127.374 E32.06506
G1 X114.135 Y127.479 E32.08198
G1 X99.182 Y127.482 E32.78891
G1 X99.182 Y130.118 E32.91354
G1 X117.818 Y130.118 E33.79459
G1 X117.822 Y126.271 E33.97647
G1 X117.903 Y125.877 E33.99549
G1 X118.095 Y125.548 E34.0135
G1 X118.321 Y125.331 E34.02831
G1 X118.726 Y125.154 E34.0492
G1 X118.983 Y125.119 E34.06147
G1 X120.818 Y125.118 E34.14822
G1 X120.818 Y108.507 E34.93354
G1 X121.068 Y107.968 E34.96163
M205 X5 Y5
G0 F7500 X121.221 Y108.074
G0 X121.839 Y107.686
G0 X135.928 Y107.628
G0 X135.928 Y104.772
G0 X135.018 Y104.7
G0 X135.018 Y105.107
M205 X8 Y8
G1 F1500 X135.592 Y105.682 E35.00004
M205 X5 Y5
G0 F7500 X135.592 Y106.318
M205 X8 Y8
G1 F1500 X134.382 Y105.107 E35.08098
M205 X5 Y5
G0 F7500 X133.745 Y105.107
M205 X8 Y8
G1 F1500 X135.592 Y106.954 E35.20447
M205 X5 Y5
G0 F7500 X135.294 Y107.292
M205 X8 Y8
G1 F1500 X133.109 Y105.107 E35.35056
M205 X5 Y5
G0 F7500 X132.472 Y105.107
M205 X8 Y8
G1 F1500 X134.657 Y107.292 E35.49665
M205 X5 Y5
G0 F7500 X134.021 Y107.292
M205 X8 Y8
G1 F1500 X131.836 Y105.107 E35.64274
M205 X5 Y5
G0 F7500 X131.2 Y105.107
M205 X8 Y8
G1 F1500 X133.385 Y107.292 E35.78882
M205 X5 Y5
G0 F7500 X132.748 Y107.292
M205 X8 Y8
G1 F1500 X130.563 Y105.107 E35.93491
M205 X5 Y5
G0 F7500 X129.927 Y105.107
M205 X8 Y8
G1 F1500 X132.112 Y107.292 E36.081
M205 X5 Y5
G0 F7500 X131.475 Y107.292
M205 X8 Y8
G1 F1500 X129.29 Y105.107 E36.22709
M205 X5 Y5
G0 F7500 X128.654 Y105.107
M205 X8 Y8
G1 F1500 X130.839 Y107.292 E36.37318
M205 X5 Y5
G0 F7500 X130.203 Y107.292
M205 X8 Y8
G1 F1500 X128.018 Y105.107 E36.51927
M205 X5 Y5
G0 F7500 X127.381 Y105.107
M205 X8 Y8
G1 F1500 X129.566 Y107.292 E36.66536
M205 X5 Y5
G0 F7500 X128.93 Y107.292
M205 X8 Y8
G1 F1500 X126.745 Y105.107 E36.81145
M205 X5 Y5
G0 F7500 X126.108 Y105.107
M205 X8 Y8
G1 F1500 X128.293 Y107.292 E36.95754
M205 X5 Y5
G0 F7500 X127.657 Y107.292
M205 X8 Y8
G1 F1500 X125.473 Y105.108 E37.10356
M205 X5 Y5
G0 F7500 X124.836 Y105.108
M205 X8 Y8
G1 F1500 X127.021 Y107.292 E37.24962
M205 X5 Y5
G0 F7500 X126.384 Y107.292
M205 X8 Y8
G1 F1500 X124.2 Y105.108 E37.39564
M205 X5 Y5
G0 F7500 X123.564 Y105.108
M205 X8 Y8
G1 F1500 X125.748 Y107.292 E37.54166
M205 X5 Y5
G0 F7500 X125.111 Y107.292
M205 X8 Y8
G1 F1500 X122.927 Y105.108 E37.68768
M205 X5 Y5
G0 F7500 X122.291 Y105.108
M205 X8 Y8
G1 F1500 X124.475 Y107.292 E37.83371
M205 X5 Y5
G0 F7500 X123.839 Y107.292
M205 X8 Y8
G1 F1500 X121.654 Y105.108 E37.97976
M205 X5 Y5
G0 F7500 X121.018 Y105.108
M205 X8 Y8
G1 F1500 X123.202 Y107.292 E38.12578
M205 X5 Y5
G0 F7500 X122.566 Y107.292
M205 X8 Y8
G1 F1500 X120.382 Y105.108 E38.27181
M205 X5 Y5
G0 F7500 X119.745 Y105.108
M205 X8 Y8
G1 F1500 X121.929 Y107.292 E38.41783
M205 X5 Y5
G0 F7500 X121.429 Y107.428
M205 X8 Y8
G1 F1500 X119.109 Y105.108 E38.57294
M205 X5 Y5
G0 F7500 X118.472 Y105.108
M205 X8 Y8
G1 F1500 X121.046 Y107.682 E38.74504
M205 X5 Y5
G0 F7500 X120.78 Y108.052
M205 X8 Y8
G1 F1500 X117.836 Y105.108 E38.94188
M205 X5 Y5
G0 F7500 X117.2 Y105.108
M205 X8 Y8
G1 F1500 X120.592 Y108.501 E39.1687
M205 X5 Y5
G0 F7500 X120.592 Y109.137
M205 X8 Y8
G1 F1500 X116.563 Y105.108 E39.43808
M205 X5 Y5
G0 F7500 X115.927 Y105.108
M205 X8 Y8
G1 F1500 X120.592 Y109.774 E39.75002
M205 X5 Y5
G0 F7500 X120.592 Y110.41
M205 X8 Y8
G1 F1500 X115.407 Y105.225 E40.09669
M205 X5 Y5
G0 F7500 X115.407 Y105.861
M205 X8 Y8
G1 F1500 X120.592 Y111.046 E40.44335
M205 X5 Y5
G0 F7500 X120.592 Y111.683
M205 X8 Y8
G1 F1500 X115.407 Y106.498 E40.79002
M205 X5 Y5
G0 F7500 X115.407 Y107.134
M205 X8 Y8
G1 F1500 X120.592 Y112.319 E41.13669
M205 X5 Y5
G0 F7500 X120.592 Y112.956
M205 X8 Y8
G1 F1500 X115.407 Y107.77 E41.4834
M205 X5 Y5
G0 F7500 X115.407 Y108.407
M205 X8 Y8
G1 F1500 X120.592 Y113.592 E41.83007
M205 X5 Y5
G0 F7500 X120.592 Y114.228
M205 X8 Y8
G1 F1500 X115.407 Y109.043 E42.17674
M205 X5 Y5
G0 F7500 X115.407 Y109.68
M205 X8 Y8
G1 F1500 X120.592 Y114.865 E42.5234
M205 X5 Y5
G0 F7500 X120.592 Y115.501
M205 X8 Y8
G1 F1500 X115.407 Y110.316 E42.87007
M205 X5 Y5
G0 F7500 X115.407 Y110.952
M205 X8 Y8
G1 F1500 X120.592 Y116.138 E43.21678
M205 X5 Y5
G0 F7500 X120.592 Y116.774
M205 X8 Y8
G1 F1500 X115.407 Y111.589 E43.56345
M205 X5 Y5
G0 F7500 X115.407 Y112.225
M205 X8 Y8
G1 F1500 X120.592 Y117.41 E43.91012
M205 X5 Y5
G0 F7500 X120.592 Y118.047
M205 X8 Y8
G1 F1500 X115.407 Y112.862 E44.25679
M205 X5 Y5
G0 F7500 X115.407 Y113.498
M205 X8 Y8
G1 F1500 X120.592 Y118.683 E44.60345
M205 X5 Y5
G0 F7500 X120.592 Y119.32
M205 X8 Y8
G1 F1500 X115.407 Y114.134 E44.95016
M205 X5 Y5
G0 F7500 X115.407 Y114.771
M205 X8 Y8
G1 F1500 X120.592 Y119.956 E45.29683
M205 X5 Y5
G0 F7500 X120.592 Y120.592
M205 X8 Y8
G1 F1500 X115.407 Y115.407 E45.6435
M205 X5 Y5
G0 F7500 X115.406 Y116.043
M205 X8 Y8
G1 F1500 X120.592 Y121.229 E45.99023
M205 X5 Y5
G0 F7500 X120.592 Y121.865
M205 X8 Y8
G1 F1500 X115.406 Y116.679 E46.33697
M205 X5 Y5
G0 F7500 X115.406 Y117.316
M205 X8 Y8
G1 F1500 X120.592 Y122.502 E46.68371
M205 X5 Y5
G0 F7500 X120.592 Y123.138
M205 X8 Y8
G1 F1500 X115.406 Y117.952 E47.03044
M205 X5 Y5
G0 F7500 X115.406 Y118.588
M205 X8 Y8
G1 F1500 X120.592 Y123.774 E47.37718
M205 X5 Y5
G0 F7500 X120.592 Y124.411
M205 X8 Y8
G1 F1500 X115.406 Y119.225 E47.72391
M205 X5 Y5
G0 F7500 X115.406 Y119.861
M205 X8 Y8
G1 F1500 X120.437 Y124.892 E48.06029
M205 X5 Y5
G0 F7500 X119.801 Y124.892
M205 X8 Y8
G1 F1500 X115.406 Y120.498 E48.3541
M205 X5 Y5
G0 F7500 X115.406 Y121.134
M205 X8 Y8
G1 F1500 X119.166 Y124.894 E48.6055
M205 X5 Y5
G0 F7500 X118.6 Y124.964
M205 X8 Y8
G1 F1500 X115.406 Y121.77 E48.81905
M205 X5 Y5
G0 F7500 X115.406 Y122.407
M205 X8 Y8
G1 F1500 X118.177 Y125.177 E49.00428
M205 X5 Y5
G0 F7500 X117.863 Y125.5
M205 X8 Y8
G1 F1500 X115.406 Y123.043 E49.16856
M205 X5 Y5
G0 F7500 X115.406 Y123.68
M205 X8 Y8
G1 F1500 X117.662 Y125.935 E49.31936
M205 X5 Y5
G0 F7500 X117.593 Y126.502
M205 X8 Y8
G1 F1500 X115.406 Y124.316 E49.46555
M205 X5 Y5
G0 F7500 X115.406 Y124.952
M205 X8 Y8
G1 F1500 X117.593 Y127.139 E49.61177
M205 X5 Y5
G0 F7500 X117.593 Y127.775
M205 X8 Y8
G1 F1500 X115.406 Y125.589 E49.75796
M205 X5 Y5
G0 F7500 X115.406 Y126.225
M205 X8 Y8
G1 F1500 X117.593 Y128.412 E49.90419
M205 X5 Y5
G0 F7500 X117.593 Y129.048
M205 X8 Y8
G1 F1500 X115.307 Y126.762 E50.05703
M205 X5 Y5
