;FLAVOR:Marlin
M117 Time Left 0h37m13s
;TIME:2233
;Filament used: 2.92615m
;Layer height: 0.28
;MINX:91.3
;MINY:78.3
;MINZ:0.28
;MAXX:143.7
;MAXY:156.7
;MAXZ:36.12
;POSTPROCESSED
;Generated with Cura_SteamEngine 4.12.1
M140 S70
M105
M190 S70
M104 S235
M105
M109 S235
M82 ;absolute extrusion mode
; Ender 3 Custom Start G-code
G92 E0 ; Reset Extruder
G28 ; Home all axes
G1 Z2.0 F3000 ; Move Z Axis up little to prevent scratching of Heat Bed
G1 X0.1 Y20 Z0.3 F5000.0 ; Move to start position
G1 X0.1 Y200.0 Z0.3 F1500.0 E15 ; Draw the first line
G1 X0.4 Y200.0 Z0.3 F5000.0 ; Move to side a little
G1 X0.4 Y20 Z0.3 F1500.0 E30 ; Draw the second line
G92 E0 ; Reset Extruder
G1 Z2.0 F3000 ; Move Z Axis up little to prevent scratching of Heat Bed
G1 X5 Y20 Z0.3 F5000.0 ; Move over to prevent blob squish
G92 E0
G92 E0
G1 F2700 E-6
;LAYER_COUNT:129
;LAYER:0
M107
M204 S500
M205 X5 Y5
G0 F7500 X93.871 Y82.476 Z0.28
M205 X8 Y8
;TYPE:SKIRT
G1 F2700 E0
G1 F1500 X94.504 Y81.765 E0.05401
G1 X95.195 Y81.108 E0.1081
G1 X95.938 Y80.513 E0.1621
G1 X96.729 Y79.981 E0.21618
G1 X97.562 Y79.518 E0.27025
G1 X98.43 Y79.126 E0.32428
G1 X99.328 Y78.809 E0.37831
G1 X100.25 Y78.568 E0.43238
G1 X101.189 Y78.405 E0.48644
G1 X102.341 Y78.313 E0.55201
G1 X102.662 Y78.304 E0.57023
G1 X102.98 Y78.3 E0.58827
G1 X113.393 Y78.3 E1.17903
G1 X115.011 Y78.322 E1.27083
G1 X116.188 Y78.355 E1.33763
G1 X118.761 Y78.357 E1.4836
G1 X120.158 Y78.327 E1.56288
G1 X120.897 Y78.305 E1.60482
G1 X121.233 Y78.3 E1.62388
G1 X131.806 Y78.301 E2.22372
G1 X132.504 Y78.311 E2.26332
G1 X133.455 Y78.365 E2.31736
G1 X134.398 Y78.498 E2.37139
G1 X135.327 Y78.71 E2.42545
G1 X136.235 Y78.999 E2.47951
G1 X137.115 Y79.363 E2.53354
G1 X137.962 Y79.8 E2.58761
G1 X138.769 Y80.306 E2.64165
G1 X139.531 Y80.878 E2.6957
G1 X140.242 Y81.512 E2.74975
G1 X140.897 Y82.203 E2.80376
G1 X141.493 Y82.947 E2.85784
G1 X142.023 Y83.738 E2.91186
G1 X142.486 Y84.571 E2.96593
G1 X142.877 Y85.439 E3.01994
G1 X143.194 Y86.338 E3.07402
G1 X143.434 Y87.26 E3.12807
G1 X143.597 Y88.198 E3.18208
G1 X143.687 Y89.341 E3.24713
G1 X143.696 Y89.661 E3.26529
G1 X143.7 Y89.98 E3.28339
G1 X143.699 Y144.754 E6.39086
G1 X143.69 Y145.481 E6.43211
G1 X143.638 Y146.433 E6.4862
G1 X143.507 Y147.376 E6.54021
G1 X143.297 Y148.306 E6.5943
G1 X143.01 Y149.214 E6.64833
G1 X142.647 Y150.095 E6.70239
G1 X142.212 Y150.943 E6.75646
G1 X141.708 Y151.751 E6.81048
G1 X141.137 Y152.514 E6.86455
G1 X140.505 Y153.226 E6.91856
G1 X139.815 Y153.883 E6.97261
G1 X139.072 Y154.48 E7.02669
G1 X138.282 Y155.012 E7.08072
G1 X137.45 Y155.476 E7.13477
G1 X136.582 Y155.869 E7.18882
G1 X135.684 Y156.187 E7.24287
G1 X134.763 Y156.43 E7.29691
G1 X133.824 Y156.594 E7.35099
G1 X132.659 Y156.687 E7.41729
G1 X132.338 Y156.696 E7.43551
G1 X132.02 Y156.7 E7.45355
G1 X103.211 Y156.699 E9.08796
G1 X102.513 Y156.69 E9.12756
G1 X101.561 Y156.638 E9.18165
G1 X100.618 Y156.506 E9.23567
G1 X99.689 Y156.295 E9.28972
G1 X98.781 Y156.008 E9.34375
G1 X97.9 Y155.645 E9.3978
G1 X97.052 Y155.21 E9.45187
G1 X96.244 Y154.705 E9.50593
G1 X95.482 Y154.134 E9.55995
G1 X94.77 Y153.501 E9.614
G1 X94.113 Y152.81 E9.66809
G1 X93.517 Y152.067 E9.72213
G1 X92.985 Y151.277 E9.77617
G1 X92.521 Y150.445 E9.83021
G1 X92.129 Y149.577 E9.88424
G1 X91.811 Y148.679 E9.93829
G1 X91.569 Y147.757 E9.99237
G1 X91.406 Y146.819 E10.04638
G1 X91.313 Y145.648 E10.11303
G1 X91.304 Y145.315 E10.13192
G1 X91.3 Y145.008 E10.14934
G1 X91.301 Y90.17 E13.26045
G1 X91.31 Y89.505 E13.29818
G1 X91.363 Y88.554 E13.35221
G1 X91.495 Y87.611 E13.40623
G1 X91.706 Y86.682 E13.46028
G1 X91.995 Y85.774 E13.51434
G1 X92.358 Y84.893 E13.5684
G1 X92.794 Y84.046 E13.62244
G1 X93.3 Y83.238 E13.67653
G1 X93.871 Y82.476 E13.73055
M205 X5 Y5
G0 F7500 X94.404 Y82.68
M205 X8 Y8
G1 F1500 X95.034 Y81.997 E13.78327
G1 X95.72 Y81.37 E13.83599
G1 X96.458 Y80.804 E13.88876
G1 X97.242 Y80.304 E13.94151
G1 X98.066 Y79.873 E13.99427
G1 X98.924 Y79.515 E14.04701
G1 X99.809 Y79.231 E14.09974
G1 X100.716 Y79.025 E14.15251
G1 X101.637 Y78.897 E14.20526
G1 X102.356 Y78.853 E14.24613
G1 X102.677 Y78.844 E14.26435
G1 X102.98 Y78.84 E14.28154
G1 X113.549 Y78.841 E14.88115
G1 X115.157 Y78.865 E14.97238
G1 X116.208 Y78.895 E15.03203
G1 X118.728 Y78.897 E15.175
G1 X120.259 Y78.864 E15.26188
G1 X120.913 Y78.845 E15.299
G1 X121.233 Y78.84 E15.31715
G1 X131.798 Y78.841 E15.91653
G1 X132.496 Y78.851 E15.95614
G1 X133.424 Y78.904 E16.00887
G1 X134.344 Y79.037 E16.06161
G1 X135.25 Y79.249 E16.11439
G1 X136.133 Y79.537 E16.16709
G1 X136.989 Y79.9 E16.21984
G1 X137.811 Y80.336 E16.27262
G1 X138.592 Y80.84 E16.32536
G1 X139.326 Y81.41 E16.37808
G1 X140.009 Y82.041 E16.43083
G1 X140.636 Y82.728 E16.4836
G1 X141.201 Y83.466 E16.53633
G1 X141.7 Y84.251 E16.5891
G1 X142.13 Y85.075 E16.64183
G1 X142.488 Y85.933 E16.69458
G1 X142.771 Y86.819 E16.74734
G1 X142.976 Y87.725 E16.80004
G1 X143.103 Y88.646 E16.85279
G1 X143.147 Y89.356 E16.89315
G1 X143.156 Y89.676 E16.91131
G1 X143.16 Y89.98 E16.92856
G1 X143.159 Y144.748 E20.03569
G1 X143.15 Y145.475 E20.07694
G1 X143.099 Y146.403 E20.12966
G1 X142.968 Y147.324 E20.18244
G1 X142.758 Y148.229 E20.23515
G1 X142.471 Y149.114 E20.28793
G1 X142.11 Y149.97 E20.34064
G1 X141.676 Y150.793 E20.39342
G1 X141.173 Y151.574 E20.44612
G1 X140.604 Y152.31 E20.4989
G1 X139.975 Y152.995 E20.55166
G1 X139.289 Y153.622 E20.60439
G1 X138.552 Y154.189 E20.65714
G1 X137.769 Y154.69 E20.70988
G1 X136.945 Y155.121 E20.76263
G1 X136.088 Y155.481 E20.81537
G1 X135.203 Y155.765 E20.8681
G1 X134.296 Y155.973 E20.92089
G1 X133.376 Y156.101 E20.97359
G1 X132.644 Y156.147 E21.0152
G1 X132.323 Y156.156 E21.03342
G1 X132.02 Y156.16 E21.05061
G1 X103.218 Y156.159 E22.68462
G1 X102.52 Y156.15 E22.72423
G1 X101.591 Y156.098 E22.77701
G1 X100.671 Y155.967 E22.82973
G1 X99.765 Y155.756 E22.88251
G1 X98.881 Y155.469 E22.93524
G1 X98.025 Y155.107 E22.98796
G1 X97.203 Y154.673 E23.0407
G1 X96.421 Y154.17 E23.09345
G1 X95.685 Y153.601 E23.14623
G1 X95.001 Y152.971 E23.19899
G1 X94.374 Y152.285 E23.25171
G1 X93.808 Y151.547 E23.30447
G1 X93.308 Y150.764 E23.35718
G1 X92.876 Y149.94 E23.40996
G1 X92.517 Y149.083 E23.46268
G1 X92.233 Y148.197 E23.51546
G1 X92.026 Y147.291 E23.56819
G1 X91.898 Y146.37 E23.62094
G1 X91.853 Y145.633 E23.66283
G1 X91.844 Y145.3 E23.68173
G1 X91.84 Y145.008 E23.69829
G1 X91.841 Y90.178 E26.80895
G1 X91.85 Y89.513 E26.84668
G1 X91.903 Y88.584 E26.89947
G1 X92.035 Y87.664 E26.9522
G1 X92.245 Y86.759 E27.0049
G1 X92.533 Y85.875 E27.05765
G1 X92.896 Y85.018 E27.11045
G1 X93.331 Y84.197 E27.16316
G1 X93.834 Y83.415 E27.21591
G1 X94.404 Y82.68 E27.26868
M205 X5 Y5
G0 F7500 X94.936 Y82.89
M205 X8 Y8
G1 F1500 X95.562 Y82.235 E27.32008
G1 X96.245 Y81.639 E27.37151
G1 X96.976 Y81.104 E27.4229
G1 X97.753 Y80.637 E27.47433
G1 X98.567 Y80.239 E27.52574
G1 X99.413 Y79.915 E27.57713
G1 X100.285 Y79.667 E27.62856
G1 X101.175 Y79.497 E27.67997
G1 X102.371 Y79.393 E27.74808
G1 X102.692 Y79.384 E27.7663
G1 X102.98 Y79.38 E27.78264
G1 X113.393 Y79.38 E28.37339
G1 X114.995 Y79.402 E28.46429
G1 X116.192 Y79.435 E28.53222
G1 X118.738 Y79.437 E28.67666
G1 X120.27 Y79.405 E28.7636
G1 X120.929 Y79.385 E28.801
G1 X121.233 Y79.38 E28.81825
G1 X131.79 Y79.381 E29.41718
G1 X132.488 Y79.391 E29.45678
G1 X133.393 Y79.444 E29.50821
G1 X134.289 Y79.576 E29.55959
G1 X135.171 Y79.787 E29.61104
G1 X136.03 Y80.075 E29.66244
G1 X136.86 Y80.438 E29.71384
G1 X137.656 Y80.872 E29.76527
G1 X138.41 Y81.375 E29.81669
G1 X139.116 Y81.942 E29.86806
G1 X139.77 Y82.569 E29.91946
G1 X140.367 Y83.252 E29.97093
G1 X140.9 Y83.984 E30.0223
G1 X141.367 Y84.761 E30.07373
G1 X141.764 Y85.576 E30.12516
G1 X142.087 Y86.422 E30.17654
G1 X142.335 Y87.294 E30.22797
G1 X142.504 Y88.184 E30.27936
G1 X142.607 Y89.371 E30.34696
G1 X142.616 Y89.691 E30.36512
G1 X142.62 Y89.98 E30.38152
G1 X142.619 Y144.741 E33.48825
G1 X142.61 Y145.468 E33.5295
G1 X142.559 Y146.373 E33.58093
G1 X142.428 Y147.27 E33.63235
G1 X142.219 Y148.151 E33.68372
G1 X141.933 Y149.011 E33.73514
G1 X141.572 Y149.842 E33.78654
G1 X141.139 Y150.639 E33.838
G1 X140.638 Y151.394 E33.88941
G1 X140.072 Y152.101 E33.94079
G1 X139.446 Y152.757 E33.99223
G1 X138.765 Y153.354 E34.04361
G1 X138.033 Y153.889 E34.09504
G1 X137.258 Y154.358 E34.14644
G1 X136.444 Y154.756 E34.19784
G1 X135.598 Y155.081 E34.24926
G1 X134.727 Y155.33 E34.30065
G1 X133.837 Y155.502 E34.35208
G1 X132.629 Y155.607 E34.42087
G1 X132.308 Y155.616 E34.43909
G1 X132.02 Y155.62 E34.45543
G1 X103.225 Y155.619 E36.08904
G1 X102.527 Y155.61 E36.12865
G1 X101.622 Y155.558 E36.18007
G1 X100.725 Y155.427 E36.2315
G1 X99.844 Y155.218 E36.28287
G1 X98.984 Y154.931 E36.33431
G1 X98.153 Y154.57 E36.38571
G1 X97.357 Y154.136 E36.43714
G1 X96.602 Y153.635 E36.48855
G1 X95.895 Y153.069 E36.53993
G1 X95.24 Y152.442 E36.59137
G1 X94.643 Y151.761 E36.64275
G1 X94.108 Y151.029 E36.69419
G1 X93.64 Y150.253 E36.7456
G1 X93.242 Y149.439 E36.797
G1 X92.917 Y148.593 E36.84842
G1 X92.669 Y147.721 E36.89985
G1 X92.498 Y146.831 E36.95127
G1 X92.393 Y145.618 E37.02034
G1 X92.384 Y145.285 E37.03924
G1 X92.38 Y145.008 E37.05496
G1 X92.381 Y90.185 E40.16521
G1 X92.39 Y89.52 E40.20294
G1 X92.442 Y88.615 E40.25437
G1 X92.574 Y87.719 E40.30575
G1 X92.784 Y86.837 E40.35719
G1 X93.071 Y85.978 E40.40857
G1 X93.433 Y85.147 E40.45999
G1 X93.867 Y84.351 E40.51143
G1 X94.369 Y83.597 E40.56282
G1 X94.936 Y82.89 E40.61423
M205 X5 Y5
G1 F2700 E34.61423
;MESH:porta_rab_sheka.stl
G0 F7500 X116.543 Y102.38
G0 X115.685 Y100.853
G0 X117.449 Y100.839
G0 X118.434 Y101.014
G0 X119.959 Y101.797
M205 X8 Y8
;TYPE:WALL-INNER
G1 F2700 E40.61423
G1 F1500 X119.047 Y100.962 E40.69218
G1 X118.648 Y100.741 E40.72093
G1 X117.488 Y100.535 E40.7952
G1 X117.361 Y100.525 E40.80323
G1 X116.974 Y100.561 E40.82773
G1 X115.807 Y101.062 E40.90778
G1 X115.425 Y101.351 E40.93798
G1 X114.761 Y102.336 E41.01286
G1 X114.608 Y102.767 E41.04169
G1 X114.568 Y104.008 E41.11996
G1 X114.676 Y104.465 E41.14956
G1 X115.33 Y105.533 E41.2285
G1 X115.675 Y105.863 E41.25859
G1 X116.819 Y106.396 E41.33815
G1 X117.294 Y106.474 E41.36849
G1 X118.539 Y106.291 E41.44782
G1 X118.969 Y106.095 E41.47761
G1 X119.896 Y105.287 E41.55512
G1 X120.122 Y104.865 E41.5853
G1 X120.152 Y104.78 E41.59098
G1 X120.484 Y103.665 E41.66432
G1 X120.484 Y103.345 E41.68449
G1 X120.172 Y102.23 E41.75747
G1 X119.959 Y101.797 E41.78789
M205 X5 Y5
G0 F7500 X119.495 Y102.145
M205 X8 Y8
;TYPE:WALL-OUTER
G1 F1500 X118.712 Y101.428 E41.84812
G1 X118.455 Y101.286 E41.86478
G1 X117.415 Y101.101 E41.92471
G1 X117.365 Y101.097 E41.92756
G1 X117.116 Y101.12 E41.94174
G1 X116.096 Y101.558 E42.00472
G1 X115.845 Y101.748 E42.02258
G1 X115.274 Y102.595 E42.08053
G1 X115.175 Y102.874 E42.09733
G1 X115.14 Y103.95 E42.1584
G1 X115.21 Y104.245 E42.1756
G1 X115.777 Y105.172 E42.23725
G1 X116.001 Y105.386 E42.25483
G1 X116.989 Y105.846 E42.31666
G1 X117.299 Y105.897 E42.33448
G1 X118.376 Y105.739 E42.39624
G1 X118.657 Y105.611 E42.41375
G1 X119.443 Y104.926 E42.4729
G1 X119.599 Y104.634 E42.49168
G1 X119.61 Y104.603 E42.49355
G1 X119.914 Y103.582 E42.55399
G1 X119.914 Y103.423 E42.56301
G1 X119.637 Y102.434 E42.62128
G1 X119.495 Y102.145 E42.63954
M205 X5 Y5
G0 F7500 X119.348 Y102.01
G0 X119.749 Y101.573
G1 F2700 E36.63954
G0 F7500 X120.178 Y103.387
G0 X119.906 Y104.527
G0 X119.101 Y106.3
G0 X118.131 Y104.832
G0 X133.015 Y106.3
G0 X131.25 Y106.3
G0 X131.51 Y144.51
M205 X8 Y8
;TYPE:WALL-INNER
G1 F2700 E42.63954
G1 F1500 X103.49 Y144.51 E44.40582
G1 X103.49 Y90.49 E47.81104
G1 X113.26 Y90.49 E48.4269
G1 X113.26 Y96.156 E48.78407
G1 X113.48 Y96.729 E48.82276
G1 X114.073 Y96.99 E48.8636
G1 X120.906 Y96.99 E49.29433
G1 X121.479 Y96.77 E49.33302
G1 X121.74 Y96.177 E49.37386
G1 X121.74 Y90.49 E49.73234
G1 X131.51 Y90.49 E50.34821
G1 X131.51 Y144.51 E53.75343
M205 X5 Y5
G0 F7500 X132.08 Y145.08
M205 X8 Y8
;TYPE:WALL-OUTER
G1 F1500 X102.92 Y145.08 E55.40775
G1 X102.92 Y89.92 E58.53713
G1 X113.83 Y89.92 E59.15608
G1 X113.83 Y96.05 E59.50385
G1 X113.927 Y96.303 E59.51922
G1 X114.193 Y96.42 E59.53571
G1 X120.8 Y96.42 E59.91054
G1 X121.053 Y96.323 E59.92591
G1 X121.17 Y96.057 E59.9424
G1 X121.17 Y89.92 E60.29057
G1 X132.08 Y89.92 E60.90952
G1 X132.08 Y145.08 E64.03889
M205 X5 Y5
G0 F7500 X131.88 Y145.08
G0 X131.486 Y144.486
G0 X130.95 Y143.95
M205 X8 Y8
;TYPE:SKIN
G1 F1500 X104.05 Y143.95 E65.565
G1 X104.05 Y91.05 E68.56616
G1 X112.7 Y91.05 E69.05689
G1 X112.7 Y96.26 E69.35247
G1 X113.041 Y97.147 E69.40638
G1 X113.955 Y97.55 E69.46305
G1 X121.01 Y97.55 E69.8633
G1 X121.897 Y97.209 E69.91722
G1 X122.3 Y96.295 E69.97389
G1 X122.3 Y91.05 E70.27145
G1 X130.95 Y91.05 E70.76219
G1 X130.95 Y143.95 E73.76334
M205 X5 Y5
G1 F2700 E67.76334
G0 F7500 X131.35 Y143.95
G0 X131.25 Y106.446
G0 X133.015 Y106.446
G0 X118.718 Y104.32
G0 X120.088 Y105.44
G0 X118.585 Y106.446
G1 F2700 E73.76334
G0 F7500 X118.699 Y106.834
M205 X8 Y8
G1 F1500 X119.275 Y106.571 E73.79927
G1 X120.342 Y105.642 E73.87953
G1 X120.636 Y105.091 E73.91496
G1 X120.684 Y104.954 E73.9232
G1 X121.044 Y103.747 E73.99465
G1 X121.044 Y103.268 E74.02183
G1 X120.697 Y102.029 E74.09482
G1 X120.415 Y101.455 E74.13111
G1 X119.376 Y100.505 E74.21098
G1 X118.838 Y100.206 E74.2459
G1 X117.559 Y99.979 E74.31959
G1 X117.357 Y99.963 E74.33109
G1 X116.834 Y100.012 E74.36089
G1 X115.523 Y100.575 E74.44183
G1 X115.013 Y100.961 E74.47812
G1 X114.257 Y102.082 E74.55483
G1 X114.051 Y102.662 E74.58975
G1 X114.006 Y104.064 E74.66933
G1 X114.151 Y104.681 E74.70528
G1 X114.89 Y105.888 E74.78558
G1 X115.354 Y106.332 E74.82201
G1 X116.652 Y106.936 E74.90323
G1 X117.289 Y107.041 E74.93986
G1 X118.699 Y106.834 E75.02071
M205 X5 Y5
G0 F7500 X118.585 Y106.448
G0 X119.653 Y105.092
G0 X119.861 Y104.685
G0 X120.117 Y103.823
G0 X120.371 Y102.347
G0 X121.207 Y102.115
M205 X8 Y8
G1 F1500 X121.504 Y103.176 E75.08322
G1 X130.481 Y112.152 E75.80342
G1 X130.481 Y112.916 E75.84676
G1 X121.48 Y103.916 E76.56889
G1 X121.305 Y104.504 E76.6037
G1 X130.481 Y113.68 E77.33991
G1 X130.481 Y114.443 E77.38319
G1 X121.13 Y105.093 E78.1334
M205 X5 Y5
G0 F7500 X121.129 Y105.097
M205 X8 Y8
G1 F1500 X121.066 Y105.279 E78.14433
G1 X120.887 Y105.614 E78.16588
G1 X130.481 Y115.207 E78.93558
G1 X130.481 Y115.971 E78.97893
G1 X120.573 Y106.063 E79.77387
G1 X120.164 Y106.418 E79.80459
G1 X130.481 Y116.734 E80.63231
G1 X130.481 Y117.498 E80.67565
G1 X119.756 Y106.773 E81.53614
G1 X119.531 Y106.968 E81.55303
G1 X119.295 Y107.077 E81.56778
G1 X130.481 Y118.262 E82.46522
G1 X130.481 Y119.025 E82.5085
G1 X118.755 Y107.3 E83.44926
G1 X118.089 Y107.398 E83.48745
G1 X130.481 Y119.789 E84.48165
G1 X130.481 Y120.553 E84.52499
G1 X117.422 Y107.495 E85.5727
G1 X117.284 Y107.514 E85.58061
G1 X116.56 Y107.396 E85.62222
G1 X130.481 Y121.316 E86.73909
G1 X130.481 Y122.08 E86.78244
G1 X115.16 Y106.759 E88.01167
M205 X5 Y5
G0 F7500 X115.085 Y106.725
M205 X8 Y8
G1 F1500 X114.521 Y106.184 E88.05601
G1 X114.421 Y106.02 E88.06691
G1 X104.518 Y96.117 E88.86145
G1 X104.518 Y96.881 E88.90479
G1 X130.481 Y122.844 E90.98786
G1 X130.481 Y123.607 E91.03114
G1 X104.518 Y97.645 E93.11417
G1 X104.518 Y98.408 E93.15746
G1 X130.481 Y124.371 E95.24052
G1 X130.481 Y125.135 E95.28386
G1 X104.518 Y99.172 E97.36693
G1 X104.518 Y99.936 E97.41027
G1 X130.481 Y125.898 E99.4933
G1 X130.481 Y126.662 E99.53664
G1 X104.518 Y100.699 E101.61971
G1 X104.518 Y101.463 E101.66305
G1 X130.481 Y127.426 E103.74612
G1 X130.481 Y128.189 E103.7894
G1 X104.518 Y102.227 E105.87243
G1 X104.518 Y102.99 E105.91572
G1 X130.481 Y128.953 E107.99878
G1 X130.481 Y129.717 E108.04213
G1 X104.518 Y103.754 E110.12519
G1 X104.518 Y104.518 E110.16853
G1 X130.481 Y130.481 E112.2516
G1 X130.481 Y131.244 E112.29489
G1 X104.518 Y105.281 E114.37795
G1 X104.518 Y106.045 E114.4213
G1 X130.481 Y132.008 E116.50436
G1 X130.481 Y132.772 E116.5477
G1 X104.518 Y106.809 E118.63077
G1 X104.518 Y107.572 E118.67406
G1 X130.481 Y133.535 E120.75712
G1 X130.481 Y134.299 E120.80047
G1 X104.518 Y108.336 E122.88353
G1 X104.518 Y109.1 E122.92688
G1 X130.481 Y135.063 E125.00994
G1 X130.481 Y135.826 E125.05323
G1 X104.518 Y109.863 E127.13629
G1 X104.518 Y110.627 E127.17964
G1 X130.481 Y136.59 E129.2627
