;FLAVOR:Marlin
;TIME:2252
;Filament used: 2.91941m
;Layer height: 0.28
;MINX:83.8
;MINY:70.8
;MINZ:0.28
;MAXX:136.2
;MAXY:149.2
;MAXZ:36.12
;Generated with Cura_SteamEngine 4.12.1
M140 S65
M105
M190 S65
M104 S215
M105
M109 S215
M82 ;absolute extrusion mode
; Ender 3 Custom Start G-code
G92 E0 ; Reset Extruder
G28 ; Home all axes
G1 Z2.0 F3000 ; Move Z Axis up little to prevent scratching of Heat Bed
G1 X0.1 Y20 Z0.3 F5000.0 ; Move to start position
G1 X0.1 Y200.0 Z0.3 F1500.0 E15 ; Draw the first line
G1 X0.4 Y200.0 Z0.3 F5000.0 ; Move to side a little
G1 X0.4 Y20 Z0.3 F1500.0 E30 ; Draw the second line
G92 E0 ; Reset Extruder
G1 Z2.0 F3000 ; Move Z Axis up little to prevent scratching of Heat Bed
G1 X5 Y20 Z0.3 F5000.0 ; Move over to prevent blob squish
G92 E0
G92 E0
G1 F1500 E-6
;LAYER_COUNT:129
;LAYER:0
M107
M204 S500
M205 X5 Y5
G0 F7500 X86.371 Y74.976 Z0.28
M205 X8 Y8
;TYPE:SKIRT
G1 F1500 E0
G1 X87.004 Y74.265 E0.05401
G1 X87.695 Y73.608 E0.1081
G1 X88.438 Y73.013 E0.1621
G1 X89.229 Y72.481 E0.21618
G1 X90.062 Y72.018 E0.27025
G1 X90.93 Y71.626 E0.32428
G1 X91.828 Y71.309 E0.37831
G1 X92.75 Y71.068 E0.43238
G1 X93.689 Y70.905 E0.48644
G1 X94.841 Y70.813 E0.55201
G1 X95.162 Y70.804 E0.57023
G1 X95.48 Y70.8 E0.58827
G1 X107.604 Y70.8 E1.2761
G1 X108.462 Y70.811 E1.32478
G1 X111.084 Y70.811 E1.47353
G1 X111.476 Y70.803 E1.49577
G1 X111.879 Y70.8 E1.51864
G1 X124.306 Y70.801 E2.22365
G1 X125.004 Y70.811 E2.26326
G1 X125.955 Y70.865 E2.3173
G1 X126.898 Y70.998 E2.37133
G1 X127.827 Y71.21 E2.42539
G1 X128.735 Y71.499 E2.47944
G1 X129.615 Y71.863 E2.53347
G1 X130.462 Y72.3 E2.58754
G1 X131.269 Y72.806 E2.64158
G1 X132.031 Y73.378 E2.69564
G1 X132.742 Y74.012 E2.74968
G1 X133.397 Y74.703 E2.8037
G1 X133.993 Y75.447 E2.85778
G1 X134.523 Y76.238 E2.9118
G1 X134.986 Y77.071 E2.96586
G1 X135.377 Y77.939 E3.01987
G1 X135.694 Y78.838 E3.07395
G1 X135.934 Y79.76 E3.128
G1 X136.097 Y80.698 E3.18202
G1 X136.187 Y81.841 E3.24706
G1 X136.196 Y82.161 E3.26523
G1 X136.2 Y82.48 E3.28332
G1 X136.199 Y137.254 E6.3908
G1 X136.19 Y137.981 E6.43205
G1 X136.138 Y138.933 E6.48614
G1 X136.007 Y139.876 E6.54015
G1 X135.797 Y140.806 E6.59424
G1 X135.51 Y141.714 E6.64826
G1 X135.147 Y142.595 E6.70232
G1 X134.712 Y143.443 E6.75639
G1 X134.208 Y144.251 E6.81042
G1 X133.637 Y145.014 E6.86448
G1 X133.005 Y145.726 E6.9185
G1 X132.315 Y146.383 E6.97255
G1 X131.572 Y146.98 E7.02662
G1 X130.782 Y147.512 E7.08066
G1 X129.95 Y147.976 E7.1347
G1 X129.082 Y148.369 E7.18876
G1 X128.184 Y148.687 E7.2428
G1 X127.263 Y148.93 E7.29684
G1 X126.324 Y149.094 E7.35092
G1 X125.159 Y149.187 E7.41722
G1 X124.838 Y149.196 E7.43544
G1 X124.52 Y149.2 E7.45349
G1 X95.711 Y149.199 E9.0879
G1 X95.013 Y149.19 E9.1275
G1 X94.061 Y149.138 E9.18159
G1 X93.118 Y149.006 E9.23561
G1 X92.189 Y148.795 E9.28966
G1 X91.281 Y148.508 E9.34368
G1 X90.4 Y148.145 E9.39774
G1 X89.552 Y147.71 E9.45181
G1 X88.744 Y147.205 E9.50587
G1 X87.982 Y146.634 E9.55989
G1 X87.27 Y146.001 E9.61394
G1 X86.613 Y145.31 E9.66803
G1 X86.017 Y144.567 E9.72207
G1 X85.485 Y143.777 E9.7761
G1 X85.021 Y142.945 E9.83015
G1 X84.629 Y142.077 E9.88418
G1 X84.311 Y141.179 E9.93823
G1 X84.069 Y140.257 E9.99231
G1 X83.906 Y139.319 E10.04632
G1 X83.813 Y138.148 E10.11296
G1 X83.804 Y137.815 E10.13186
G1 X83.8 Y137.508 E10.14928
G1 X83.801 Y82.67 E13.26038
G1 X83.81 Y82.005 E13.29811
G1 X83.863 Y81.054 E13.35215
G1 X83.995 Y80.111 E13.40617
G1 X84.206 Y79.182 E13.46022
G1 X84.495 Y78.274 E13.51428
G1 X84.858 Y77.393 E13.56833
G1 X85.294 Y76.546 E13.62238
G1 X85.8 Y75.738 E13.67647
G1 X86.371 Y74.976 E13.73049
M205 X5 Y5
G0 F7500 X86.904 Y75.18
M205 X8 Y8
G1 F1500 X87.534 Y74.497 E13.7832
G1 X88.22 Y73.87 E13.83593
G1 X88.958 Y73.304 E13.88869
G1 X89.742 Y72.804 E13.94145
G1 X90.566 Y72.373 E13.9942
G1 X91.424 Y72.015 E14.04695
G1 X92.309 Y71.731 E14.09968
G1 X93.216 Y71.525 E14.15244
G1 X94.137 Y71.397 E14.2052
G1 X94.856 Y71.353 E14.24606
G1 X95.177 Y71.344 E14.26428
G1 X95.48 Y71.34 E14.28147
G1 X107.604 Y71.34 E14.9693
G1 X108.455 Y71.351 E15.01758
G1 X111.095 Y71.351 E15.16736
G1 X111.48 Y71.343 E15.18921
G1 X111.883 Y71.34 E15.21207
G1 X124.298 Y71.341 E15.9164
G1 X124.996 Y71.351 E15.95601
G1 X125.924 Y71.404 E16.00874
G1 X126.844 Y71.537 E16.06148
G1 X127.75 Y71.749 E16.11427
G1 X128.633 Y72.037 E16.16696
G1 X129.489 Y72.4 E16.21971
G1 X130.311 Y72.836 E16.2725
G1 X131.092 Y73.34 E16.32523
G1 X131.826 Y73.91 E16.37795
G1 X132.509 Y74.541 E16.43071
G1 X133.136 Y75.228 E16.48347
G1 X133.701 Y75.966 E16.5362
G1 X134.2 Y76.751 E16.58898
G1 X134.63 Y77.575 E16.64171
G1 X134.988 Y78.433 E16.69445
G1 X135.271 Y79.319 E16.74722
G1 X135.476 Y80.225 E16.79992
G1 X135.603 Y81.146 E16.85266
G1 X135.647 Y81.856 E16.89302
G1 X135.656 Y82.176 E16.91118
G1 X135.66 Y82.48 E16.92843
G1 X135.659 Y137.248 E20.03556
G1 X135.65 Y137.975 E20.07681
G1 X135.599 Y138.903 E20.12954
G1 X135.468 Y139.824 E20.18231
G1 X135.258 Y140.729 E20.23502
G1 X134.971 Y141.614 E20.2878
G1 X134.61 Y142.47 E20.34051
G1 X134.176 Y143.293 E20.39329
G1 X133.673 Y144.074 E20.446
G1 X133.104 Y144.81 E20.49877
G1 X132.475 Y145.495 E20.55153
G1 X131.789 Y146.122 E20.60426
G1 X131.052 Y146.689 E20.65701
G1 X130.269 Y147.19 E20.70975
G1 X129.445 Y147.621 E20.76251
G1 X128.588 Y147.981 E20.81524
G1 X127.703 Y148.265 E20.86797
G1 X126.796 Y148.473 E20.92077
G1 X125.876 Y148.601 E20.97346
G1 X125.144 Y148.647 E21.01507
G1 X124.823 Y148.656 E21.03329
G1 X124.52 Y148.66 E21.05048
G1 X95.718 Y148.659 E22.6845
G1 X95.02 Y148.65 E22.7241
G1 X94.091 Y148.598 E22.77689
G1 X93.171 Y148.467 E22.82961
G1 X92.265 Y148.256 E22.88238
G1 X91.381 Y147.969 E22.93511
G1 X90.525 Y147.607 E22.98784
G1 X89.703 Y147.173 E23.04057
G1 X88.921 Y146.67 E23.09332
G1 X88.185 Y146.101 E23.1461
G1 X87.501 Y145.471 E23.19886
G1 X86.874 Y144.785 E23.25158
G1 X86.308 Y144.047 E23.30435
G1 X85.808 Y143.264 E23.35705
G1 X85.376 Y142.44 E23.40984
G1 X85.017 Y141.583 E23.46255
G1 X84.733 Y140.697 E23.51533
G1 X84.526 Y139.791 E23.56806
G1 X84.398 Y138.87 E23.62081
G1 X84.353 Y138.133 E23.6627
G1 X84.344 Y137.8 E23.6816
G1 X84.34 Y137.508 E23.69817
G1 X84.341 Y82.678 E26.80882
G1 X84.35 Y82.013 E26.84655
G1 X84.403 Y81.084 E26.89934
G1 X84.535 Y80.164 E26.95207
G1 X84.745 Y79.259 E27.00477
G1 X85.033 Y78.375 E27.05752
G1 X85.396 Y77.518 E27.11032
G1 X85.831 Y76.697 E27.16303
G1 X86.334 Y75.915 E27.21578
G1 X86.904 Y75.18 E27.26855
M205 X5 Y5
G0 F7500 X87.436 Y75.39
M205 X8 Y8
G1 F1500 X88.062 Y74.735 E27.31995
G1 X88.745 Y74.139 E27.37138
G1 X89.476 Y73.604 E27.42277
G1 X90.253 Y73.137 E27.4742
G1 X91.067 Y72.739 E27.52561
G1 X91.913 Y72.415 E27.577
G1 X92.785 Y72.167 E27.62844
G1 X93.675 Y71.997 E27.67984
G1 X94.871 Y71.893 E27.74795
G1 X95.192 Y71.884 E27.76617
G1 X95.48 Y71.88 E27.78251
G1 X107.604 Y71.88 E28.47034
G1 X108.447 Y71.891 E28.51816
G1 X111.061 Y71.891 E28.66646
G1 X111.484 Y71.883 E28.69047
G1 X111.887 Y71.88 E28.71333
G1 X124.29 Y71.881 E29.41699
G1 X124.988 Y71.891 E29.45659
G1 X125.893 Y71.944 E29.50802
G1 X126.789 Y72.076 E29.5594
G1 X127.671 Y72.287 E29.61085
G1 X128.53 Y72.575 E29.66225
G1 X129.36 Y72.938 E29.71364
G1 X130.156 Y73.372 E29.76508
G1 X130.91 Y73.875 E29.8165
G1 X131.616 Y74.442 E29.86787
G1 X132.27 Y75.069 E29.91927
G1 X132.867 Y75.752 E29.97074
G1 X133.4 Y76.484 E30.02211
G1 X133.867 Y77.261 E30.07354
G1 X134.264 Y78.076 E30.12497
G1 X134.587 Y78.922 E30.17634
G1 X134.835 Y79.794 E30.22778
G1 X135.004 Y80.684 E30.27917
G1 X135.107 Y81.871 E30.34677
G1 X135.116 Y82.191 E30.36493
G1 X135.12 Y82.48 E30.38133
G1 X135.119 Y137.241 E33.48806
G1 X135.11 Y137.968 E33.52931
G1 X135.059 Y138.873 E33.58073
G1 X134.928 Y139.77 E33.63216
G1 X134.719 Y140.651 E33.68353
G1 X134.433 Y141.511 E33.73495
G1 X134.072 Y142.342 E33.78635
G1 X133.639 Y143.139 E33.83781
G1 X133.138 Y143.894 E33.88921
G1 X132.572 Y144.601 E33.94059
G1 X131.946 Y145.257 E33.99204
G1 X131.265 Y145.854 E34.04342
G1 X130.533 Y146.389 E34.09485
G1 X129.758 Y146.858 E34.14625
G1 X128.944 Y147.256 E34.19765
G1 X128.098 Y147.581 E34.24907
G1 X127.227 Y147.83 E34.30046
G1 X126.337 Y148.002 E34.35189
G1 X125.129 Y148.107 E34.42068
G1 X124.808 Y148.116 E34.4389
G1 X124.52 Y148.12 E34.45524
G1 X95.725 Y148.119 E36.08885
G1 X95.027 Y148.11 E36.12846
G1 X94.122 Y148.058 E36.17988
G1 X93.225 Y147.927 E36.23131
G1 X92.344 Y147.718 E36.28268
G1 X91.484 Y147.431 E36.33412
G1 X90.653 Y147.07 E36.38552
G1 X89.857 Y146.636 E36.43695
G1 X89.102 Y146.135 E36.48836
G1 X88.395 Y145.569 E36.53974
G1 X87.74 Y144.942 E36.59118
G1 X87.143 Y144.261 E36.64256
G1 X86.608 Y143.529 E36.694
G1 X86.14 Y142.753 E36.74541
G1 X85.742 Y141.939 E36.79681
G1 X85.417 Y141.093 E36.84823
G1 X85.169 Y140.221 E36.89966
G1 X84.998 Y139.331 E36.95108
G1 X84.893 Y138.118 E37.02015
G1 X84.884 Y137.785 E37.03905
G1 X84.88 Y137.508 E37.05477
G1 X84.881 Y82.685 E40.16502
G1 X84.89 Y82.02 E40.20275
G1 X84.942 Y81.115 E40.25418
G1 X85.074 Y80.219 E40.30556
G1 X85.284 Y79.337 E40.357
G1 X85.571 Y78.478 E40.40838
G1 X85.933 Y77.647 E40.4598
G1 X86.367 Y76.851 E40.51124
G1 X86.869 Y76.097 E40.56263
G1 X87.436 Y75.39 E40.61404
M205 X5 Y5
G1 F1500 E34.61404
;MESH:porta_rab_sheka.stl
G0 F7500 X107.623 Y96.295
G0 X105.958 Y95.748
G0 X106.497 Y98.128
G0 X106.937 Y99.037
G0 X107.593 Y99.783
G0 X107.835 Y99.938
G0 X109.454 Y100.946
M205 X8 Y8
;TYPE:WALL-INNER
G1 F1500 E40.61404
G1 X110.218 Y100.981 E40.66225
G1 X110.578 Y100.941 E40.68508
G1 X111.388 Y100.739 E40.73771
G1 X111.711 Y100.598 E40.75992
G1 X112.38 Y100.198 E40.80906
G1 X112.637 Y99.986 E40.83006
G1 X113.152 Y99.441 E40.87733
G1 X113.354 Y99.143 E40.90002
G1 X113.731 Y98.406 E40.9522
G1 X113.835 Y98.079 E40.97383
G1 X113.975 Y97.316 E41.02273
G1 X113.98 Y96.991 E41.04322
G1 X113.976 Y96.923 E41.04752
G1 X113.883 Y96.091 E41.10029
G1 X113.786 Y95.758 E41.12215
G1 X113.476 Y95.044 E41.17122
G1 X113.279 Y94.743 E41.1939
G1 X112.73 Y94.093 E41.24753
G1 X112.45 Y93.862 E41.27041
G1 X111.786 Y93.434 E41.32021
G1 X111.458 Y93.295 E41.34266
G1 X110.708 Y93.076 E41.39191
G1 X110.391 Y93.041 E41.41202
G1 X110.327 Y93.037 E41.41606
G1 X109.476 Y93.046 E41.46971
G1 X109.125 Y93.116 E41.49227
G1 X108.402 Y93.347 E41.54011
G1 X108.099 Y93.503 E41.5616
G1 X107.398 Y93.978 E41.61497
G1 X107.147 Y94.222 E41.63704
G1 X106.665 Y94.812 E41.68506
G1 X106.496 Y95.109 E41.70661
G1 X106.188 Y95.821 E41.75551
G1 X106.127 Y96.109 E41.77406
G1 X106.116 Y96.148 E41.77662
G1 X106.011 Y96.923 E41.82592
G1 X106.011 Y97.079 E41.83575
G1 X106.119 Y97.861 E41.88551
G1 X106.205 Y98.225 E41.90909
G1 X106.511 Y98.929 E41.95748
G1 X106.687 Y99.214 E41.97859
G1 X107.153 Y99.791 E42.02535
G1 X107.399 Y100.02 E42.04653
G1 X108.009 Y100.453 E42.09369
G1 X108.329 Y100.614 E42.11627
G1 X109.112 Y100.885 E42.1685
G1 X109.454 Y100.946 E42.1904
M205 X5 Y5
G0 F7500 X109.517 Y100.378
M205 X8 Y8
;TYPE:WALL-OUTER
G1 F1500 X110.2 Y100.41 E42.22919
G1 X110.477 Y100.379 E42.245
G1 X111.203 Y100.198 E42.28745
G1 X111.449 Y100.09 E42.30269
G1 X112.051 Y99.731 E42.34246
G1 X112.247 Y99.569 E42.35688
G1 X112.706 Y99.083 E42.39481
G1 X112.863 Y98.852 E42.41065
G1 X113.202 Y98.188 E42.45295
G1 X113.281 Y97.94 E42.46771
G1 X113.406 Y97.26 E42.50694
G1 X113.41 Y97.004 E42.52146
G1 X113.408 Y96.972 E42.52328
G1 X113.322 Y96.203 E42.56718
G1 X113.249 Y95.952 E42.58201
G1 X112.973 Y95.316 E42.62135
G1 X112.821 Y95.085 E42.63703
G1 X112.328 Y94.5 E42.68044
G1 X112.113 Y94.323 E42.69624
G1 X111.518 Y93.94 E42.73638
G1 X111.266 Y93.833 E42.75191
G1 X110.596 Y93.637 E42.79152
G1 X110.341 Y93.609 E42.80607
G1 X110.311 Y93.607 E42.80778
G1 X109.536 Y93.615 E42.85175
G1 X109.268 Y93.669 E42.86726
G1 X108.621 Y93.875 E42.90578
G1 X108.391 Y93.994 E42.92047
G1 X107.759 Y94.422 E42.96377
G1 X107.568 Y94.608 E42.9789
G1 X107.137 Y95.136 E43.01756
G1 X107.007 Y95.364 E43.03245
G1 X106.734 Y95.995 E43.07146
G1 X106.682 Y96.24 E43.08567
G1 X106.676 Y96.262 E43.08696
G1 X106.581 Y96.962 E43.12704
G1 X106.581 Y97.04 E43.13146
G1 X106.68 Y97.756 E43.17247
G1 X106.748 Y98.045 E43.18932
G1 X107.017 Y98.664 E43.22761
G1 X107.153 Y98.884 E43.24228
G1 X107.571 Y99.401 E43.28
G1 X107.76 Y99.577 E43.29465
G1 X108.304 Y99.963 E43.33249
G1 X108.552 Y100.088 E43.34825
G1 X109.256 Y100.332 E43.39052
G1 X109.517 Y100.378 E43.40555
M205 X5 Y5
G0 F7500 X109.717 Y100.387
G0 X109.689 Y100.981
G1 F1500 E37.40555
G0 F7500 X110.621 Y101.178
G0 X110.296 Y99.461
G0 X125.515 Y101.178
G0 X123.75 Y101.178
G0 X124.01 Y137.01
M205 X8 Y8
;TYPE:WALL-INNER
G1 F1500 E43.40555
G1 X95.99 Y137.01 E45.17183
G1 X95.99 Y82.99 E48.57705
G1 X107.405 Y82.99 E49.29661
G1 X107.377 Y83.011 E49.29881
G1 X107.127 Y83.234 E49.31993
G1 X106.651 Y83.837 E49.36836
G1 X106.485 Y84.124 E49.38926
G1 X106.178 Y84.868 E49.43999
G1 X106.1 Y85.18 E49.46027
G1 X106.017 Y85.854 E49.50307
G1 X106.017 Y86.162 E49.52249
G1 X106.115 Y86.903 E49.5696
G1 X106.202 Y87.214 E49.58996
G1 X106.493 Y87.895 E49.63664
G1 X106.667 Y88.184 E49.65791
G1 X107.121 Y88.755 E49.70389
G1 X107.371 Y88.993 E49.72565
G1 X108.011 Y89.455 E49.77541
G1 X108.33 Y89.617 E49.79796
G1 X109.085 Y89.88 E49.84836
G1 X109.444 Y89.942 E49.87132
G1 X110.268 Y89.977 E49.92331
G1 X110.606 Y89.938 E49.94476
G1 X111.329 Y89.76 E49.9917
G1 X111.654 Y89.622 E50.01395
G1 X112.348 Y89.223 E50.06441
G1 X112.613 Y89.005 E50.08605
G1 X113.115 Y88.488 E50.13147
G1 X113.297 Y88.233 E50.15122
G1 X113.335 Y88.171 E50.1558
G1 X113.717 Y87.442 E50.20768
G1 X113.824 Y87.115 E50.22937
G1 X113.969 Y86.378 E50.27672
G1 X113.981 Y86.027 E50.29886
G1 X113.917 Y85.255 E50.34769
G1 X113.836 Y84.927 E50.36899
G1 X113.571 Y84.221 E50.41652
G1 X113.439 Y83.984 E50.43362
G1 X113.003 Y83.385 E50.48032
G1 X112.808 Y83.166 E50.49881
G1 X112.583 Y82.99 E50.51682
G1 X124.01 Y82.99 E51.23713
G1 X124.01 Y137.01 E54.64235
M205 X5 Y5
G0 F7500 X124.58 Y137.58
M205 X8 Y8
;TYPE:WALL-OUTER
G1 F1500 X95.42 Y137.58 E56.29667
G1 X95.42 Y82.42 E59.42605
G1 X108.08 Y82.42 E60.14428
G1 X108.08 Y83.193 E60.18814
G1 X107.74 Y83.451 E60.21235
G1 X107.544 Y83.626 E60.22726
G1 X107.124 Y84.158 E60.26571
G1 X106.997 Y84.377 E60.28007
G1 X106.721 Y85.047 E60.32118
G1 X106.661 Y85.285 E60.33511
G1 X106.587 Y85.889 E60.36963
G1 X106.587 Y86.124 E60.38296
G1 X106.675 Y86.788 E60.42096
G1 X106.741 Y87.024 E60.43487
G1 X107.002 Y87.635 E60.47256
G1 X107.136 Y87.858 E60.48732
G1 X107.543 Y88.37 E60.52443
G1 X107.736 Y88.554 E60.53955
G1 X108.308 Y88.967 E60.57958
G1 X108.553 Y89.091 E60.59516
G1 X109.228 Y89.326 E60.63571
G1 X109.505 Y89.374 E60.65166
G1 X110.247 Y89.406 E60.69379
G1 X110.504 Y89.376 E60.70847
G1 X111.149 Y89.217 E60.74616
G1 X111.4 Y89.111 E60.76162
G1 X112.023 Y88.752 E60.80241
G1 X112.227 Y88.585 E60.81737
G1 X112.676 Y88.122 E60.85396
G1 X112.822 Y87.917 E60.86823
G1 X112.84 Y87.888 E60.87017
G1 X113.19 Y87.22 E60.91295
G1 X113.271 Y86.971 E60.92781
G1 X113.401 Y86.313 E60.96586
G1 X113.41 Y86.041 E60.9813
G1 X113.353 Y85.347 E61.02081
G1 X113.291 Y85.096 E61.03547
G1 X113.052 Y84.461 E61.07397
G1 X112.958 Y84.292 E61.08494
G1 X112.558 Y83.743 E61.12347
G1 X112.416 Y83.583 E61.13561
G1 X111.92 Y83.195 E61.17134
G1 X111.92 Y82.42 E61.2153
G1 X124.58 Y82.42 E61.93354
G1 X124.58 Y137.58 E65.06291
M205 X5 Y5
G0 F7500 X124.38 Y137.58
G0 X123.986 Y136.986
G0 X123.45 Y136.45
M205 X8 Y8
;TYPE:SKIN
G1 F1500 X96.55 Y136.45 E66.58902
G1 X96.55 Y83.55 E69.59018
G1 X106.169 Y83.55 E70.13589
G1 X105.981 Y83.876 E70.15724
G1 X105.644 Y84.692 E70.20732
G1 X105.548 Y85.077 E70.22984
G1 X105.457 Y85.82 E70.2723
G1 X105.457 Y86.199 E70.2938
G1 X105.565 Y87.015 E70.3405
G1 X105.672 Y87.4 E70.36317
G1 X105.993 Y88.151 E70.40951
G1 X106.206 Y88.504 E70.4329
G1 X106.707 Y89.134 E70.47856
G1 X107.013 Y89.424 E70.50248
G1 X107.718 Y89.935 E70.55188
G1 X108.11 Y90.134 E70.57682
G1 X108.945 Y90.424 E70.62697
G1 X109.384 Y90.5 E70.65224
G1 X110.288 Y90.539 E70.70358
G1 X110.705 Y90.49 E70.7274
G1 X111.506 Y90.293 E70.77419
G1 X111.904 Y90.124 E70.79872
G1 X112.667 Y89.686 E70.84864
G1 X112.993 Y89.418 E70.87258
G1 X113.546 Y88.848 E70.91763
G1 X113.764 Y88.543 E70.9389
G1 X113.822 Y88.447 E70.94527
