;FLAVOR:Marlin
M117 Time Left 0h19m46s
;TIME:1186
;Filament used: 0.382423m
;Layer height: 0.12
;MINX:83.65
;MINY:83.65
;MINZ:0.12
;MAXX:154.85
;MAXY:151.351
;MAXZ:1.44
;POSTPROCESSED
;Generated with Cura_SteamEngine 5.2.1
M140 S80
M105
M190 S80
M104 S235
M105
M109 S235
M82 ;absolute extrusion mode
; Ender 3 Custom Start G-code
G92 E0 ; Reset Extruder
G28 ; Home all axes
G1 Z2.0 F3000 ; Move Z Axis up little to prevent scratching of Heat Bed
G1 X0.1 Y20 Z0.3 F5000.0 ; Move to start position
G1 X0.1 Y200.0 Z0.3 F1500.0 E15 ; Draw the first line
G1 X0.4 Y200.0 Z0.3 F5000.0 ; Move to side a little
G1 X0.4 Y20 Z0.3 F1500.0 E30 ; Draw the second line
G92 E0 ; Reset Extruder
G1 Z2.0 F3000 ; Move Z Axis up little to prevent scratching of Heat Bed
G1 X5 Y20 Z0.3 F5000.0 ; Move over to prevent blob squish
G92 E0
G92 E0
G1 F3300 E-5
;LAYER_COUNT:12
;LAYER:0
M107
M204 S500
M205 X12 Y12
G0 F6000 X93.853 Y92.736 Z0.12
;TYPE:SKIRT
G1 F3300 E0
G1 F1200 X94.55 Y92.106 E0.0187
G1 X95.298 Y91.537 E0.03741
G1 X96.092 Y91.034 E0.05612
G1 X96.926 Y90.599 E0.07485
G1 X97.762 Y90.25 E0.09288
G1 X100.124 Y89.373 E0.14303
G1 X102.443 Y88.441 E0.19278
G1 X104.797 Y87.415 E0.2439
G1 X107.038 Y86.363 E0.29318
G1 X109.381 Y85.18 E0.34543
G1 X109.881 Y84.918 E0.35667
G1 X110.732 Y84.518 E0.37538
G1 X111.614 Y84.192 E0.3941
G1 X112.52 Y83.942 E0.41281
G1 X113.444 Y83.77 E0.43152
G1 X114.665 Y83.665 E0.45592
G1 X115.33 Y83.65 E0.46916
G1 X119.45 Y83.651 E0.55117
G1 X120.153 Y83.661 E0.56517
G1 X121.092 Y83.714 E0.58389
G1 X122.022 Y83.847 E0.60259
G1 X122.938 Y84.059 E0.62131
G1 X123.833 Y84.347 E0.64002
G1 X124.961 Y84.838 E0.66451
G1 X125.641 Y85.18 E0.67966
G1 X126.825 Y85.796 E0.70623
G1 X129.119 Y86.912 E0.75701
G1 X131.379 Y87.932 E0.80637
G1 X133.723 Y88.912 E0.85694
G1 X136.158 Y89.85 E0.90889
G1 X137.224 Y90.244 E0.93151
G1 X138.092 Y90.607 E0.95024
G1 X138.925 Y91.043 E0.96895
G1 X139.718 Y91.547 E0.98766
G1 X140.465 Y92.118 E1.00638
G1 X141.161 Y92.749 E1.02508
G1 X141.801 Y93.438 E1.0438
G1 X142.182 Y93.91 E1.05587
G1 X142.914 Y94.87 E1.0799
G1 X144.496 Y96.885 E1.1309
G1 X146.139 Y98.86 E1.18204
G1 X147.768 Y100.709 E1.23109
G1 X149.494 Y102.56 E1.28147
G1 X151.644 Y104.733 E1.34232
G1 X152.277 Y105.428 E1.36104
G1 X152.847 Y106.175 E1.37974
G1 X153.353 Y106.968 E1.39847
G1 X153.789 Y107.801 E1.41718
G1 X154.152 Y108.667 E1.43587
G1 X154.441 Y109.562 E1.45459
G1 X154.652 Y110.478 E1.47331
G1 X154.785 Y111.408 E1.49201
G1 X154.835 Y112.165 E1.50711
G1 X154.85 Y112.83 E1.52035
G1 X154.849 Y121.95 E1.70189
G1 X154.839 Y122.653 E1.71589
G1 X154.786 Y123.592 E1.73461
G1 X154.653 Y124.522 E1.75331
G1 X154.441 Y125.438 E1.77203
G1 X154.153 Y126.333 E1.79074
G1 X153.789 Y127.2 E1.80946
G1 X153.353 Y128.032 E1.82816
G1 X152.848 Y128.825 E1.84688
G1 X152.277 Y129.572 E1.86559
G1 X151.667 Y130.246 E1.88369
G1 X151.333 Y130.585 E1.89316
G1 X149.48 Y132.52 E1.94649
G1 X147.816 Y134.361 E1.99589
G1 X146.163 Y136.295 E2.04654
G1 X144.588 Y138.248 E2.09648
G1 X143.173 Y140.1 E2.14288
G1 X142.571 Y140.822 E2.16159
G1 X141.91 Y141.49 E2.18029
G1 X141.195 Y142.1 E2.199
G1 X140.43 Y142.646 E2.21771
G1 X139.621 Y143.126 E2.23644
G1 X138.516 Y143.643 E2.26072
G1 X135.903 Y144.694 E2.31679
G1 X133.617 Y145.691 E2.36643
G1 X131.334 Y146.764 E2.41665
G1 X129.096 Y147.895 E2.46656
G1 X126.874 Y149.097 E2.51685
G1 X125.403 Y149.929 E2.55049
G1 X124.564 Y150.354 E2.56922
G1 X123.692 Y150.705 E2.58793
G1 X122.794 Y150.981 E2.60663
G1 X121.875 Y151.18 E2.62535
G1 X120.943 Y151.3 E2.64405
G1 X120.368 Y151.334 E2.65552
G1 X119.67 Y151.351 E2.66942
G1 X115.55 Y151.35 E2.75143
G1 X114.848 Y151.34 E2.76541
G1 X113.909 Y151.287 E2.78413
G1 X112.979 Y151.154 E2.80283
G1 X112.063 Y150.942 E2.82154
G1 X111.168 Y150.653 E2.84027
G1 X110.301 Y150.29 E2.85898
G1 X109.609 Y149.934 E2.87447
G1 X107.028 Y148.49 E2.93334
G1 X104.788 Y147.321 E2.98364
G1 X102.529 Y146.223 E3.03363
G1 X100.217 Y145.179 E3.08413
G1 X97.859 Y144.193 E3.13501
G1 X96.51 Y143.654 E3.16393
G1 X95.653 Y143.269 E3.18263
G1 X94.831 Y142.812 E3.20135
G1 X94.052 Y142.287 E3.22005
G1 X93.32 Y141.697 E3.23877
G1 X92.64 Y141.048 E3.25748
G1 X92.018 Y140.343 E3.27619
G1 X91.458 Y139.588 E3.29491
G1 X90.965 Y138.788 E3.31361
G1 X90.541 Y137.949 E3.33232
G1 X90.138 Y136.924 E3.35425
G1 X89.242 Y134.267 E3.41007
G1 X88.374 Y131.925 E3.45978
G1 X87.426 Y129.572 E3.51028
G1 X86.433 Y127.295 E3.55973
G1 X85.213 Y124.705 E3.61672
G1 X84.849 Y123.838 E3.63544
G1 X84.56 Y122.944 E3.65414
G1 X84.348 Y122.028 E3.67286
G1 X84.179 Y120.636 E3.70077
G1 X84.123 Y119.659 E3.72025
G1 X84.081 Y118.676 E3.73984
G1 X83.9 Y116.154 E3.79017
G1 X83.76 Y114.746 E3.81834
G1 X83.699 Y114.035 E3.83254
G1 X83.663 Y113.402 E3.84516
G1 X83.65 Y112.771 E3.85773
G1 X83.651 Y108.65 E3.93976
G1 X83.661 Y107.947 E3.95376
G1 X83.714 Y107.008 E3.97248
G1 X83.847 Y106.078 E3.99118
G1 X84.059 Y105.162 E4.00989
G1 X84.347 Y104.267 E4.02861
G1 X84.711 Y103.4 E4.04733
G1 X85.147 Y102.568 E4.06603
G1 X85.652 Y101.775 E4.08474
G1 X86.223 Y101.028 E4.10346
G1 X86.833 Y100.355 E4.12154
G1 X87.67 Y99.505 E4.14528
G1 X88.052 Y99.128 E4.15597
G1 X89.826 Y97.275 E4.20703
G1 X91.485 Y95.442 E4.25625
G1 X93.212 Y93.424 E4.30912
G1 X93.853 Y92.736 E4.32784
G0 F6000 X94.16 Y93.023
G1 F1200 X94.846 Y92.407 E4.34619
G1 X95.582 Y91.852 E4.36454
G1 X96.363 Y91.362 E4.38289
G1 X97.184 Y90.943 E4.40124
G1 X97.908 Y90.643 E4.41684
G1 X100.283 Y89.761 E4.46728
G1 X102.624 Y88.82 E4.5175
G1 X104.956 Y87.804 E4.56814
G1 X107.246 Y86.729 E4.61849
G1 X109.549 Y85.566 E4.66985
G1 X110.076 Y85.29 E4.68169
G1 X110.911 Y84.899 E4.70005
G1 X111.776 Y84.581 E4.71839
G1 X112.666 Y84.34 E4.73675
G1 X113.573 Y84.176 E4.75509
G1 X114.678 Y84.085 E4.77717
G1 X115.33 Y84.07 E4.79015
G1 X119.293 Y84.07 E4.86904
G1 X120.147 Y84.081 E4.88604
G1 X121.068 Y84.134 E4.9044
G1 X121.98 Y84.267 E4.92275
G1 X122.877 Y84.478 E4.94109
G1 X123.753 Y84.766 E4.95945
G1 X124.772 Y85.213 E4.9816
G1 X125.591 Y85.626 E4.99986
G1 X126.663 Y86.185 E5.02392
G1 X128.936 Y87.29 E5.07423
G1 X131.218 Y88.32 E5.12407
G1 X133.554 Y89.297 E5.17448
G1 X135.993 Y90.237 E5.22651
G1 X137.079 Y90.638 E5.24955
G1 X137.929 Y90.995 E5.2679
G1 X138.745 Y91.424 E5.28626
G1 X139.521 Y91.922 E5.30461
G1 X140.25 Y92.486 E5.32296
G1 X140.929 Y93.11 E5.34132
G1 X141.55 Y93.792 E5.35968
G1 X141.848 Y94.164 E5.36916
G1 X142.577 Y95.12 E5.3931
G1 X144.188 Y97.172 E5.44503
G1 X145.8 Y99.11 E5.49521
G1 X147.46 Y100.994 E5.54519
G1 X149.185 Y102.844 E5.59554
G1 X151.346 Y105.028 E5.6567
G1 X151.965 Y105.711 E5.67505
G1 X152.523 Y106.445 E5.69341
G1 X153.016 Y107.224 E5.71176
G1 X153.438 Y108.044 E5.73012
G1 X153.789 Y108.896 E5.74846
G1 X154.064 Y109.776 E5.76681
G1 X154.262 Y110.677 E5.78517
G1 X154.381 Y111.591 E5.80352
G1 X154.415 Y112.178 E5.81523
G1 X154.43 Y112.83 E5.82821
G1 X154.429 Y121.944 E6.00963
G1 X154.419 Y122.647 E6.02363
G1 X154.366 Y123.568 E6.04199
G1 X154.233 Y124.48 E6.06034
G1 X154.022 Y125.377 E6.07868
G1 X153.734 Y126.253 E6.09704
G1 X153.371 Y127.101 E6.1154
G1 X152.936 Y127.914 E6.13376
G1 X152.432 Y128.686 E6.15211
G1 X151.863 Y129.411 E6.17046
G1 X151.367 Y129.951 E6.18505
G1 X150.992 Y130.332 E6.19569
G1 X149.197 Y132.207 E6.24736
G1 X147.499 Y134.085 E6.29776
G1 X145.846 Y136.021 E6.34844
G1 X144.244 Y138.006 E6.39921
G1 X142.839 Y139.845 E6.44528
G1 X142.248 Y140.553 E6.46364
G1 X141.598 Y141.206 E6.48198
G1 X140.894 Y141.801 E6.50033
G1 X140.141 Y142.333 E6.51868
G1 X139.344 Y142.797 E6.53704
G1 X138.359 Y143.253 E6.55865
G1 X135.752 Y144.301 E6.61458
G1 X133.443 Y145.308 E6.66472
G1 X131.139 Y146.392 E6.71541
G1 X128.894 Y147.526 E6.76548
G1 X126.69 Y148.718 E6.81536
G1 X125.198 Y149.563 E6.84949
G1 X124.375 Y149.979 E6.86785
G1 X123.519 Y150.321 E6.88619
G1 X122.636 Y150.588 E6.90456
G1 X121.734 Y150.778 E6.92291
G1 X120.819 Y150.888 E6.94125
G1 X120.354 Y150.914 E6.95052
G1 X119.67 Y150.931 E6.96414
G1 X115.556 Y150.93 E7.04604
G1 X114.854 Y150.92 E7.06001
G1 X113.933 Y150.867 E7.07838
G1 X113.021 Y150.734 E7.09672
G1 X112.123 Y150.523 E7.11509
G1 X111.248 Y150.235 E7.13342
G1 X110.4 Y149.872 E7.15179
G1 X109.814 Y149.567 E7.16494
G1 X107.226 Y148.119 E7.22397
G1 X104.978 Y146.946 E7.27444
G1 X102.712 Y145.844 E7.3246
G1 X100.408 Y144.804 E7.37492
G1 X97.989 Y143.792 E7.42712
G1 X96.666 Y143.264 E7.45547
G1 X95.826 Y142.885 E7.47382
G1 X95.021 Y142.435 E7.49218
G1 X94.258 Y141.917 E7.51054
G1 X93.543 Y141.335 E7.52889
G1 X92.882 Y140.693 E7.54723
G1 X92.278 Y139.996 E7.56559
G1 X91.737 Y139.249 E7.58395
G1 X91.263 Y138.459 E7.60229
G1 X90.859 Y137.63 E7.62065
G1 X90.536 Y136.79 E7.63856
G1 X89.645 Y134.15 E7.69403
G1 X88.763 Y131.766 E7.74463
G1 X87.808 Y129.398 E7.79545
G1 X86.806 Y127.101 E7.84534
G1 X85.593 Y124.526 E7.902
G1 X85.237 Y123.676 E7.92034
G1 X84.956 Y122.798 E7.93869
G1 X84.751 Y121.899 E7.95705
G1 X84.598 Y120.612 E7.98285
G1 X84.551 Y119.801 E7.99902
G1 X84.501 Y118.663 E8.0217
G1 X84.319 Y116.117 E8.07251
G1 X84.179 Y114.71 E8.10065
G1 X84.118 Y113.999 E8.11486
G1 X84.083 Y113.39 E8.127
G1 X84.07 Y112.771 E8.13933
G1 X84.071 Y108.656 E8.22124
G1 X84.081 Y107.953 E8.23523
G1 X84.134 Y107.032 E8.2536
G1 X84.267 Y106.12 E8.27195
G1 X84.478 Y105.223 E8.29029
G1 X84.766 Y104.347 E8.30864
G1 X85.129 Y103.499 E8.32701
G1 X85.564 Y102.686 E8.34536
G1 X86.068 Y101.914 E8.36371
G1 X86.637 Y101.189 E8.38206
G1 X87.132 Y100.649 E8.39664
G1 X87.858 Y99.911 E8.41725
G1 X88.372 Y99.402 E8.43165
G1 X90.109 Y97.588 E8.48164
G1 X91.801 Y95.718 E8.53184
G1 X93.531 Y93.697 E8.5848
G1 X94.16 Y93.023 E8.60315
G0 F6000 X94.467 Y93.31
G1 F1200 X95.141 Y92.708 E8.62114
G1 X95.865 Y92.167 E8.63913
G1 X96.633 Y91.692 E8.65711
G1 X97.441 Y91.288 E8.67509
G1 X98.054 Y91.037 E8.68828
G1 X100.43 Y90.155 E8.73873
G1 X102.787 Y89.208 E8.78929
G1 X105.129 Y88.187 E8.84015
G1 X107.398 Y87.121 E8.89005
G1 X109.802 Y85.907 E8.94366
G1 X110.271 Y85.662 E8.9542
G1 X111.089 Y85.28 E8.97217
G1 X111.938 Y84.971 E8.99015
G1 X112.811 Y84.738 E9.00814
G1 X113.701 Y84.583 E9.02612
G1 X114.691 Y84.505 E9.04589
G1 X115.33 Y84.49 E9.05862
G1 X119.293 Y84.49 E9.1375
G1 X120.141 Y84.501 E9.15439
G1 X121.043 Y84.554 E9.17237
G1 X121.937 Y84.686 E9.19036
G1 X122.816 Y84.897 E9.20836
G1 X123.672 Y85.185 E9.22633
G1 X124.584 Y85.589 E9.24619
G1 X125.264 Y85.931 E9.26134
G1 X126.445 Y86.546 E9.28785
G1 X128.754 Y87.668 E9.33895
G1 X131.04 Y88.701 E9.38889
G1 X133.415 Y89.694 E9.44013
G1 X135.851 Y90.632 E9.49209
G1 X136.933 Y91.032 E9.51505
G1 X137.766 Y91.382 E9.53304
G1 X138.565 Y91.805 E9.55104
G1 X139.323 Y92.297 E9.56903
G1 X140.034 Y92.853 E9.58699
G1 X140.694 Y93.471 E9.60499
G1 X141.514 Y94.419 E9.62994
G1 X142.274 Y95.416 E9.6549
G1 X143.835 Y97.404 E9.70521
G1 X145.49 Y99.394 E9.75674
G1 X147.152 Y101.279 E9.80676
G1 X148.877 Y103.13 E9.85713
G1 X151.047 Y105.323 E9.91854
G1 X151.654 Y105.993 E9.93654
G1 X152.199 Y106.714 E9.95453
G1 X152.678 Y107.48 E9.97251
G1 X153.087 Y108.286 E9.9905
G1 X153.424 Y109.124 E10.00848
G1 X153.685 Y109.989 E10.02647
G1 X153.869 Y110.874 E10.04446
G1 X153.995 Y112.191 E10.0708
G1 X154.01 Y112.83 E10.08352
G1 X154.009 Y121.938 E10.26483
G1 X153.999 Y122.641 E10.27882
G1 X153.946 Y123.543 E10.29681
G1 X153.814 Y124.437 E10.3148
G1 X153.603 Y125.316 E10.33279
G1 X153.315 Y126.172 E10.35077
G1 X152.953 Y127 E10.36876
G1 X152.519 Y127.792 E10.38674
G1 X152.016 Y128.543 E10.40473
G1 X151.45 Y129.247 E10.42271
G1 X151.068 Y129.657 E10.43387
G1 X150.687 Y130.044 E10.44468
G1 X148.878 Y131.933 E10.49674
G1 X147.166 Y133.827 E10.54757
G1 X145.53 Y135.742 E10.5977
G1 X143.934 Y137.722 E10.64833
G1 X142.506 Y139.59 E10.69513
G1 X141.926 Y140.283 E10.71312
G1 X141.287 Y140.922 E10.73111
G1 X140.594 Y141.502 E10.7491
G1 X139.853 Y142.018 E10.76707
G1 X139.069 Y142.467 E10.78506
G1 X138.203 Y142.864 E10.80402
G1 X135.589 Y143.915 E10.86011
G1 X133.255 Y144.933 E10.91079
G1 X130.974 Y146.006 E10.96097
G1 X128.694 Y147.158 E11.01182
G1 X126.455 Y148.368 E11.06249
G1 X125.952 Y148.659 E11.07405
G1 X124.992 Y149.197 E11.09596
G1 X124.185 Y149.603 E11.11394
G1 X123.346 Y149.937 E11.13192
G1 X122.48 Y150.195 E11.14991
G1 X121.594 Y150.375 E11.1679
G1 X120.34 Y150.494 E11.19298
G1 X119.67 Y150.511 E11.20632
G1 X115.562 Y150.51 E11.28809
G1 X114.86 Y150.5 E11.30207
G1 X113.958 Y150.447 E11.32006
G1 X113.064 Y150.315 E11.33804
G1 X112.185 Y150.104 E11.35604
G1 X111.329 Y149.816 E11.37402
G1 X110.501 Y149.454 E11.39201
G1 X110.019 Y149.201 E11.40284
G1 X107.411 Y147.741 E11.46234
G1 X105.155 Y146.565 E11.51298
G1 X102.895 Y145.466 E11.56301
G1 X100.569 Y144.416 E11.61381
G1 X98.172 Y143.413 E11.66553
G1 X96.822 Y142.874 E11.69447
G1 X95.998 Y142.502 E11.71247
G1 X95.211 Y142.059 E11.73044
G1 X94.466 Y141.548 E11.74843
G1 X93.769 Y140.973 E11.76641
G1 X93.125 Y140.339 E11.7844
G1 X92.541 Y139.65 E11.80238
G1 X92.019 Y138.912 E11.82038
G1 X91.565 Y138.131 E11.83836
G1 X91.181 Y137.313 E11.85635
G1 X90.934 Y136.656 E11.87032
G1 X90.039 Y134.002 E11.92607
G1 X89.152 Y131.607 E11.97691
G1 X88.213 Y129.277 E12.02692
G1 X87.185 Y126.92 E12.07811
G1 X85.973 Y124.347 E12.13472
G1 X85.625 Y123.514 E12.15269
G1 X85.351 Y122.652 E12.1707
G1 X85.155 Y121.77 E12.18868
G1 X85.017 Y120.588 E12.21237
G1 X84.962 Y119.623 E12.23161
G1 X84.919 Y118.615 E12.2517
G1 X84.737 Y116.08 E12.30229
G1 X84.597 Y114.674 E12.33042
G1 X84.536 Y113.963 E12.34462
G1 X84.503 Y113.378 E12.35629
G1 X84.49 Y112.771 E12.36837
G1 X84.491 Y108.662 E12.45017
G1 X84.501 Y107.959 E12.46416
G1 X84.554 Y107.057 E12.48215
G1 X84.686 Y106.163 E12.50014
G1 X84.897 Y105.284 E12.51813
G1 X85.185 Y104.428 E12.53611
G1 X85.547 Y103.6 E12.5541
G1 X85.981 Y102.808 E12.57208
G1 X86.484 Y102.057 E12.59007
G1 X87.05 Y101.353 E12.60805
G1 X87.432 Y100.944 E12.61919
G1 X88.655 Y99.712 E12.65375
G1 X90.409 Y97.88 E12.70423
G1 X92.134 Y95.975 E12.75539
G1 X93.85 Y93.97 E12.80793
G1 X94.467 Y93.31 E12.82591
G1 F3300 E7.82591
;MESH:cunia.stl(2)
G0 F6000 X95.124 Y107.435
G0 X95.124 Y108.524
G0 X95.75 Y109.15
;TYPE:WALL-INNER
G1 F3300 E12.82591
G1 F1200 X95.75 Y112.05 E12.88364
G1 X98.65 Y112.05 E12.94137
G1 X98.65 Y110.6 E12.97023
G1 X98.65 Y109.15 E12.9991
G1 X95.75 Y109.15 E13.05682
G0 F6000 X95.33 Y108.73
G1 F1200 X95.33 Y112.47 E13.13127
G1 X99.07 Y112.47 E13.20572
G1 X99.07 Y110.6 E13.24295
G1 X99.07 Y108.73 E13.28017
G1 X95.33 Y108.73 E13.35462
G0 F6000 X94.91 Y108.31
;TYPE:WALL-OUTER
G1 F1200 X94.91 Y112.89 E13.44579
G1 X99.49 Y112.89 E13.53696
G1 X99.49 Y110.6 E13.58255
G1 X99.49 Y108.31 E13.62813
G1 X94.91 Y108.31 E13.7193
G0 F6000 X95.18 Y108.58
G0 X98.491 Y109.239
;TYPE:SKIN
G1 F1200 X98.56 Y109.308 E13.72106
G0 F6000 X98.56 Y109.845
G1 F1200 X97.954 Y109.239 E13.73649
G0 F6000 X97.416 Y109.239
G1 F1200 X98.56 Y110.382 E13.76562
G0 F6000 X98.56 Y110.92
G1 F1200 X96.879 Y109.239 E13.80844
G0 F6000 X96.341 Y109.239
G1 F1200 X98.56 Y111.457 E13.86494
G0 F6000 X98.524 Y111.959
G1 F1200 X95.839 Y109.274 E13.93333
G0 F6000 X95.839 Y109.812
G1 F1200 X97.986 Y111.959 E13.98801
G0 F6000 X97.449 Y111.959
G1 F1200 X95.839 Y110.349 E14.02902
G0 F6000 X95.839 Y110.887
G1 F1200 X96.911 Y111.959 E14.05633
G0 F6000 X96.374 Y111.959
G1 F1200 X95.839 Y111.424 E14.06995
G0 F6000 X95.93 Y111.424
G1 F3300 E9.06995
;MESH:cunia.stl(3)
G0 F6000 X95.86 Y111.424
G0 X95.899 Y111.675
G0 X96.25 Y112.67
G0 X96.25 Y115.43
G0 X96.25 Y116.05
;TYPE:WALL-INNER
G1 F3300 E14.06995
G1 F1200 X96.25 Y118.95 E14.12768
G1 X99.15 Y118.95 E14.18541
G1 X99.15 Y117.5 E14.21427
G1 X99.15 Y116.05 E14.24314
G1 X96.25 Y116.05 E14.30087
G0 F6000 X95.83 Y115.63
G1 F1200 X95.83 Y119.37 E14.37531
G1 X99.57 Y119.37 E14.44976
G1 X99.57 Y117.5 E14.48699
G1 X99.57 Y115.63 E14.52421
G1 X95.83 Y115.63 E14.59866
G0 F6000 X95.41 Y115.21
;TYPE:WALL-OUTER
G1 F1200 X95.41 Y119.79 E14.68983
G1 X99.99 Y119.79 E14.781
G1 X99.99 Y117.5 E14.82659
G1 X99.99 Y115.21 E14.87217
G1 X95.41 Y115.21 E14.96334
G0 F6000 X95.68 Y115.48
G0 X98.942 Y116.139
;TYPE:SKIN
G1 F1200 X99.06 Y116.256 E14.96634
G0 F6000 X99.06 Y116.794
G1 F1200 X98.405 Y116.139 E14.98302
G0 F6000 X97.867 Y116.139
G1 F1200 X99.06 Y117.331 E15.01339
