;FLAVOR:Marlin
;TIME:4383
;Filament used: 3.58496m
;Layer height: 0.28
;MINX:61.5
;MINY:91.25
;MINZ:0.28
;MAXX:173.5
;MAXY:185.75
;MAXZ:11.76
;Generated with Cura_SteamEngine 4.6.1
M140 S50
M105
M190 S50
M104 S200
M105
M109 S200
M82 ;absolute extrusion mode
; Ender 3 Custom Start G-code
G92 E0 ; Reset Extruder
G28 ; Home all axes
G1 Z2.0 F3000 ; Move Z Axis up little to prevent scratching of Heat Bed
G1 X0.1 Y20 Z0.3 F5000.0 ; Move to start position
G1 X0.1 Y200.0 Z0.3 F1500.0 E15 ; Draw the first line
G1 X0.4 Y200.0 Z0.3 F5000.0 ; Move to side a little
G1 X0.4 Y20 Z0.3 F1500.0 E30 ; Draw the second line
G92 E0 ; Reset Extruder
G1 Z2.0 F3000 ; Move Z Axis up little to prevent scratching of Heat Bed
G1 X5 Y20 Z0.3 F5000.0 ; Move over to prevent blob squish
G92 E0
G92 E0
G1 F2700 E-5
;LAYER_COUNT:42
;LAYER:0
M107
G0 F6000 X89.609 Y184.874 Z0.28
;TYPE:SKIRT
G1 F2700 E0
G1 F1200 X89.067 Y184.917 E0.02532
G1 X88.706 Y184.936 E0.04215
G1 X88.17 Y184.95 E0.06712
G1 X73.075 Y184.949 E0.77
G1 X72.377 Y184.94 E0.80251
G1 X71.476 Y184.889 E0.84453
G1 X70.582 Y184.757 E0.88661
G1 X69.704 Y184.548 E0.92863
G1 X68.847 Y184.261 E0.97072
G1 X68.02 Y183.9 E1.01274
G1 X67.227 Y183.467 E1.05481
G1 X66.476 Y182.966 E1.09684
G1 X65.772 Y182.4 E1.13891
G1 X65.121 Y181.774 E1.18096
G1 X64.528 Y181.093 E1.22301
G1 X63.998 Y180.362 E1.26505
G1 X63.534 Y179.587 E1.30711
G1 X63.14 Y178.774 E1.34918
G1 X62.82 Y177.93 E1.39121
G1 X62.576 Y177.06 E1.43328
G1 X62.41 Y176.172 E1.47535
G1 X62.313 Y175.017 E1.52932
G1 X62.3 Y174.408 E1.55768
G1 X62.301 Y171.311 E1.70189
G1 X62.311 Y170.614 E1.73435
G1 X62.364 Y169.712 E1.77643
G1 X62.479 Y168.91 E1.81415
G1 X62.605 Y168.224 E1.84663
G1 X63.043 Y165.664 E1.96757
G1 X63.404 Y163.125 E2.08698
G1 X63.688 Y160.623 E2.20423
G1 X63.904 Y158.075 E2.3233
G1 X64.048 Y155.533 E2.44186
G1 X64.119 Y153.007 E2.55953
G1 X64.119 Y150.473 E2.67752
G1 X64.046 Y147.932 E2.79589
G1 X63.901 Y145.371 E2.91533
G1 X63.687 Y142.852 E3.03305
G1 X63.402 Y140.351 E3.15026
G1 X63.042 Y137.824 E3.26912
G1 X62.61 Y135.307 E3.38803
G1 X62.459 Y134.483 E3.42704
G1 X62.345 Y133.587 E3.4691
G1 X62.315 Y133.059 E3.49372
G1 X62.3 Y132.42 E3.52349
G1 X62.301 Y129.291 E3.66919
G1 X62.311 Y128.609 E3.70095
G1 X62.364 Y127.708 E3.74297
G1 X62.497 Y126.815 E3.78501
G1 X62.708 Y125.937 E3.82706
G1 X62.996 Y125.081 E3.86911
G1 X63.359 Y124.254 E3.91117
G1 X63.804 Y123.444 E3.9542
G1 X64.361 Y122.534 E4.00388
G1 X64.877 Y121.72 E4.04876
G1 X66.2 Y119.498 E4.16918
G1 X67.41 Y117.327 E4.28491
G1 X68.603 Y115.035 E4.40523
G1 X69.691 Y112.796 E4.52114
G1 X70.752 Y110.445 E4.64125
G1 X71.734 Y108.094 E4.75989
G1 X72.645 Y105.72 E4.87829
G1 X73.479 Y103.354 E4.9951
G1 X74.254 Y100.939 E5.1132
G1 X74.448 Y100.274 E5.14546
G1 X74.76 Y99.26 E5.19486
G1 X75.064 Y98.41 E5.2369
G1 X75.441 Y97.589 E5.27896
G1 X75.89 Y96.806 E5.32099
G1 X76.406 Y96.065 E5.36304
G1 X76.986 Y95.372 E5.40512
G1 X77.625 Y94.734 E5.44716
G1 X78.317 Y94.154 E5.48921
G1 X79.059 Y93.638 E5.53129
G1 X79.843 Y93.19 E5.57334
G1 X80.663 Y92.813 E5.61536
G1 X81.514 Y92.51 E5.65742
G1 X82.388 Y92.283 E5.69947
G1 X83.279 Y92.134 E5.74154
G1 X84.191 Y92.065 E5.78412
G1 X84.83 Y92.05 E5.81389
G1 X149.793 Y92.05 E8.83884
G1 X149.938 Y92.051 E8.84559
G1 X150.639 Y92.061 E8.87823
G1 X151.541 Y92.114 E8.92031
G1 X152.434 Y92.246 E8.96234
G1 X153.313 Y92.457 E9.00443
G1 X154.169 Y92.745 E9.04649
G1 X154.996 Y93.107 E9.08852
G1 X155.788 Y93.541 E9.13058
G1 X156.538 Y94.044 E9.17263
G1 X157.241 Y94.611 E9.21468
G1 X157.891 Y95.237 E9.2567
G1 X158.484 Y95.919 E9.29878
G1 X159.013 Y96.651 E9.34084
G1 X159.476 Y97.426 E9.38288
G1 X159.868 Y98.24 E9.42495
G1 X160.291 Y99.421 E9.48336
G1 X160.401 Y99.802 E9.50182
G1 X161.162 Y102.277 E9.6224
G1 X161.975 Y104.677 E9.74039
G1 X162.868 Y107.091 E9.86024
G1 X163.804 Y109.413 E9.97681
G1 X164.821 Y111.744 E10.09524
G1 X165.909 Y114.06 E10.21439
G1 X167.055 Y116.326 E10.33263
G1 X168.259 Y118.552 E10.45047
G1 X169.522 Y120.734 E10.56786
G1 X171.102 Y123.289 E10.70775
G1 X171.552 Y124.073 E10.74984
G1 X171.93 Y124.893 E10.79188
G1 X172.233 Y125.744 E10.83395
G1 X172.461 Y126.618 E10.87601
G1 X172.61 Y127.508 E10.91802
G1 X172.677 Y128.318 E10.95587
G1 X172.691 Y128.65 E10.97134
G1 X172.7 Y129.08 E10.99137
G1 X172.699 Y132.159 E11.13474
G1 X172.689 Y132.882 E11.16841
G1 X172.637 Y133.784 E11.21048
G1 X172.52 Y134.593 E11.24854
G1 X172.407 Y135.203 E11.27743
G1 X171.957 Y137.836 E11.40181
G1 X171.596 Y140.375 E11.52123
G1 X171.312 Y142.877 E11.63848
G1 X171.096 Y145.425 E11.75755
G1 X170.952 Y147.967 E11.87611
G1 X170.881 Y150.493 E11.99377
G1 X170.881 Y153.027 E12.11177
G1 X170.954 Y155.568 E12.23014
G1 X171.099 Y158.126 E12.34944
G1 X171.311 Y160.615 E12.46576
G1 X171.603 Y163.179 E12.58592
G1 X171.96 Y165.686 E12.70383
G1 X172.387 Y168.178 E12.82156
G1 X172.517 Y168.876 E12.85462
G1 X172.642 Y169.771 E12.8967
G1 X172.684 Y170.41 E12.92652
G1 X172.695 Y170.746 E12.94217
G1 X172.7 Y171.08 E12.95773
G1 X172.699 Y174.14 E13.10021
G1 X172.69 Y174.867 E13.13407
G1 X172.639 Y175.769 E13.17614
G1 X172.508 Y176.663 E13.21821
G1 X172.299 Y177.541 E13.26024
G1 X172.013 Y178.398 E13.30231
G1 X171.652 Y179.226 E13.34437
G1 X171.22 Y180.018 E13.38637
G1 X170.719 Y180.77 E13.42845
G1 X170.153 Y181.474 E13.47051
G1 X169.528 Y182.125 E13.51253
G1 X168.847 Y182.719 E13.55461
G1 X168.116 Y183.25 E13.59668
G1 X167.342 Y183.714 E13.6387
G1 X166.529 Y184.108 E13.68077
G1 X165.685 Y184.428 E13.7228
G1 X164.815 Y184.673 E13.76489
G1 X163.928 Y184.839 E13.80691
G1 X162.777 Y184.937 E13.8607
G1 X162.17 Y184.95 E13.88897
G1 X147.061 Y184.949 E14.59251
G1 X146.361 Y184.939 E14.6251
G1 X145.46 Y184.886 E14.66713
G1 X144.566 Y184.754 E14.70921
G1 X143.864 Y184.592 E14.74276
G1 X143.373 Y184.458 E14.76646
G1 X141.311 Y183.859 E14.86644
G1 X138.889 Y183.228 E14.98298
G1 X136.402 Y182.655 E15.10182
G1 X133.908 Y182.157 E15.22025
G1 X131.409 Y181.73 E15.3383
G1 X128.897 Y181.372 E15.45645
G1 X126.354 Y181.083 E15.57562
G1 X123.867 Y180.872 E15.69185
G1 X121.307 Y180.728 E15.81124
G1 X118.764 Y180.656 E15.9297
G1 X116.232 Y180.656 E16.0476
G1 X113.673 Y180.728 E16.1668
G1 X111.164 Y180.872 E16.28383
G1 X108.636 Y181.087 E16.40196
G1 X106.09 Y181.376 E16.52128
G1 X103.581 Y181.733 E16.63928
G1 X101.078 Y182.162 E16.75753
G1 X98.61 Y182.658 E16.87475
G1 X96.144 Y183.226 E16.99259
G1 X93.633 Y183.879 E17.1134
G1 X92.316 Y184.253 E17.17715
G1 X91.38 Y184.525 E17.22253
G1 X90.502 Y184.739 E17.26462
G1 X89.609 Y184.874 E17.30667
G1 F2700 E12.30667
G0 F6000 X71.847 Y175.403
G0 X71.847 Y170.097
G0 X83.847 Y143.597
G0 X163.153 Y133.403
G0 X163.153 Y128.097
G0 X150.645 Y91.661
G1 F2700 E17.30667
G1 F1200 X151.564 Y91.714 E17.34953
G1 X152.475 Y91.847 E17.3924
G1 X153.371 Y92.058 E17.43527
G1 X154.246 Y92.346 E17.47816
G1 X155.092 Y92.709 E17.52103
G1 X155.903 Y93.144 E17.56388
G1 X156.674 Y93.648 E17.60677
G1 X157.398 Y94.217 E17.64965
G1 X158.07 Y94.846 E17.69251
G1 X158.685 Y95.531 E17.73537
G1 X159.238 Y96.267 E17.77824
G1 X159.725 Y97.049 E17.82114
G1 X160.142 Y97.869 E17.86397
G1 X160.487 Y98.723 E17.90686
G1 X160.675 Y99.309 E17.93552
G1 X160.788 Y99.699 E17.95443
G1 X161.54 Y102.147 E18.07367
G1 X162.353 Y104.546 E18.19162
G1 X163.239 Y106.939 E18.31044
G1 X164.178 Y109.271 E18.4275
G1 X165.178 Y111.563 E18.54394
G1 X166.27 Y113.888 E18.66355
G1 X167.406 Y116.134 E18.78075
G1 X168.614 Y118.368 E18.89901
G1 X169.875 Y120.546 E19.0162
G1 X171.219 Y122.727 E19.13549
G1 X171.44 Y123.075 E19.15468
G1 X171.899 Y123.874 E19.19759
G1 X172.286 Y124.709 E19.24044
G1 X172.6 Y125.574 E19.28329
G1 X172.837 Y126.464 E19.32618
G1 X172.996 Y127.371 E19.36906
G1 X173.077 Y128.301 E19.41252
G1 X173.091 Y128.633 E19.428
G1 X173.1 Y129.08 E19.44882
G1 X173.099 Y132.165 E19.59247
G1 X173.089 Y132.888 E19.62614
G1 X173.036 Y133.807 E19.669
G1 X172.914 Y134.666 E19.7094
G1 X172.785 Y135.367 E19.74259
G1 X172.352 Y137.894 E19.86197
G1 X171.99 Y140.44 E19.98172
G1 X171.709 Y142.919 E20.09789
G1 X171.495 Y145.446 E20.21598
G1 X171.352 Y147.967 E20.33355
G1 X171.281 Y150.504 E20.45173
G1 X171.281 Y153.016 E20.5687
G1 X171.354 Y155.568 E20.68758
G1 X171.496 Y158.07 E20.80427
G1 X171.712 Y160.607 E20.92284
G1 X171.997 Y163.114 E21.04032
G1 X172.356 Y165.628 E21.15857
G1 X172.78 Y168.105 E21.27559
G1 X172.91 Y168.803 E21.30865
G1 X173.039 Y169.715 E21.35154
G1 X173.083 Y170.397 E21.38336
G1 X173.094 Y170.733 E21.39902
G1 X173.1 Y171.08 E21.41518
G1 X173.099 Y174.145 E21.5579
G1 X173.09 Y174.872 E21.59175
G1 X173.039 Y175.791 E21.63461
G1 X172.908 Y176.703 E21.67751
G1 X172.698 Y177.599 E21.72036
G1 X172.412 Y178.474 E21.76323
G1 X172.051 Y179.321 E21.8061
G1 X171.617 Y180.133 E21.84897
G1 X171.115 Y180.905 E21.89185
G1 X170.547 Y181.63 E21.93474
G1 X169.919 Y182.303 E21.9776
G1 X169.235 Y182.919 E22.02046
G1 X168.5 Y183.473 E22.06332
G1 X167.72 Y183.962 E22.10619
G1 X166.9 Y184.381 E22.14907
G1 X166.047 Y184.727 E22.19193
G1 X165.167 Y184.998 E22.23481
G1 X164.267 Y185.191 E22.27767
G1 X163.353 Y185.306 E22.32056
G1 X162.788 Y185.337 E22.34691
G1 X162.17 Y185.35 E22.37569
G1 X147.056 Y185.349 E23.07946
G1 X146.356 Y185.339 E23.11206
G1 X145.436 Y185.286 E23.15497
G1 X144.525 Y185.153 E23.19784
G1 X143.76 Y184.978 E23.23438
G1 X143.261 Y184.842 E23.25847
G1 X141.236 Y184.253 E23.35667
G1 X138.769 Y183.612 E23.47535
G1 X136.299 Y183.042 E23.59339
G1 X133.841 Y182.551 E23.71011
G1 X131.352 Y182.125 E23.82769
G1 X128.832 Y181.766 E23.94622
G1 X126.347 Y181.484 E24.06267
G1 X123.811 Y181.269 E24.18118
G1 X121.307 Y181.128 E24.29796
G1 X118.753 Y181.056 E24.41694
G1 X116.244 Y181.056 E24.53377
G1 X113.707 Y181.128 E24.65195
G1 X111.184 Y181.272 E24.76962
G1 X108.644 Y181.488 E24.88832
G1 X106.16 Y181.77 E25.00473
G1 X103.635 Y182.13 E25.12349
G1 X101.188 Y182.549 E25.23909
G1 X98.666 Y183.056 E25.35888
G1 X96.237 Y183.615 E25.47494
G1 X93.704 Y184.274 E25.59681
G1 X92.489 Y184.619 E25.65562
G1 X91.492 Y184.909 E25.70397
G1 X90.597 Y185.128 E25.74688
G1 X89.687 Y185.268 E25.78975
G1 X89.088 Y185.316 E25.81773
G1 X88.727 Y185.335 E25.83456
G1 X88.17 Y185.35 E25.86051
G1 X73.07 Y185.349 E26.56363
G1 X72.372 Y185.34 E26.59613
G1 X71.453 Y185.288 E26.63899
G1 X70.542 Y185.157 E26.68185
G1 X69.646 Y184.947 E26.7247
G1 X68.771 Y184.66 E26.76758
G1 X67.924 Y184.298 E26.81047
G1 X67.112 Y183.864 E26.85334
G1 X66.341 Y183.362 E26.89618
G1 X65.616 Y182.794 E26.93907
G1 X64.943 Y182.165 E26.98196
G1 X64.328 Y181.481 E27.02479
G1 X63.774 Y180.746 E27.06765
G1 X63.286 Y179.965 E27.11053
G1 X62.867 Y179.145 E27.15341
G1 X62.521 Y178.292 E27.19627
G1 X62.251 Y177.412 E27.23914
G1 X62.058 Y176.511 E27.28204
G1 X61.944 Y175.598 E27.32489
G1 X61.913 Y175.027 E27.35151
G1 X61.9 Y174.408 E27.38034
G1 X61.901 Y171.305 E27.52483
G1 X61.911 Y170.608 E27.55729
G1 X61.964 Y169.689 E27.60015
G1 X62.086 Y168.838 E27.64018
G1 X62.208 Y168.176 E27.67153
G1 X62.648 Y165.606 E27.79294
G1 X63.01 Y163.06 E27.91269
G1 X63.291 Y160.581 E28.02886
G1 X63.505 Y158.054 E28.14695
G1 X63.648 Y155.533 E28.26452
G1 X63.719 Y152.996 E28.3827
G1 X63.719 Y150.484 E28.49967
G1 X63.646 Y147.932 E28.61855
G1 X63.504 Y145.427 E28.73538
G1 X63.288 Y142.895 E28.85371
G1 X63.003 Y140.386 E28.97129
G1 X62.644 Y137.871 E29.08959
G1 X62.214 Y135.362 E29.20812
G1 X62.064 Y134.551 E29.24653
G1 X61.947 Y133.638 E29.28939
G1 X61.915 Y133.071 E29.31583
G1 X61.9 Y132.42 E29.34615
G1 X61.901 Y129.286 E29.49208
G1 X61.911 Y128.604 E29.52384
G1 X61.965 Y127.684 E29.56676
G1 X62.098 Y126.774 E29.60958
G1 X62.309 Y125.877 E29.65249
G1 X62.598 Y125.003 E29.69535
G1 X62.961 Y124.157 E29.73822
G1 X63.463 Y123.236 E29.78706
G1 X64.024 Y122.32 E29.83708
G1 X64.539 Y121.508 E29.88185
G1 X65.825 Y119.346 E29.99899
G1 X67.063 Y117.126 E30.11735
G1 X68.246 Y114.854 E30.23662
G1 X69.338 Y112.606 E30.35299
G1 X70.382 Y110.292 E30.4712
G1 X71.358 Y107.957 E30.58905
G1 X72.258 Y105.612 E30.706
G1 X73.107 Y103.204 E30.8249
G1 X73.872 Y100.82 E30.94148
G1 X74.066 Y100.157 E30.97365
G1 X74.378 Y99.143 E31.02305
G1 X74.686 Y98.275 E31.06593
G1 X75.069 Y97.438 E31.1088
G1 X75.523 Y96.637 E31.15167
G1 X76.045 Y95.879 E31.19452
G1 X76.631 Y95.168 E31.23743
G1 X77.276 Y94.511 E31.2803
G1 X77.975 Y93.913 E31.32313
G1 X78.724 Y93.378 E31.36599
G1 X79.517 Y92.909 E31.40889
G1 X80.347 Y92.511 E31.45175
G1 X81.209 Y92.187 E31.49463
G1 X82.095 Y91.938 E31.53749
G1 X83 Y91.768 E31.58037
G1 X84.179 Y91.665 E31.63547
G1 X84.5 Y91.655 E31.65043
G1 X84.83 Y91.65 E31.6658
G1 X149.793 Y91.65 E34.69075
G1 X149.944 Y91.651 E34.69778
G1 X150.645 Y91.661 E34.73042
G0 F6000 X150.651 Y91.261
G1 F1200 X151.587 Y91.314 E34.77408
G1 X152.516 Y91.447 E34.81777
G1 X153.429 Y91.659 E34.86142
G1 X154.322 Y91.947 E34.90511
G1 X155.186 Y92.311 E34.94877
G1 X156.017 Y92.747 E34.99246
G1 X156.807 Y93.252 E35.03612
G1 X157.551 Y93.822 E35.07976
G1 X158.244 Y94.454 E35.12344
G1 X158.881 Y95.143 E35.16713
G1 X159.457 Y95.883 E35.2108
G1 X159.968 Y96.67 E35.25449
G1 X160.409 Y97.497 E35.29813
G1 X160.779 Y98.359 E35.34181
G1 X161.059 Y99.198 E35.383
G1 X161.158 Y99.539 E35.39953
G1 X161.923 Y102.028 E35.52078
G1 X162.739 Y104.439 E35.6393
G1 X163.609 Y106.787 E35.7559
G1 X164.544 Y109.109 E35.87246
G1 X165.549 Y111.412 E35.98946
G1 X166.625 Y113.702 E36.10728
G1 X167.757 Y115.942 E36.22414
G1 X168.969 Y118.182 E36.34274
G1 X170.212 Y120.33 E36.45829
G1 X171.778 Y122.861 E36.59688
G1 X172.246 Y123.674 E36.64056
G1 X172.643 Y124.524 E36.68425
G1 X172.966 Y125.405 E36.72794
G1 X173.212 Y126.309 E36.77157
G1 X173.381 Y127.232 E36.81526
G1 X173.476 Y128.285 E36.86449
G1 X173.49 Y128.617 E36.87996
G1 X173.5 Y129.08 E36.90153
G1 X173.499 Y132.17 E37.04541
G1 X173.489 Y132.893 E37.07908
G1 X173.436 Y133.83 E37.12278
G1 X173.307 Y134.738 E37.16549
G1 X173.18 Y135.428 E37.19815
G1 X172.749 Y137.945 E37.31706
G1 X172.39 Y140.47 E37.43582
G1 X172.107 Y142.962 E37.5526
G1 X171.892 Y145.504 E37.67139
G1 X171.752 Y147.965 E37.78617
G1 X171.681 Y150.515 E37.90496
G1 X171.681 Y153.039 E38.02248
G1 X171.752 Y155.534 E38.13871
G1 X171.895 Y158.052 E38.25615
G1 X172.109 Y160.561 E38.3734
G1 X172.392 Y163.044 E38.48977
G1 X172.748 Y165.547 E38.60749
G1 X173.191 Y168.128 E38.72943
G1 X173.303 Y168.73 E38.75794
G1 X173.435 Y169.658 E38.80159
G1 X173.483 Y170.384 E38.83547
G1 X173.494 Y170.72 E38.85112
G1 X173.5 Y171.08 E38.86789
G1 X173.499 Y174.15 E39.01084
G1 X173.49 Y174.877 E39.0447
G1 X173.439 Y175.814 E39.08839
G1 X173.307 Y176.742 E39.13204
G1 X173.098 Y177.656 E39.1757
G1 X172.811 Y178.549 E39.21937
G1 X172.449 Y179.415 E39.26308
G1 X172.015 Y180.246 E39.30673
G1 X171.511 Y181.037 E39.35041
G1 X170.942 Y181.782 E39.39406
G1 X170.311 Y182.477 E39.43777
G1 X169.624 Y183.115 E39.48142
G1 X168.885 Y183.692 E39.52508
G1 X168.099 Y184.204 E39.56876
G1 X167.273 Y184.647 E39.61241
G1 X166.411 Y185.019 E39.65612
G1 X165.522 Y185.315 E39.69975
G1 X164.61 Y185.535 E39.74344
G1 X163.683 Y185.676 E39.7871
G1 X162.799 Y185.737 E39.82836
G1 X162.17 Y185.75 E39.85765
G1 X147.05 Y185.749 E40.5617
G1 X146.35 Y185.739 E40.5943
G1 X145.414 Y185.686 E40.63796
G1 X144.485 Y185.553 E40.68166
G1 X143.657 Y185.364 E40.7212
G1 X143.149 Y185.226 E40.74571
G1 X141.12 Y184.636 E40.84411
G1 X138.685 Y184.003 E40.96126
G1 X136.21 Y183.432 E41.07953
G1 X133.76 Y182.943 E41.19586
G1 X131.305 Y182.523 E41.31184
G1 X128.797 Y182.166 E41.4298
G1 X126.304 Y181.883 E41.54663
G1 X123.788 Y181.669 E41.66421
G1 X121.274 Y181.528 E41.78146
G1 X118.742 Y181.456 E41.8994
G1 X116.255 Y181.456 E42.01521
G1 X113.707 Y181.528 E42.1339
G1 X111.205 Y181.671 E42.2506
G1 X108.722 Y181.882 E42.36663
G1 X106.19 Y182.17 E42.48529
G1 X103.721 Y182.521 E42.60141
G1 X101.235 Y182.948 E42.71887
G1 X98.763 Y183.444 E42.83627
G1 X96.314 Y184.008 E42.95329
G1 X93.827 Y184.655 E43.07295
G1 X92.563 Y185.014 E43.13413
G1 X91.603 Y185.293 E43.18069
G1 X90.692 Y185.517 E43.22437
G1 X89.766 Y185.661 E43.26801
G1 X89.109 Y185.716 E43.29871
G1 X88.748 Y185.735 E43.31554
G1 X88.17 Y185.75 E43.34246
G1 X73.065 Y185.749 E44.04581
G1 X72.367 Y185.74 E44.07832
G1 X71.431 Y185.688 E44.12197
