;FLAVOR:Marlin
M117 Time Left 3h45m07s
;TIME:13507
;Filament used: 30.5104m
;Layer height: 0.32
;MINX:9.347
;MINY:37.335
;MINZ:0.32
;MAXX:225.653
;MAXY:197.665
;MAXZ:38.08
;POSTPROCESSED
;Generated with Cura_SteamEngine 5.2.1
M140 S60
M105
M190 S60
M104 S215
M105
M109 S215
M82 ;absolute extrusion mode
; Ender 3 Custom Start G-code
G92 E0 ; Reset Extruder
G28 ; Home all axes
G1 Z2.0 F3000 ; Move Z Axis up little to prevent scratching of Heat Bed
G1 X0.1 Y20 Z0.3 F5000.0 ; Move to start position
G1 X0.1 Y200.0 Z0.3 F1500.0 E15 ; Draw the first line
G1 X0.4 Y200.0 Z0.3 F5000.0 ; Move to side a little
G1 X0.4 Y20 Z0.3 F1500.0 E30 ; Draw the second line
G92 E0 ; Reset Extruder
G1 Z2.0 F3000 ; Move Z Axis up little to prevent scratching of Heat Bed
G1 X5 Y20 Z0.3 F5000.0 ; Move over to prevent blob squish
G92 E0
G92 E0
G1 F2700 E-5
;LAYER_COUNT:119
;LAYER:0
M106 S127.5
M204 S500
M205 X11 Y11
;MESH:Cut015.stl
G0 F8100 X164.667 Y96.882 Z0.32
M205 X12 Y12
;TYPE:WALL-INNER
G1 F2700 E0
G1 F2520 X164.967 Y96.827 E0.03161
G1 X220 Y96.827 E5.7348
G1 X220.469 Y96.926 E5.78448
G1 X220.83 Y97.17 E5.82963
G1 F2566.8 X221.095 Y97.576 E5.87896
G1 F2657.9 X221.15 Y98.001 E5.92107
G1 F2706 X221.15 Y167.814 E12.65874
G1 X221.814 Y167.814 E12.72282
G1 X221.814 Y98.001 E19.46049
G1 F2611.6 X221.79 Y97.4 E19.52064
G1 F2520 X221.79 Y68 E22.56743
G1 X221.79 Y39.173 E25.55483
G1 X133.569 Y39.174 E34.69738
G1 F2574.2 X133 Y39.158 E34.75513
G1 F2630.7 X125.001 Y39.158 E35.5492
G1 F2574.2 X123.754 Y39.173 E35.67572
G1 F2520 X103.569 Y39.174 E37.76754
G1 F2574.2 X103 Y39.158 E37.82529
G1 F2630.7 X95.001 Y39.158 E38.61936
G1 F2574.2 X93.754 Y39.173 E38.74588
G1 F2520 X73.569 Y39.174 E40.8377
G1 F2574.2 X73 Y39.158 E40.89545
G1 F2630.7 X65.001 Y39.158 E41.68952
G1 F2574.2 X63.754 Y39.173 E41.81604
G1 F2520 X43.569 Y39.174 E43.90786
G1 F2574.2 X43 Y39.158 E43.96561
G1 F2630.7 X35.001 Y39.158 E44.75969
G1 F2574.2 X33.754 Y39.173 E44.88621
G1 F2520 X11.173 Y39.173 E47.22633
G1 X11.173 Y195.827 E63.46073
G1 X32.827 Y195.827 E65.70479
G1 X32.827 Y41.857 E81.66105
G1 X32.962 Y41.475 E81.70303
G1 X33.155 Y41.186 E81.73905
G1 X33.486 Y40.952 E81.78106
G1 X33.828 Y40.83 E81.81869
G1 X33.962 Y40.476 E81.85791
G1 X34.171 Y40.169 E81.8964
G1 F2534.2 X34.534 Y39.936 E81.94085
G1 F2577.8 X34.856 Y39.842 E81.97483
G1 F2623 X43 Y39.842 E82.78567
G1 F2574.2 X43.472 Y39.923 E82.83426
G1 F2520 X43.876 Y40.219 E82.88616
G1 X44.096 Y40.581 E82.93006
G1 X44.173 Y41.001 E82.97431
G1 X44.173 Y169.827 E96.32484
G1 X63.827 Y169.827 E98.36163
G1 X63.827 Y41 E111.71226
G1 X63.924 Y40.532 E111.76179
G1 X64.171 Y40.169 E111.80729
G1 F2534.2 X64.534 Y39.936 E111.85174
G1 F2577.8 X64.856 Y39.842 E111.88572
G1 F2623 X73 Y39.842 E112.69656
G1 F2574.2 X73.472 Y39.923 E112.74515
G1 F2520 X73.876 Y40.219 E112.79705
G1 X74.096 Y40.581 E112.84095
G1 X74.173 Y41.001 E112.8852
G1 X74.173 Y169.827 E126.23573
G1 X93.827 Y169.827 E128.27252
G1 X93.827 Y41 E141.62315
G1 X93.924 Y40.532 E141.67268
G1 X94.171 Y40.169 E141.71818
G1 F2534.2 X94.534 Y39.936 E141.76263
G1 F2577.8 X94.856 Y39.842 E141.79662
G1 F2623 X103 Y39.842 E142.60745
G1 F2574.2 X103.472 Y39.923 E142.65604
G1 F2520 X103.876 Y40.219 E142.70794
G1 X104.096 Y40.581 E142.75184
G1 X104.173 Y41.001 E142.79609
G1 X104.173 Y169.827 E156.14662
G1 X123.827 Y169.827 E158.18341
G1 X123.827 Y41 E171.53404
G1 X123.924 Y40.532 E171.58357
G1 X124.171 Y40.169 E171.62908
G1 F2534.2 X124.534 Y39.936 E171.67353
G1 F2577.8 X124.856 Y39.842 E171.70751
G1 F2623 X133 Y39.842 E172.51835
G1 F2574.2 X133.472 Y39.923 E172.56693
G1 F2520 X133.876 Y40.219 E172.61883
G1 X134.096 Y40.581 E172.66273
G1 X134.173 Y41.001 E172.70698
G1 X134.173 Y169.827 E186.05751
G1 X163.827 Y169.827 E189.13062
G1 X163.828 Y97.946 E196.57981
G1 X163.868 Y97.689 E196.60677
G1 X164.03 Y97.347 E196.64599
G1 X164.288 Y97.049 E196.68683
G1 X164.667 Y96.882 E196.72976
M205 X11 Y11
G1 F2700 E191.72976
G0 F8100 X163.556 Y97.652
G0 X163.499 Y169.499
G0 X134.501 Y169.499
G0 X134.079 Y40.827
G0 X133.836 Y40.207
G0 X133.196 Y39.921
G0 X124.393 Y39.483
G0 X42.961 Y39.496
G0 X43.792 Y40.142
G0 X43.992 Y40.433
G1 F2700 E196.72976
G0 F8100 X43.36 Y40.677
M205 X12 Y12
;TYPE:WALL-OUTER
G1 F2520 X43.483 Y40.924 E196.75651
G1 X43.483 Y170.517 E209.32007
G1 X64.517 Y170.517 E211.35924
G1 X64.517 Y41 E223.91543
G1 X64.545 Y40.865 E223.9288
G1 X64.662 Y40.654 E223.95219
G1 X64.943 Y40.521 E223.98233
G1 X73 Y40.517 E224.76342
G1 X73.246 Y40.594 E224.78841
G1 X73.36 Y40.677 E224.80209
G1 X73.483 Y40.924 E224.82884
G1 X73.483 Y170.517 E237.3924
G1 X94.517 Y170.517 E239.43157
G1 X94.517 Y41 E251.98776
G1 X94.545 Y40.865 E252.00113
G1 X94.662 Y40.654 E252.02452
G1 X94.943 Y40.521 E252.05466
G1 X103 Y40.517 E252.83575
G1 X103.246 Y40.594 E252.86074
G1 X103.36 Y40.677 E252.87442
G1 X103.483 Y40.924 E252.90117
G1 X103.483 Y170.517 E265.46473
G1 X124.517 Y170.517 E267.5039
G1 X124.517 Y41 E280.06009
G1 X124.545 Y40.865 E280.07346
G1 X124.662 Y40.654 E280.09685
G1 X124.943 Y40.521 E280.12699
G1 X133 Y40.517 E280.90808
G1 X133.246 Y40.594 E280.93307
G1 X133.36 Y40.677 E280.94675
G1 X133.483 Y40.924 E280.9735
G1 X133.483 Y170.517 E293.53706
G1 X164.517 Y170.517 E296.54569
G1 X164.518 Y97.964 E303.57944
G1 X164.624 Y97.699 E303.60711
G1 X164.693 Y97.626 E303.61684
G1 X164.937 Y97.517 E303.64275
G1 X220 Y97.517 E308.98091
G1 X220.135 Y97.545 E308.99427
G1 X220.345 Y97.661 E309.01753
G1 X220.423 Y97.78 E309.03133
G1 X220.484 Y98.001 E309.05355
G1 X220.484 Y168.48 E315.88623
G1 X221.935 Y168.48 E316.0269
G1 X222.214 Y168.407 E316.05486
G1 X222.34 Y168.321 E316.06965
G1 X222.433 Y168.184 E316.0857
G1 X222.48 Y167.95 E316.10884
G1 X222.48 Y68 E325.79862
G1 X222.48 Y38.483 E328.66019
G1 X10.483 Y38.483 E349.21251
G1 X10.483 Y196.517 E364.53333
G1 X33.517 Y196.517 E366.76639
G1 X33.522 Y41.936 E381.75244
G1 X33.656 Y41.66 E381.78219
G1 X33.946 Y41.517 E381.81354
G1 X34.517 Y41.517 E381.86889
G1 X34.517 Y40.943 E381.92454
G1 X34.662 Y40.654 E381.95589
G1 X34.943 Y40.521 E381.98602
G1 X43 Y40.517 E382.76712
G1 X43.246 Y40.594 E382.79211
G1 X43.36 Y40.677 E382.80578
M205 X11 Y11
G0 F8100 X43.449 Y40.856
G0 X44.064 Y40.619
G0 X43.546 Y39.625
G0 X42.961 Y39.496
G0 X43.571 Y39.431
G0 X43.567 Y39.559
M205 X12 Y12
;TYPE:SKIN
G1 F3286 X43 Y39.501 E382.83494
M205 X11 Y11
G0 F8100 X43.006 Y39.401
G0 X64.805 Y39.505
G0 X64.371 Y39.748
G0 X64.278 Y39.6
M205 X12 Y12
G1 F2520 X63.75 Y39.606 E382.87017
G1 X44.261 Y39.606 E384.17036
G1 F2634.8 X43.63 Y39.563 E384.21072
G1 X44.197 Y39.925 E384.25364
G1 F2520 X44.502 Y40.425 E384.29271
G1 X44.602 Y40.978 E384.33021
G1 X44.605 Y169.395 E392.89744
G1 X63.395 Y169.395 E394.151
G1 X63.399 Y40.972 E402.71863
G1 X63.526 Y40.358 E402.76046
G1 X63.87 Y39.859 E402.8009
G1 X64.278 Y39.6 E402.83314
M205 X11 Y11
G0 F8100 X63.442 Y40.073
M205 X12 Y12
G1 F2520 X63.203 Y39.834 E402.85569
M205 X11 Y11
G0 F8100 X62.554 Y39.834
M205 X12 Y12
G1 F2520 X63.255 Y40.536 E402.92187
M205 X11 Y11
G0 F8100 X63.165 Y41.095
M205 X12 Y12
G1 F2520 X61.905 Y39.834 E403.0408
M205 X11 Y11
G0 F8100 X61.255 Y39.834
M205 X12 Y12
G1 F2520 X63.165 Y41.744 E403.221
M205 X11 Y11
G0 F8100 X63.165 Y42.393
M205 X12 Y12
G1 F2520 X60.606 Y39.834 E403.46244
M205 X11 Y11
G0 F8100 X59.957 Y39.834
M205 X12 Y12
G1 F2520 X63.165 Y43.043 E403.76516
M205 X11 Y11
G0 F8100 X63.165 Y43.692
M205 X12 Y12
G1 F2520 X59.308 Y39.834 E404.1291
M205 X11 Y11
G0 F8100 X58.659 Y39.834
M205 X12 Y12
G1 F2520 X63.165 Y44.341 E404.55428
M205 X11 Y11
G0 F8100 X63.165 Y44.99
M205 X12 Y12
G1 F2520 X58.01 Y39.834 E405.0407
M205 X11 Y11
G0 F8100 X57.361 Y39.834
M205 X12 Y12
G1 F2520 X63.165 Y45.639 E405.58834
M205 X11 Y11
G0 F8100 X63.165 Y46.288
M205 X12 Y12
G1 F2520 X56.712 Y39.834 E406.19721
M205 X11 Y11
G0 F8100 X56.062 Y39.834
M205 X12 Y12
G1 F2520 X63.165 Y46.937 E406.86737
M205 X11 Y11
G0 F8100 X63.165 Y47.586
M205 X12 Y12
G1 F2520 X55.413 Y39.834 E407.59876
M205 X11 Y11
G0 F8100 X54.764 Y39.834
M205 X12 Y12
G1 F2520 X63.165 Y48.235 E408.39137
M205 X11 Y11
G0 F8100 X63.165 Y48.885
M205 X12 Y12
G1 F2520 X54.115 Y39.834 E409.24527
M205 X11 Y11
G0 F8100 X53.466 Y39.834
M205 X12 Y12
G1 F2520 X63.165 Y49.534 E410.1604
M205 X11 Y11
G0 F8100 X63.165 Y50.183
M205 X12 Y12
G1 F2520 X52.817 Y39.834 E411.13676
M205 X11 Y11
G0 F8100 X52.168 Y39.834
M205 X12 Y12
G1 F2520 X63.165 Y50.832 E412.17435
M205 X11 Y11
G0 F8100 X63.165 Y51.481
M205 X12 Y12
G1 F2520 X51.519 Y39.834 E413.27318
M205 X11 Y11
G0 F8100 X50.869 Y39.834
M205 X12 Y12
G1 F2520 X63.165 Y52.13 E414.43328
M205 X11 Y11
G0 F8100 X63.165 Y52.779
M205 X12 Y12
G1 F2520 X50.22 Y39.834 E415.65462
M205 X11 Y11
G0 F8100 X49.571 Y39.834
M205 X12 Y12
G1 F2520 X63.165 Y53.428 E416.93719
M205 X11 Y11
G0 F8100 X63.165 Y54.078
M205 X12 Y12
G1 F2520 X48.922 Y39.834 E418.28104
M205 X11 Y11
G0 F8100 X48.273 Y39.834
M205 X12 Y12
G1 F2520 X63.165 Y54.727 E419.68611
M205 X11 Y11
G0 F8100 X63.165 Y55.376
M205 X12 Y12
G1 F2520 X47.624 Y39.834 E421.15242
M205 X11 Y11
G0 F8100 X46.975 Y39.834
M205 X12 Y12
G1 F2520 X63.165 Y56.025 E422.67997
M205 X11 Y11
G0 F8100 X63.165 Y56.674
M205 X12 Y12
G1 F2520 X46.326 Y39.834 E424.26874
M205 X11 Y11
G0 F8100 X45.676 Y39.834
M205 X12 Y12
G1 F2520 X63.165 Y57.323 E425.9188
M205 X11 Y11
G0 F8100 X63.165 Y57.972
M205 X12 Y12
G1 F2520 X45.027 Y39.834 E427.63008
M205 X11 Y11
G0 F8100 X44.448 Y39.904
M205 X12 Y12
G1 F2520 X63.165 Y58.621 E429.396
M205 X11 Y11
G0 F8100 X63.165 Y59.271
M205 X12 Y12
G1 F2520 X44.824 Y40.93 E431.12643
M205 X11 Y11
G0 F8100 X44.833 Y41.587
M205 X12 Y12
G1 F2520 X63.165 Y59.92 E432.85607
M205 X11 Y11
G0 F8100 X63.165 Y60.569
M205 X12 Y12
G1 F2520 X44.833 Y42.236 E434.58571
M205 X11 Y11
G0 F8100 X44.833 Y42.886
M205 X12 Y12
G1 F2520 X63.165 Y61.218 E436.3153
M205 X11 Y11
G0 F8100 X63.165 Y61.867
M205 X12 Y12
G1 F2520 X44.833 Y43.535 E438.04488
M205 X11 Y11
G0 F8100 X44.833 Y44.184
M205 X12 Y12
G1 F2520 X63.165 Y62.516 E439.77447
M205 X11 Y11
G0 F8100 X63.165 Y63.165
M205 X12 Y12
G1 F2520 X44.833 Y44.833 E441.50406
M205 X11 Y11
G0 F8100 X44.833 Y45.482
M205 X12 Y12
G1 F2520 X63.165 Y63.814 E443.23365
M205 X11 Y11
G0 F8100 X63.165 Y64.464
M205 X12 Y12
G1 F2520 X44.833 Y46.131 E444.96329
M205 X11 Y11
G0 F8100 X44.833 Y46.78
M205 X12 Y12
G1 F2520 X63.165 Y65.113 E446.69293
M205 X11 Y11
G0 F8100 X63.165 Y65.762
M205 X12 Y12
G1 F2520 X44.833 Y47.429 E448.42256
M205 X11 Y11
G0 F8100 X44.833 Y48.079
M205 X12 Y12
G1 F2520 X63.165 Y66.411 E450.15215
M205 X11 Y11
G0 F8100 X63.165 Y67.06
M205 X12 Y12
G1 F2520 X44.833 Y48.728 E451.88174
M205 X11 Y11
G0 F8100 X44.833 Y49.377
M205 X12 Y12
G1 F2520 X63.165 Y67.709 E453.61133
M205 X11 Y11
G0 F8100 X63.165 Y68.358
M205 X12 Y12
G1 F2520 X44.833 Y50.026 E455.34092
M205 X11 Y11
G0 F8100 X44.833 Y50.675
M205 X12 Y12
G1 F2520 X63.165 Y69.007 E457.07051
M205 X11 Y11
G0 F8100 X63.165 Y69.657
M205 X12 Y12
G1 F2520 X44.833 Y51.324 E458.80014
M205 X11 Y11
G0 F8100 X44.833 Y51.973
M205 X12 Y12
G1 F2520 X63.165 Y70.306 E460.52978
M205 X11 Y11
G0 F8100 X63.165 Y70.955
M205 X12 Y12
G1 F2520 X44.833 Y52.622 E462.25942
M205 X11 Y11
G0 F8100 X44.833 Y53.272
M205 X12 Y12
G1 F2520 X63.165 Y71.604 E463.98901
M205 X11 Y11
G0 F8100 X63.165 Y72.253
M205 X12 Y12
G1 F2520 X44.833 Y53.921 E465.7186
M205 X11 Y11
G0 F8100 X44.833 Y54.57
M205 X12 Y12
G1 F2520 X63.165 Y72.902 E467.44819
M205 X11 Y11
G0 F8100 X63.165 Y73.551
M205 X12 Y12
G1 F2520 X44.833 Y55.219 E469.17777
M205 X11 Y11
G0 F8100 X44.833 Y55.868
M205 X12 Y12
G1 F2520 X63.165 Y74.2 E470.90736
M205 X11 Y11
G0 F8100 X63.165 Y74.85
M205 X12 Y12
G1 F2520 X44.833 Y56.517 E472.637
M205 X11 Y11
G0 F8100 X44.833 Y57.166
M205 X12 Y12
G1 F2520 X63.165 Y75.499 E474.36664
M205 X11 Y11
G0 F8100 X63.165 Y76.148
M205 X12 Y12
G1 F2520 X44.833 Y57.815 E476.09627
M205 X11 Y11
G0 F8100 X44.833 Y58.465
M205 X12 Y12
G1 F2520 X63.165 Y76.797 E477.82586
M205 X11 Y11
G0 F8100 X63.165 Y77.446
M205 X12 Y12
G1 F2520 X44.833 Y59.114 E479.55545
M205 X11 Y11
G0 F8100 X44.833 Y59.763
M205 X12 Y12
G1 F2520 X63.165 Y78.095 E481.28504
M205 X11 Y11
G0 F8100 X63.165 Y78.744
M205 X12 Y12
G1 F2520 X44.833 Y60.412 E483.01463
M205 X11 Y11
G0 F8100 X44.833 Y61.061
M205 X12 Y12
G1 F2520 X63.165 Y79.393 E484.74422
M205 X11 Y11
G0 F8100 X63.165 Y80.043
M205 X12 Y12
G1 F2520 X44.833 Y61.71 E486.47386
M205 X11 Y11
G0 F8100 X44.833 Y62.359
M205 X12 Y12
G1 F2520 X63.165 Y80.692 E488.20349
M205 X11 Y11
G0 F8100 X63.165 Y81.341
M205 X12 Y12
G1 F2520 X44.833 Y63.008 E489.93313
M205 X11 Y11
G0 F8100 X44.833 Y63.657
M205 X12 Y12
G1 F2520 X63.165 Y81.99 E491.66276
M205 X11 Y11
G0 F8100 X63.165 Y82.639
M205 X12 Y12
G1 F2520 X44.833 Y64.307 E493.39235
M205 X11 Y11
G0 F8100 X44.833 Y64.956
M205 X12 Y12
G1 F2520 X63.165 Y83.288 E495.12194
M205 X11 Y11
G0 F8100 X63.165 Y83.937
M205 X12 Y12
G1 F2520 X44.833 Y65.605 E496.85153
M205 X11 Y11
G0 F8100 X44.833 Y66.254
M205 X12 Y12
G1 F2520 X63.165 Y84.586 E498.58112
M205 X11 Y11
G0 F8100 X63.165 Y85.236
M205 X12 Y12
G1 F2520 X44.833 Y66.903 E500.31076
M205 X11 Y11
G0 F8100 X44.833 Y67.552
M205 X12 Y12
G1 F2520 X63.165 Y85.885 E502.04039
M205 X11 Y11
G0 F8100 X63.165 Y86.534
M205 X12 Y12
G1 F2520 X44.833 Y68.201 E503.77003
M205 X11 Y11
G0 F8100 X44.833 Y68.85
M205 X12 Y12
G1 F2520 X63.165 Y87.183 E505.49967
M205 X11 Y11
G0 F8100 X63.165 Y87.832
M205 X12 Y12
G1 F2520 X44.833 Y69.5 E507.22926
M205 X11 Y11
G0 F8100 X44.833 Y70.149
M205 X12 Y12
G1 F2520 X63.165 Y88.481 E508.95885
M205 X11 Y11
G0 F8100 X63.165 Y89.13
M205 X12 Y12
G1 F2520 X44.833 Y70.798 E510.68844
M205 X11 Y11
G0 F8100 X44.833 Y71.447
M205 X12 Y12
G1 F2520 X63.165 Y89.779 E512.41802
M205 X11 Y11
G0 F8100 X63.165 Y90.429
M205 X12 Y12
G1 F2520 X44.833 Y72.096 E514.14766
M205 X11 Y11
G0 F8100 X44.833 Y72.745
M205 X12 Y12
G1 F2520 X63.165 Y91.078 E515.8773
M205 X11 Y11
G0 F8100 X63.165 Y91.727
M205 X12 Y12
G1 F2520 X44.833 Y73.394 E517.60693
M205 X11 Y11
G0 F8100 X44.833 Y74.043
M205 X12 Y12
G1 F2520 X63.165 Y92.376 E519.33657
M205 X11 Y11
G0 F8100 X63.165 Y93.025
M205 X12 Y12
G1 F2520 X44.833 Y74.693 E521.06616
M205 X11 Y11
G0 F8100 X44.833 Y75.342
M205 X12 Y12
G1 F2520 X63.165 Y93.674 E522.79575
M205 X11 Y11
G0 F8100 X63.165 Y94.323
M205 X12 Y12
G1 F2520 X44.833 Y75.991 E524.52534
M205 X11 Y11
G0 F8100 X44.833 Y76.64
M205 X12 Y12
G1 F2520 X63.165 Y94.972 E526.25493
M205 X11 Y11
G0 F8100 X63.165 Y95.622
M205 X12 Y12
G1 F2520 X44.833 Y77.289 E527.98456
M205 X11 Y11
G0 F8100 X44.833 Y77.938
M205 X12 Y12
G1 F2520 X63.165 Y96.271 E529.7142
M205 X11 Y11
G0 F8100 X63.165 Y96.92
M205 X12 Y12
G1 F2520 X44.833 Y78.587 E531.44384
M205 X11 Y11
G0 F8100 X44.833 Y79.236
M205 X12 Y12
G1 F2520 X63.165 Y97.569 E533.17347
M205 X11 Y11
G0 F8100 X63.165 Y98.218
M205 X12 Y12
G1 F2520 X44.833 Y79.886 E534.90306
M205 X11 Y11
G0 F8100 X44.833 Y80.535
M205 X12 Y12
G1 F2520 X63.165 Y98.867 E536.63265
M205 X11 Y11
G0 F8100 X63.165 Y99.516
M205 X12 Y12
G1 F2520 X44.833 Y81.184 E538.36224
M205 X11 Y11
G0 F8100 X44.833 Y81.833
M205 X12 Y12
G1 F2520 X63.165 Y100.165 E540.09183
M205 X11 Y11
G0 F8100 X63.165 Y100.815
M205 X12 Y12
G1 F2520 X44.833 Y82.482 E541.82147
M205 X11 Y11
G0 F8100 X44.833 Y83.131
M205 X12 Y12
G1 F2520 X63.165 Y101.464 E543.5511
M205 X11 Y11
G0 F8100 X63.165 Y102.113
M205 X12 Y12
G1 F2520 X44.833 Y83.78 E545.28074
M205 X11 Y11
G0 F8100 X44.833 Y84.429
M205 X12 Y12
G1 F2520 X63.165 Y102.762 E547.01038
M205 X11 Y11
G0 F8100 X63.165 Y103.411
M205 X12 Y12
G1 F2520 X44.833 Y85.079 E548.73996
M205 X11 Y11
G0 F8100 X44.833 Y85.728
M205 X12 Y12
G1 F2520 X63.165 Y104.06 E550.46955
M205 X11 Y11
G0 F8100 X63.165 Y104.709
M205 X12 Y12
G1 F2520 X44.833 Y86.377 E552.19914
M205 X11 Y11
G0 F8100 X44.833 Y87.026
M205 X12 Y12
G1 F2520 X63.165 Y105.358 E553.92873
M205 X11 Y11
G0 F8100 X63.165 Y106.008
M205 X12 Y12
G1 F2520 X44.833 Y87.675 E555.65837
M205 X11 Y11
G0 F8100 X44.833 Y88.324
M205 X12 Y12
G1 F2520 X63.165 Y106.657 E557.38801
M205 X11 Y11
G0 F8100 X63.165 Y107.306
M205 X12 Y12
G1 F2520 X44.833 Y88.973 E559.11764
M205 X11 Y11
G0 F8100 X44.833 Y89.622
M205 X12 Y12
G1 F2520 X63.165 Y107.955 E560.84728
M205 X11 Y11
G0 F8100 X63.165 Y108.604
M205 X12 Y12
