;FLAVOR:Marlin
M117 Time Left 6h25m56s
;TIME:23156
;Filament used: 54.4584m
;Layer height: 0.32
;MINX:9.347
;MINY:37.335
;MINZ:0.32
;MAXX:225.653
;MAXY:197.653
;MAXZ:38.08
;POSTPROCESSED
;Generated with Cura_SteamEngine 5.2.1
M140 S60
M105
M190 S60
M104 S215
M105
M109 S215
M82 ;absolute extrusion mode
; Ender 3 Custom Start G-code
G92 E0 ; Reset Extruder
G28 ; Home all axes
G1 Z2.0 F3000 ; Move Z Axis up little to prevent scratching of Heat Bed
G1 X0.1 Y20 Z0.3 F5000.0 ; Move to start position
G1 X0.1 Y200.0 Z0.3 F1500.0 E15 ; Draw the first line
G1 X0.4 Y200.0 Z0.3 F5000.0 ; Move to side a little
G1 X0.4 Y20 Z0.3 F1500.0 E30 ; Draw the second line
G92 E0 ; Reset Extruder
G1 Z2.0 F3000 ; Move Z Axis up little to prevent scratching of Heat Bed
G1 X5 Y20 Z0.3 F5000.0 ; Move over to prevent blob squish
G92 E0
G92 E0
G1 F2700 E-5
;LAYER_COUNT:119
;LAYER:0
M106 S127.5
M204 S500
M205 X11 Y11
;MESH:Fillet002 (Meshed).stl
G0 F8100 X164.667 Y96.882 Z0.32
M205 X12 Y12
;TYPE:WALL-INNER
G1 F2700 E0
G1 F2520 X164.967 Y96.827 E0.03161
G1 X220.144 Y96.827 E5.74973
G1 X220.525 Y96.963 E5.79165
G1 X220.731 Y97.084 E5.81641
G1 X220.923 Y97.274 E5.8444
G1 X221.097 Y97.588 E5.8816
G1 X221.173 Y98.001 E5.92512
G1 X221.173 Y169.827 E13.36861
G1 X223.827 Y169.827 E13.64365
G1 X223.827 Y68 E24.19622
G1 X223.827 Y39.173 E27.18362
G1 X133.569 Y39.174 E36.53726
G1 F2574.2 X133 Y39.158 E36.59501
G1 F2630.7 X125.001 Y39.158 E37.38909
G1 F2574.2 X123.754 Y39.173 E37.51561
G1 F2520 X103.569 Y39.174 E39.60742
G1 F2574.2 X103 Y39.158 E39.66517
G1 F2630.7 X95.001 Y39.158 E40.45925
G1 F2574.2 X93.754 Y39.173 E40.58577
G1 F2520 X73.569 Y39.174 E42.67759
G1 F2574.2 X73 Y39.158 E42.73534
G1 F2630.7 X65.001 Y39.158 E43.52941
G1 F2574.2 X63.754 Y39.173 E43.65593
G1 F2520 X43.569 Y39.174 E45.74775
G1 F2574.2 X43 Y39.158 E45.8055
G1 F2630.7 X35.001 Y39.158 E46.59957
G1 F2574.2 X33.754 Y39.173 E46.72609
G1 F2520 X11.173 Y39.173 E49.06621
G1 X11.173 Y195.827 E65.30062
G1 X32.827 Y195.827 E67.54467
G1 X32.829 Y170.929 E70.12491
G1 X32.869 Y170.695 E70.14951
G1 X33.001 Y170.398 E70.18319
G1 X33.207 Y170.135 E70.21781
G1 X33.533 Y169.933 E70.25756
G1 X33.827 Y169.859 E70.28898
G1 X33.827 Y41 E83.64293
G1 X33.924 Y40.532 E83.69246
G1 X34.171 Y40.169 E83.73796
G1 F2534.2 X34.534 Y39.936 E83.78241
G1 F2577.8 X34.856 Y39.842 E83.81639
G1 F2623 X43 Y39.842 E84.62723
G1 F2574.2 X43.472 Y39.923 E84.67581
G1 F2520 X43.876 Y40.219 E84.72772
G1 X44.096 Y40.581 E84.77162
G1 X44.173 Y41.001 E84.81587
G1 X44.173 Y169.827 E98.1664
G1 X63.827 Y169.827 E100.20318
G1 X63.827 Y41 E113.55382
G1 X63.924 Y40.532 E113.60335
G1 X64.171 Y40.169 E113.64885
G1 F2534.2 X64.534 Y39.936 E113.6933
G1 F2577.8 X64.856 Y39.842 E113.72728
G1 F2623 X73 Y39.842 E114.53812
G1 F2574.2 X73.472 Y39.923 E114.58671
G1 F2520 X73.876 Y40.219 E114.63861
G1 X74.096 Y40.581 E114.68251
G1 X74.173 Y41.001 E114.72676
G1 X74.173 Y169.827 E128.07729
G1 X93.827 Y169.827 E130.11408
G1 X93.827 Y41 E143.46471
G1 X93.924 Y40.532 E143.51424
G1 X94.171 Y40.169 E143.55974
G1 F2534.2 X94.534 Y39.936 E143.60419
G1 F2577.8 X94.856 Y39.842 E143.63817
G1 F2623 X103 Y39.842 E144.44901
G1 F2574.2 X103.472 Y39.923 E144.4976
G1 F2520 X103.876 Y40.219 E144.5495
G1 X104.096 Y40.581 E144.5934
G1 X104.173 Y41.001 E144.63765
G1 X104.173 Y169.827 E157.98818
G1 X123.827 Y169.827 E160.02497
G1 X123.827 Y41 E173.3756
G1 X123.924 Y40.532 E173.42513
G1 X124.171 Y40.169 E173.47063
G1 F2534.2 X124.534 Y39.936 E173.51508
G1 F2577.8 X124.856 Y39.842 E173.54907
G1 F2623 X133 Y39.842 E174.3599
G1 F2574.2 X133.472 Y39.923 E174.40849
G1 F2520 X133.876 Y40.219 E174.46039
G1 X134.096 Y40.581 E174.50429
G1 X134.173 Y41.001 E174.54854
G1 X134.173 Y169.827 E187.89907
G1 X163.827 Y169.827 E190.97218
G1 X163.828 Y97.946 E198.42137
G1 X163.868 Y97.689 E198.44833
G1 X164.03 Y97.347 E198.48754
G1 X164.288 Y97.049 E198.52839
G1 X164.667 Y96.882 E198.57131
M205 X11 Y11
G1 F2700 E193.57131
G0 F8100 X163.556 Y97.652
G0 X163.499 Y169.499
G0 X134.501 Y169.499
G0 X134.079 Y40.827
G0 X133.836 Y40.207
G0 X133.196 Y39.921
G0 X124.393 Y39.483
G0 X42.961 Y39.496
G0 X34.827 Y39.921
G0 X34.269 Y40.139
G0 X34.043 Y40.38
G1 F2700 E198.57131
G0 F8100 X34.662 Y40.654
M205 X12 Y12
;TYPE:WALL-OUTER
G1 F2520 X34.943 Y40.521 E198.60145
G1 X43 Y40.517 E199.38255
G1 X43.246 Y40.594 E199.40754
G1 X43.36 Y40.677 E199.42121
G1 X43.483 Y40.924 E199.44796
G1 X43.483 Y170.517 E212.01152
G1 X64.517 Y170.517 E214.05069
G1 X64.517 Y41 E226.60689
G1 X64.545 Y40.865 E226.62025
G1 X64.662 Y40.654 E226.64364
G1 X64.943 Y40.521 E226.67378
G1 X73 Y40.517 E227.45488
G1 X73.246 Y40.594 E227.47987
G1 X73.36 Y40.677 E227.49354
G1 X73.483 Y40.924 E227.52029
G1 X73.483 Y170.517 E240.08385
G1 X94.517 Y170.517 E242.12302
G1 X94.517 Y41 E254.67922
G1 X94.545 Y40.865 E254.69258
G1 X94.662 Y40.654 E254.71597
G1 X94.943 Y40.521 E254.74611
G1 X103 Y40.517 E255.52721
G1 X103.246 Y40.594 E255.5522
G1 X103.36 Y40.677 E255.56587
G1 X103.483 Y40.924 E255.59262
G1 X103.483 Y170.517 E268.15618
G1 X124.517 Y170.517 E270.19535
G1 X124.517 Y41 E282.75155
G1 X124.545 Y40.865 E282.76491
G1 X124.662 Y40.654 E282.7883
G1 X124.943 Y40.521 E282.81844
G1 X133 Y40.517 E283.59954
G1 X133.246 Y40.594 E283.62453
G1 X133.36 Y40.677 E283.6382
G1 X133.483 Y40.924 E283.66495
G1 X133.483 Y170.517 E296.22851
G1 X164.517 Y170.517 E299.23714
G1 X164.518 Y97.964 E306.27089
G1 X164.624 Y97.699 E306.29856
G1 X164.693 Y97.626 E306.3083
G1 X164.937 Y97.517 E306.33421
G1 X220.063 Y97.522 E311.67847
G1 X220.362 Y97.655 E311.71019
G1 X220.483 Y98.001 E311.74573
G1 X220.483 Y170.517 E318.77589
G1 X224.517 Y170.517 E319.16697
G1 X224.517 Y68 E329.10561
G1 X224.517 Y38.483 E331.96718
G1 X10.483 Y38.483 E352.71698
G1 X10.483 Y196.517 E368.0378
G1 X33.517 Y196.517 E370.27086
G1 X33.517 Y170.977 E372.74687
G1 X33.629 Y170.665 E372.779
G1 X33.924 Y170.517 E372.811
G1 X34.517 Y170.517 E372.86849
G1 X34.517 Y41 E385.42469
G1 X34.545 Y40.865 E385.43805
G1 X34.662 Y40.654 E385.46144
M205 X11 Y11
G0 F8100 X34.843 Y40.569
G0 X34.601 Y39.943
G0 X34.371 Y39.748
G0 X34.278 Y39.6
M205 X12 Y12
;TYPE:SKIN
G1 F2520 X33.752 Y39.606 E385.49654
G1 X11.605 Y39.605 E386.97405
G1 X11.605 Y195.395 E397.36746
G1 X32.394 Y195.395 E398.75438
G1 X32.403 Y170.773 E400.39701
G1 X32.517 Y170.409 E400.42246
G1 X32.701 Y170.064 E400.44855
G1 X32.914 Y169.813 E400.47051
G1 X33.395 Y169.522 E400.50801
G1 X33.399 Y40.972 E409.08412
G1 X33.525 Y40.36 E409.12581
G1 X33.87 Y39.858 E409.16644
G1 X34.278 Y39.6 E409.19865
M205 X11 Y11
G0 F8100 X33.499 Y39.99
M205 X12 Y12
G1 F2520 X33.342 Y39.834 E409.21341
M205 X11 Y11
G0 F8100 X33.279 Y40.419
M205 X12 Y12
G1 F2520 X32.693 Y39.834 E409.26865
M205 X11 Y11
G0 F8100 X32.044 Y39.834
M205 X12 Y12
G1 F2520 X33.168 Y40.958 E409.3747
M205 X11 Y11
G0 F8100 X33.166 Y41.604
M205 X12 Y12
G1 F2520 X31.395 Y39.834 E409.54174
M205 X11 Y11
G0 F8100 X30.746 Y39.834
M205 X12 Y12
G1 F2520 X33.166 Y42.253 E409.77002
M205 X11 Y11
G0 F8100 X33.166 Y42.902
M205 X12 Y12
G1 F2520 X30.097 Y39.834 E410.05953
M205 X11 Y11
G0 F8100 X29.448 Y39.834
M205 X12 Y12
G1 F2520 X33.166 Y43.552 E410.41031
M205 X11 Y11
G0 F8100 X33.166 Y44.201
M205 X12 Y12
G1 F2520 X28.799 Y39.834 E410.82233
M205 X11 Y11
G0 F8100 X28.149 Y39.834
M205 X12 Y12
G1 F2520 X33.166 Y44.85 E411.29563
M205 X11 Y11
G0 F8100 X33.166 Y45.499
M205 X12 Y12
G1 F2520 X27.5 Y39.834 E411.83016
M205 X11 Y11
G0 F8100 X26.851 Y39.834
M205 X12 Y12
G1 F2520 X33.166 Y46.148 E412.42592
M205 X11 Y11
G0 F8100 X33.166 Y46.797
M205 X12 Y12
G1 F2520 X26.202 Y39.834 E413.08291
M205 X11 Y11
G0 F8100 X25.553 Y39.834
M205 X12 Y12
G1 F2520 X33.166 Y47.446 E413.80114
M205 X11 Y11
G0 F8100 X33.166 Y48.095
M205 X12 Y12
G1 F2520 X24.904 Y39.834 E414.58059
M205 X11 Y11
G0 F8100 X24.255 Y39.834
M205 X12 Y12
G1 F2520 X33.166 Y48.745 E415.42133
M205 X11 Y11
G0 F8100 X33.166 Y49.394
M205 X12 Y12
G1 F2520 X23.606 Y39.834 E416.3233
M205 X11 Y11
G0 F8100 X22.956 Y39.834
M205 X12 Y12
G1 F2520 X33.166 Y50.043 E417.28654
M205 X11 Y11
G0 F8100 X33.166 Y50.692
M205 X12 Y12
G1 F2520 X22.307 Y39.833 E418.31107
M205 X11 Y11
G0 F8100 X21.657 Y39.833
M205 X12 Y12
G1 F2520 X33.166 Y51.341 E419.39687
M205 X11 Y11
G0 F8100 X33.166 Y51.99
M205 X12 Y12
G1 F2520 X21.008 Y39.833 E420.54391
M205 X11 Y11
G0 F8100 X20.359 Y39.833
M205 X12 Y12
G1 F2520 X33.166 Y52.639 E421.75218
M205 X11 Y11
G0 F8100 X33.166 Y53.288
M205 X12 Y12
G1 F2520 X19.71 Y39.833 E423.02168
M205 X11 Y11
G0 F8100 X19.061 Y39.833
M205 X12 Y12
G1 F2520 X33.166 Y53.938 E424.35246
M205 X11 Y11
G0 F8100 X33.166 Y54.587
M205 X12 Y12
G1 F2520 X18.412 Y39.833 E425.74447
M205 X11 Y11
G0 F8100 X17.763 Y39.833
M205 X12 Y12
G1 F2520 X33.166 Y55.236 E427.19772
M205 X11 Y11
G0 F8100 X33.166 Y55.885
M205 X12 Y12
G1 F2520 X17.114 Y39.833 E428.71219
M205 X11 Y11
G0 F8100 X16.464 Y39.833
M205 X12 Y12
G1 F2520 X33.166 Y56.534 E430.28795
M205 X11 Y11
G0 F8100 X33.166 Y57.183
M205 X12 Y12
G1 F2520 X15.815 Y39.833 E431.92493
M205 X11 Y11
G0 F8100 X15.166 Y39.833
M205 X12 Y12
G1 F2520 X33.166 Y57.832 E433.62315
M205 X11 Y11
G0 F8100 X33.166 Y58.481
M205 X12 Y12
G1 F2520 X14.517 Y39.833 E435.3826
M205 X11 Y11
G0 F8100 X13.868 Y39.833
M205 X12 Y12
G1 F2520 X33.166 Y59.131 E437.20333
M205 X11 Y11
G0 F8100 X33.166 Y59.78
M205 X12 Y12
G1 F2520 X13.219 Y39.833 E439.08529
M205 X11 Y11
G0 F8100 X12.57 Y39.833
M205 X12 Y12
G1 F2520 X33.166 Y60.429 E441.02849
M205 X11 Y11
G0 F8100 X33.166 Y61.078
M205 X12 Y12
G1 F2520 X11.921 Y39.833 E443.03291
M205 X11 Y11
G0 F8100 X11.834 Y40.395
M205 X12 Y12
G1 F2520 X33.166 Y61.727 E445.04555
M205 X11 Y11
G0 F8100 X33.166 Y62.376
M205 X12 Y12
G1 F2520 X11.834 Y41.044 E447.05818
M205 X11 Y11
G0 F8100 X11.834 Y41.693
M205 X12 Y12
G1 F2520 X33.166 Y63.025 E449.07081
M205 X11 Y11
G0 F8100 X33.166 Y63.674
M205 X12 Y12
G1 F2520 X11.834 Y42.342 E451.08345
M205 X11 Y11
G0 F8100 X11.834 Y42.992
M205 X12 Y12
G1 F2520 X33.166 Y64.324 E453.09608
M205 X11 Y11
G0 F8100 X33.166 Y64.973
M205 X12 Y12
G1 F2520 X11.834 Y43.641 E455.10871
M205 X11 Y11
G0 F8100 X11.834 Y44.29
M205 X12 Y12
G1 F2520 X33.166 Y65.622 E457.12135
M205 X11 Y11
G0 F8100 X33.166 Y66.271
M205 X12 Y12
G1 F2520 X11.834 Y44.939 E459.13398
M205 X11 Y11
G0 F8100 X11.834 Y45.588
M205 X12 Y12
G1 F2520 X33.166 Y66.92 E461.14661
M205 X11 Y11
G0 F8100 X33.166 Y67.569
M205 X12 Y12
G1 F2520 X11.834 Y46.237 E463.15925
M205 X11 Y11
G0 F8100 X11.834 Y46.886
M205 X12 Y12
G1 F2520 X33.166 Y68.218 E465.17188
M205 X11 Y11
G0 F8100 X33.166 Y68.867
M205 X12 Y12
G1 F2520 X11.834 Y47.535 E467.18451
M205 X11 Y11
G0 F8100 X11.834 Y48.185
M205 X12 Y12
G1 F2520 X33.166 Y69.517 E469.19715
M205 X11 Y11
G0 F8100 X33.166 Y70.166
M205 X12 Y12
G1 F2520 X11.834 Y48.834 E471.20978
M205 X11 Y11
G0 F8100 X11.834 Y49.483
M205 X12 Y12
G1 F2520 X33.166 Y70.815 E473.22242
M205 X11 Y11
G0 F8100 X33.166 Y71.464
M205 X12 Y12
G1 F2520 X11.834 Y50.132 E475.23505
M205 X11 Y11
G0 F8100 X11.834 Y50.781
M205 X12 Y12
G1 F2520 X33.166 Y72.113 E477.24768
M205 X11 Y11
G0 F8100 X33.166 Y72.762
M205 X12 Y12
G1 F2520 X11.834 Y51.43 E479.26032
M205 X11 Y11
G0 F8100 X11.834 Y52.079
M205 X12 Y12
G1 F2520 X33.166 Y73.411 E481.27295
M205 X11 Y11
G0 F8100 X33.166 Y74.06
M205 X12 Y12
G1 F2520 X11.834 Y52.728 E483.28558
M205 X11 Y11
G0 F8100 X11.834 Y53.378
M205 X12 Y12
G1 F2520 X33.166 Y74.71 E485.29822
M205 X11 Y11
G0 F8100 X33.166 Y75.359
M205 X12 Y12
G1 F2520 X11.834 Y54.027 E487.31085
M205 X11 Y11
G0 F8100 X11.834 Y54.676
M205 X12 Y12
G1 F2520 X33.166 Y76.008 E489.32348
M205 X11 Y11
G0 F8100 X33.166 Y76.657
M205 X12 Y12
G1 F2520 X11.834 Y55.325 E491.33612
M205 X11 Y11
G0 F8100 X11.834 Y55.974
M205 X12 Y12
G1 F2520 X33.166 Y77.306 E493.34875
M205 X11 Y11
G0 F8100 X33.166 Y77.955
M205 X12 Y12
G1 F2520 X11.834 Y56.623 E495.36138
M205 X11 Y11
G0 F8100 X11.834 Y57.272
M205 X12 Y12
G1 F2520 X33.166 Y78.604 E497.37402
M205 X11 Y11
G0 F8100 X33.166 Y79.253
M205 X12 Y12
G1 F2520 X11.834 Y57.921 E499.38665
M205 X11 Y11
G0 F8100 X11.834 Y58.571
M205 X12 Y12
G1 F2520 X33.166 Y79.903 E501.39928
M205 X11 Y11
G0 F8100 X33.166 Y80.552
M205 X12 Y12
G1 F2520 X11.834 Y59.22 E503.41192
M205 X11 Y11
G0 F8100 X11.834 Y59.869
M205 X12 Y12
G1 F2520 X33.166 Y81.201 E505.42455
M205 X11 Y11
G0 F8100 X33.166 Y81.85
M205 X12 Y12
G1 F2520 X11.834 Y60.518 E507.43719
M205 X11 Y11
G0 F8100 X11.834 Y61.167
M205 X12 Y12
G1 F2520 X33.166 Y82.499 E509.44982
M205 X11 Y11
G0 F8100 X33.166 Y83.148
M205 X12 Y12
G1 F2520 X11.834 Y61.816 E511.46245
M205 X11 Y11
G0 F8100 X11.834 Y62.465
M205 X12 Y12
G1 F2520 X33.166 Y83.797 E513.47509
M205 X11 Y11
G0 F8100 X33.166 Y84.446
M205 X12 Y12
G1 F2520 X11.834 Y63.114 E515.48772
M205 X11 Y11
G0 F8100 X11.834 Y63.764
M205 X12 Y12
G1 F2520 X33.166 Y85.096 E517.50035
M205 X11 Y11
G0 F8100 X33.166 Y85.745
M205 X12 Y12
G1 F2520 X11.834 Y64.413 E519.51299
M205 X11 Y11
G0 F8100 X11.834 Y65.062
M205 X12 Y12
G1 F2520 X33.166 Y86.394 E521.52562
M205 X11 Y11
G0 F8100 X33.166 Y87.043
M205 X12 Y12
G1 F2520 X11.834 Y65.711 E523.53825
M205 X11 Y11
G0 F8100 X11.834 Y66.36
M205 X12 Y12
G1 F2520 X33.166 Y87.692 E525.55089
M205 X11 Y11
G0 F8100 X33.166 Y88.341
M205 X12 Y12
G1 F2520 X11.834 Y67.009 E527.56352
M205 X11 Y11
G0 F8100 X11.834 Y67.658
M205 X12 Y12
G1 F2520 X33.166 Y88.99 E529.57615
M205 X11 Y11
G0 F8100 X33.166 Y89.639
M205 X12 Y12
G1 F2520 X11.834 Y68.307 E531.58879
M205 X11 Y11
G0 F8100 X11.834 Y68.957
M205 X12 Y12
G1 F2520 X33.166 Y90.289 E533.60142
M205 X11 Y11
G0 F8100 X33.166 Y90.938
M205 X12 Y12
G1 F2520 X11.834 Y69.606 E535.61405
M205 X11 Y11
G0 F8100 X11.834 Y70.255
M205 X12 Y12
G1 F2520 X33.166 Y91.587 E537.62669
M205 X11 Y11
G0 F8100 X33.166 Y92.236
M205 X12 Y12
G1 F2520 X11.834 Y70.904 E539.63932
M205 X11 Y11
G0 F8100 X11.834 Y71.553
M205 X12 Y12
G1 F2520 X33.166 Y92.885 E541.65196
M205 X11 Y11
G0 F8100 X33.166 Y93.534
M205 X12 Y12
G1 F2520 X11.834 Y72.202 E543.66459
M205 X11 Y11
G0 F8100 X11.834 Y72.851
M205 X12 Y12
G1 F2520 X33.166 Y94.183 E545.67722
M205 X11 Y11
G0 F8100 X33.166 Y94.832
M205 X12 Y12
G1 F2520 X11.834 Y73.5 E547.68986
M205 X11 Y11
G0 F8100 X11.834 Y74.15
M205 X12 Y12
G1 F2520 X33.166 Y95.482 E549.70249
M205 X11 Y11
G0 F8100 X33.166 Y96.131
M205 X12 Y12
G1 F2520 X11.834 Y74.799 E551.71512
M205 X11 Y11
G0 F8100 X11.834 Y75.448
M205 X12 Y12
G1 F2520 X33.166 Y96.78 E553.72776
M205 X11 Y11
G0 F8100 X33.166 Y97.429
M205 X12 Y12
G1 F2520 X11.834 Y76.097 E555.74039
M205 X11 Y11
G0 F8100 X11.834 Y76.746
M205 X12 Y12
G1 F2520 X33.166 Y98.078 E557.75302
M205 X11 Y11
G0 F8100 X33.166 Y98.727
M205 X12 Y12
G1 F2520 X11.834 Y77.395 E559.76566
M205 X11 Y11
G0 F8100 X11.834 Y78.044
M205 X12 Y12
G1 F2520 X33.166 Y99.376 E561.77829
M205 X11 Y11
G0 F8100 X33.166 Y100.025
M205 X12 Y12
G1 F2520 X11.834 Y78.693 E563.79092
M205 X11 Y11
G0 F8100 X11.834 Y79.343
M205 X12 Y12
G1 F2520 X33.166 Y100.675 E565.80356
M205 X11 Y11
G0 F8100 X33.166 Y101.324
M205 X12 Y12
G1 F2520 X11.834 Y79.992 E567.81619
M205 X11 Y11
G0 F8100 X11.834 Y80.641
M205 X12 Y12
G1 F2520 X33.166 Y101.973 E569.82882
M205 X11 Y11
G0 F8100 X33.166 Y102.622
M205 X12 Y12
G1 F2520 X11.834 Y81.29 E571.84146
M205 X11 Y11
G0 F8100 X11.834 Y81.939
M205 X12 Y12
G1 F2520 X33.166 Y103.271 E573.85409
M205 X11 Y11
G0 F8100 X33.166 Y103.92
M205 X12 Y12
G1 F2520 X11.834 Y82.588 E575.86673
M205 X11 Y11
G0 F8100 X11.834 Y83.237
M205 X12 Y12
G1 F2520 X33.166 Y104.569 E577.87936
M205 X11 Y11
G0 F8100 X33.166 Y105.218
M205 X12 Y12
G1 F2520 X11.834 Y83.886 E579.89199
M205 X11 Y11
G0 F8100 X11.834 Y84.536
M205 X12 Y12
G1 F2520 X33.166 Y105.868 E581.90463
M205 X11 Y11
G0 F8100 X33.166 Y106.517
M205 X12 Y12
G1 F2520 X11.834 Y85.185 E583.91726
M205 X11 Y11
G0 F8100 X11.834 Y85.834
M205 X12 Y12
G1 F2520 X33.166 Y107.166 E585.92989
M205 X11 Y11
G0 F8100 X33.166 Y107.815
M205 X12 Y12
G1 F2520 X11.834 Y86.483 E587.94253
M205 X11 Y11
G0 F8100 X11.834 Y87.132
M205 X12 Y12
G1 F2520 X33.166 Y108.464 E589.95516
M205 X11 Y11
G0 F8100 X33.166 Y109.113
M205 X12 Y12
G1 F2520 X11.834 Y87.781 E591.96779
M205 X11 Y11
G0 F8100 X11.834 Y88.43
M205 X12 Y12
G1 F2520 X33.166 Y109.762 E593.98043
M205 X11 Y11
G0 F8100 X33.166 Y110.411
M205 X12 Y12
