;FLAVOR:Marlin
M117 Time Left 0h17m44s
;TIME:1064
;Filament used: 0.538064m
;Layer height: 0.12
;MINX:98.573
;MINY:96.567
;MINZ:0.28
;MAXX:136.428
;MAXY:138.428
;MAXZ:7.96
;POSTPROCESSED
;Generated with Cura_SteamEngine 5.2.1
M140 S80
M105
M190 S80
M104 S225
M105
M109 S225
M82 ;absolute extrusion mode
; Ender 3 Custom Start G-code
G92 E0 ; Reset Extruder
G28 ; Home all axes
G1 Z2.0 F3000 ; Move Z Axis up little to prevent scratching of Heat Bed
G1 X0.1 Y20 Z0.3 F5000.0 ; Move to start position
G1 X0.1 Y200.0 Z0.3 F1500.0 E15 ; Draw the first line
G1 X0.4 Y200.0 Z0.3 F5000.0 ; Move to side a little
G1 X0.4 Y20 Z0.3 F1500.0 E30 ; Draw the second line
G92 E0 ; Reset Extruder
G1 Z2.0 F3000 ; Move Z Axis up little to prevent scratching of Heat Bed
G1 X5 Y20 Z0.3 F5000.0 ; Move over to prevent blob squish
G92 E0
G92 E0
G1 F3300 E-6
;LAYER_COUNT:65
;LAYER:0
M107
M204 S500
M205 X5 Y5
G0 F7500 X101.705 Y100.152 Z0.28
M205 X8 Y8
;TYPE:SKIRT
G1 F3300 E0
G1 F1500 X102.381 Y99.495 E0.04457
G1 X103.111 Y98.898 E0.08915
G1 X103.707 Y98.479 E0.12359
G1 X104.511 Y97.987 E0.16816
G1 X105.355 Y97.564 E0.21279
G1 X106.231 Y97.215 E0.25737
G1 X107.133 Y96.941 E0.30194
G1 X108.056 Y96.744 E0.34656
G1 X108.991 Y96.626 E0.39111
G1 X109.71 Y96.59 E0.42515
G1 X110.839 Y96.571 E0.47853
G1 X116.583 Y96.567 E0.75009
G1 X124.432 Y96.573 E1.12117
G1 X125.319 Y96.586 E1.16311
G1 X126.261 Y96.64 E1.20772
G1 X127.194 Y96.773 E1.25227
G1 X128.113 Y96.985 E1.29686
G1 X129.011 Y97.274 E1.34146
G1 X129.881 Y97.638 E1.38605
G1 X130.717 Y98.075 E1.43065
G1 X131.514 Y98.581 E1.47528
G1 X132.264 Y99.152 E1.51984
G1 X132.963 Y99.785 E1.56443
G1 X133.607 Y100.475 E1.60905
G1 X134.189 Y101.216 E1.6536
G1 X134.707 Y102.005 E1.69822
G1 X135.279 Y103.095 E1.75641
G1 X135.403 Y103.367 E1.77055
G1 X135.757 Y104.241 E1.81513
G1 X136.036 Y105.142 E1.85972
G1 X136.238 Y106.063 E1.9043
G1 X136.361 Y106.999 E1.94893
G1 X136.403 Y107.766 E1.98525
G1 X136.423 Y108.905 E2.0391
G1 X136.428 Y126.264 E2.85979
G1 X136.415 Y127.305 E2.90901
G1 X136.362 Y128.247 E2.95361
G1 X136.23 Y129.181 E2.99821
G1 X136.019 Y130.1 E3.04279
G1 X135.731 Y130.998 E3.08737
G1 X135.368 Y131.869 E3.13198
G1 X134.932 Y132.705 E3.17656
G1 X134.428 Y133.502 E3.22114
G1 X133.857 Y134.253 E3.26574
G1 X133.225 Y134.953 E3.31033
G1 X132.536 Y135.597 E3.35492
G1 X131.795 Y136.181 E3.39952
G1 X131.007 Y136.699 E3.4441
G1 X129.922 Y137.27 E3.50207
G1 X129.649 Y137.395 E3.51627
G1 X128.776 Y137.751 E3.56084
G1 X127.876 Y138.032 E3.60541
G1 X126.955 Y138.235 E3.65
G1 X126.02 Y138.36 E3.6946
G1 X125.227 Y138.403 E3.73214
G1 X124.063 Y138.423 E3.78718
G1 X110.7 Y138.428 E4.41895
G1 X109.884 Y138.418 E4.45753
G1 X108.943 Y138.365 E4.50209
G1 X108.009 Y138.233 E4.54668
G1 X107.089 Y138.022 E4.59131
G1 X106.388 Y137.804 E4.62601
G1 X106.146 Y137.72 E4.63813
G1 X105.269 Y137.373 E4.68272
G1 X104.424 Y136.953 E4.72733
G1 X103.618 Y136.463 E4.77192
G1 X102.857 Y135.907 E4.81648
G1 X102.145 Y135.288 E4.86108
G1 X101.488 Y134.611 E4.90568
G1 X100.891 Y133.881 E4.95027
G1 X100.479 Y133.294 E4.98417
G1 X99.986 Y132.49 E5.02876
G1 X99.564 Y131.646 E5.07337
G1 X99.214 Y130.77 E5.11797
G1 X98.94 Y129.868 E5.16254
G1 X98.743 Y128.945 E5.20716
G1 X98.625 Y128.01 E5.25171
G1 X98.588 Y127.267 E5.28688
G1 X98.573 Y126.335 E5.33095
G1 X98.574 Y108.539 E6.1723
G1 X98.584 Y107.861 E6.20435
G1 X98.638 Y106.919 E6.24896
G1 X98.772 Y105.986 E6.29352
G1 X98.984 Y105.067 E6.33811
G1 X99.236 Y104.254 E6.37835
G1 X99.621 Y103.277 E6.428
G1 X100.041 Y102.433 E6.47257
G1 X100.53 Y101.626 E6.51718
G1 X101.086 Y100.864 E6.56178
G1 X101.705 Y100.152 E6.60638
M205 X5 Y5
G0 F7500 X102.097 Y100.393
M205 X8 Y8
G1 F1500 X102.766 Y99.756 E6.65005
G1 X103.881 Y98.9 E6.71651
G1 X104.746 Y98.371 E6.76445
G1 X105.573 Y97.959 E6.80813
G1 X106.433 Y97.621 E6.85181
G1 X107.319 Y97.358 E6.89551
G1 X108.224 Y97.172 E6.93919
G1 X109.142 Y97.066 E6.98288
G1 X109.718 Y97.04 E7.01014
G1 X110.839 Y97.021 E7.06314
G1 X116.581 Y97.017 E7.33461
G1 X124.425 Y97.023 E7.70545
G1 X125.312 Y97.036 E7.74739
G1 X126.235 Y97.09 E7.7911
G1 X127.149 Y97.223 E7.83477
G1 X128.048 Y97.434 E7.87842
G1 X128.926 Y97.723 E7.92212
G1 X129.776 Y98.086 E7.96582
G1 X130.59 Y98.522 E8.00948
G1 X131.364 Y99.026 E8.05314
G1 X132.092 Y99.595 E8.09683
G1 X132.768 Y100.226 E8.14055
G1 X133.386 Y100.912 E8.1842
G1 X133.943 Y101.649 E8.22787
G1 X134.435 Y102.431 E8.27155
G1 X134.869 Y103.282 E8.31672
G1 X134.993 Y103.554 E8.33085
G1 X135.34 Y104.41 E8.37452
G1 X135.611 Y105.294 E8.41823
G1 X135.805 Y106.197 E8.46189
G1 X135.92 Y107.114 E8.50559
G1 X135.953 Y107.775 E8.53688
G1 X135.973 Y108.905 E8.59031
G1 X135.978 Y126.264 E9.41099
G1 X135.965 Y127.299 E9.45993
G1 X135.913 Y128.222 E9.50363
G1 X135.781 Y129.136 E9.54729
G1 X135.57 Y130.036 E9.591
G1 X135.282 Y130.914 E9.63468
G1 X134.92 Y131.764 E9.67836
G1 X134.485 Y132.579 E9.72204
G1 X133.982 Y133.354 E9.76572
G1 X133.413 Y134.082 E9.8094
G1 X132.784 Y134.758 E9.85306
G1 X132.099 Y135.378 E9.89674
G1 X131.362 Y135.935 E9.94041
G1 X130.58 Y136.428 E9.98412
G1 X129.735 Y136.861 E10.029
G1 X129.462 Y136.986 E10.0432
G1 X128.606 Y137.334 E10.08688
G1 X127.723 Y137.606 E10.13057
G1 X126.82 Y137.802 E10.17425
G1 X125.904 Y137.918 E10.2179
G1 X125.218 Y137.953 E10.25038
G1 X124.063 Y137.973 E10.30499
G1 X110.7 Y137.978 E10.93676
G1 X109.89 Y137.968 E10.97505
G1 X108.968 Y137.915 E11.01872
G1 X108.054 Y137.783 E11.06238
G1 X107.154 Y137.573 E11.10607
G1 X106.536 Y137.379 E11.13669
G1 X106.294 Y137.295 E11.1488
G1 X105.435 Y136.954 E11.1925
G1 X104.608 Y136.541 E11.2362
G1 X103.821 Y136.058 E11.27985
G1 X103.078 Y135.508 E11.32356
G1 X102.386 Y134.896 E11.36723
G1 X101.749 Y134.227 E11.41091
G1 X100.897 Y133.117 E11.47706
G1 X100.371 Y132.255 E11.5248
G1 X99.959 Y131.427 E11.56852
G1 X99.62 Y130.568 E11.61218
G1 X99.357 Y129.682 E11.65588
G1 X99.171 Y128.777 E11.69956
G1 X99.065 Y127.859 E11.74325
G1 X99.038 Y127.26 E11.77159
G1 X99.023 Y126.328 E11.81566
G1 X99.024 Y108.546 E12.65635
G1 X99.034 Y107.868 E12.6884
G1 X99.088 Y106.945 E12.73211
G1 X99.221 Y106.031 E12.77578
G1 X99.433 Y105.132 E12.81945
G1 X99.663 Y104.395 E12.85595
G1 X100.04 Y103.443 E12.90436
G1 X100.453 Y102.617 E12.94802
G1 X100.936 Y101.829 E12.99171
G1 X101.485 Y101.086 E13.03539
G1 X102.097 Y100.393 E13.0791
M205 X5 Y5
G0 F7500 X102.488 Y100.636
M205 X8 Y8
G1 F1500 X103.149 Y100.019 E13.12185
G1 X104.137 Y99.27 E13.18046
G1 X104.981 Y98.756 E13.22718
G1 X105.792 Y98.355 E13.26996
G1 X106.634 Y98.028 E13.31266
G1 X107.503 Y97.776 E13.35544
G1 X108.39 Y97.602 E13.39817
G1 X109.726 Y97.49 E13.46155
G1 X110.84 Y97.471 E13.51423
G1 X116.58 Y97.467 E13.7856
G1 X124.419 Y97.473 E14.15621
G1 X125.306 Y97.486 E14.19815
G1 X126.208 Y97.539 E14.24086
G1 X127.103 Y97.672 E14.28364
G1 X127.982 Y97.883 E14.32638
G1 X128.839 Y98.171 E14.36912
G1 X129.667 Y98.534 E14.41186
G1 X130.46 Y98.969 E14.45462
G1 X131.212 Y99.471 E14.49737
G1 X131.916 Y100.039 E14.54014
G1 X132.567 Y100.666 E14.58287
G1 X133.161 Y101.348 E14.62563
G1 X133.692 Y102.08 E14.66838
G1 X134.156 Y102.856 E14.71112
G1 X134.46 Y103.469 E14.74347
G1 X134.584 Y103.741 E14.75761
G1 X134.922 Y104.579 E14.80033
G1 X135.185 Y105.444 E14.84307
G1 X135.371 Y106.329 E14.88582
G1 X135.477 Y107.227 E14.92857
G1 X135.503 Y107.783 E14.95489
G1 X135.523 Y108.905 E15.00794
G1 X135.528 Y126.264 E15.82863
G1 X135.515 Y127.293 E15.87728
G1 X135.463 Y128.196 E15.92004
G1 X135.331 Y129.09 E15.96276
G1 X135.121 Y129.97 E16.00554
G1 X134.834 Y130.827 E16.04826
G1 X134.472 Y131.656 E16.09103
G1 X134.039 Y132.449 E16.13375
G1 X133.537 Y133.202 E16.17653
G1 X132.97 Y133.906 E16.21927
G1 X132.344 Y134.558 E16.262
G1 X131.662 Y135.153 E16.30479
G1 X130.931 Y135.684 E16.3475
G1 X130.155 Y136.149 E16.39027
G1 X129.548 Y136.452 E16.42235
G1 X129.275 Y136.577 E16.43654
G1 X128.437 Y136.917 E16.4793
G1 X127.572 Y137.181 E16.52206
G1 X126.687 Y137.368 E16.56482
G1 X125.79 Y137.476 E16.60753
G1 X125.21 Y137.503 E16.63498
G1 X124.063 Y137.523 E16.68922
G1 X110.7 Y137.528 E17.32098
G1 X109.897 Y137.518 E17.35895
G1 X108.994 Y137.466 E17.40171
G1 X108.099 Y137.334 E17.44448
G1 X107.22 Y137.124 E17.48721
G1 X106.441 Y136.87 E17.52595
G1 X105.601 Y136.536 E17.56868
G1 X104.793 Y136.129 E17.61146
G1 X104.025 Y135.652 E17.6542
G1 X103.302 Y135.109 E17.69695
G1 X102.629 Y134.505 E17.7397
G1 X102.013 Y133.843 E17.78245
G1 X101.269 Y132.863 E17.84062
G1 X100.755 Y132.02 E17.8873
G1 X100.354 Y131.209 E17.93007
G1 X100.027 Y130.366 E17.97282
G1 X99.775 Y129.498 E18.01555
G1 X99.601 Y128.611 E18.05829
G1 X99.506 Y127.711 E18.10107
G1 X99.488 Y127.253 E18.12274
G1 X99.473 Y126.321 E18.16681
G1 X99.474 Y108.552 E19.00688
G1 X99.484 Y107.874 E19.03894
G1 X99.537 Y106.972 E19.08165
G1 X99.67 Y106.077 E19.12443
G1 X99.882 Y105.198 E19.16718
G1 X100.126 Y104.449 E19.20442
G1 X100.459 Y103.609 E19.24714
G1 X100.866 Y102.801 E19.28991
G1 X101.342 Y102.033 E19.33263
G1 X101.884 Y101.309 E19.37539
G1 X102.488 Y100.636 E19.41814
M205 X5 Y5
G1 F3300 E13.41814
;MESH:externo.stl
G0 F7500 X109.147 Y107.556
G0 X110.137 Y108.136
G0 X110.577 Y126.422
G1 F3300 E19.41814
G0 F7500 X110.397 Y126.602
M205 X8 Y8
;TYPE:WALL-INNER
G1 F1500 X124.602 Y126.598 E20.16433
G1 X124.599 Y108.397 E21.12044
G1 X117.446 Y108.399 E21.49618
G1 X117.119 Y108.392 E21.51337
G1 X110.398 Y108.396 E21.86642
G1 X110.397 Y126.602 E22.82279
M205 X5 Y5
G0 F7500 X110.122 Y126.877
M205 X8 Y8
;TYPE:WALL-OUTER
G1 F1500 X124.877 Y126.873 E23.52036
G1 X124.874 Y108.122 E24.40686
G1 X117.452 Y108.124 E24.75775
G1 X117.123 Y108.117 E24.77331
G1 X110.123 Y108.121 E25.10425
G1 X110.122 Y126.877 E25.99098
M205 X5 Y5
G0 F7500 X110.322 Y126.877
G0 X110.659 Y126.339
M205 X8 Y8
;TYPE:SKIN
G1 F1500 X124.339 Y126.336 E26.35028
G1 X124.339 Y115.5 E26.63489
G1 X124.337 Y108.66 E26.81455
G1 X117.441 Y108.661 E26.99567
G1 X117.116 Y108.655 E27.00421
G1 X110.661 Y108.658 E27.17375
G1 X110.659 Y126.339 E27.63814
M205 X5 Y5
G0 F7500 X110.548 Y126.338
G0 X110.548 Y109
G0 X110.786 Y109
M205 X8 Y8
G1 F1500 X124.213 Y109 E27.9908
M205 X5 Y5
G0 F7500 X124.213 Y109.25
M205 X8 Y8
G1 F1500 X110.786 Y109.25 E28.34347
M205 X5 Y5
G0 F7500 X110.786 Y109.5
M205 X8 Y8
G1 F1500 X124.213 Y109.5 E28.69613
M205 X5 Y5
G0 F7500 X124.213 Y109.75
M205 X8 Y8
G1 F1500 X110.786 Y109.75 E29.04879
M205 X5 Y5
G0 F7500 X110.786 Y110
M205 X8 Y8
G1 F1500 X124.213 Y110 E29.40145
M205 X5 Y5
G0 F7500 X124.213 Y110.25
M205 X8 Y8
G1 F1500 X110.786 Y110.25 E29.75411
M205 X5 Y5
G0 F7500 X110.786 Y110.5
M205 X8 Y8
G1 F1500 X124.213 Y110.5 E30.10677
M205 X5 Y5
G0 F7500 X124.213 Y110.75
M205 X8 Y8
G1 F1500 X110.786 Y110.75 E30.45944
M205 X5 Y5
G0 F7500 X110.786 Y111
M205 X8 Y8
G1 F1500 X124.213 Y111 E30.8121
M205 X5 Y5
G0 F7500 X124.213 Y111.25
M205 X8 Y8
G1 F1500 X110.786 Y111.25 E31.16476
M205 X5 Y5
G0 F7500 X110.786 Y111.5
M205 X8 Y8
G1 F1500 X124.213 Y111.5 E31.51742
M205 X5 Y5
G0 F7500 X124.213 Y111.75
M205 X8 Y8
G1 F1500 X110.786 Y111.75 E31.87008
M205 X5 Y5
G0 F7500 X110.786 Y112
M205 X8 Y8
G1 F1500 X124.213 Y112 E32.22274
M205 X5 Y5
G0 F7500 X124.213 Y112.25
M205 X8 Y8
G1 F1500 X110.786 Y112.25 E32.57541
M205 X5 Y5
G0 F7500 X110.786 Y112.5
M205 X8 Y8
G1 F1500 X124.213 Y112.5 E32.92807
M205 X5 Y5
G0 F7500 X124.213 Y112.75
M205 X8 Y8
G1 F1500 X110.786 Y112.75 E33.28073
M205 X5 Y5
G0 F7500 X110.786 Y113
M205 X8 Y8
G1 F1500 X124.213 Y113 E33.63339
M205 X5 Y5
G0 F7500 X124.213 Y113.25
M205 X8 Y8
G1 F1500 X110.786 Y113.25 E33.98605
M205 X5 Y5
G0 F7500 X110.786 Y113.5
M205 X8 Y8
G1 F1500 X124.213 Y113.5 E34.33871
M205 X5 Y5
G0 F7500 X124.213 Y113.75
M205 X8 Y8
G1 F1500 X110.786 Y113.75 E34.69138
M205 X5 Y5
G0 F7500 X110.786 Y114
M205 X8 Y8
G1 F1500 X124.213 Y114 E35.04404
M205 X5 Y5
G0 F7500 X124.213 Y114.25
M205 X8 Y8
G1 F1500 X110.786 Y114.25 E35.3967
M205 X5 Y5
G0 F7500 X110.786 Y114.5
M205 X8 Y8
G1 F1500 X124.213 Y114.5 E35.74936
M205 X5 Y5
G0 F7500 X124.213 Y114.75
M205 X8 Y8
G1 F1500 X110.786 Y114.75 E36.10202
M205 X5 Y5
G0 F7500 X110.786 Y115
M205 X8 Y8
G1 F1500 X124.213 Y115 E36.45468
M205 X5 Y5
G0 F7500 X124.213 Y115.25
M205 X8 Y8
G1 F1500 X110.786 Y115.25 E36.80735
M205 X5 Y5
G0 F7500 X110.786 Y115.5
M205 X8 Y8
G1 F1500 X124.213 Y115.5 E37.16001
M205 X5 Y5
G0 F7500 X124.213 Y115.75
M205 X8 Y8
G1 F1500 X110.786 Y115.75 E37.51267
M205 X5 Y5
G0 F7500 X110.786 Y116
M205 X8 Y8
G1 F1500 X124.213 Y116 E37.86533
M205 X5 Y5
G0 F7500 X124.213 Y116.25
M205 X8 Y8
G1 F1500 X110.786 Y116.25 E38.21799
M205 X5 Y5
G0 F7500 X110.786 Y116.5
M205 X8 Y8
G1 F1500 X124.213 Y116.5 E38.57065
M205 X5 Y5
G0 F7500 X124.213 Y116.75
M205 X8 Y8
G1 F1500 X110.786 Y116.75 E38.92332
M205 X5 Y5
G0 F7500 X110.786 Y117
M205 X8 Y8
G1 F1500 X124.213 Y117 E39.27598
M205 X5 Y5
G0 F7500 X124.213 Y117.25
M205 X8 Y8
G1 F1500 X110.786 Y117.25 E39.62864
M205 X5 Y5
G0 F7500 X110.785 Y117.5
M205 X8 Y8
G1 F1500 X124.214 Y117.5 E39.98135
M205 X5 Y5
G0 F7500 X124.214 Y117.75
M205 X8 Y8
G1 F1500 X110.785 Y117.75 E40.33407
M205 X5 Y5
G0 F7500 X110.785 Y118
M205 X8 Y8
G1 F1500 X124.214 Y118 E40.68678
M205 X5 Y5
G0 F7500 X124.214 Y118.25
M205 X8 Y8
G1 F1500 X110.785 Y118.25 E41.0395
M205 X5 Y5
G0 F7500 X110.785 Y118.5
M205 X8 Y8
G1 F1500 X124.214 Y118.5 E41.39221
M205 X5 Y5
G0 F7500 X124.214 Y118.75
M205 X8 Y8
G1 F1500 X110.785 Y118.75 E41.74493
M205 X5 Y5
G0 F7500 X110.784 Y119
M205 X8 Y8
G1 F1500 X124.213 Y119 E42.09764
M205 X5 Y5
G0 F7500 X124.213 Y119.25
M205 X8 Y8
G1 F1500 X110.784 Y119.25 E42.45035
M205 X5 Y5
G0 F7500 X110.784 Y119.5
M205 X8 Y8
G1 F1500 X124.213 Y119.5 E42.80307
M205 X5 Y5
G0 F7500 X124.213 Y119.75
M205 X8 Y8
G1 F1500 X110.784 Y119.75 E43.15578
M205 X5 Y5
G0 F7500 X110.784 Y120
M205 X8 Y8
G1 F1500 X124.213 Y120 E43.5085
M205 X5 Y5
G0 F7500 X124.213 Y120.25
M205 X8 Y8
G1 F1500 X110.784 Y120.25 E43.86121
M205 X5 Y5
G0 F7500 X110.784 Y120.5
M205 X8 Y8
G1 F1500 X124.213 Y120.5 E44.21392
M205 X5 Y5
G0 F7500 X124.213 Y120.75
M205 X8 Y8
G1 F1500 X110.784 Y120.75 E44.56664
M205 X5 Y5
G0 F7500 X110.784 Y121
M205 X8 Y8
G1 F1500 X124.213 Y121 E44.91935
M205 X5 Y5
G0 F7500 X124.213 Y121.25
M205 X8 Y8
G1 F1500 X110.784 Y121.25 E45.27207
M205 X5 Y5
G0 F7500 X110.784 Y121.5
M205 X8 Y8
G1 F1500 X124.213 Y121.5 E45.62478
M205 X5 Y5
G0 F7500 X124.213 Y121.75
M205 X8 Y8
G1 F1500 X110.784 Y121.75 E45.9775
M205 X5 Y5
G0 F7500 X110.784 Y122
M205 X8 Y8
G1 F1500 X124.213 Y122 E46.33021
M205 X5 Y5
G0 F7500 X124.213 Y122.25
M205 X8 Y8
G1 F1500 X110.784 Y122.25 E46.68292
M205 X5 Y5
G0 F7500 X110.784 Y122.5
M205 X8 Y8
G1 F1500 X124.213 Y122.5 E47.03564
M205 X5 Y5
G0 F7500 X124.213 Y122.75
M205 X8 Y8
G1 F1500 X110.784 Y122.75 E47.38835
M205 X5 Y5
G0 F7500 X110.784 Y123
M205 X8 Y8
G1 F1500 X124.213 Y123 E47.74107
M205 X5 Y5
G0 F7500 X124.213 Y123.25
M205 X8 Y8
G1 F1500 X110.784 Y123.25 E48.09378
M205 X5 Y5
G0 F7500 X110.784 Y123.5
M205 X8 Y8
G1 F1500 X124.213 Y123.5 E48.44649
M205 X5 Y5
G0 F7500 X124.213 Y123.75
M205 X8 Y8
G1 F1500 X110.784 Y123.75 E48.79921
M205 X5 Y5
G0 F7500 X110.784 Y124
M205 X8 Y8
G1 F1500 X124.213 Y124 E49.15192
M205 X5 Y5
G0 F7500 X124.213 Y124.25
M205 X8 Y8
G1 F1500 X110.784 Y124.25 E49.50464
M205 X5 Y5
G0 F7500 X110.784 Y124.5
M205 X8 Y8
G1 F1500 X124.213 Y124.5 E49.85735
M205 X5 Y5
G0 F7500 X124.213 Y124.75
M205 X8 Y8
G1 F1500 X110.784 Y124.75 E50.21007
M205 X5 Y5
G0 F7500 X110.784 Y125
M205 X8 Y8
G1 F1500 X124.213 Y125 E50.56278
M205 X5 Y5
G0 F7500 X124.213 Y125.25
M205 X8 Y8
G1 F1500 X110.784 Y125.25 E50.91549
M205 X5 Y5
G0 F7500 X110.784 Y125.5
M205 X8 Y8
G1 F1500 X124.213 Y125.5 E51.26821
M205 X5 Y5
G0 F7500 X124.213 Y125.75
M205 X8 Y8
G1 F1500 X110.784 Y125.75 E51.62092
M205 X5 Y5
G0 F7500 X110.784 Y126
M205 X8 Y8
G1 F1500 X124.213 Y126 E51.97364
M205 X5 Y5
;MESH:NONMESH
G0 F600 X124.213 Y126 Z0.4
G0 F7500 X124.452 Y126
G0 X124.38 Y126.376
G0 X110.592 Y126.408
G0 X110.006 Y127.045
M117 Time Left 0h16m30s
;TIME_ELAPSED:73.377964
;LAYER:1
M106 S42.5
M205 X14 Y14
;TYPE:WALL-INNER
;MESH:externo.stl
G1 F2700 X125.006 Y127.046 E52.3291
G1 X125.044 Y127.001 E52.3305
G1 X125.045 Y108.054 E52.7795
G1 X125.02 Y107.954 E52.78195
G1 X117.981 Y107.957 E52.94876
