;FLAVOR:Marlin
M117 Time Left 1h54m45s
;TIME:6885
;Filament used: 2.58629m
;Layer height: 0.12
;MINX:91.45
;MINY:80.301
;MINZ:0.12
;MAXX:143.55
;MAXY:166.46
;MAXZ:16.56
;POSTPROCESSED
;Generated with Cura_SteamEngine 5.2.1
M140 S80
M105
M190 S80
M104 S215
M105
M109 S215
M82 ;absolute extrusion mode
; Ender 3 Custom Start G-code
G92 E0 ; Reset Extruder
G28 ; Home all axes
G1 Z2.0 F3000 ; Move Z Axis up little to prevent scratching of Heat Bed
G1 X0.1 Y20 Z0.3 F5000.0 ; Move to start position
G1 X0.1 Y200.0 Z0.3 F1500.0 E15 ; Draw the first line
G1 X0.4 Y200.0 Z0.3 F5000.0 ; Move to side a little
G1 X0.4 Y20 Z0.3 F1500.0 E30 ; Draw the second line
G92 E0 ; Reset Extruder
G1 Z2.0 F3000 ; Move Z Axis up little to prevent scratching of Heat Bed
G1 X5 Y20 Z0.3 F5000.0 ; Move over to prevent blob squish
G92 E0
G92 E0
G1 F2700 E-5
;LAYER_COUNT:138
;LAYER:0
M107
M204 S500
M205 X12 Y12
G0 F6000 X101.19 Y84.344 Z0.12
;TYPE:SKIRT
G1 F2700 E0
G1 F900 X101.822 Y83.649 E0.0187
G1 X102.512 Y83.01 E0.03742
G1 X103.253 Y82.432 E0.05613
G1 X104.041 Y81.919 E0.07484
G1 X104.869 Y81.475 E0.09355
G1 X105.733 Y81.103 E0.11227
G1 X106.699 Y80.778 E0.13256
G1 X107.72 Y80.529 E0.15348
G1 X108.649 Y80.384 E0.1722
G1 X109.708 Y80.315 E0.19332
G1 X110.569 Y80.301 E0.21046
G1 X124.586 Y80.306 E0.48949
G1 X125.229 Y80.315 E0.50229
G1 X126.167 Y80.368 E0.52099
G1 X127.452 Y80.573 E0.5469
G1 X127.697 Y80.627 E0.55189
G1 X128.606 Y80.868 E0.57061
G1 X129.491 Y81.186 E0.58933
G1 X130.345 Y81.577 E0.60803
G1 X131.163 Y82.04 E0.62674
G1 X131.939 Y82.571 E0.64545
G1 X132.667 Y83.165 E0.66416
G1 X133.342 Y83.82 E0.68288
G1 X133.959 Y84.529 E0.70159
G1 X134.513 Y85.288 E0.7203
G1 X135.001 Y86.092 E0.73902
G1 X135.418 Y86.934 E0.75772
G1 X135.763 Y87.809 E0.77644
G1 X136.032 Y88.709 E0.79514
G1 X136.223 Y89.63 E0.81387
G1 X136.336 Y90.563 E0.83257
G1 X136.367 Y91.213 E0.84553
G1 X136.385 Y92.287 E0.86691
G1 X136.38 Y101.103 E1.0424
G1 X136.415 Y103.701 E1.09412
G1 X136.52 Y106.196 E1.14383
G1 X136.697 Y108.721 E1.19422
G1 X136.944 Y111.232 E1.24445
G1 X137.26 Y113.703 E1.29404
G1 X137.649 Y116.199 E1.34432
G1 X138.111 Y118.688 E1.39471
G1 X138.628 Y121.105 E1.44392
G1 X139.235 Y123.585 E1.49474
G1 X139.896 Y125.992 E1.54443
G1 X140.641 Y128.433 E1.59523
G1 X141.431 Y130.776 E1.64445
G1 X142.394 Y133.387 E1.69985
G1 X142.798 Y134.432 E1.72215
G1 X143.099 Y135.323 E1.74087
G1 X143.323 Y136.236 E1.75959
G1 X143.469 Y137.164 E1.77829
G1 X143.535 Y138.075 E1.79647
G1 X143.55 Y138.74 E1.80971
G1 X143.549 Y154.811 E2.12962
G1 X143.54 Y155.538 E2.1441
G1 X143.489 Y156.476 E2.16279
G1 X143.357 Y157.407 E2.18151
G1 X143.148 Y158.323 E2.20022
G1 X142.861 Y159.219 E2.21894
G1 X142.499 Y160.086 E2.23765
G1 X142.064 Y160.92 E2.25637
G1 X141.561 Y161.713 E2.27506
G1 X140.991 Y162.461 E2.29378
G1 X140.36 Y163.158 E2.3125
G1 X139.673 Y163.799 E2.3312
G1 X138.933 Y164.379 E2.34992
G1 X138.147 Y164.894 E2.36863
G1 X137.319 Y165.34 E2.38735
G1 X136.457 Y165.715 E2.40606
G1 X135.566 Y166.014 E2.42477
G1 X134.653 Y166.237 E2.44348
G1 X133.724 Y166.382 E2.46219
G1 X132.801 Y166.447 E2.48061
G1 X132.17 Y166.46 E2.49318
G1 X103.065 Y166.459 E3.07255
G1 X102.367 Y166.45 E3.08644
G1 X101.428 Y166.398 E3.10516
G1 X100.497 Y166.266 E3.12388
G1 X99.581 Y166.056 E3.14259
G1 X98.686 Y165.769 E3.1613
G1 X97.819 Y165.406 E3.18001
G1 X96.985 Y164.971 E3.19873
G1 X96.192 Y164.467 E3.21744
G1 X95.444 Y163.898 E3.23614
G1 X94.748 Y163.266 E3.25486
G1 X94.107 Y162.578 E3.27358
G1 X93.528 Y161.838 E3.29228
G1 X93.013 Y161.052 E3.31099
G1 X92.567 Y160.224 E3.32971
G1 X92.193 Y159.362 E3.34841
G1 X91.894 Y158.471 E3.36712
G1 X91.671 Y157.557 E3.38585
G1 X91.527 Y156.628 E3.40456
G1 X91.463 Y155.7 E3.42308
G1 X91.45 Y155.068 E3.43566
G1 X91.451 Y138.945 E3.75661
G1 X91.462 Y138.239 E3.77067
G1 X91.517 Y137.3 E3.78939
G1 X91.651 Y136.37 E3.80809
G1 X91.864 Y135.454 E3.82681
G1 X92.195 Y134.45 E3.84786
G1 X93.124 Y132.03 E3.89946
G1 X93.958 Y129.668 E3.94932
G1 X94.717 Y127.305 E3.99873
G1 X95.433 Y124.842 E4.04979
G1 X96.061 Y122.423 E4.09953
G1 X96.623 Y119.979 E4.14946
G1 X97.121 Y117.494 E4.19991
G1 X97.543 Y115.024 E4.24979
G1 X97.895 Y112.549 E4.29955
G1 X98.184 Y110.003 E4.35056
G1 X98.393 Y107.535 E4.39986
G1 X98.535 Y105.039 E4.44963
G1 X98.607 Y102.463 E4.50093
G1 X98.616 Y101.135 E4.52736
G1 X98.612 Y91.925 E4.7107
G1 X98.622 Y91.261 E4.72392
G1 X98.676 Y90.322 E4.74264
G1 X98.81 Y89.392 E4.76134
G1 X99.022 Y88.476 E4.78006
G1 X99.312 Y87.582 E4.79877
G1 X99.676 Y86.715 E4.81749
G1 X100.113 Y85.883 E4.83619
G1 X100.618 Y85.09 E4.85491
G1 X101.19 Y84.344 E4.87362
G0 F6000 X101.604 Y84.505
G1 F900 X102.234 Y83.832 E4.89197
G1 X102.92 Y83.216 E4.91033
G1 X103.657 Y82.662 E4.92868
G1 X104.439 Y82.174 E4.94703
G1 X105.26 Y81.755 E4.96538
G1 X106.115 Y81.409 E4.98374
G1 X106.924 Y81.156 E5.00061
G1 X107.82 Y80.937 E5.01897
G1 X108.731 Y80.797 E5.03732
G1 X109.715 Y80.735 E5.05695
G1 X110.576 Y80.721 E5.07409
G1 X124.58 Y80.726 E5.35285
G1 X125.223 Y80.735 E5.36565
G1 X126.143 Y80.788 E5.384
G1 X127.362 Y80.983 E5.40857
G1 X127.607 Y81.037 E5.41357
G1 X128.498 Y81.274 E5.43192
G1 X129.365 Y81.588 E5.45027
G1 X130.201 Y81.976 E5.46862
G1 X131.001 Y82.434 E5.48697
G1 X131.758 Y82.96 E5.50532
G1 X132.467 Y83.55 E5.52368
G1 X133.122 Y84.199 E5.54204
G1 X133.718 Y84.902 E5.56038
G1 X134.251 Y85.655 E5.57875
G1 X134.717 Y86.45 E5.59709
G1 X135.112 Y87.283 E5.61544
G1 X135.433 Y88.147 E5.63379
G1 X135.679 Y89.036 E5.65215
G1 X135.846 Y89.943 E5.67051
G1 X135.947 Y91.221 E5.69603
G1 X135.965 Y92.287 E5.71725
G1 X135.96 Y101.107 E5.89283
G1 X135.995 Y103.691 E5.94427
G1 X136.102 Y106.241 E5.99507
G1 X136.279 Y108.756 E6.04526
G1 X136.525 Y111.257 E6.09529
G1 X136.848 Y113.787 E6.14606
G1 X137.234 Y116.265 E6.19598
G1 X137.702 Y118.784 E6.24698
G1 X138.215 Y121.182 E6.2958
G1 X138.833 Y123.709 E6.34758
G1 X139.494 Y126.116 E6.39727
G1 X140.237 Y128.547 E6.44787
G1 X141.034 Y130.911 E6.49753
G1 X142.015 Y133.573 E6.55401
G1 X142.406 Y134.584 E6.57559
G1 X142.701 Y135.457 E6.59393
G1 X142.918 Y136.353 E6.61228
G1 X143.058 Y137.264 E6.63063
G1 X143.115 Y138.088 E6.64707
G1 X143.13 Y138.74 E6.66005
G1 X143.129 Y154.806 E6.97987
G1 X143.12 Y155.533 E6.99434
G1 X143.069 Y156.453 E7.01268
G1 X142.938 Y157.366 E7.03104
G1 X142.728 Y158.264 E7.0494
G1 X142.442 Y159.14 E7.06774
G1 X142.08 Y159.988 E7.0861
G1 X141.647 Y160.802 E7.10445
G1 X141.144 Y161.575 E7.12281
G1 X140.577 Y162.301 E7.14115
G1 X139.949 Y162.976 E7.1595
G1 X139.264 Y163.594 E7.17786
G1 X138.529 Y164.15 E7.19621
G1 X137.748 Y164.64 E7.21456
G1 X136.928 Y165.061 E7.23291
G1 X136.074 Y165.409 E7.25127
G1 X135.193 Y165.682 E7.26963
G1 X134.292 Y165.877 E7.28798
G1 X133.378 Y165.994 E7.30632
G1 X132.789 Y166.027 E7.31806
G1 X132.17 Y166.04 E7.33039
G1 X103.07 Y166.039 E7.90966
G1 X102.372 Y166.03 E7.92356
G1 X101.451 Y165.978 E7.94192
G1 X100.539 Y165.847 E7.96026
G1 X99.641 Y165.637 E7.97862
G1 X98.765 Y165.35 E7.99697
G1 X97.917 Y164.988 E8.01532
G1 X97.104 Y164.554 E8.03367
G1 X96.331 Y164.051 E8.05202
G1 X95.605 Y163.483 E8.07037
G1 X94.93 Y162.855 E8.08873
G1 X94.313 Y162.17 E8.10708
G1 X93.757 Y161.434 E8.12544
G1 X93.267 Y160.653 E8.14379
G1 X92.847 Y159.833 E8.16213
G1 X92.499 Y158.979 E8.18049
G1 X92.227 Y158.098 E8.19884
G1 X92.032 Y157.197 E8.21719
G1 X91.916 Y156.282 E8.23555
G1 X91.883 Y155.688 E8.2474
G1 X91.87 Y155.068 E8.25974
G1 X91.871 Y138.951 E8.58057
G1 X91.882 Y138.245 E8.59463
G1 X91.937 Y137.325 E8.61297
G1 X92.07 Y136.413 E8.63132
G1 X92.283 Y135.516 E8.64967
G1 X92.587 Y134.601 E8.66886
G1 X93.518 Y132.177 E8.72055
G1 X94.348 Y129.825 E8.7702
G1 X95.135 Y127.376 E8.82141
G1 X95.824 Y125.005 E8.87056
G1 X96.473 Y122.505 E8.92197
G1 X97.036 Y120.053 E8.97205
G1 X97.532 Y117.579 E9.02228
G1 X97.96 Y115.08 E9.07275
G1 X98.314 Y112.591 E9.1228
G1 X98.598 Y110.086 E9.17298
G1 X98.813 Y107.556 E9.22352
G1 X98.955 Y105.04 E9.27369
G1 X99.027 Y102.478 E9.32471
G1 X99.036 Y101.138 E9.35138
G1 X99.032 Y91.931 E9.53466
G1 X99.042 Y91.267 E9.54788
G1 X99.096 Y90.347 E9.56622
G1 X99.229 Y89.434 E9.58459
G1 X99.441 Y88.537 E9.60294
G1 X99.73 Y87.662 E9.62128
G1 X100.094 Y86.814 E9.63965
G1 X100.53 Y86.002 E9.658
G1 X101.034 Y85.23 E9.67635
G1 X101.604 Y84.505 E9.69471
G0 F6000 X102.017 Y84.67
G1 F900 X102.644 Y84.019 E9.7127
G1 X103.327 Y83.427 E9.73069
G1 X104.059 Y82.898 E9.74867
G1 X104.835 Y82.435 E9.76666
G1 X105.649 Y82.043 E9.78464
G1 X106.914 Y81.59 E9.81139
G1 X107.919 Y81.346 E9.83198
G1 X108.813 Y81.211 E9.84998
G1 X109.722 Y81.155 E9.8681
G1 X110.583 Y81.141 E9.88525
G1 X124.574 Y81.146 E10.16375
G1 X125.217 Y81.155 E10.17655
G1 X126.119 Y81.208 E10.19454
G1 X127.272 Y81.393 E10.21779
G1 X127.517 Y81.447 E10.22278
G1 X128.39 Y81.681 E10.24077
G1 X129.238 Y81.99 E10.25874
G1 X130.057 Y82.374 E10.27674
G1 X130.838 Y82.828 E10.29473
G1 X131.575 Y83.349 E10.31269
G1 X132.264 Y83.934 E10.33069
G1 X132.899 Y84.578 E10.34869
G1 X133.474 Y85.274 E10.36666
G1 X133.985 Y86.019 E10.38464
G1 X134.428 Y86.807 E10.40264
G1 X134.8 Y87.63 E10.42062
G1 X135.098 Y88.483 E10.4386
G1 X135.319 Y89.359 E10.45659
G1 X135.462 Y90.251 E10.47457
G1 X135.527 Y91.229 E10.49408
G1 X135.545 Y92.287 E10.51515
G1 X135.54 Y101.113 E10.69084
G1 X135.575 Y103.714 E10.74262
G1 X135.682 Y106.254 E10.79322
G1 X135.86 Y108.789 E10.84381
G1 X136.109 Y111.316 E10.89436
G1 X136.43 Y113.835 E10.94491
G1 X136.821 Y116.338 E10.99534
G1 X137.284 Y118.839 E11.04597
G1 X137.812 Y121.301 E11.09609
G1 X138.425 Y123.81 E11.1475
G1 X139.093 Y126.239 E11.19765
G1 X139.835 Y128.67 E11.24825
G1 X140.64 Y131.059 E11.29843
G1 X141.62 Y133.715 E11.35479
G1 X142.014 Y134.735 E11.37655
G1 X142.302 Y135.591 E11.39453
G1 X142.513 Y136.47 E11.41253
G1 X142.646 Y137.364 E11.43052
G1 X142.695 Y138.101 E11.44522
G1 X142.71 Y138.74 E11.45794
G1 X142.709 Y154.8 E11.77764
G1 X142.7 Y155.527 E11.79211
G1 X142.649 Y156.429 E11.81009
G1 X142.518 Y157.324 E11.8281
G1 X142.309 Y158.203 E11.84609
G1 X142.023 Y159.06 E11.86407
G1 X141.662 Y159.888 E11.88205
G1 X141.23 Y160.681 E11.90003
G1 X140.729 Y161.433 E11.91801
G1 X140.163 Y162.138 E11.93601
G1 X139.537 Y162.79 E11.954
G1 X138.857 Y163.384 E11.97198
G1 X138.126 Y163.915 E11.98996
G1 X137.351 Y164.38 E12.00795
G1 X136.538 Y164.775 E12.02595
G1 X135.694 Y165.096 E12.04392
G1 X134.824 Y165.341 E12.06191
G1 X133.936 Y165.508 E12.0799
G1 X132.777 Y165.607 E12.10306
G1 X132.17 Y165.62 E12.11514
G1 X103.075 Y165.619 E12.69431
G1 X102.377 Y165.61 E12.70821
G1 X101.475 Y165.559 E12.72619
G1 X100.581 Y165.427 E12.74418
G1 X99.702 Y165.218 E12.76217
G1 X98.846 Y164.931 E12.78014
G1 X98.017 Y164.57 E12.79814
G1 X97.224 Y164.137 E12.81612
G1 X96.473 Y163.635 E12.8341
G1 X95.768 Y163.07 E12.85209
G1 X95.117 Y162.444 E12.87007
G1 X94.523 Y161.762 E12.88807
G1 X93.992 Y161.032 E12.90604
G1 X93.527 Y160.256 E12.92405
G1 X93.133 Y159.443 E12.94203
G1 X92.813 Y158.599 E12.96
G1 X92.568 Y157.729 E12.97799
G1 X92.401 Y156.841 E12.99598
G1 X92.303 Y155.677 E13.01923
G1 X92.29 Y155.068 E13.03136
G1 X92.291 Y138.958 E13.35205
G1 X92.302 Y138.252 E13.3661
G1 X92.356 Y137.35 E13.38409
G1 X92.49 Y136.456 E13.40208
G1 X92.702 Y135.578 E13.42006
G1 X92.979 Y134.751 E13.43743
G1 X93.915 Y132.312 E13.48943
G1 X94.745 Y129.96 E13.53908
G1 X95.533 Y127.511 E13.59029
G1 X96.238 Y125.084 E13.6406
G1 X96.874 Y122.636 E13.69095
G1 X97.45 Y120.127 E13.74219
G1 X97.945 Y117.657 E13.79234
G1 X98.376 Y115.14 E13.84317
G1 X98.728 Y112.658 E13.89307
G1 X99.019 Y110.099 E13.94434
G1 X99.23 Y107.616 E13.99394
G1 X99.375 Y105.041 E14.04528
G1 X99.447 Y102.493 E14.09603
G1 X99.456 Y101.14 E14.12296
G1 X99.452 Y91.937 E14.30616
G1 X99.462 Y91.273 E14.31938
G1 X99.516 Y90.371 E14.33736
G1 X99.649 Y89.478 E14.35534
G1 X99.86 Y88.599 E14.37333
G1 X100.149 Y87.743 E14.39131
G1 X100.512 Y86.915 E14.40931
G1 X100.947 Y86.123 E14.4273
G1 X101.45 Y85.373 E14.44527
G1 X102.017 Y84.67 E14.46325
G1 F2700 E9.46325
;MESH:externo.stl
G0 F6000 X108.997 Y91.775
G0 X110.085 Y91.774
G0 X111.133 Y92.822
;TYPE:WALL-INNER
G1 F2700 E14.46325
G1 F900 X111.139 Y105.71 E14.7198
G1 X123.856 Y105.71 E14.97295
G1 X123.864 Y92.826 E15.22942
G1 X111.133 Y92.822 E15.48285
G0 F6000 X110.713 Y92.402
G1 F900 X110.719 Y106.13 E15.75612
G1 X124.276 Y106.13 E16.02599
G1 X124.284 Y92.406 E16.29918
G1 X110.713 Y92.402 E16.56933
G0 F6000 X110.293 Y91.982
G1 F900 X110.299 Y106.55 E16.85932
G1 X124.696 Y106.55 E17.14591
G1 X124.704 Y91.986 E17.43583
G1 X110.293 Y91.982 E17.72269
G0 F6000 X109.872 Y91.561
;TYPE:WALL-OUTER
G1 F900 X109.879 Y106.817 E18.02638
G1 X109.908 Y106.912 E18.02836
G1 X109.979 Y106.971 E18.0302
G1 X125.04 Y106.97 E18.33
G1 X125.116 Y106.826 E18.33325
G1 X125.125 Y91.62 E18.63594
G1 X125.125 Y91.566 E18.63701
G1 X109.872 Y91.561 E18.94064
G0 F6000 X110.141 Y91.83
G0 X123.547 Y92.915
;TYPE:SKIN
G1 F900 X123.772 Y93.14 E18.94637
G0 F6000 X123.772 Y93.678
G1 F900 X123.01 Y92.915 E18.9658
G0 F6000 X122.473 Y92.915
G1 F900 X123.771 Y94.214 E18.99887
G0 F6000 X123.771 Y94.752
G1 F900 X121.935 Y92.915 E19.04565
G0 F6000 X121.398 Y92.915
G1 F900 X123.771 Y95.289 E19.1061
G0 F6000 X123.771 Y95.826
G1 F900 X120.86 Y92.915 E19.18024
G0 F6000 X120.322 Y92.915
G1 F900 X123.771 Y96.363 E19.26808
G0 F6000 X123.77 Y96.9
G1 F900 X119.785 Y92.915 E19.36958
G0 F6000 X119.247 Y92.915
G1 F900 X123.77 Y97.437 E19.48477
G0 F6000 X123.77 Y97.975
G1 F900 X118.709 Y92.914 E19.61368
G0 F6000 X118.172 Y92.914
G1 F900 X123.769 Y98.511 E19.75623
G0 F6000 X123.769 Y99.049
G1 F900 X117.634 Y92.914 E19.9125
G0 F6000 X117.097 Y92.914
G1 F900 X123.769 Y99.586 E20.08243
G0 F6000 X123.769 Y100.123
G1 F900 X116.56 Y92.914 E20.26605
G0 F6000 X116.022 Y92.913
G1 F900 X123.768 Y100.66 E20.46336
G0 F6000 X123.768 Y101.197
G1 F900 X115.484 Y92.913 E20.67436
G0 F6000 X114.947 Y92.913
G1 F900 X123.768 Y101.734 E20.89903
G0 F6000 X123.767 Y102.271
G1 F900 X114.409 Y92.913 E21.13738
G0 F6000 X113.872 Y92.913
G1 F900 X123.767 Y102.809 E21.38943
G0 F6000 X123.767 Y103.345
G1 F900 X113.334 Y92.913 E21.65515
G0 F6000 X112.796 Y92.913
G1 F900 X123.767 Y103.883 E21.93457
G0 F6000 X123.766 Y104.419
G1 F900 X112.259 Y92.913 E22.22765
G0 F6000 X111.722 Y92.913
G1 F900 X123.766 Y104.957 E22.53442
G0 F6000 X123.766 Y105.494
G1 F900 X111.222 Y92.95 E22.85392
G0 F6000 X111.222 Y93.488
G1 F900 X123.354 Y105.619 E23.16291
G0 F6000 X122.816 Y105.619
G1 F900 X111.222 Y94.025 E23.45822
G0 F6000 X111.222 Y94.563
G1 F900 X122.279 Y105.619 E23.73983
G0 F6000 X121.741 Y105.619
G1 F900 X111.222 Y95.1 E24.00776
G0 F6000 X111.222 Y95.638
G1 F900 X121.204 Y105.619 E24.26199
G0 F6000 X120.667 Y105.619
G1 F900 X111.223 Y96.176 E24.50252
G0 F6000 X111.223 Y96.713
G1 F900 X120.129 Y105.619 E24.72936
G0 F6000 X119.592 Y105.619
G1 F900 X111.224 Y97.251 E24.9425
G0 F6000 X111.224 Y97.789
G1 F900 X119.054 Y105.619 E25.14193
G0 F6000 X118.517 Y105.619
G1 F900 X111.224 Y98.326 E25.32769
G0 F6000 X111.225 Y98.864
G1 F900 X117.98 Y105.619 E25.49974
G0 F6000 X117.442 Y105.619
G1 F900 X111.225 Y99.402 E25.65809
G0 F6000 X111.225 Y99.939
G1 F900 X116.905 Y105.619 E25.80276
G0 F6000 X116.367 Y105.619
G1 F900 X111.225 Y100.477 E25.93373
G0 F6000 X111.225 Y101.015
G1 F900 X115.83 Y105.619 E26.05101
G0 F6000 X115.293 Y105.619
G1 F900 X111.226 Y101.553 E26.15459
G0 F6000 X111.226 Y102.09
G1 F900 X114.755 Y105.619 E26.24447
G0 F6000 X114.218 Y105.619
G1 F900 X111.226 Y102.628 E26.32067
G0 F6000 X111.227 Y103.166
G1 F900 X113.68 Y105.619 E26.38315
G0 F6000 X113.143 Y105.619
G1 F900 X111.227 Y103.703 E26.43195
G0 F6000 X111.227 Y104.241
G1 F900 X112.606 Y105.619 E26.46706
G0 F6000 X112.068 Y105.619
G1 F900 X111.227 Y104.779 E26.48847
G0 F6000 X111.227 Y105.316
G1 F900 X111.531 Y105.619 E26.4962
G0 F6000 X111.531 Y105.92
G1 F2700 E21.4962
;MESH:paredstl.stl
G0 F6000 X110.471 Y106.77
G0 X110.472 Y107.845
G0 X110.471 Y111.552
G0 X110.471 Y112.647
G0 X110.471 Y113.688
;TYPE:WALL-INNER
G1 F2700 E26.4962
G1 F900 X110.471 Y128.746 E26.79595
G1 X124.53 Y128.747 E27.07581
G1 X124.53 Y113.687 E27.3756
G1 X118.561 Y113.687 E27.49442
G1 F800.8 X118.122 Y113.739 E27.5043
