;FLAVOR:Marlin
M117 Time Left 1h41m51s
;TIME:6111
;Filament used: 2.3196m
;Layer height: 0.12
;MINX:91.45
;MINY:79.324
;MINZ:0.12
;MAXX:143.55
;MAXY:159.845
;MAXZ:16.56
;POSTPROCESSED
;Generated with Cura_SteamEngine 5.2.1
M140 S60
M105
M190 S60
M104 S205
M105
M109 S205
M82 ;absolute extrusion mode
; Ender 3 Custom Start G-code
G92 E0 ; Reset Extruder
G28 ; Home all axes
G1 Z2.0 F3000 ; Move Z Axis up little to prevent scratching of Heat Bed
G1 X0.1 Y20 Z0.3 F5000.0 ; Move to start position
G1 X0.1 Y200.0 Z0.3 F1500.0 E15 ; Draw the first line
G1 X0.4 Y200.0 Z0.3 F5000.0 ; Move to side a little
G1 X0.4 Y20 Z0.3 F1500.0 E30 ; Draw the second line
G92 E0 ; Reset Extruder
G1 Z2.0 F3000 ; Move Z Axis up little to prevent scratching of Heat Bed
G1 X5 Y20 Z0.3 F5000.0 ; Move over to prevent blob squish
G92 E0
G92 E0
G1 F2700 E-5
;LAYER_COUNT:138
;LAYER:0
M107
M204 S500
M205 X12 Y12
G0 F6000 X101.178 Y83.381 Z0.12
;TYPE:SKIRT
G1 F2700 E0
G1 F1200 X101.81 Y82.685 E0.01871
G1 X102.498 Y82.045 E0.03742
G1 X103.239 Y81.466 E0.05614
G1 X104.026 Y80.952 E0.07485
G1 X104.854 Y80.507 E0.09356
G1 X105.716 Y80.134 E0.11226
G1 X106.608 Y79.835 E0.13099
G1 X107.536 Y79.61 E0.14999
G1 X107.856 Y79.547 E0.15649
G1 X108.785 Y79.405 E0.17519
G1 X109.8 Y79.341 E0.19544
G1 X110.86 Y79.324 E0.21654
G1 X124.293 Y79.324 E0.48394
G1 X125.111 Y79.334 E0.50023
G1 X126.05 Y79.387 E0.51895
G1 X126.74 Y79.477 E0.5328
G1 X127.096 Y79.535 E0.53998
G1 X128.016 Y79.725 E0.55868
G1 X128.917 Y79.993 E0.57739
G1 X129.792 Y80.337 E0.59611
G1 X130.635 Y80.754 E0.61483
G1 X131.439 Y81.241 E0.63354
G1 X132.199 Y81.794 E0.65225
G1 X132.909 Y82.41 E0.67096
G1 X133.564 Y83.084 E0.68967
G1 X134.159 Y83.811 E0.70837
G1 X134.691 Y84.587 E0.7271
G1 X135.154 Y85.404 E0.74579
G1 X135.547 Y86.259 E0.76453
G1 X135.865 Y87.143 E0.78323
G1 X136.108 Y88.051 E0.80194
G1 X136.272 Y88.977 E0.82066
G1 X136.367 Y90.236 E0.84579
G1 X136.385 Y91.312 E0.86721
G1 X136.383 Y94.486 E0.93039
G1 X136.418 Y97.092 E0.98228
G1 X136.522 Y99.575 E1.03175
G1 X136.699 Y102.105 E1.08223
G1 X136.945 Y104.597 E1.13208
G1 X137.264 Y107.111 E1.18252
G1 X137.654 Y109.61 E1.23287
G1 X138.106 Y112.052 E1.28231
G1 X138.633 Y114.508 E1.33231
G1 X139.23 Y116.953 E1.38241
G1 X139.896 Y119.376 E1.43243
G1 X140.636 Y121.799 E1.48286
G1 X141.441 Y124.19 E1.53309
G1 X142.403 Y126.796 E1.58838
G1 X142.796 Y127.813 E1.61009
G1 X143.097 Y128.703 E1.62879
G1 X143.322 Y129.616 E1.64751
G1 X143.469 Y130.544 E1.66621
G1 X143.535 Y131.46 E1.68449
G1 X143.55 Y132.125 E1.69773
G1 X143.549 Y148.196 E2.01764
G1 X143.54 Y148.923 E2.03212
G1 X143.489 Y149.861 E2.05082
G1 X143.357 Y150.792 E2.06954
G1 X143.148 Y151.708 E2.08824
G1 X142.861 Y152.604 E2.10697
G1 X142.499 Y153.471 E2.12567
G1 X142.064 Y154.305 E2.14439
G1 X141.561 Y155.098 E2.16309
G1 X140.991 Y155.846 E2.18181
G1 X140.36 Y156.543 E2.20052
G1 X139.673 Y157.184 E2.21923
G1 X138.933 Y157.764 E2.23794
G1 X138.147 Y158.279 E2.25665
G1 X137.319 Y158.725 E2.27537
G1 X136.457 Y159.1 E2.29408
G1 X135.566 Y159.399 E2.31279
G1 X134.653 Y159.622 E2.3315
G1 X133.724 Y159.767 E2.35022
G1 X132.801 Y159.832 E2.36864
G1 X132.17 Y159.845 E2.3812
G1 X103.065 Y159.844 E2.96057
G1 X102.367 Y159.835 E2.97446
G1 X101.428 Y159.783 E2.99318
G1 X100.497 Y159.651 E3.0119
G1 X99.581 Y159.441 E3.03061
G1 X98.686 Y159.154 E3.04932
G1 X97.819 Y158.791 E3.06803
G1 X96.985 Y158.356 E3.08675
G1 X96.192 Y157.852 E3.10546
G1 X95.444 Y157.283 E3.12417
G1 X94.748 Y156.651 E3.14288
G1 X94.107 Y155.963 E3.1616
G1 X93.528 Y155.223 E3.1803
G1 X93.013 Y154.437 E3.19901
G1 X92.567 Y153.609 E3.21773
G1 X92.193 Y152.747 E3.23643
G1 X91.894 Y151.856 E3.25514
G1 X91.671 Y150.942 E3.27387
G1 X91.527 Y150.013 E3.29258
G1 X91.463 Y149.085 E3.3111
G1 X91.45 Y148.453 E3.32369
G1 X91.451 Y132.33 E3.64463
G1 X91.462 Y131.623 E3.65871
G1 X91.517 Y130.685 E3.67741
G1 X91.651 Y129.754 E3.69614
G1 X91.864 Y128.839 E3.71484
G1 X92.196 Y127.831 E3.73596
G1 X93.118 Y125.431 E3.78714
G1 X93.946 Y123.084 E3.83668
G1 X94.714 Y120.697 E3.8866
G1 X95.425 Y118.251 E3.9373
G1 X96.056 Y115.828 E3.98715
G1 X96.617 Y113.387 E4.037
G1 X97.117 Y110.889 E4.08772
G1 X97.541 Y108.419 E4.1376
G1 X97.889 Y105.975 E4.18674
G1 X98.18 Y103.411 E4.23811
G1 X98.389 Y100.943 E4.28742
G1 X98.531 Y98.449 E4.33714
G1 X98.604 Y95.864 E4.38862
G1 X98.613 Y94.531 E4.41516
G1 X98.611 Y91.121 E4.48304
G1 X98.621 Y90.302 E4.49934
G1 X98.674 Y89.363 E4.51806
G1 X98.806 Y88.433 E4.53676
G1 X99.017 Y87.517 E4.55547
G1 X99.305 Y86.622 E4.57419
G1 X99.668 Y85.755 E4.5929
G1 X100.103 Y84.922 E4.6116
G1 X100.608 Y84.129 E4.63032
G1 X101.178 Y83.381 E4.64904
G0 F6000 X101.592 Y83.542
G1 F1200 X102.221 Y82.868 E4.66739
G1 X102.907 Y82.251 E4.68576
G1 X103.643 Y81.696 E4.70411
G1 X104.424 Y81.207 E4.72245
G1 X105.245 Y80.787 E4.74081
G1 X106.099 Y80.44 E4.75916
G1 X106.98 Y80.168 E4.77751
G1 X107.617 Y80.022 E4.79052
G1 X107.937 Y79.959 E4.79701
G1 X108.848 Y79.821 E4.81535
G1 X109.807 Y79.761 E4.83448
G1 X110.86 Y79.744 E4.85545
G1 X124.293 Y79.744 E5.12285
G1 X125.106 Y79.754 E5.13903
G1 X126.026 Y79.806 E5.15737
G1 X126.672 Y79.891 E5.17034
G1 X127.028 Y79.949 E5.17752
G1 X127.931 Y80.137 E5.19588
G1 X128.814 Y80.402 E5.21424
G1 X129.671 Y80.743 E5.2326
G1 X130.495 Y81.156 E5.25094
G1 X131.28 Y81.64 E5.2693
G1 X132.02 Y82.189 E5.28764
G1 X132.71 Y82.801 E5.306
G1 X133.344 Y83.47 E5.32435
G1 X133.918 Y84.192 E5.34271
G1 X134.427 Y84.96 E5.36105
G1 X134.868 Y85.77 E5.37941
G1 X135.237 Y86.615 E5.39777
G1 X135.531 Y87.489 E5.41612
G1 X135.748 Y88.385 E5.43447
G1 X135.887 Y89.296 E5.45282
G1 X135.947 Y90.244 E5.47173
G1 X135.965 Y91.312 E5.49299
G1 X135.963 Y94.491 E5.55627
G1 X135.998 Y97.081 E5.60783
G1 X136.104 Y99.623 E5.65848
G1 X136.28 Y102.138 E5.70866
G1 X136.528 Y104.656 E5.75903
G1 X136.847 Y107.159 E5.80926
G1 X137.24 Y109.676 E5.85997
G1 X137.691 Y112.113 E5.90931
G1 X138.23 Y114.627 E5.96049
G1 X138.825 Y117.062 E6.01038
G1 X139.494 Y119.5 E6.06071
G1 X140.231 Y121.913 E6.11093
G1 X141.047 Y124.337 E6.16185
G1 X142.007 Y126.938 E6.21704
G1 X142.404 Y127.964 E6.23894
G1 X142.699 Y128.838 E6.2573
G1 X142.917 Y129.733 E6.27564
G1 X143.057 Y130.645 E6.294
G1 X143.115 Y131.473 E6.31053
G1 X143.13 Y132.125 E6.32351
G1 X143.129 Y148.191 E6.64332
G1 X143.12 Y148.918 E6.65779
G1 X143.069 Y149.838 E6.67614
G1 X142.938 Y150.751 E6.6945
G1 X142.728 Y151.649 E6.71285
G1 X142.442 Y152.525 E6.7312
G1 X142.08 Y153.373 E6.74955
G1 X141.647 Y154.187 E6.76791
G1 X141.144 Y154.96 E6.78626
G1 X140.577 Y155.686 E6.8046
G1 X139.949 Y156.361 E6.82295
G1 X139.264 Y156.979 E6.84132
G1 X138.529 Y157.535 E6.85966
G1 X137.748 Y158.025 E6.87802
G1 X136.928 Y158.446 E6.89637
G1 X136.074 Y158.794 E6.91472
G1 X135.193 Y159.067 E6.93308
G1 X134.292 Y159.262 E6.95143
G1 X133.378 Y159.379 E6.96978
G1 X132.789 Y159.412 E6.98152
G1 X132.17 Y159.425 E6.99384
G1 X103.07 Y159.424 E7.57311
G1 X102.372 Y159.415 E7.58701
G1 X101.451 Y159.363 E7.60537
G1 X100.539 Y159.232 E7.62371
G1 X99.641 Y159.022 E7.64207
G1 X98.765 Y158.735 E7.66042
G1 X97.917 Y158.373 E7.67878
G1 X97.104 Y157.939 E7.69712
G1 X96.331 Y157.436 E7.71548
G1 X95.605 Y156.868 E7.73383
G1 X94.93 Y156.24 E7.75218
G1 X94.313 Y155.555 E7.77053
G1 X93.757 Y154.819 E7.7889
G1 X93.267 Y154.038 E7.80725
G1 X92.847 Y153.218 E7.82559
G1 X92.499 Y152.364 E7.84395
G1 X92.227 Y151.483 E7.8623
G1 X92.032 Y150.582 E7.88065
G1 X91.916 Y149.667 E7.89901
G1 X91.883 Y149.073 E7.91085
G1 X91.87 Y148.453 E7.9232
G1 X91.871 Y132.337 E8.24401
G1 X91.882 Y131.63 E8.25808
G1 X91.937 Y130.709 E8.27645
G1 X92.07 Y129.797 E8.29479
G1 X92.283 Y128.9 E8.31315
G1 X92.588 Y127.982 E8.3324
G1 X93.512 Y125.578 E8.38367
G1 X94.347 Y123.21 E8.43365
G1 X95.12 Y120.809 E8.48386
G1 X95.821 Y118.397 E8.53386
G1 X96.466 Y115.918 E8.58485
G1 X97.03 Y113.461 E8.63504
G1 X97.529 Y110.974 E8.68553
G1 X97.95 Y108.515 E8.73519
G1 X98.312 Y105.977 E8.78622
G1 X98.594 Y103.494 E8.83597
G1 X98.809 Y100.964 E8.88651
G1 X98.951 Y98.45 E8.93664
G1 X99.024 Y95.879 E8.98784
G1 X99.033 Y94.534 E9.01461
G1 X99.031 Y91.121 E9.08255
G1 X99.041 Y90.308 E9.09874
G1 X99.093 Y89.387 E9.1171
G1 X99.225 Y88.475 E9.13544
G1 X99.436 Y87.577 E9.1538
G1 X99.724 Y86.701 E9.17216
G1 X100.086 Y85.854 E9.1905
G1 X100.521 Y85.04 E9.20887
G1 X101.024 Y84.268 E9.22721
G1 X101.592 Y83.542 E9.24556
G0 F6000 X102.006 Y83.706
G1 F1200 X102.632 Y83.055 E9.26354
G1 X103.314 Y82.462 E9.28153
G1 X104.045 Y81.931 E9.29951
G1 X104.821 Y81.467 E9.31751
G1 X105.634 Y81.074 E9.33549
G1 X106.479 Y80.753 E9.35348
G1 X107.698 Y80.434 E9.37856
G1 X108.018 Y80.371 E9.38506
G1 X108.911 Y80.236 E9.40303
G1 X109.814 Y80.181 E9.42104
G1 X110.86 Y80.164 E9.44187
G1 X124.293 Y80.164 E9.70927
G1 X125.1 Y80.174 E9.72533
G1 X126.002 Y80.226 E9.74332
G1 X126.605 Y80.306 E9.75543
G1 X126.961 Y80.364 E9.76261
G1 X127.845 Y80.548 E9.78058
G1 X128.71 Y80.811 E9.79858
G1 X129.548 Y81.148 E9.81656
G1 X130.353 Y81.558 E9.83454
G1 X131.119 Y82.038 E9.85253
G1 X131.839 Y82.584 E9.87052
G1 X132.508 Y83.191 E9.8885
G1 X133.121 Y83.855 E9.90649
G1 X133.673 Y84.571 E9.92449
G1 X134.159 Y85.332 E9.94246
G1 X134.576 Y86.134 E9.96046
G1 X134.92 Y86.969 E9.97844
G1 X135.19 Y87.831 E9.99642
G1 X135.382 Y88.714 E10.0144
G1 X135.495 Y89.611 E10.0324
G1 X135.527 Y90.252 E10.04518
G1 X135.545 Y91.311 E10.06626
G1 X135.543 Y94.496 E10.12966
G1 X135.578 Y97.103 E10.18156
G1 X135.684 Y99.634 E10.23199
G1 X135.862 Y102.173 E10.28265
G1 X136.112 Y104.715 E10.3335
G1 X136.429 Y107.208 E10.38353
G1 X136.826 Y109.749 E10.43472
G1 X137.28 Y112.203 E10.4844
G1 X137.819 Y114.713 E10.5355
G1 X138.417 Y117.163 E10.58571
G1 X139.093 Y119.623 E10.63649
G1 X139.829 Y122.036 E10.68671
G1 X140.65 Y124.473 E10.7379
G1 X141.628 Y127.123 E10.79413
G1 X142.012 Y128.116 E10.81532
G1 X142.301 Y128.972 E10.83331
G1 X142.512 Y129.85 E10.85128
G1 X142.645 Y130.744 E10.86927
G1 X142.695 Y131.486 E10.88408
G1 X142.71 Y132.125 E10.8968
G1 X142.709 Y148.185 E11.21649
G1 X142.7 Y148.912 E11.23097
G1 X142.649 Y149.814 E11.24895
G1 X142.518 Y150.709 E11.26696
G1 X142.309 Y151.588 E11.28494
G1 X142.023 Y152.445 E11.30293
G1 X141.662 Y153.273 E11.32091
G1 X141.23 Y154.066 E11.33888
G1 X140.729 Y154.818 E11.35687
G1 X140.163 Y155.523 E11.37487
G1 X139.537 Y156.175 E11.39286
G1 X138.857 Y156.769 E11.41083
G1 X138.126 Y157.3 E11.42882
G1 X137.351 Y157.765 E11.44681
G1 X136.538 Y158.16 E11.4648
G1 X135.694 Y158.481 E11.48278
G1 X134.824 Y158.726 E11.50077
G1 X133.936 Y158.893 E11.51876
G1 X132.777 Y158.992 E11.54191
G1 X132.17 Y159.005 E11.554
G1 X103.075 Y159.004 E12.13317
G1 X102.377 Y158.995 E12.14706
G1 X101.475 Y158.944 E12.16505
G1 X100.581 Y158.812 E12.18304
G1 X99.702 Y158.603 E12.20102
G1 X98.846 Y158.316 E12.21899
G1 X98.017 Y157.955 E12.23699
G1 X97.224 Y157.522 E12.25498
G1 X96.473 Y157.02 E12.27296
G1 X95.768 Y156.455 E12.29095
G1 X95.117 Y155.829 E12.30892
G1 X94.523 Y155.147 E12.32693
G1 X93.992 Y154.417 E12.3449
G1 X93.527 Y153.641 E12.3629
G1 X93.133 Y152.828 E12.38089
G1 X92.813 Y151.984 E12.39886
G1 X92.568 Y151.114 E12.41685
G1 X92.401 Y150.226 E12.43483
G1 X92.303 Y149.062 E12.45809
G1 X92.29 Y148.453 E12.47021
G1 X92.291 Y132.343 E12.7909
G1 X92.302 Y131.636 E12.80498
G1 X92.356 Y130.734 E12.82296
G1 X92.49 Y129.841 E12.84094
G1 X92.702 Y128.962 E12.85894
G1 X92.98 Y128.133 E12.87634
G1 X93.905 Y125.725 E12.92769
G1 X94.745 Y123.345 E12.97793
G1 X95.518 Y120.944 E13.02815
G1 X96.235 Y118.476 E13.07931
G1 X96.866 Y116.049 E13.12922
G1 X97.444 Y113.535 E13.18057
G1 X97.942 Y111.052 E13.23098
G1 X98.366 Y108.576 E13.28099
G1 X98.727 Y106.045 E13.33188
G1 X99.015 Y103.507 E13.38273
G1 X99.226 Y101.024 E13.43233
G1 X99.371 Y98.451 E13.48363
G1 X99.444 Y95.893 E13.53457
G1 X99.453 Y94.537 E13.56157
G1 X99.451 Y91.121 E13.62957
G1 X99.461 Y90.313 E13.64565
G1 X99.513 Y89.411 E13.66364
G1 X99.645 Y88.517 E13.68163
G1 X99.855 Y87.639 E13.6996
G1 X100.142 Y86.782 E13.71759
G1 X100.504 Y85.954 E13.73558
G1 X100.938 Y85.161 E13.75357
G1 X101.44 Y84.41 E13.77155
G1 X102.006 Y83.706 E13.78954
G1 F2700 E8.78954
;MESH:externo.stl
G0 F6000 X109.894 Y89.718
G0 X110.085 Y90.798
G0 X110.713 Y91.425
;TYPE:WALL-INNER
G1 F2700 E13.78954
G1 F1200 X110.719 Y105.154 E14.06283
G1 X124.276 Y105.154 E14.3327
G1 X124.284 Y91.425 E14.60599
G1 X110.713 Y91.425 E14.87614
G0 F6000 X110.293 Y91.005
G1 F1200 X110.299 Y105.574 E15.16615
G1 X124.696 Y105.574 E15.45274
G1 X124.704 Y91.005 E15.74275
G1 X110.293 Y91.005 E16.02962
G0 F6000 X109.872 Y90.611
;TYPE:WALL-OUTER
G1 F1200 X109.879 Y105.893 E16.33383
G1 X109.988 Y105.995 E16.3368
G1 X125.04 Y105.994 E16.63643
G1 X125.116 Y105.85 E16.63967
G1 X125.125 Y90.744 E16.94037
G1 X125.125 Y90.61 E16.94304
G1 X124.979 Y90.584 E16.94599
G1 X110.021 Y90.584 E17.24375
G1 X109.872 Y90.611 E17.24676
G0 F6000 X110.541 Y91.254
G0 X123.759 Y91.515
;TYPE:SKIN
G1 F1200 X124.193 Y91.949 E17.25781
G0 F6000 X124.193 Y92.486
G1 F1200 X123.221 Y91.515 E17.28256
G0 F6000 X122.684 Y91.515
G1 F1200 X124.192 Y93.023 E17.32097
G0 F6000 X124.192 Y93.56
G1 F1200 X122.147 Y91.515 E17.37306
G0 F6000 X121.609 Y91.515
G1 F1200 X124.191 Y94.097 E17.43882
G0 F6000 X124.191 Y94.634
G1 F1200 X121.072 Y91.515 E17.51826
G0 F6000 X120.534 Y91.515
G1 F1200 X124.191 Y95.172 E17.61141
G0 F6000 X124.191 Y95.709
G1 F1200 X119.997 Y91.515 E17.71823
G0 F6000 X119.46 Y91.515
G1 F1200 X124.191 Y96.246 E17.83873
G0 F6000 X124.19 Y96.783
G1 F1200 X118.922 Y91.515 E17.97291
G0 F6000 X118.385 Y91.515
G1 F1200 X124.19 Y97.32 E18.12077
G0 F6000 X124.189 Y97.857
G1 F1200 X117.847 Y91.515 E18.2823
G0 F6000 X117.31 Y91.515
G1 F1200 X124.189 Y98.394 E18.45751
G0 F6000 X124.189 Y98.931
G1 F1200 X116.773 Y91.515 E18.6464
G0 F6000 X116.235 Y91.515
G1 F1200 X124.189 Y99.468 E18.84898
G0 F6000 X124.189 Y100.006
G1 F1200 X115.698 Y91.515 E19.06525
G0 F6000 X115.16 Y91.515
G1 F1200 X124.188 Y100.542 E19.29519
G0 F6000 X124.188 Y101.08
G1 F1200 X114.623 Y91.515 E19.53881
G0 F6000 X114.086 Y91.515
G1 F1200 X124.187 Y101.616 E19.79609
G0 F6000 X124.187 Y102.154
G1 F1200 X113.548 Y91.515 E20.06707
G0 F6000 X113.011 Y91.515
G1 F1200 X124.187 Y102.69 E20.35172
G0 F6000 X124.187 Y103.228
G1 F1200 X112.473 Y91.515 E20.65006
G0 F6000 X111.936 Y91.515
G1 F1200 X124.187 Y103.765 E20.96209
G0 F6000 X124.186 Y104.302
G1 F1200 X111.399 Y91.515 E21.28778
G0 F6000 X110.861 Y91.515
G1 F1200 X124.186 Y104.839 E21.62716
G0 F6000 X123.873 Y105.064
G1 F1200 X110.802 Y91.993 E21.96009
G0 F6000 X110.802 Y92.53
G1 F1200 X123.335 Y105.064 E22.27932
G0 F6000 X122.798 Y105.064
G1 F1200 X110.802 Y93.068 E22.58487
G0 F6000 X110.802 Y93.606
G1 F1200 X122.26 Y105.064 E22.87671
G0 F6000 X121.723 Y105.064
G1 F1200 X110.802 Y94.143 E23.15487
G0 F6000 X110.803 Y94.681
G1 F1200 X121.186 Y105.064 E23.41933
G0 F6000 X120.648 Y105.064
G1 F1200 X110.803 Y95.218 E23.6701
G0 F6000 X110.803 Y95.756
G1 F1200 X120.111 Y105.064 E23.90718
G0 F6000 X119.573 Y105.064
G1 F1200 X110.804 Y96.294 E24.13054
G0 F6000 X110.804 Y96.831
G1 F1200 X119.036 Y105.064 E24.34023
G0 F6000 X118.499 Y105.064
G1 F1200 X110.804 Y97.369 E24.53623
G0 F6000 X110.805 Y97.907
G1 F1200 X117.961 Y105.064 E24.71851
G0 F6000 X117.424 Y105.064
G1 F1200 X110.805 Y98.444 E24.88711
G0 F6000 X110.805 Y98.982
G1 F1200 X116.886 Y105.064 E25.04201
G0 F6000 X116.349 Y105.064
G1 F1200 X110.805 Y99.52 E25.18322
G0 F6000 X110.805 Y100.057
G1 F1200 X115.812 Y105.064 E25.31075
G0 F6000 X115.274 Y105.064
G1 F1200 X110.806 Y100.595 E25.42456
G0 F6000 X110.806 Y101.133
G1 F1200 X114.737 Y105.064 E25.52469
G0 F6000 X114.199 Y105.064
G1 F1200 X110.806 Y101.67 E25.61112
G0 F6000 X110.807 Y102.208
G1 F1200 X113.662 Y105.064 E25.68385
G0 F6000 X113.125 Y105.064
G1 F1200 X110.807 Y102.746 E25.74289
G0 F6000 X110.807 Y103.283
G1 F1200 X112.587 Y105.064 E25.78824
G0 F6000 X112.05 Y105.064
G1 F1200 X110.807 Y103.821 E25.8199
G0 F6000 X110.807 Y104.359
G1 F1200 X111.512 Y105.064 E25.83786
G0 F6000 X110.975 Y105.064
G1 F1200 X110.807 Y104.896 E25.84214
G0 F6000 X110.899 Y104.896
G1 F2700 E20.84214
;MESH:paredstl.stl
G0 F6000 X110.828 Y104.895
G0 X110.093 Y105.781
G0 X110.094 Y106.869
