;FLAVOR:Marlin
M117 Time Left 0h55m17s
;TIME:3317
;Filament used: 2.14485m
;Layer height: 0.12
;MINX:90.075
;MINY:80.372
;MINZ:0.28
;MAXX:144.924
;MAXY:168.61
;MAXZ:16.48
;POSTPROCESSED
;Generated with Cura_SteamEngine 5.2.1
M140 S75
M105
M190 S75
M104 S225
M105
M109 S225
M82 ;absolute extrusion mode
; Ender 3 Custom Start G-code
G92 E0 ; Reset Extruder
G28 ; Home all axes
G1 Z2.0 F3000 ; Move Z Axis up little to prevent scratching of Heat Bed
G1 X0.1 Y20 Z0.3 F5000.0 ; Move to start position
G1 X0.1 Y200.0 Z0.3 F1500.0 E15 ; Draw the first line
G1 X0.4 Y200.0 Z0.3 F5000.0 ; Move to side a little
G1 X0.4 Y20 Z0.3 F1500.0 E30 ; Draw the second line
G92 E0 ; Reset Extruder
G1 Z2.0 F3000 ; Move Z Axis up little to prevent scratching of Heat Bed
G1 X5 Y20 Z0.3 F5000.0 ; Move over to prevent blob squish
G92 E0
G92 E0
G1 F3300 E-6
;LAYER_COUNT:136
;LAYER:0
M107
M204 S500
M205 X5 Y5
G0 F7500 X99.155 Y84.531 Z0.28
M205 X8 Y8
;TYPE:SKIRT
G1 F3300 E0
G1 F1500 X99.788 Y83.832 E0.04458
G1 X100.478 Y83.189 E0.08917
G1 X101.221 Y82.607 E0.13379
G1 X102.009 Y82.09 E0.17835
G1 X103.126 Y81.506 E0.23794
G1 X103.398 Y81.383 E0.25205
G1 X104.273 Y81.031 E0.29664
G1 X105.175 Y80.755 E0.34124
G1 X106.097 Y80.556 E0.38583
G1 X107.032 Y80.436 E0.4304
G1 X107.773 Y80.397 E0.46548
G1 X108.936 Y80.377 E0.52047
G1 X126.313 Y80.372 E1.34201
G1 X127.315 Y80.385 E1.38938
G1 X128.257 Y80.439 E1.43399
G1 X129.19 Y80.572 E1.47855
G1 X130.109 Y80.783 E1.52313
G1 X131.007 Y81.072 E1.56773
G1 X131.878 Y81.436 E1.61236
G1 X132.714 Y81.872 E1.65693
G1 X133.51 Y82.377 E1.7015
G1 X134.261 Y82.948 E1.7461
G1 X134.961 Y83.581 E1.79072
G1 X135.604 Y84.27 E1.83527
G1 X136.187 Y85.012 E1.87989
G1 X136.705 Y85.8 E1.92447
G1 X137.285 Y86.908 E1.9836
G1 X137.409 Y87.181 E1.99777
G1 X137.762 Y88.056 E2.04238
G1 X138.04 Y88.957 E2.08696
G1 X138.241 Y89.879 E2.13157
G1 X138.363 Y90.814 E2.17615
G1 X138.403 Y91.57 E2.21194
G1 X138.423 Y92.723 E2.26646
G1 X138.428 Y106.038 E2.89596
G1 X138.466 Y108.641 E3.01903
G1 X138.573 Y111.155 E3.13799
G1 X138.753 Y113.676 E3.25748
G1 X138.998 Y116.139 E3.3745
G1 X139.323 Y118.672 E3.49524
G1 X139.71 Y121.137 E3.6132
G1 X140.17 Y123.597 E3.73152
G1 X140.694 Y126.038 E3.84955
G1 X141.306 Y128.529 E3.97082
G1 X141.965 Y130.918 E4.08799
G1 X142.709 Y133.346 E4.20804
G1 X143.523 Y135.752 E4.32813
G1 X144.136 Y137.449 E4.41343
G1 X144.365 Y138.136 E4.44767
G1 X144.617 Y139.045 E4.49226
G1 X144.791 Y139.972 E4.53685
G1 X144.902 Y141.333 E4.60141
G1 X144.923 Y142.379 E4.65087
G1 X144.924 Y156.219 E5.30519
G1 X144.914 Y156.92 E5.33833
G1 X144.86 Y157.861 E5.38289
G1 X144.727 Y158.795 E5.4275
G1 X144.467 Y159.904 E5.48135
G1 X144.134 Y160.916 E5.53172
G1 X143.763 Y161.783 E5.5763
G1 X143.32 Y162.616 E5.62091
G1 X143.01 Y163.114 E5.64864
G1 X142.796 Y163.438 E5.667
G1 X142.243 Y164.203 E5.71162
G1 X141.628 Y164.917 E5.75618
G1 X140.954 Y165.577 E5.80077
G1 X140.227 Y166.178 E5.84537
G1 X139.451 Y166.715 E5.88998
G1 X138.633 Y167.184 E5.93456
G1 X137.776 Y167.583 E5.97925
G1 X137.371 Y167.751 E5.99998
G1 X136.485 Y168.075 E6.04458
G1 X135.575 Y168.323 E6.08917
G1 X134.647 Y168.493 E6.13378
G1 X133.298 Y168.598 E6.19775
G1 X132.524 Y168.61 E6.23434
G1 X101.748 Y168.609 E7.68935
G1 X101.05 Y168.599 E7.72235
G1 X100.108 Y168.545 E7.76696
G1 X99.174 Y168.412 E7.81156
G1 X98.255 Y168.201 E7.85614
G1 X97.357 Y167.912 E7.90074
G1 X96.487 Y167.548 E7.94533
G1 X95.651 Y167.112 E7.9899
G1 X94.854 Y166.607 E8.03451
G1 X94.104 Y166.035 E8.0791
G1 X93.404 Y165.403 E8.12369
G1 X92.761 Y164.713 E8.16828
G1 X92.178 Y163.972 E8.21285
G1 X91.66 Y163.183 E8.25748
G1 X91.211 Y162.354 E8.30205
G1 X90.834 Y161.49 E8.34662
G1 X90.531 Y160.596 E8.39124
G1 X90.305 Y159.681 E8.4358
G1 X90.157 Y158.749 E8.48042
G1 X90.088 Y157.776 E8.52653
G1 X90.075 Y157.143 E8.55646
G1 X90.076 Y141.408 E9.30037
G1 X90.087 Y140.709 E9.33342
G1 X90.142 Y139.767 E9.37803
G1 X90.277 Y138.834 E9.4226
G1 X90.49 Y137.915 E9.4672
G1 X90.775 Y137.029 E9.5112
G1 X91.056 Y136.267 E9.5496
G1 X91.914 Y133.836 E9.67148
G1 X92.681 Y131.451 E9.78992
G1 X93.383 Y129.033 E9.90896
G1 X94.014 Y126.608 E10.02742
G1 X94.585 Y124.128 E10.14774
G1 X95.074 Y121.687 E10.26544
G1 X95.499 Y119.204 E10.38453
G1 X95.855 Y116.699 E10.50415
G1 X96.133 Y114.243 E10.62101
G1 X96.35 Y111.698 E10.74176
G1 X96.488 Y109.24 E10.85815
G1 X96.562 Y106.647 E10.98079
G1 X96.571 Y105.285 E11.04519
G1 X96.573 Y92.335 E11.65743
G1 X96.586 Y91.475 E11.69809
G1 X96.64 Y90.533 E11.7427
G1 X96.774 Y89.6 E11.78726
G1 X96.987 Y88.681 E11.83186
G1 X97.276 Y87.783 E11.87646
G1 X97.641 Y86.913 E11.92106
G1 X98.077 Y86.077 E11.96564
G1 X98.584 Y85.281 E12.01026
G1 X99.155 Y84.531 E12.05482
M205 X5 Y5
G0 F7500 X99.599 Y84.703
M205 X8 Y8
G1 F1500 X100.229 Y84.028 E12.09847
G1 X100.916 Y83.409 E12.14219
G1 X101.653 Y82.853 E12.18584
G1 X102.436 Y82.362 E12.22953
G1 X103.312 Y81.916 E12.27601
G1 X103.584 Y81.793 E12.29012
G1 X104.441 Y81.449 E12.33378
G1 X105.325 Y81.181 E12.37745
G1 X106.229 Y80.99 E12.42113
G1 X107.146 Y80.878 E12.46481
G1 X107.781 Y80.847 E12.49486
G1 X108.936 Y80.827 E12.54948
G1 X126.313 Y80.822 E13.37101
G1 X127.308 Y80.835 E13.41806
G1 X128.231 Y80.888 E13.46177
G1 X129.145 Y81.021 E13.50543
G1 X130.045 Y81.232 E13.54914
G1 X130.922 Y81.521 E13.59279
G1 X131.772 Y81.884 E13.63649
G1 X132.587 Y82.319 E13.68016
G1 X133.361 Y82.823 E13.72383
G1 X134.089 Y83.392 E13.76751
G1 X134.765 Y84.022 E13.8112
G1 X135.384 Y84.708 E13.85488
G1 X135.941 Y85.445 E13.89856
G1 X136.433 Y86.227 E13.94224
G1 X136.875 Y87.094 E13.98825
G1 X136.999 Y87.367 E14.00242
G1 X137.345 Y88.224 E14.04612
G1 X137.615 Y89.108 E14.08982
G1 X137.807 Y90.011 E14.13346
G1 X137.921 Y90.928 E14.17715
G1 X137.953 Y91.579 E14.20796
G1 X137.973 Y92.723 E14.26206
G1 X137.978 Y106.044 E14.89184
G1 X138.016 Y108.668 E15.0159
G1 X138.123 Y111.17 E15.1343
G1 X138.302 Y113.683 E15.25341
G1 X138.557 Y116.237 E15.37475
G1 X138.871 Y118.691 E15.49172
G1 X139.27 Y121.227 E15.61309
G1 X139.73 Y123.693 E15.73169
G1 X140.256 Y126.138 E15.84992
G1 X140.872 Y128.646 E15.97202
G1 X141.531 Y131.036 E16.08923
G1 X142.28 Y133.48 E16.21008
G1 X143.1 Y135.907 E16.33119
G1 X143.713 Y137.602 E16.41641
G1 X143.937 Y138.274 E16.44989
G1 X144.183 Y139.165 E16.49359
G1 X144.351 Y140.073 E16.53725
G1 X144.452 Y141.342 E16.59744
G1 X144.475 Y142.602 E16.65701
G1 X144.474 Y156.212 E17.30046
G1 X144.464 Y156.913 E17.3336
G1 X144.411 Y157.836 E17.37731
G1 X144.278 Y158.75 E17.42098
G1 X144.033 Y159.786 E17.47131
G1 X143.706 Y160.774 E17.52051
G1 X143.341 Y161.623 E17.5642
G1 X142.904 Y162.437 E17.60788
G1 X142.42 Y163.19 E17.6502
G1 X141.878 Y163.938 E17.69387
G1 X141.274 Y164.637 E17.73754
G1 X140.611 Y165.281 E17.78124
G1 X139.895 Y165.864 E17.82489
G1 X139.131 Y166.384 E17.86859
G1 X138.325 Y166.836 E17.91227
G1 X137.603 Y167.167 E17.94982
G1 X137.198 Y167.335 E17.97055
G1 X136.33 Y167.652 E18.01424
G1 X135.438 Y167.893 E18.05793
G1 X134.529 Y168.055 E18.10158
G1 X133.291 Y168.148 E18.16027
G1 X132.524 Y168.16 E18.19654
G1 X101.754 Y168.159 E19.65126
G1 X101.056 Y168.149 E19.68426
G1 X100.134 Y168.096 E19.72792
G1 X99.219 Y167.963 E19.77163
G1 X98.32 Y167.752 E19.81529
G1 X97.442 Y167.463 E19.85899
G1 X96.593 Y167.1 E19.90265
G1 X95.778 Y166.665 E19.94632
G1 X95.003 Y166.161 E19.99003
G1 X94.276 Y165.592 E20.03367
G1 X93.6 Y164.962 E20.07736
G1 X92.981 Y164.276 E20.12104
G1 X92.424 Y163.539 E20.16472
G1 X91.932 Y162.757 E20.2084
G1 X91.51 Y161.935 E20.25208
G1 X91.161 Y161.079 E20.29579
G1 X90.887 Y160.197 E20.33945
G1 X90.69 Y159.294 E20.38315
G1 X90.572 Y158.378 E20.42681
G1 X90.538 Y157.764 E20.45588
G1 X90.525 Y157.143 E20.48525
G1 X90.526 Y141.415 E21.22882
G1 X90.537 Y140.716 E21.26187
G1 X90.592 Y139.794 E21.30554
G1 X90.726 Y138.88 E21.34921
G1 X90.938 Y137.98 E21.39293
G1 X91.197 Y137.185 E21.43246
G1 X91.476 Y136.431 E21.47047
G1 X92.34 Y133.982 E21.59324
G1 X93.114 Y131.573 E21.71287
G1 X93.821 Y129.139 E21.8327
G1 X94.452 Y126.713 E21.95121
G1 X95.021 Y124.243 E22.07104
G1 X95.52 Y121.749 E22.19129
G1 X95.943 Y119.275 E22.30995
G1 X96.3 Y116.774 E22.42939
G1 X96.584 Y114.262 E22.5489
G1 X96.797 Y111.761 E22.66757
G1 X96.939 Y109.241 E22.7869
G1 X97.012 Y106.663 E22.90883
G1 X97.021 Y105.288 E22.97384
G1 X97.023 Y92.342 E23.58589
G1 X97.036 Y91.482 E23.62655
G1 X97.09 Y90.559 E23.67026
G1 X97.224 Y89.645 E23.71394
G1 X97.436 Y88.746 E23.7576
G1 X97.725 Y87.868 E23.8013
G1 X98.088 Y87.019 E23.84496
G1 X98.524 Y86.204 E23.88865
G1 X99.029 Y85.431 E23.93231
G1 X99.599 Y84.703 E23.97602
M205 X5 Y5
G0 F7500 X100.042 Y84.879
M205 X8 Y8
G1 F1500 X100.669 Y84.228 E24.01875
G1 X101.352 Y83.635 E24.06151
G1 X102.084 Y83.105 E24.10424
G1 X102.86 Y82.641 E24.14698
G1 X103.497 Y82.326 E24.18058
G1 X103.769 Y82.203 E24.19469
G1 X104.608 Y81.868 E24.23741
G1 X105.474 Y81.607 E24.28017
G1 X106.36 Y81.424 E24.32294
G1 X107.258 Y81.321 E24.36567
G1 X107.79 Y81.297 E24.39085
G1 X108.936 Y81.277 E24.44504
G1 X126.313 Y81.272 E25.26657
G1 X127.302 Y81.285 E25.31333
G1 X128.205 Y81.338 E25.3561
G1 X129.099 Y81.47 E25.39882
G1 X129.978 Y81.681 E25.44156
G1 X130.836 Y81.969 E25.48435
G1 X131.664 Y82.331 E25.52707
G1 X132.457 Y82.766 E25.56983
G1 X133.209 Y83.268 E25.61258
G1 X133.913 Y83.835 E25.65531
G1 X134.565 Y84.462 E25.69808
G1 X135.158 Y85.144 E25.74081
G1 X135.689 Y85.876 E25.78356
G1 X136.154 Y86.652 E25.82633
G1 X136.466 Y87.28 E25.85948
G1 X136.59 Y87.553 E25.87366
G1 X136.927 Y88.392 E25.9164
G1 X137.189 Y89.258 E25.95918
G1 X137.373 Y90.143 E26.00191
G1 X137.478 Y91.041 E26.04466
G1 X137.503 Y91.587 E26.0705
G1 X137.523 Y92.723 E26.12421
G1 X137.528 Y106.051 E26.75432
G1 X137.566 Y108.658 E26.87759
G1 X137.675 Y111.221 E26.99887
G1 X137.854 Y113.722 E27.11741
G1 X138.107 Y116.27 E27.23847
G1 X138.43 Y118.784 E27.3583
G1 X138.826 Y121.305 E27.47895
G1 X139.286 Y123.768 E27.5974
G1 X139.817 Y126.24 E27.71694
G1 X140.429 Y128.732 E27.83825
G1 X141.104 Y131.178 E27.95822
G1 X141.85 Y133.613 E28.07862
G1 X142.678 Y136.062 E28.20084
G1 X143.29 Y137.755 E28.28595
G1 X143.509 Y138.413 E28.31873
G1 X143.748 Y139.284 E28.36143
G1 X143.91 Y140.174 E28.4042
G1 X144.002 Y141.351 E28.46002
G1 X144.025 Y142.602 E28.51917
G1 X144.024 Y156.206 E29.16233
G1 X144.014 Y156.907 E29.19547
G1 X143.961 Y157.81 E29.23824
G1 X143.829 Y158.704 E29.28096
G1 X143.6 Y159.666 E29.32771
G1 X143.279 Y160.633 E29.37588
G1 X142.919 Y161.462 E29.41861
G1 X142.259 Y162.618 E29.48155
G1 X142.045 Y162.942 E29.4999
G1 X141.514 Y163.674 E29.54266
G1 X140.92 Y164.356 E29.58541
G1 X140.268 Y164.983 E29.62818
G1 X139.564 Y165.55 E29.67092
G1 X138.812 Y166.052 E29.71366
G1 X138.019 Y166.486 E29.7564
G1 X137.431 Y166.752 E29.78691
G1 X137.026 Y166.92 E29.80764
G1 X136.176 Y167.229 E29.8504
G1 X135.302 Y167.462 E29.89316
G1 X134.412 Y167.617 E29.93587
G1 X133.283 Y167.699 E29.98939
G1 X132.699 Y167.709 E30.017
G1 X101.761 Y167.709 E31.47967
G1 X101.063 Y167.699 E31.51267
G1 X100.16 Y167.646 E31.55543
G1 X99.265 Y167.514 E31.5982
G1 X98.386 Y167.303 E31.64094
G1 X97.529 Y167.015 E31.68368
G1 X96.701 Y166.652 E31.72643
G1 X95.907 Y166.218 E31.76921
G1 X95.156 Y165.716 E31.81191
G1 X94.451 Y165.149 E31.85469
G1 X93.8 Y164.522 E31.89742
G1 X93.206 Y163.84 E31.94017
G1 X92.675 Y163.108 E31.98293
G1 X92.211 Y162.332 E32.02567
G1 X91.817 Y161.518 E32.06843
G1 X91.497 Y160.672 E32.11119
G1 X91.252 Y159.802 E32.15392
G1 X91.086 Y158.913 E32.19668
G1 X90.988 Y157.752 E32.25176
G1 X90.975 Y157.143 E32.28056
G1 X90.976 Y141.422 E33.0238
G1 X90.987 Y140.723 E33.05686
G1 X91.041 Y139.821 E33.09958
G1 X91.175 Y138.926 E33.14236
G1 X91.387 Y138.047 E33.18511
G1 X91.619 Y137.341 E33.22024
G1 X91.923 Y136.518 E33.26172
G1 X92.766 Y134.127 E33.38158
G1 X93.538 Y131.726 E33.50082
G1 X94.252 Y129.269 E33.62178
G1 X94.887 Y126.827 E33.74107
G1 X95.462 Y124.33 E33.86221
G1 X95.961 Y121.839 E33.98232
G1 X96.388 Y119.341 E34.10213
G1 X96.747 Y116.82 E34.22252
G1 X97.031 Y114.316 E34.34166
G1 X97.246 Y111.787 E34.46166
G1 X97.389 Y109.242 E34.58217
G1 X97.462 Y106.679 E34.70339
G1 X97.471 Y105.291 E34.76901
G1 X97.473 Y92.348 E35.38092
G1 X97.486 Y91.488 E35.42158
G1 X97.54 Y90.586 E35.4643
G1 X97.673 Y89.691 E35.50708
G1 X97.885 Y88.812 E35.54983
G1 X98.173 Y87.955 E35.59257
G1 X98.536 Y87.127 E35.63531
G1 X98.971 Y86.335 E35.67803
G1 X99.474 Y85.583 E35.72081
G1 X100.042 Y84.879 E35.76357
M205 X5 Y5
G1 F3300 E29.76357
;MESH:externo.stl
G0 F7500 X107.176 Y91.3
G0 X108.136 Y91.941
G0 X108.577 Y92.381
G1 F3300 E35.76357
G0 F7500 X108.397 Y92.201
M205 X8 Y8
;TYPE:WALL-INNER
G1 F1500 X108.399 Y99.352 E36.13921
G1 X108.391 Y99.681 E36.1565
G1 X108.397 Y106.402 E36.50956
G1 X126.602 Y106.403 E37.46587
G1 X126.599 Y92.197 E38.21212
G1 X108.397 Y92.201 E39.16827
M205 X5 Y5
G0 F7500 X108.122 Y91.926
M205 X8 Y8
;TYPE:WALL-OUTER
G1 F1500 X108.124 Y99.346 E39.51907
G1 X108.116 Y99.677 E39.53472
G1 X108.122 Y106.677 E39.86566
G1 X126.877 Y106.678 E40.75234
G1 X126.874 Y91.922 E41.44997
G1 X108.122 Y91.926 E42.33651
M205 X5 Y5
G0 F7500 X108.122 Y92.126
G0 X108.592 Y92.397
G0 X108.619 Y106.18
G0 X108.659 Y106.14
M205 X8 Y8
;TYPE:SKIN
G1 F1500 X126.339 Y106.141 E42.80088
G1 X126.339 Y99.301 E42.98053
G1 X126.337 Y92.46 E43.16021
G1 X108.66 Y92.463 E43.6245
G1 X108.661 Y99.305 E43.8042
G1 X108.654 Y99.683 E43.81413
G1 X108.659 Y106.14 E43.98373
M205 X5 Y5
G0 F7500 X108.659 Y106.252
G0 X108.547 Y92.75
G0 X108.785 Y92.75
M205 X8 Y8
G1 F1500 X126.213 Y92.75 E44.44148
M205 X5 Y5
G0 F7500 X126.213 Y93
M205 X8 Y8
G1 F1500 X108.785 Y93 E44.89922
M205 X5 Y5
G0 F7500 X108.785 Y93.25
M205 X8 Y8
G1 F1500 X126.213 Y93.25 E45.35697
M205 X5 Y5
G0 F7500 X126.213 Y93.5
M205 X8 Y8
G1 F1500 X108.785 Y93.5 E45.81472
M205 X5 Y5
G0 F7500 X108.785 Y93.75
M205 X8 Y8
G1 F1500 X126.213 Y93.75 E46.27247
M205 X5 Y5
G0 F7500 X126.213 Y94
M205 X8 Y8
G1 F1500 X108.785 Y94 E46.73022
M205 X5 Y5
G0 F7500 X108.785 Y94.25
M205 X8 Y8
G1 F1500 X126.213 Y94.25 E47.18797
M205 X5 Y5
G0 F7500 X126.213 Y94.5
M205 X8 Y8
G1 F1500 X108.785 Y94.5 E47.64571
M205 X5 Y5
G0 F7500 X108.785 Y94.75
M205 X8 Y8
G1 F1500 X126.213 Y94.75 E48.10346
M205 X5 Y5
G0 F7500 X126.213 Y95
M205 X8 Y8
G1 F1500 X108.785 Y95 E48.56121
M205 X5 Y5
G0 F7500 X108.785 Y95.25
M205 X8 Y8
G1 F1500 X126.213 Y95.25 E49.01896
M205 X5 Y5
G0 F7500 X126.213 Y95.5
M205 X8 Y8
G1 F1500 X108.785 Y95.5 E49.47671
M205 X5 Y5
G0 F7500 X108.785 Y95.75
M205 X8 Y8
G1 F1500 X126.213 Y95.75 E49.93446
M205 X5 Y5
G0 F7500 X126.213 Y96
M205 X8 Y8
G1 F1500 X108.785 Y96 E50.39221
M205 X5 Y5
G0 F7500 X108.785 Y96.25
M205 X8 Y8
G1 F1500 X126.213 Y96.25 E50.84995
M205 X5 Y5
G0 F7500 X126.213 Y96.5
M205 X8 Y8
G1 F1500 X108.785 Y96.5 E51.3077
M205 X5 Y5
G0 F7500 X108.785 Y96.75
M205 X8 Y8
G1 F1500 X126.213 Y96.75 E51.76545
M205 X5 Y5
G0 F7500 X126.213 Y97
M205 X8 Y8
G1 F1500 X108.785 Y97 E52.2232
M205 X5 Y5
G0 F7500 X108.785 Y97.25
M205 X8 Y8
G1 F1500 X126.213 Y97.25 E52.68095
M205 X5 Y5
G0 F7500 X126.213 Y97.5
M205 X8 Y8
G1 F1500 X108.785 Y97.5 E53.1387
M205 X5 Y5
G0 F7500 X108.785 Y97.75
M205 X8 Y8
G1 F1500 X126.213 Y97.75 E53.59644
M205 X5 Y5
G0 F7500 X126.213 Y98
M205 X8 Y8
G1 F1500 X108.785 Y98 E54.05419
M205 X5 Y5
G0 F7500 X108.785 Y98.25
M205 X8 Y8
G1 F1500 X126.213 Y98.25 E54.51194
M205 X5 Y5
G0 F7500 X126.213 Y98.5
M205 X8 Y8
G1 F1500 X108.785 Y98.5 E54.96969
M205 X5 Y5
G0 F7500 X108.785 Y98.75
M205 X8 Y8
G1 F1500 X126.213 Y98.75 E55.42744
M205 X5 Y5
G0 F7500 X126.213 Y99
M205 X8 Y8
G1 F1500 X108.785 Y99 E55.88519
M205 X5 Y5
G0 F7500 X108.785 Y99.25
M205 X8 Y8
G1 F1500 X126.213 Y99.25 E56.34293
M205 X5 Y5
G0 F7500 X126.214 Y99.5
M205 X8 Y8
G1 F1500 X108.783 Y99.5 E56.80076
M205 X5 Y5
G0 F7500 X108.779 Y99.75
M205 X8 Y8
G1 F1500 X126.214 Y99.75 E57.25869
M205 X5 Y5
G0 F7500 X126.214 Y100
M205 X8 Y8
G1 F1500 X108.779 Y100 E57.71663
M205 X5 Y5
G0 F7500 X108.779 Y100.25
M205 X8 Y8
G1 F1500 X126.214 Y100.25 E58.17456
M205 X5 Y5
G0 F7500 X126.214 Y100.5
M205 X8 Y8
G1 F1500 X108.779 Y100.5 E58.63249
M205 X5 Y5
G0 F7500 X108.779 Y100.75
M205 X8 Y8
G1 F1500 X126.214 Y100.75 E59.09042
M205 X5 Y5
G0 F7500 X126.214 Y101
M205 X8 Y8
