;FLAVOR:Marlin
;TIME:7747
;Filament used: 8.75298m
;Layer height: 0.28
;MINX:56.916
;MINY:63.835
;MINZ:0.285
;MAXX:178.08
;MAXY:181.5
;MAXZ:44.245
;Generated with Cura_SteamEngine 4.6.2
M140 S60
M105
M190 S60
M104 S200
M105
M109 S200
M82 ;absolute extrusion mode
; Ender 3 Custom Start G-code
G92 E0 ; Reset Extruder
G28 ; Home all axes
G1 Z2.0 F3000 ; Move Z Axis up little to prevent scratching of Heat Bed
G1 X0.1 Y20 Z0.3 F5000.0 ; Move to start position
G1 X0.1 Y200.0 Z0.3 F1500.0 E15 ; Draw the first line
G1 X0.4 Y200.0 Z0.3 F5000.0 ; Move to side a little
G1 X0.4 Y20 Z0.3 F1500.0 E30 ; Draw the second line
G92 E0 ; Reset Extruder
G1 Z2.0 F3000 ; Move Z Axis up little to prevent scratching of Heat Bed
G1 X5 Y20 Z0.3 F5000.0 ; Move over to prevent blob squish
G92 E0
G92 E0
G1 F2700 E-6
;LAYER_COUNT:158
;LAYER:0
M107
M204 S500
M205 X8 Y8
G0 F7500 X139.278 Y98.974 Z0.285
;TYPE:SKIRT
G1 F2700 E0
G1 F1500 X139.852 Y98.998 E0.02587
G1 X140.874 Y99.07 E0.072
G1 X143.445 Y99.216 E0.18795
G1 X147.391 Y99.299 E0.36566
G1 X163.71 Y99.301 E1.10044
G1 X164.333 Y99.31 E1.12849
G1 X165.237 Y99.363 E1.16926
G1 X165.845 Y99.426 E1.19679
G1 X167.172 Y99.653 E1.2574
G1 X167.56 Y99.746 E1.27537
G1 X168.428 Y99.995 E1.31603
G1 X168.994 Y100.204 E1.34319
G1 X169.483 Y100.401 E1.36693
G1 X170.304 Y100.775 E1.40755
G1 X171.179 Y101.277 E1.45297
G1 X171.352 Y101.388 E1.46223
G1 X171.841 Y101.722 E1.48889
G1 X172.251 Y102.02 E1.51171
G1 X172.957 Y102.583 E1.55237
G1 X173.561 Y103.155 E1.58983
G1 X173.71 Y103.308 E1.59944
G1 X174.243 Y103.9 E1.63531
G1 X174.595 Y104.323 E1.66009
G1 X175.142 Y105.042 E1.70076
G1 X175.704 Y105.952 E1.74892
G1 X175.803 Y106.133 E1.75821
G1 X176.038 Y106.591 E1.78139
G1 X176.267 Y107.065 E1.80509
G1 X176.624 Y107.895 E1.84577
G1 X176.905 Y108.753 E1.88642
G1 X177.11 Y109.632 E1.92706
G1 X177.236 Y110.527 E1.96776
G1 X177.283 Y111.428 E2.00838
G1 X177.245 Y112.385 E2.05151
G1 X177.135 Y113.642 E2.10832
G1 X177.007 Y114.971 E2.16844
G1 X176.881 Y115.865 E2.20909
G1 X176.676 Y116.745 E2.24977
G1 X176.394 Y117.603 E2.29044
G1 X176.037 Y118.432 E2.33108
G1 X175.772 Y118.944 E2.35704
G1 X175.346 Y119.709 E2.39646
G1 X155.69 Y153.755 E4.16655
G1 X154.443 Y155.988 E4.28171
G1 X153.259 Y158.257 E4.39695
G1 X152.144 Y160.546 E4.51159
G1 X151.108 Y162.839 E4.62488
G1 X150.121 Y165.196 E4.73994
G1 X149.189 Y167.611 E4.85649
G1 X148.367 Y169.942 E4.96778
G1 X147.568 Y172.426 E5.08527
G1 X147.259 Y173.436 E5.13283
G1 X146.961 Y174.276 E5.17296
G1 X146.568 Y175.139 E5.21565
G1 X146.122 Y175.924 E5.2563
G1 X145.607 Y176.666 E5.29697
G1 X145.029 Y177.36 E5.33764
G1 X144.392 Y178 E5.3783
G1 X143.701 Y178.581 E5.41895
G1 X142.961 Y179.099 E5.45962
G1 X142.178 Y179.549 E5.50028
G1 X141.358 Y179.929 E5.54097
G1 X140.508 Y180.234 E5.58163
G1 X139.635 Y180.463 E5.62227
G1 X138.744 Y180.613 E5.66295
G1 X137.777 Y180.687 E5.70662
G1 X137.17 Y180.7 E5.73396
G1 X98.061 Y180.699 E7.49488
G1 X97.363 Y180.689 E7.52631
G1 X96.461 Y180.636 E7.56699
G1 X95.568 Y180.504 E7.60764
G1 X94.69 Y180.293 E7.64829
G1 X93.834 Y180.005 E7.68896
G1 X93.007 Y179.643 E7.72961
G1 X92.215 Y179.208 E7.77029
G1 X91.464 Y178.706 E7.81097
G1 X90.761 Y178.139 E7.85163
G1 X90.111 Y177.512 E7.8923
G1 X89.519 Y176.83 E7.93296
G1 X88.989 Y176.099 E7.97361
G1 X88.527 Y175.323 E8.01428
G1 X88.134 Y174.51 E8.05494
G1 X87.814 Y173.66 E8.09583
G1 X87.673 Y173.223 E8.1165
G1 X87.022 Y171.102 E8.2164
G1 X86.22 Y168.732 E8.32906
G1 X85.322 Y166.309 E8.44541
G1 X84.383 Y163.981 E8.55843
G1 X83.358 Y161.629 E8.67395
G1 X82.28 Y159.338 E8.78796
G1 X81.161 Y157.122 E8.89973
G1 X79.29 Y153.72 E9.07455
G1 X59.567 Y119.553 E10.85087
G1 X59.241 Y118.969 E10.88098
G1 X58.836 Y118.161 E10.92168
G1 X58.504 Y117.321 E10.96234
G1 X58.248 Y116.455 E11.003
G1 X58.069 Y115.57 E11.04366
G1 X57.985 Y114.882 E11.07487
G1 X57.942 Y114.388 E11.09719
G1 X57.829 Y113.248 E11.14878
G1 X57.754 Y112.383 E11.18787
G1 X57.716 Y111.481 E11.22852
G1 X57.758 Y110.579 E11.26918
G1 X57.879 Y109.684 E11.30984
G1 X58.08 Y108.803 E11.35053
G1 X58.357 Y107.944 E11.39117
G1 X58.701 Y107.128 E11.43104
G1 X58.832 Y106.852 E11.44479
G1 X58.99 Y106.534 E11.46078
G1 X59.148 Y106.229 E11.47625
G1 X59.599 Y105.447 E11.5169
G1 X60.262 Y104.521 E11.56817
G1 X60.656 Y104.032 E11.59645
G1 X61.405 Y103.201 E11.64682
G1 X61.603 Y103.004 E11.6594
G1 X62.271 Y102.396 E11.70007
G1 X62.919 Y101.899 E11.73684
G1 X63.431 Y101.538 E11.76505
G1 X64.192 Y101.051 E11.80573
G1 X65.198 Y100.539 E11.85655
G1 X65.391 Y100.454 E11.86605
G1 X65.892 Y100.249 E11.89042
G1 X66.373 Y100.067 E11.91358
G1 X67.231 Y99.785 E11.95424
G1 X68.394 Y99.531 E12.00784
G1 X68.635 Y99.493 E12.01883
G1 X69.067 Y99.435 E12.03845
G1 X69.435 Y99.393 E12.05513
G1 X70.381 Y99.329 E12.09782
G1 X71.752 Y99.303 E12.15956
G1 X87.705 Y99.301 E12.87786
G1 X90.306 Y99.264 E12.99498
G1 X92.867 Y99.155 E13.1104
G1 X94.782 Y99.019 E13.19684
G1 X95.564 Y98.979 E13.2321
G1 X96.203 Y98.964 E13.26088
G1 X109.437 Y98.965 E13.85675
G1 X110.143 Y98.975 E13.88854
G1 X110.73 Y99 E13.915
G1 X111.076 Y99.025 E13.93062
G1 X113.613 Y99.17 E14.04503
G1 X116.178 Y99.243 E14.16057
G1 X118.712 Y99.243 E14.27467
G1 X121.255 Y99.172 E14.38921
G1 X124.724 Y98.977 E14.54565
G1 X125.33 Y98.964 E14.57295
G1 X138.576 Y98.964 E15.16936
G1 X139.278 Y98.974 E15.20097
G0 F7500 X139.284 Y98.574
G1 F1500 X139.88 Y98.599 E15.22783
G1 X140.922 Y98.673 E15.27486
G1 X143.449 Y98.816 E15.38883
G1 X147.399 Y98.899 E15.56672
G1 X163.716 Y98.901 E16.30141
G1 X164.339 Y98.91 E16.32946
G1 X165.279 Y98.965 E16.37186
G1 X165.887 Y99.028 E16.39938
G1 X166.797 Y99.163 E16.4408
G1 X167.265 Y99.264 E16.46236
G1 X167.653 Y99.357 E16.48032
G1 X168.538 Y99.61 E16.52177
G1 X169.143 Y99.833 E16.5508
G1 X169.632 Y100.03 E16.57454
G1 X170.47 Y100.411 E16.61599
G1 X171.395 Y100.94 E16.66397
G1 X171.568 Y101.051 E16.67322
G1 X172.076 Y101.399 E16.70095
G1 X172.486 Y101.697 E16.72377
G1 X173.207 Y102.27 E16.76523
G1 X173.848 Y102.876 E16.80495
G1 X173.997 Y103.029 E16.81457
G1 X174.551 Y103.644 E16.85184
G1 X174.903 Y104.067 E16.87662
G1 X175.46 Y104.799 E16.91803
G1 X176.055 Y105.76 E16.96892
G1 X176.154 Y105.941 E16.97821
G1 X176.398 Y106.417 E17.0023
G1 X176.627 Y106.891 E17.026
G1 X176.992 Y107.736 E17.06744
G1 X177.281 Y108.61 E17.10889
G1 X177.493 Y109.506 E17.15035
G1 X177.627 Y110.417 E17.19181
G1 X177.682 Y111.336 E17.23326
G1 X177.643 Y112.42 E17.2821
G1 X177.533 Y113.68 E17.33905
G1 X177.405 Y115.009 E17.39917
G1 X177.277 Y115.921 E17.44063
G1 X177.071 Y116.818 E17.48207
G1 X176.787 Y117.694 E17.52354
G1 X176.428 Y118.542 E17.565
G1 X176.121 Y119.138 E17.59518
G1 X175.692 Y119.909 E17.63491
G1 X156.043 Y153.944 E19.40442
G1 X154.789 Y156.189 E19.5202
G1 X153.629 Y158.41 E19.63302
G1 X152.497 Y160.736 E19.74949
G1 X151.483 Y162.979 E19.86033
G1 X150.487 Y165.358 E19.97645
G1 X149.575 Y167.721 E20.0905
G1 X148.739 Y170.093 E20.20374
G1 X147.938 Y172.583 E20.32151
G1 X147.641 Y173.553 E20.36719
G1 X147.332 Y174.426 E20.40889
G1 X146.932 Y175.306 E20.45241
G1 X146.479 Y176.107 E20.49384
G1 X145.958 Y176.866 E20.53529
G1 X145.373 Y177.577 E20.57675
G1 X144.728 Y178.234 E20.61821
G1 X144.029 Y178.833 E20.65965
G1 X143.281 Y179.369 E20.70109
G1 X142.488 Y179.838 E20.74257
G1 X141.658 Y180.237 E20.78404
G1 X140.797 Y180.562 E20.82547
G1 X139.911 Y180.811 E20.86691
G1 X139.006 Y180.982 E20.90838
G1 X137.788 Y181.087 E20.96343
G1 X137.17 Y181.1 E20.99126
G1 X98.055 Y181.099 E22.75245
G1 X97.357 Y181.089 E22.78388
G1 X96.438 Y181.036 E22.82533
G1 X95.527 Y180.903 E22.86678
G1 X94.631 Y180.692 E22.90823
G1 X93.757 Y180.404 E22.94966
G1 X92.91 Y180.041 E22.99115
G1 X92.099 Y179.606 E23.03259
G1 X91.329 Y179.102 E23.07403
G1 X90.605 Y178.533 E23.11549
G1 X89.933 Y177.903 E23.15696
G1 X89.318 Y177.218 E23.19841
G1 X88.765 Y176.482 E23.23986
G1 X88.278 Y175.701 E23.2813
G1 X87.861 Y174.88 E23.32277
G1 X87.434 Y173.784 E23.37573
G1 X87.291 Y173.341 E23.39669
G1 X86.644 Y171.233 E23.49597
G1 X85.841 Y168.863 E23.60864
G1 X84.947 Y166.449 E23.72455
G1 X84.017 Y164.141 E23.83659
G1 X82.993 Y161.793 E23.95192
G1 X81.919 Y159.51 E24.06553
G1 X80.805 Y157.305 E24.17676
G1 X78.941 Y153.915 E24.35095
G1 X59.217 Y119.748 E26.12729
G1 X58.891 Y119.164 E26.1574
G1 X58.478 Y118.341 E26.19886
G1 X58.138 Y117.486 E26.24029
G1 X57.873 Y116.604 E26.28176
G1 X57.685 Y115.703 E26.3232
G1 X57.587 Y114.916 E26.35891
G1 X57.551 Y114.497 E26.37785
G1 X57.431 Y113.283 E26.43277
G1 X57.356 Y112.418 E26.47187
G1 X57.316 Y111.498 E26.51333
G1 X57.356 Y110.578 E26.55479
G1 X57.476 Y109.665 E26.59626
G1 X57.675 Y108.766 E26.63771
G1 X57.951 Y107.888 E26.67915
G1 X58.34 Y106.957 E26.72458
G1 X58.471 Y106.681 E26.73834
G1 X58.635 Y106.35 E26.75497
G1 X58.793 Y106.045 E26.77044
G1 X59.252 Y105.247 E26.81189
G1 X59.951 Y104.27 E26.86598
G1 X60.345 Y103.781 E26.89425
G1 X61.123 Y102.918 E26.94657
G1 X61.321 Y102.721 E26.95915
G1 X62.001 Y102.1 E27.00061
G1 X62.689 Y101.572 E27.03966
G1 X63.201 Y101.211 E27.06787
G1 X63.976 Y100.714 E27.10932
G1 X65.037 Y100.173 E27.16295
G1 X65.23 Y100.088 E27.17244
G1 X65.751 Y99.875 E27.19778
G1 X66.232 Y99.693 E27.22094
G1 X67.106 Y99.405 E27.26237
G1 X68.332 Y99.136 E27.31889
G1 X68.573 Y99.098 E27.32987
G1 X69.022 Y99.037 E27.35028
G1 X69.39 Y98.995 E27.36695
G1 X70.373 Y98.929 E27.41131
G1 X71.752 Y98.903 E27.47342
G1 X87.699 Y98.901 E28.19144
G1 X90.318 Y98.864 E28.30938
G1 X92.82 Y98.757 E28.42214
G1 X94.759 Y98.62 E28.50966
G1 X95.552 Y98.579 E28.54541
G1 X96.203 Y98.564 E28.57473
G1 X109.443 Y98.565 E29.17088
G1 X110.149 Y98.575 E29.20267
G1 X110.758 Y98.601 E29.23011
G1 X111.055 Y98.622 E29.24352
G1 X113.648 Y98.77 E29.36046
G1 X116.189 Y98.843 E29.47492
G1 X118.701 Y98.843 E29.58802
G1 X121.22 Y98.773 E29.70149
G1 X124.713 Y98.577 E29.85901
G1 X125.33 Y98.564 E29.8868
G1 X138.582 Y98.564 E30.48348
G1 X139.284 Y98.574 E30.51509
G0 F7500 X139.29 Y98.174
G1 F1500 X139.908 Y98.2 E30.54294
G1 X140.974 Y98.275 E30.59106
G1 X143.45 Y98.416 E30.70272
G1 X147.408 Y98.499 E30.88098
G1 X163.722 Y98.501 E31.61553
G1 X164.345 Y98.51 E31.64358
G1 X165.32 Y98.568 E31.68756
G1 X165.928 Y98.631 E31.71508
G1 X166.856 Y98.767 E31.75731
G1 X167.358 Y98.875 E31.78043
G1 X167.746 Y98.968 E31.7984
G1 X168.648 Y99.225 E31.84063
G1 X169.292 Y99.462 E31.87153
G1 X169.781 Y99.659 E31.89526
G1 X170.636 Y100.046 E31.93752
G1 X171.611 Y100.604 E31.9881
G1 X171.784 Y100.715 E31.99736
G1 X172.311 Y101.075 E32.02609
G1 X172.721 Y101.373 E32.04892
G1 X173.456 Y101.956 E32.09116
G1 X174.135 Y102.597 E32.1332
G1 X174.284 Y102.75 E32.14282
G1 X174.858 Y103.388 E32.18146
G1 X175.21 Y103.811 E32.20624
G1 X175.779 Y104.557 E32.24848
G1 X176.406 Y105.568 E32.30204
G1 X176.505 Y105.749 E32.31133
G1 X176.759 Y106.243 E32.33634
G1 X176.988 Y106.717 E32.36005
G1 X177.359 Y107.578 E32.40226
G1 X177.656 Y108.468 E32.44451
G1 X177.876 Y109.379 E32.4867
G1 X178.018 Y110.306 E32.52893
G1 X178.08 Y111.242 E32.57117
G1 X178.042 Y112.455 E32.62581
G1 X177.931 Y113.719 E32.68294
G1 X177.803 Y115.048 E32.74306
G1 X177.674 Y115.976 E32.78524
G1 X177.465 Y116.891 E32.8275
G1 X177.18 Y117.784 E32.86971
G1 X176.82 Y118.65 E32.91194
G1 X176.471 Y119.332 E32.94643
G1 X176.038 Y120.109 E32.98648
G1 X156.425 Y154.08 E34.75268
G1 X155.135 Y156.391 E34.87185
G1 X153.972 Y158.62 E34.98505
G1 X152.877 Y160.869 E35.09768
G1 X151.826 Y163.193 E35.21252
G1 X150.87 Y165.477 E35.32401
G1 X149.95 Y167.862 E35.4391
G1 X149.125 Y170.2 E35.55074
G1 X148.323 Y172.695 E35.66874
G1 X148.024 Y173.67 E35.71466
G1 X147.702 Y174.576 E35.75795
G1 X147.297 Y175.472 E35.80222
G1 X146.837 Y176.289 E35.84444
G1 X146.309 Y177.064 E35.88666
G1 X145.717 Y177.792 E35.92891
G1 X145.065 Y178.466 E35.97113
G1 X144.358 Y179.082 E36.01336
G1 X143.602 Y179.636 E36.05556
G1 X142.8 Y180.124 E36.09783
G1 X141.96 Y180.541 E36.14005
G1 X141.088 Y180.886 E36.18228
G1 X140.19 Y181.154 E36.22447
G1 X139.271 Y181.346 E36.26674
G1 X138.34 Y181.458 E36.30897
G1 X137.799 Y181.487 E36.33336
G1 X137.17 Y181.5 E36.36169
G1 X98.049 Y181.499 E38.12315
G1 X97.351 Y181.489 E38.15458
G1 X96.415 Y181.435 E38.19679
G1 X95.487 Y181.303 E38.239
G1 X94.573 Y181.091 E38.28124
G1 X93.681 Y180.802 E38.32346
G1 X92.816 Y180.439 E38.3657
G1 X91.986 Y180.003 E38.40791
G1 X91.195 Y179.498 E38.45017
G1 X90.451 Y178.927 E38.4924
G1 X89.758 Y178.295 E38.53463
G1 X89.121 Y177.607 E38.57684
G1 X88.546 Y176.866 E38.61907
G1 X88.035 Y176.08 E38.66129
G1 X87.593 Y175.252 E38.70355
G1 X87.224 Y174.39 E38.74577
G1 X87.054 Y173.908 E38.76878
G1 X86.908 Y173.458 E38.79008
G1 X86.258 Y171.341 E38.88979
G1 X85.463 Y168.993 E39.00141
G1 X84.577 Y166.601 E39.11626
G1 X83.638 Y164.272 E39.22933
G1 X82.636 Y161.974 E39.34221
G1 X81.565 Y159.696 E39.45555
G1 X80.449 Y157.487 E39.56698
G1 X78.582 Y154.093 E39.74139
G1 X58.868 Y119.943 E41.51684
G1 X58.542 Y119.359 E41.54696
G1 X58.12 Y118.521 E41.5892
G1 X57.771 Y117.65 E41.63145
G1 X57.498 Y116.753 E41.67367
G1 X57.302 Y115.836 E41.71589
G1 X57.188 Y114.951 E41.75607
G1 X57.145 Y114.457 E41.7784
G1 X57.032 Y113.317 E41.82998
G1 X56.957 Y112.452 E41.86907
G1 X56.916 Y111.515 E41.9113
G1 X56.955 Y110.578 E41.95353
G1 X57.073 Y109.648 E41.99574
G1 X57.271 Y108.731 E42.03798
G1 X57.545 Y107.834 E42.08021
G1 X57.979 Y106.785 E42.13132
G1 X58.11 Y106.509 E42.14508
G1 X58.28 Y106.166 E42.16231
G1 X58.438 Y105.861 E42.17778
G1 X58.904 Y105.048 E42.21997
G1 X59.639 Y104.019 E42.27691
G1 X60.033 Y103.53 E42.30519
G1 X60.841 Y102.634 E42.35951
G1 X61.039 Y102.437 E42.37209
G1 X61.731 Y101.805 E42.41428
G1 X62.458 Y101.245 E42.4556
G1 X62.97 Y100.884 E42.48381
G1 X63.759 Y100.377 E42.52604
G1 X64.875 Y99.807 E42.58246
G1 X65.068 Y99.722 E42.59196
G1 X65.609 Y99.501 E42.61827
G1 X66.09 Y99.319 E42.64143
G1 X66.981 Y99.025 E42.68367
G1 X68.27 Y98.741 E42.7431
G1 X68.511 Y98.703 E42.75409
G1 X68.977 Y98.64 E42.77526
G1 X69.345 Y98.598 E42.79194
G1 X70.365 Y98.529 E42.83797
G1 X71.752 Y98.503 E42.90043
G1 X87.693 Y98.501 E43.61819
G1 X90.294 Y98.464 E43.73531
G1 X92.812 Y98.356 E43.84879
G1 X94.737 Y98.22 E43.93568
G1 X95.54 Y98.179 E43.97189
G1 X96.203 Y98.164 E44.00175
G1 X109.449 Y98.165 E44.59816
G1 X110.155 Y98.175 E44.62995
G1 X110.787 Y98.202 E44.65843
G1 X111.112 Y98.225 E44.6731
G1 X113.68 Y98.372 E44.78892
G1 X116.166 Y98.443 E44.9009
G1 X118.69 Y98.443 E45.01454
G1 X121.22 Y98.372 E45.1285
G1 X124.702 Y98.177 E45.28553
G1 X125.33 Y98.164 E45.31381
G1 X138.588 Y98.164 E45.91077
G1 X139.29 Y98.174 E45.94238
G1 F2700 E39.94238
;MESH:soporte_v2_3.stl
G0 F7500 X139.29 Y125.165
G0 X139.29 Y123.31
G0 X82.051 Y123.5
;TYPE:WALL-INNER
G1 F2700 E45.94238
G1 F1800 X81.589 Y124.3 E45.98397
G1 X105.376 Y165.5 E48.12602
G1 X129.627 Y165.5 E49.21795
G1 X129.98 Y164.882 E49.24999
G1 X153.642 Y123.9 E51.38073
G1 X153.411 Y123.5 E51.40153
G1 X82.051 Y123.5 E54.61458
G0 F7500 X82.282 Y123.9
G1 F1800 X82.051 Y124.3 E54.63537
G1 X105.607 Y165.1 E56.75663
G1 X129.395 Y165.1 E57.8277
G1 X129.634 Y164.682 E57.84938
G1 X153.008 Y124.198 E59.95422
G1 X153.18 Y123.9 E59.96971
G1 X152.836 Y123.9 E59.9785
G1 X152.835 Y123.9 E59.97855
G1 X82.282 Y123.9 E63.15526
G0 F7500 X82.513 Y124.3
;TYPE:WALL-OUTER
G1 F1800 X82.686 Y124.599 E63.17004
G1 X105.838 Y164.7 E65.15069
G1 X129.163 Y164.7 E66.14841
G1 X129.288 Y164.482 E66.15916
G1 X152.314 Y124.599 E68.12904
G1 X152.487 Y124.3 E68.14382
G1 X152.142 Y124.3 E68.15218
G1 X152.141 Y124.3 E68.15223
G1 X82.859 Y124.3 E71.11574
G1 X82.858 Y124.3 E71.11578
G1 X82.513 Y124.3 E71.12414
G0 F7500 X82.686 Y124.599
G0 X82.713 Y124.646
G0 X82.331 Y124.865
G1 F2700 E65.12414
G0 F7500 X82.242 Y124.3
G0 X82.352 Y124.111
G0 X84.067 Y123.33
G0 X84.067 Y125.165
G0 X77.573 Y113.335
G0 X77.573 Y115.17
G0 X79.5 Y115
;TYPE:WALL-INNER
G1 F2700 E71.12414
G1 F1800 X79.5 Y110.502 E71.32667
G1 X94.543 Y110.5 E72.00399
G1 X95.192 Y110.445 E72.03332
G1 X95.871 Y110.263 E72.06497
G1 X96.081 Y110.164 E72.07543
G1 X109 Y110.164 E72.65711
G1 X109 Y110.5 E72.67224
G1 X126 Y110.5 E73.43768
G1 X126 Y110.164 E73.45281
G1 X138.916 Y110.163 E74.03437
G1 X139.122 Y110.26 E74.04462
G1 X139.796 Y110.44 E74.07603
