;FLAVOR:Marlin
;TIME:2126
;Filament used: 1.57324m
;Layer height: 0.24
;MINX:83.5
;MINY:63.5
;MINZ:0.24
;MAXX:151.5
;MAXY:171.5
;MAXZ:1.92
;Generated with Cura_SteamEngine 4.5.0
M140 S60
M105
M190 S60
M104 S205
M105
M109 S205
M82 ;absolute extrusion mode
; Ender 3 Custom Start G-code
G92 E0 ; Reset Extruder
G28 ; Home all axes
G1 Z2.0 F3000 ; Move Z Axis up little to prevent scratching of Heat Bed
G1 X0.1 Y20 Z0.3 F5000.0 ; Move to start position
G1 X0.1 Y200.0 Z0.3 F1500.0 E15 ; Draw the first line
G1 X0.4 Y200.0 Z0.3 F5000.0 ; Move to side a little
G1 X0.4 Y20 Z0.3 F1500.0 E30 ; Draw the second line
G92 E0 ; Reset Extruder
G1 Z2.0 F3000 ; Move Z Axis up little to prevent scratching of Heat Bed
G1 X5 Y20 Z0.3 F5000.0 ; Move over to prevent blob squish
G92 E0
G92 E0
G1 F1500 E-6
;LAYER_COUNT:8
;LAYER:0
M107
M204 S500
M205 X20 Y20
G0 F7500 X86.066 Y67.458 Z0.24
;TYPE:SKIRT
G1 F1500 E0
G1 X86.698 Y66.764 E0.03746
G1 X87.386 Y66.127 E0.07489
G1 X88.126 Y65.551 E0.11231
G1 X88.912 Y65.039 E0.14975
G1 X89.739 Y64.597 E0.18718
G1 X90.601 Y64.227 E0.22462
G1 X91.491 Y63.931 E0.26205
G1 X92.403 Y63.713 E0.29948
G1 X93.33 Y63.572 E0.3369
G1 X94.201 Y63.513 E0.37175
G1 X94.83 Y63.5 E0.39686
G1 X139.951 Y63.501 E2.19773
G1 X140.649 Y63.511 E2.22559
G1 X141.585 Y63.565 E2.26301
G1 X142.513 Y63.697 E2.30043
G1 X143.427 Y63.909 E2.33787
G1 X144.319 Y64.198 E2.3753
G1 X145.184 Y64.561 E2.41274
G1 X146.014 Y64.997 E2.45016
G1 X146.805 Y65.502 E2.48761
G1 X147.549 Y66.073 E2.52505
G1 X148.242 Y66.705 E2.56248
G1 X148.879 Y67.393 E2.5999
G1 X149.454 Y68.134 E2.63734
G1 X149.965 Y68.92 E2.67475
G1 X150.407 Y69.748 E2.71222
G1 X150.776 Y70.61 E2.74964
G1 X151.071 Y71.5 E2.78706
G1 X151.289 Y72.412 E2.82449
G1 X151.429 Y73.34 E2.86194
G1 X151.487 Y74.201 E2.89639
G1 X151.5 Y74.83 E2.9215
G1 X151.5 Y159.764 E6.3114
G1 X151.49 Y160.627 E6.34584
G1 X151.439 Y161.564 E6.3833
G1 X151.307 Y162.492 E6.42071
G1 X151.098 Y163.406 E6.45813
G1 X150.811 Y164.299 E6.49557
G1 X150.449 Y165.165 E6.53303
G1 X150.015 Y165.996 E6.57045
G1 X149.511 Y166.787 E6.60788
G1 X148.942 Y167.532 E6.6453
G1 X148.311 Y168.227 E6.68276
G1 X147.624 Y168.865 E6.72018
G1 X146.885 Y169.442 E6.7576
G1 X146.099 Y169.954 E6.79504
G1 X145.273 Y170.397 E6.83245
G1 X144.411 Y170.769 E6.86992
G1 X143.522 Y171.065 E6.90732
G1 X142.61 Y171.285 E6.94476
G1 X141.683 Y171.426 E6.98219
G1 X140.799 Y171.487 E7.01755
G1 X140.17 Y171.5 E7.04266
G1 X95.065 Y171.499 E8.8429
G1 X94.367 Y171.49 E8.87076
G1 X93.431 Y171.438 E8.90818
G1 X92.502 Y171.306 E8.94563
G1 X91.588 Y171.096 E8.98306
G1 X90.695 Y170.809 E9.0205
G1 X89.83 Y170.446 E9.05794
G1 X88.999 Y170.012 E9.09536
G1 X88.208 Y169.508 E9.13279
G1 X87.463 Y168.938 E9.17023
G1 X86.769 Y168.307 E9.20767
G1 X86.132 Y167.62 E9.24506
G1 X85.555 Y166.88 E9.28251
G1 X85.043 Y166.094 E9.31995
G1 X84.6 Y165.267 E9.35739
G1 X84.229 Y164.406 E9.39481
G1 X83.933 Y163.516 E9.43225
G1 X83.714 Y162.604 E9.46968
G1 X83.573 Y161.677 E9.50711
G1 X83.513 Y160.788 E9.54267
G1 X83.5 Y160.158 E9.56782
G1 X83.5 Y75.174 E12.95972
G1 X83.51 Y74.36 E12.99221
G1 X83.563 Y73.424 E13.02962
G1 X83.695 Y72.495 E13.06707
G1 X83.906 Y71.581 E13.10451
G1 X84.194 Y70.689 E13.14193
G1 X84.557 Y69.824 E13.17937
G1 X84.992 Y68.993 E13.2168
G1 X85.496 Y68.203 E13.2542
G1 X85.662 Y67.986 E13.26511
G0 F1350 X86.066 Y67.458
G0 F7500 X86.461 Y67.611
G1 F1500 X87.089 Y66.939 E13.30182
G1 X87.774 Y66.323 E13.33859
G1 X88.51 Y65.77 E13.37533
G1 X89.291 Y65.282 E13.41209
G1 X90.111 Y64.864 E13.44882
G1 X90.965 Y64.519 E13.48558
G1 X91.845 Y64.249 E13.52232
G1 X92.745 Y64.057 E13.55905
G1 X93.659 Y63.943 E13.59581
G1 X94.212 Y63.913 E13.61792
G1 X94.83 Y63.9 E13.64259
G1 X139.945 Y63.901 E15.44322
G1 X140.643 Y63.911 E15.47109
G1 X141.562 Y63.964 E15.50783
G1 X142.473 Y64.097 E15.54457
G1 X143.369 Y64.308 E15.58131
G1 X144.243 Y64.596 E15.61804
G1 X145.09 Y64.959 E15.65482
G1 X145.901 Y65.394 E15.69155
G1 X146.671 Y65.898 E15.72828
G1 X147.395 Y66.467 E15.76503
G1 X148.067 Y67.097 E15.8018
G1 X148.682 Y67.782 E15.83854
G1 X149.235 Y68.518 E15.87528
G1 X149.722 Y69.299 E15.91202
G1 X150.139 Y70.12 E15.94877
G1 X150.484 Y70.974 E15.98553
G1 X150.753 Y71.854 E16.02226
G1 X150.945 Y72.755 E16.05903
G1 X151.058 Y73.668 E16.09574
G1 X151.087 Y74.212 E16.11749
G1 X151.1 Y74.83 E16.14216
G1 X151.1 Y159.764 E19.53206
G1 X151.09 Y160.622 E19.5663
G1 X151.039 Y161.541 E19.60304
G1 X150.908 Y162.453 E19.63981
G1 X150.698 Y163.349 E19.67654
G1 X150.412 Y164.224 E19.71329
G1 X150.051 Y165.071 E19.75003
G1 X149.617 Y165.883 E19.78678
G1 X149.115 Y166.655 E19.82353
G1 X148.547 Y167.38 E19.86029
G1 X147.919 Y168.053 E19.89703
G1 X147.235 Y168.669 E19.93377
G1 X146.5 Y169.223 E19.97051
G1 X145.72 Y169.712 E20.00725
G1 X144.9 Y170.131 E20.044
G1 X144.047 Y170.477 E20.08074
G1 X143.167 Y170.748 E20.11749
G1 X142.267 Y170.941 E20.15423
G1 X141.353 Y171.056 E20.191
G1 X140.788 Y171.087 E20.21358
G1 X140.17 Y171.1 E20.23825
G1 X95.07 Y171.099 E22.03829
G1 X94.372 Y171.09 E22.06615
G1 X93.453 Y171.038 E22.10289
G1 X92.542 Y170.907 E22.13962
G1 X91.646 Y170.697 E22.17636
G1 X90.771 Y170.41 E22.21311
G1 X89.924 Y170.048 E22.24987
G1 X89.112 Y169.614 E22.28662
G1 X88.341 Y169.112 E22.32334
G1 X87.616 Y168.544 E22.3601
G1 X86.943 Y167.915 E22.39687
G1 X86.328 Y167.231 E22.43358
G1 X85.774 Y166.496 E22.47031
G1 X85.286 Y165.715 E22.50707
G1 X84.867 Y164.895 E22.54382
G1 X84.521 Y164.042 E22.58056
G1 X84.251 Y163.162 E22.6173
G1 X84.058 Y162.261 E22.65408
G1 X83.944 Y161.348 E22.6908
G1 X83.913 Y160.777 E22.71362
G1 X83.9 Y160.158 E22.73833
G1 X83.9 Y75.174 E26.13023
G1 X83.91 Y74.366 E26.16248
G1 X83.962 Y73.446 E26.19926
G1 X84.094 Y72.535 E26.236
G1 X84.305 Y71.639 E26.27274
G1 X84.592 Y70.764 E26.30949
G1 X84.955 Y69.918 E26.34623
G1 X85.389 Y69.106 E26.38298
G1 X85.892 Y68.335 E26.41972
G1 X86.05 Y68.134 E26.42993
G0 F1350 X86.461 Y67.611
G0 F7500 X86.855 Y67.767
G1 F1500 X87.481 Y67.117 E26.46595
G1 X88.162 Y66.524 E26.50199
G1 X88.894 Y65.994 E26.53806
G1 X89.669 Y65.531 E26.57409
G1 X90.482 Y65.138 E26.61013
G1 X91.327 Y64.818 E26.64619
G1 X92.196 Y64.575 E26.68221
G1 X93.084 Y64.409 E26.71826
G1 X94.223 Y64.313 E26.76388
G1 X94.83 Y64.3 E26.78812
G1 X139.939 Y64.301 E28.58851
G1 X140.637 Y64.311 E28.61637
G1 X141.539 Y64.364 E28.65244
G1 X142.432 Y64.496 E28.68847
G1 X143.31 Y64.707 E28.72451
G1 X144.166 Y64.995 E28.76055
G1 X144.993 Y65.357 E28.79658
G1 X145.785 Y65.792 E28.83265
G1 X146.536 Y66.294 E28.8687
G1 X147.239 Y66.861 E28.90475
G1 X147.889 Y67.488 E28.9408
G1 X148.481 Y68.17 E28.97684
G1 X149.011 Y68.901 E29.01288
G1 X149.473 Y69.677 E29.04892
G1 X149.866 Y70.49 E29.08496
G1 X150.184 Y71.335 E29.121
G1 X150.427 Y72.205 E29.15705
G1 X150.592 Y73.093 E29.1931
G1 X150.687 Y74.223 E29.23836
G1 X150.7 Y74.83 E29.26259
G1 X150.7 Y159.764 E32.65249
G1 X150.69 Y160.617 E32.68654
G1 X150.639 Y161.519 E32.7226
G1 X150.508 Y162.413 E32.75866
G1 X150.299 Y163.291 E32.79468
G1 X150.013 Y164.148 E32.83074
G1 X149.652 Y164.976 E32.86679
G1 X149.22 Y165.768 E32.9028
G1 X148.719 Y166.52 E32.93886
G1 X148.153 Y167.224 E32.97492
G1 X147.528 Y167.875 E33.01094
G1 X146.847 Y168.469 E33.047
G1 X146.116 Y169 E33.08306
G1 X145.342 Y169.464 E33.11908
G1 X144.529 Y169.858 E33.15514
G1 X143.685 Y170.178 E33.19117
G1 X142.815 Y170.423 E33.22724
G1 X141.928 Y170.589 E33.26326
G1 X140.777 Y170.687 E33.30936
G1 X140.17 Y170.7 E33.33359
G1 X95.075 Y170.699 E35.13343
G1 X94.377 Y170.69 E35.16129
G1 X93.476 Y170.639 E35.19731
G1 X92.582 Y170.507 E35.23338
G1 X91.704 Y170.298 E35.2694
G1 X90.847 Y170.011 E35.30548
G1 X90.02 Y169.65 E35.34149
G1 X89.227 Y169.217 E35.37755
G1 X88.476 Y168.716 E35.41358
G1 X87.772 Y168.15 E35.44964
G1 X87.121 Y167.524 E35.48568
G1 X86.528 Y166.843 E35.52172
G1 X85.998 Y166.112 E35.55776
G1 X85.534 Y165.337 E35.59381
G1 X85.14 Y164.524 E35.62987
G1 X84.82 Y163.68 E35.6659
G1 X84.576 Y162.81 E35.70196
G1 X84.41 Y161.922 E35.73802
G1 X84.313 Y160.767 E35.78428
G1 X84.3 Y160.158 E35.80859
G1 X84.3 Y75.174 E39.20048
G1 X84.31 Y74.371 E39.23254
G1 X84.362 Y73.469 E39.2686
G1 X84.494 Y72.576 E39.30463
G1 X84.704 Y71.698 E39.34066
G1 X84.991 Y70.841 E39.37673
G1 X85.353 Y70.014 E39.41276
G1 X85.786 Y69.222 E39.44879
G1 X86.288 Y68.471 E39.48484
G1 X86.438 Y68.285 E39.49438
G0 F1350 X86.855 Y67.767
G1 F1500 E33.49438
;MESH:plantilla_liviana.stl
G0 F7500 X101.085 Y152.5
;TYPE:WALL-INNER
G1 F1500 E39.49438
G1 X100.085 Y153.5 E39.55082
G1 X105.085 Y158.5 E39.83304
G1 X129.915 Y158.5 E40.82406
G1 X134.915 Y153.5 E41.10628
G1 X133.915 Y152.5 E41.16273
G1 X138.5 Y147.915 E41.42152
G1 X138.5 Y123.085 E42.41254
G1 X133.915 Y118.5 E42.67134
G1 X134.915 Y117.5 E42.72779
G1 X133.915 Y116.5 E42.78423
G1 X138.5 Y111.915 E43.04303
G1 X138.5 Y87.085 E44.03405
G1 X133.915 Y82.5 E44.29284
G1 X134.915 Y81.5 E44.34929
G1 X129.915 Y76.5 E44.63151
G1 X105.085 Y76.5 E45.62253
G1 X100.085 Y81.5 E45.90475
G1 X101.085 Y82.5 E45.96119
G1 X96.5 Y87.085 E46.21999
G1 X96.5 Y111.915 E47.21101
G1 X101.085 Y116.5 E47.46981
G1 X100.085 Y117.5 E47.52625
G1 X101.085 Y118.5 E47.5827
G1 X96.5 Y123.085 E47.84149
G1 X96.5 Y147.915 E48.83251
G1 X100.615 Y152.03 E49.06478
G0 F1350 X101.085 Y152.5
G0 F7500 X100.651 Y153.5
G1 F1500 X105.251 Y158.1 E49.32442
G1 X129.749 Y158.1 E50.30219
G1 X134.349 Y153.5 E50.56184
G1 X129.749 Y148.9 E50.82148
G1 X105.251 Y148.9 E51.79925
G1 X101.121 Y153.03 E52.03236
G0 F1350 X100.651 Y153.5
G1 F1500 E46.03236
G0 F7500 X105.417 Y149.3
;TYPE:WALL-OUTER
G1 F1500 E52.03236
G1 X101.217 Y153.5 E52.25758
G1 X105.417 Y157.7 E52.48279
G1 X129.583 Y157.7 E53.39908
G1 X133.783 Y153.5 E53.62429
G1 X129.583 Y149.3 E53.84951
G1 X106.082 Y149.3 E54.74058
G0 F1350 X105.417 Y149.3
G0 F7500 X105.135 Y149.582
G0 X104.825 Y149.27
G1 F1500 E48.74058
G0 F7500 X105.251 Y112.9
;TYPE:WALL-INNER
G1 F1500 E54.74058
G1 X100.651 Y117.5 E55.00023
G1 X105.251 Y122.1 E55.25987
G1 X129.749 Y122.1 E56.23764
G1 X134.349 Y117.5 E56.49728
G1 X129.749 Y112.9 E56.75693
G1 X105.916 Y112.9 E57.70815
G0 F1350 X105.251 Y112.9
G0 F7500 X105.417 Y113.3
;TYPE:WALL-OUTER
G1 F1500 X101.217 Y117.5 E57.93337
G1 X105.417 Y121.7 E58.15858
G1 X129.583 Y121.7 E59.07487
G1 X133.783 Y117.5 E59.30008
G1 X129.583 Y113.3 E59.5253
G1 X106.082 Y113.3 E60.41637
G0 F1350 X105.417 Y113.3
G0 F7500 X105.135 Y113.582
G0 X104.825 Y113.27
G1 F1500 E54.41637
G0 F7500 X101.5 Y118.651
;TYPE:WALL-INNER
G1 F1500 E60.41637
G1 X96.9 Y123.251 E60.67602
G1 X96.9 Y147.749 E61.65379
G1 X101.5 Y152.349 E61.91343
G1 X106.1 Y147.749 E62.17307
G1 X106.1 Y123.251 E63.15084
G1 X101.97 Y119.121 E63.38396
G0 F1350 X101.5 Y118.651
G0 F7500 X101.5 Y119.217
;TYPE:WALL-OUTER
G1 F1500 X97.3 Y123.417 E63.60917
G1 X97.3 Y147.583 E64.52546
G1 X101.5 Y151.783 E64.75067
G1 X105.7 Y147.583 E64.97589
G1 X105.7 Y123.417 E65.89218
G1 X101.97 Y119.687 E66.09219
G0 F1350 X101.5 Y119.217
G0 F7500 X101.218 Y119.499
G0 X100.908 Y119.187
G1 F1500 E60.09219
G0 F7500 X114.409 Y125.983
;TYPE:WALL-INNER
G1 F1500 E66.09219
G1 X112.497 Y126.836 E66.17575
G1 X110.805 Y128.065 E66.25922
G1 X109.406 Y129.62 E66.3427
G1 X108.36 Y131.429 E66.4261
G1 X107.714 Y133.419 E66.50961
G1 X107.495 Y135.5 E66.59312
G1 X107.714 Y137.581 E66.67664
G1 X108.36 Y139.571 E66.76014
G1 X109.406 Y141.38 E66.84355
G1 X110.805 Y142.935 E66.92703
G1 X112.497 Y144.164 E67.0105
G1 X114.409 Y145.017 E67.09406
G1 X116.454 Y145.451 E67.1775
G1 X118.546 Y145.451 E67.26099
G1 X120.591 Y145.017 E67.34443
G1 X122.503 Y144.164 E67.42799
G1 X124.195 Y142.935 E67.51146
G1 X125.594 Y141.38 E67.59494
G1 X126.64 Y139.571 E67.67835
G1 X127.286 Y137.581 E67.76185
G1 X127.505 Y135.5 E67.84537
G1 X127.286 Y133.419 E67.92888
G1 X126.64 Y131.429 E68.01239
G1 X125.594 Y129.62 E68.09579
G1 X124.195 Y128.065 E68.17928
G1 X122.503 Y126.836 E68.26274
G1 X120.591 Y125.983 E68.3463
G1 X118.546 Y125.549 E68.42974
G1 X116.454 Y125.549 E68.51324
G1 X115.059 Y125.845 E68.57015
G0 F1350 X114.409 Y125.983
G0 F7500 X114.533 Y126.366
G1 F1500 X112.698 Y127.184 E68.65034
G1 X111.074 Y128.364 E68.73046
G1 X109.731 Y129.856 E68.81058
G1 X108.727 Y131.593 E68.89066
G1 X108.107 Y133.503 E68.97081
G1 X107.897 Y135.5 E69.05095
G1 X108.107 Y137.497 E69.13109
G1 X108.727 Y139.407 E69.21124
G1 X109.731 Y141.144 E69.29132
G1 X111.074 Y142.636 E69.37144
G1 X112.698 Y143.816 E69.45156
G1 X114.533 Y144.634 E69.53174
G1 X116.496 Y145.051 E69.61184
G1 X118.504 Y145.051 E69.69198
G1 X120.467 Y144.634 E69.77208
G1 X122.302 Y143.816 E69.85227
G1 X123.926 Y142.636 E69.93239
G1 X125.269 Y141.144 E70.01251
G1 X126.273 Y139.407 E70.09258
G1 X126.893 Y137.497 E70.17273
G1 X127.103 Y135.5 E70.25287
G1 X126.893 Y133.503 E70.33302
G1 X126.273 Y131.593 E70.41317
G1 X125.269 Y129.856 E70.49324
G1 X123.926 Y128.364 E70.57336
G1 X122.302 Y127.184 E70.65348
G1 X120.467 Y126.366 E70.73367
G1 X118.504 Y125.949 E70.81376
G1 X116.496 Y125.949 E70.89391
G1 X115.183 Y126.228 E70.94748
G0 F1350 X114.533 Y126.366
G0 F7500 X114.657 Y126.749
;TYPE:WALL-OUTER
G1 F1500 X112.899 Y127.532 E71.02045
G1 X111.343 Y128.663 E71.09339
G1 X110.056 Y130.092 E71.16631
G1 X109.094 Y131.757 E71.23922
G1 X108.5 Y133.587 E71.31217
G1 X108.299 Y135.5 E71.3851
G1 X108.5 Y137.413 E71.45804
G1 X109.094 Y139.243 E71.53099
G1 X110.056 Y140.908 E71.6039
G1 X111.343 Y142.337 E71.67682
G1 X112.899 Y143.468 E71.74975
G1 X114.657 Y144.251 E71.82272
G1 X116.538 Y144.651 E71.89564
G1 X118.462 Y144.651 E71.96859
G1 X120.343 Y144.251 E72.04151
G1 X122.101 Y143.468 E72.11448
G1 X123.657 Y142.337 E72.18741
G1 X124.944 Y140.908 E72.26033
G1 X125.906 Y139.243 E72.33324
G1 X126.5 Y137.413 E72.40619
G1 X126.701 Y135.5 E72.47913
G1 X126.5 Y133.587 E72.55206
G1 X125.906 Y131.757 E72.62501
G1 X124.944 Y130.092 E72.69792
G1 X123.657 Y128.663 E72.77084
G1 X122.101 Y127.532 E72.84378
G1 X120.343 Y126.749 E72.91675
G1 X118.462 Y126.349 E72.98966
G1 X116.538 Y126.349 E73.06262
G1 X115.307 Y126.611 E73.11034
G0 F1350 X114.657 Y126.749
G0 F7500 X114.292 Y126.911
G0 X114.114 Y126.509
G1 F1500 E67.11034
G0 F7500 X133.5 Y118.651
;TYPE:WALL-INNER
G1 F1500 E73.11034
G1 X128.9 Y123.251 E73.36998
G1 X128.9 Y147.749 E74.34775
G1 X133.5 Y152.349 E74.60739
G1 X138.1 Y147.749 E74.86704
G1 X138.1 Y123.251 E75.8448
G1 X133.97 Y119.121 E76.07792
G0 F1350 X133.5 Y118.651
G0 F7500 X133.5 Y119.217
;TYPE:WALL-OUTER
G1 F1500 X129.3 Y123.417 E76.30313
G1 X129.3 Y147.583 E77.21942
G1 X133.5 Y151.783 E77.44464
G1 X137.7 Y147.583 E77.66985
G1 X137.7 Y123.417 E78.58614
G1 X133.97 Y119.687 E78.78615
G0 F1350 X133.5 Y119.217
G0 F7500 X133.218 Y119.499
G0 X132.908 Y119.187
G1 F1500 E72.78615
G0 F7500 X128.9 Y87.251
;TYPE:WALL-INNER
G1 F1500 E78.78615
G1 X128.9 Y111.749 E79.76392
G1 X133.5 Y116.349 E80.02356
G1 X138.1 Y111.749 E80.28321
G1 X138.1 Y87.251 E81.26098
G1 X133.5 Y82.651 E81.52062
G1 X129.37 Y86.781 E81.75373
G0 F1350 X128.9 Y87.251
G0 F7500 X129.3 Y87.417
;TYPE:WALL-OUTER
G1 F1500 X129.3 Y111.583 E82.67003
G1 X133.5 Y115.783 E82.89524
G1 X137.7 Y111.583 E83.12045
G1 X137.7 Y87.417 E84.03674
G1 X133.5 Y83.217 E84.26196
G1 X129.77 Y86.947 E84.46197
G0 F1350 X129.3 Y87.417
G0 F7500 X129.3 Y87.817
G0 X128.86 Y87.817
G1 F1500 E78.46197
G0 F7500 X110.805 Y92.065
;TYPE:WALL-INNER
G1 F1500 E84.46197
G1 X109.406 Y93.62 E84.54545
G1 X108.36 Y95.429 E84.62885
G1 X107.714 Y97.419 E84.71236
G1 X107.495 Y99.5 E84.79587
G1 X107.714 Y101.581 E84.87939
G1 X108.36 Y103.571 E84.9629
G1 X109.406 Y105.38 E85.0463
G1 X110.805 Y106.935 E85.12978
G1 X112.497 Y108.164 E85.21325
G1 X114.409 Y109.017 E85.29681
G1 X116.454 Y109.451 E85.38025
G1 X118.546 Y109.451 E85.46374
G1 X120.591 Y109.017 E85.54718
G1 X122.503 Y108.164 E85.63074
G1 X124.195 Y106.935 E85.71421
G1 X125.594 Y105.38 E85.7977
G1 X126.64 Y103.571 E85.8811
G1 X127.286 Y101.581 E85.9646
G1 X127.505 Y99.5 E86.04812
G1 X127.286 Y97.419 E86.13163
G1 X126.64 Y95.429 E86.21514
G1 X125.594 Y93.62 E86.29854
G1 X124.195 Y92.065 E86.38203
G1 X122.503 Y90.836 E86.46549
G1 X120.591 Y89.983 E86.54905
G1 X118.546 Y89.549 E86.63249
G1 X116.454 Y89.549 E86.71599
G1 X114.409 Y89.983 E86.79943
G1 X112.497 Y90.836 E86.88299
