;FLAVOR:Marlin
;TIME:3037
;Filament used: 2.29366m
;Layer height: 0.24
;Generated with Cura_SteamEngine 3.4.1
M190 S60
M104 S200
M109 S200
M82 ;absolute extrusion mode
; Pefix G-Code for most 200mm x 200mm 3D printers by www.DIY3DTech.com to clean nozzle
; Place as start G-Code in Slicer
; Use of this code is at your own risk (no warranties made or implied)
;
M117 Clean ; Indicate nozzle clean in progress on LCD
M107 ; Turn layer fan off
G21 ; Set to metric [change to G20 if you want Imperial]
G90                          ; Force coordinates to be absolute relative to the origin
G28                          ; Home X/Y/Z axis
G0 X1 Y0 Z0.15 F9000         ; Move in 1mm from edge and up [z] 0.15mm
G92 E0                       ; Set extruder to [0] zero
G1 Y190 E50 F500             ; Extrude 100mm filiment along Y axis 190mm long to prime and clean the nozzle
G92 E0                       ; Reset extruder to [0] zero end of cleaning run
G1 E-3 F500                  ; Retract filiment by 3 mm to reduce string effect
G1 X3 Y190 Z15 F9000      ; Move over and rise to safe Z height
G1 X3 Y0 Z15 F9000 ; Move back to front of bed at safe Z height to shear strings
;
; Ensure extruder is not reset by other code or it will be 3mm short [see next line also]
;G1 E3 F500 ; Uncomment if you believe exruder will be reset
; Recommend turning off SKIRT in the slicer to avoid strings pulled into first layer
M117 Printing ; Indicate printing on LCD
; Begin printing with sliced GCode after here
G92 E0
G1 F2400 E-5
;LAYER_COUNT:17
;LAYER:0
M107
M204 S5000
M205 X30 Y30
G0 F7200 X87.996 Y83.03 Z0.24
M204 S500
M205 X20 Y20
;TYPE:SKIRT
G1 F2400 E0
G1 F900 X88.471 Y82.496 E0.02995
G1 X89.003 Y82.017 E0.05995
G1 X89.585 Y81.602 E0.08991
G1 X90.21 Y81.253 E0.11991
G1 X90.87 Y80.977 E0.14989
G1 X91.556 Y80.776 E0.17984
G1 X92.261 Y80.653 E0.20984
G1 X93.009 Y80.609 E0.24124
G1 X136.991 Y80.61 E2.08442
G1 X137.705 Y80.65 E2.11439
G1 X138.411 Y80.769 E2.1444
G1 X139.098 Y80.967 E2.17436
G1 X139.759 Y81.24 E2.20433
G1 X140.386 Y81.585 E2.23432
G1 X140.97 Y81.997 E2.26427
G1 X141.504 Y82.473 E2.29425
G1 X141.983 Y83.005 E2.32425
G1 X142.398 Y83.587 E2.35421
G1 X142.747 Y84.211 E2.38417
G1 X143.023 Y84.871 E2.41415
G1 X143.224 Y85.557 E2.44411
G1 X143.347 Y86.262 E2.4741
G1 X143.391 Y87.01 E2.5055
G1 X143.391 Y152.991 E5.27062
G1 X143.351 Y153.705 E5.30059
G1 X143.232 Y154.41 E5.33055
G1 X143.034 Y155.098 E5.36055
G1 X142.761 Y155.759 E5.39052
G1 X142.417 Y156.386 E5.42049
G1 X142.004 Y156.97 E5.45047
G1 X141.529 Y157.504 E5.48042
G1 X140.997 Y157.983 E5.51042
G1 X140.415 Y158.398 E5.54038
G1 X139.79 Y158.747 E5.57038
G1 X139.13 Y159.023 E5.60036
G1 X138.444 Y159.224 E5.63031
G1 X137.739 Y159.347 E5.66031
G1 X136.991 Y159.391 E5.69171
G1 X93.009 Y159.391 E7.53489
G1 X92.295 Y159.351 E7.56486
G1 X91.59 Y159.232 E7.59483
G1 X90.902 Y159.034 E7.62483
G1 X90.241 Y158.761 E7.6548
G1 X89.614 Y158.417 E7.68477
G1 X89.03 Y158.004 E7.71475
G1 X88.496 Y157.529 E7.7447
G1 X88.017 Y156.997 E7.7747
G1 X87.602 Y156.415 E7.80465
G1 X87.253 Y155.79 E7.83465
G1 X86.977 Y155.13 E7.86463
G1 X86.776 Y154.444 E7.89459
G1 X86.653 Y153.739 E7.92458
G1 X86.609 Y152.991 E7.95598
G1 X86.609 Y87.009 E10.72114
G1 X86.649 Y86.295 E10.75111
G1 X86.768 Y85.59 E10.78107
G1 X86.966 Y84.902 E10.81108
G1 X87.239 Y84.241 E10.84105
G1 X87.583 Y83.614 E10.87102
G1 X87.996 Y83.03 E10.90099
M204 S5000
M205 X30 Y30
G0 F7200 X88.393 Y83.176
M204 S500
M205 X20 Y20
G1 F900 X88.865 Y82.67 E10.92999
G1 X89.393 Y82.221 E10.95904
G1 X89.968 Y81.836 E10.98804
G1 X90.585 Y81.521 E11.01707
G1 X91.233 Y81.278 E11.04607
G1 X91.906 Y81.111 E11.07513
G1 X92.592 Y81.023 E11.10412
G1 X93.009 Y81.009 E11.1216
G1 X136.991 Y81.01 E12.96479
G1 X137.683 Y81.05 E12.99384
G1 X138.365 Y81.169 E13.02285
G1 X139.029 Y81.367 E13.05189
G1 X139.665 Y81.639 E13.08088
G1 X140.266 Y81.983 E13.1099
G1 X140.824 Y82.394 E13.13894
G1 X141.33 Y82.866 E13.16794
G1 X141.779 Y83.394 E13.19699
G1 X142.164 Y83.97 E13.22602
G1 X142.479 Y84.586 E13.25502
G1 X142.722 Y85.234 E13.28402
G1 X142.889 Y85.907 E13.31308
G1 X142.977 Y86.594 E13.3421
G1 X142.991 Y87.01 E13.35955
G1 X142.991 Y152.991 E16.12466
G1 X142.951 Y153.682 E16.15367
G1 X142.832 Y154.365 E16.18273
G1 X142.634 Y155.028 E16.21172
G1 X142.362 Y155.665 E16.24075
G1 X142.018 Y156.266 E16.26977
G1 X141.607 Y156.824 E16.29881
G1 X141.135 Y157.33 E16.32781
G1 X140.607 Y157.779 E16.35686
G1 X140.032 Y158.164 E16.38586
G1 X139.415 Y158.479 E16.41489
G1 X138.767 Y158.722 E16.44389
G1 X138.094 Y158.889 E16.47295
G1 X137.408 Y158.977 E16.50194
G1 X136.991 Y158.991 E16.51942
G1 X93.009 Y158.991 E18.36261
G1 X92.318 Y158.951 E18.39162
G1 X91.635 Y158.832 E18.42067
G1 X90.972 Y158.634 E18.44967
G1 X90.335 Y158.362 E18.47869
G1 X89.734 Y158.018 E18.50772
G1 X89.176 Y157.607 E18.53676
G1 X88.67 Y157.135 E18.56576
G1 X88.221 Y156.607 E18.5948
G1 X87.836 Y156.032 E18.6238
G1 X87.521 Y155.415 E18.65284
G1 X87.278 Y154.767 E18.68184
G1 X87.111 Y154.094 E18.7109
G1 X87.023 Y153.408 E18.73988
G1 X87.009 Y152.991 E18.75737
G1 X87.009 Y87.009 E21.52253
G1 X87.049 Y86.318 E21.55153
G1 X87.168 Y85.635 E21.58059
G1 X87.366 Y84.972 E21.60958
G1 X87.638 Y84.335 E21.63861
G1 X87.982 Y83.734 E21.66763
G1 X88.393 Y83.176 E21.69667
M204 S5000
M205 X30 Y30
G0 F7200 X88.789 Y83.328
M204 S500
M205 X20 Y20
G1 F900 X89.258 Y82.851 E21.72471
G1 X89.78 Y82.433 E21.75273
G1 X90.349 Y82.081 E21.78077
G1 X90.956 Y81.799 E21.80882
G1 X91.592 Y81.591 E21.83687
G1 X92.248 Y81.461 E21.86489
G1 X93.009 Y81.409 E21.89686
G1 X136.991 Y81.41 E23.74005
G1 X137.659 Y81.45 E23.76809
G1 X138.317 Y81.569 E23.79611
G1 X138.957 Y81.766 E23.82418
G1 X139.568 Y82.038 E23.8522
G1 X140.142 Y82.381 E23.88023
G1 X140.672 Y82.79 E23.90828
G1 X141.149 Y83.259 E23.93632
G1 X141.567 Y83.782 E23.96437
G1 X141.919 Y84.35 E23.99238
G1 X142.201 Y84.957 E24.02043
G1 X142.409 Y85.593 E24.04847
G1 X142.539 Y86.249 E24.0765
G1 X142.591 Y87.01 E24.10846
G1 X142.591 Y152.991 E26.87358
G1 X142.551 Y153.659 E26.90162
G1 X142.432 Y154.317 E26.92965
G1 X142.235 Y154.957 E26.95771
G1 X141.963 Y155.568 E26.98574
G1 X141.62 Y156.142 E27.01376
G1 X141.211 Y156.672 E27.04182
G1 X140.742 Y157.149 E27.06985
G1 X140.22 Y157.567 E27.09787
G1 X139.651 Y157.919 E27.12591
G1 X139.044 Y158.201 E27.15396
G1 X138.408 Y158.409 E27.18201
G1 X137.752 Y158.539 E27.21003
G1 X136.991 Y158.591 E27.242
G1 X93.009 Y158.591 E29.08519
G1 X92.341 Y158.551 E29.11323
G1 X91.683 Y158.432 E29.14125
G1 X91.043 Y158.235 E29.16932
G1 X90.432 Y157.963 E29.19734
G1 X89.858 Y157.62 E29.22537
G1 X89.328 Y157.211 E29.25342
G1 X88.851 Y156.742 E29.28146
G1 X88.433 Y156.22 E29.30948
G1 X88.081 Y155.651 E29.33752
G1 X87.799 Y155.044 E29.36557
G1 X87.591 Y154.408 E29.39361
G1 X87.461 Y153.752 E29.42164
G1 X87.409 Y152.991 E29.45361
G1 X87.409 Y87.009 E32.21876
G1 X87.449 Y86.341 E32.24681
G1 X87.568 Y85.683 E32.27483
G1 X87.765 Y85.043 E32.30289
G1 X88.037 Y84.432 E32.33092
G1 X88.38 Y83.858 E32.35894
G1 X88.789 Y83.328 E32.387
M204 S5000
M205 X30 Y30
G0 F7200 X88.778 Y83.986
M204 S500
M205 X20 Y20
G1 F900 X89.184 Y83.486 E32.41399
G1 X89.649 Y83.04 E32.44099
G1 X90.166 Y82.655 E32.46801
G1 X90.727 Y82.336 E32.49505
G1 X91.323 Y82.09 E32.52207
G1 X91.944 Y81.919 E32.54907
G1 X92.582 Y81.827 E32.57608
G1 X93.009 Y81.809 E32.59399
G1 X136.991 Y81.81 E34.43718
G1 X137.635 Y81.85 E34.46422
G1 X138.268 Y81.969 E34.49121
G1 X138.882 Y82.166 E34.51824
G1 X139.467 Y82.437 E34.54525
G1 X140.014 Y82.779 E34.57229
G1 X140.514 Y83.185 E34.59928
G1 X140.96 Y83.651 E34.62631
G1 X141.345 Y84.168 E34.65333
G1 X141.664 Y84.728 E34.68034
G1 X141.91 Y85.324 E34.70736
G1 X142.081 Y85.945 E34.73435
G1 X142.173 Y86.583 E34.76136
G1 X142.191 Y87.01 E34.77928
G1 X142.191 Y152.991 E37.54439
G1 X142.151 Y153.634 E37.57139
G1 X142.032 Y154.268 E37.59842
G1 X141.835 Y154.882 E37.62545
G1 X141.564 Y155.467 E37.65247
G1 X141.222 Y156.014 E37.6795
G1 X140.816 Y156.514 E37.70649
G1 X140.351 Y156.96 E37.7335
G1 X139.834 Y157.345 E37.76051
G1 X139.273 Y157.664 E37.78755
G1 X138.677 Y157.91 E37.81458
G1 X138.056 Y158.081 E37.84157
G1 X137.418 Y158.173 E37.86858
G1 X136.991 Y158.191 E37.88649
G1 X93.009 Y158.191 E39.72968
G1 X92.366 Y158.151 E39.75668
G1 X91.732 Y158.032 E39.78371
G1 X91.118 Y157.835 E39.81074
G1 X90.533 Y157.564 E39.83776
G1 X89.986 Y157.222 E39.86479
G1 X89.486 Y156.816 E39.89178
G1 X89.04 Y156.351 E39.91878
G1 X88.655 Y155.834 E39.9458
G1 X88.336 Y155.273 E39.97284
G1 X88.09 Y154.677 E39.99986
G1 X87.919 Y154.056 E40.02686
G1 X87.827 Y153.418 E40.05387
G1 X87.809 Y152.991 E40.07178
G1 X87.809 Y87.009 E42.83694
G1 X87.849 Y86.366 E42.86394
G1 X87.968 Y85.732 E42.89097
G1 X88.165 Y85.118 E42.918
G1 X88.436 Y84.533 E42.94501
G1 X88.778 Y83.986 E42.97205
M204 S5000
M205 X30 Y30
G1 F2400 E37.97205
G0 F7200 X92.335 Y87.614
G0 X93.614 Y87.614
G0 X95.364 Y141.264
G0 X98.051 Y147
G0 X98.151 Y147
M204 S500
M205 X20 Y20
;TYPE:WALL-INNER
G1 F2400 E42.97205
G1 F900 X101.751 Y150.6 E43.18541
G1 X128.249 Y150.6 E44.29588
G1 X131.849 Y147 E44.50924
G1 X128.249 Y143.4 E44.7226
G1 X101.751 Y143.4 E45.83307
G1 X98.151 Y147 E46.04643
M204 S5000
M205 X30 Y30
G0 F7200 X98.717 Y147
M204 S500
M205 X20 Y20
;TYPE:WALL-OUTER
G1 F900 X101.917 Y150.2 E46.23609
G1 X128.083 Y150.2 E47.33264
G1 X131.283 Y147 E47.5223
G1 X128.083 Y143.8 E47.71195
G1 X101.917 Y143.8 E48.80851
G1 X98.717 Y147 E48.99816
M204 S5000
M205 X30 Y30
G0 F7200 X98.858 Y147.141
G0 X98.546 Y147.451
G0 X98.503 Y147.492
G0 X98.111 Y147
G0 X99 Y144.949
G0 X99 Y144.849
M204 S500
M205 X20 Y20
;TYPE:WALL-INNER
G1 F900 X102.6 Y141.249 E49.21152
G1 X102.6 Y125.751 E49.86101
G1 X99 Y122.151 E50.07437
G1 X95.4 Y125.751 E50.28773
G1 X95.4 Y141.249 E50.93721
G1 X99 Y144.849 E51.15057
M204 S5000
M205 X30 Y30
G0 F7200 X99 Y144.283
M204 S500
M205 X20 Y20
;TYPE:WALL-OUTER
G1 F900 X102.2 Y141.083 E51.34023
G1 X102.2 Y125.917 E51.9758
G1 X99 Y122.717 E52.16545
G1 X95.8 Y125.917 E52.3551
G1 X95.8 Y141.083 E52.99068
G1 X99 Y144.283 E53.18033
M204 S5000
M205 X30 Y30
G0 F7200 X99.141 Y144.142
G0 X99.451 Y144.454
G0 X99.492 Y144.497
G0 X106.157 Y138.047
G0 X105.293 Y136.901
G0 X104.697 Y135.594
G0 X104.394 Y134.194
G0 X104.395 Y132.805
G0 X104.698 Y131.405
G0 X105.294 Y130.098
G0 X106.158 Y128.952
G0 X107.248 Y128.018
G0 X109.372 Y126.872
G0 X128.264 Y123.636
G0 X131.889 Y120
G0 X131 Y117.949
G0 X131 Y117.849
M204 S500
M205 X20 Y20
;TYPE:WALL-INNER
G1 F900 X134.6 Y114.249 E53.39369
G1 X134.6 Y98.751 E54.04318
G1 X131 Y95.151 E54.25654
G1 X127.4 Y98.751 E54.4699
G1 X127.4 Y114.249 E55.11938
G1 X131 Y117.849 E55.33274
M204 S5000
M205 X30 Y30
G0 F7200 X131 Y117.283
M204 S500
M205 X20 Y20
;TYPE:WALL-OUTER
G1 F900 X134.2 Y114.083 E55.5224
G1 X134.2 Y98.917 E56.15797
G1 X131 Y95.717 E56.34762
G1 X127.8 Y98.917 E56.53727
G1 X127.8 Y114.083 E57.17285
G1 X131 Y117.283 E57.3625
M204 S5000
M205 X30 Y30
G0 F7200 X131.141 Y117.142
G0 X131.451 Y117.454
G0 X131.492 Y117.497
G0 X131 Y117.889
G0 X123.632 Y111.259
G0 X124.49 Y110.236
G0 X125.109 Y109.105
G0 X125.508 Y107.831
G0 X125.643 Y106.5
G0 X125.509 Y105.171
G0 X125.11 Y103.895
G0 X124.464 Y102.726
G0 X123.599 Y101.71
G0 X122.587 Y100.91
G0 X120.628 Y99.872
G0 X101.736 Y96.636
G0 X98.051 Y93
G0 X98.151 Y93
M204 S500
M205 X20 Y20
;TYPE:WALL-INNER
G1 F900 X101.751 Y96.6 E57.57586
G1 X128.249 Y96.6 E58.68633
G1 X131.849 Y93 E58.89969
G1 X128.249 Y89.4 E59.11305
G1 X101.751 Y89.4 E60.22352
G1 X98.151 Y93 E60.43688
M204 S5000
M205 X30 Y30
G0 F7200 X98.717 Y93
M204 S500
M205 X20 Y20
;TYPE:WALL-OUTER
G1 F900 X101.917 Y96.2 E60.62654
G1 X128.083 Y96.2 E61.72309
G1 X131.283 Y93 E61.91275
G1 X128.083 Y89.8 E62.1024
G1 X101.917 Y89.8 E63.19896
G1 X98.717 Y93 E63.38861
M204 S5000
M205 X30 Y30
G0 F7200 X98.858 Y93.141
G0 X98.546 Y93.451
G0 X98.503 Y93.492
G0 X101.736 Y96.636
G0 X109.321 Y100.067
G0 X109.4 Y100.127
M204 S500
M205 X20 Y20
;TYPE:WALL-INNER
G1 F900 X108.619 Y100.342 E63.42256
G1 X107.434 Y100.943 E63.47824
G1 X106.395 Y101.769 E63.53387
G1 X105.543 Y102.786 E63.58947
G1 X104.927 Y103.91 E63.64318
G1 X104.531 Y105.177 E63.69881
G1 X104.397 Y106.5 E63.75454
G1 X104.53 Y107.821 E63.81018
G1 X104.926 Y109.09 E63.86589
G1 X105.568 Y110.252 E63.92152
G1 X106.428 Y111.262 E63.97712
G1 X107.434 Y112.057 E64.03085
G1 X108.617 Y112.657 E64.08644
G1 X109.4 Y112.873 E64.12048
G1 X109.4 Y113.1 E64.12999
G1 X120.6 Y113.1 E64.59936
G1 X120.6 Y112.873 E64.60887
G1 X121.381 Y112.658 E64.64282
G1 X122.566 Y112.057 E64.6985
G1 X123.605 Y111.231 E64.75413
G1 X124.457 Y110.214 E64.80973
G1 X125.073 Y109.09 E64.86344
G1 X125.469 Y107.823 E64.91907
G1 X125.603 Y106.5 E64.9748
G1 X125.47 Y105.179 E65.03044
G1 X125.074 Y103.91 E65.08615
G1 X124.432 Y102.748 E65.14179
G1 X123.572 Y101.738 E65.19738
G1 X122.566 Y100.943 E65.25111
G1 X121.383 Y100.343 E65.3067
G1 X120.6 Y100.127 E65.34074
G1 X120.6 Y99.9 E65.35025
G1 X109.4 Y99.9 E65.81962
G1 X109.4 Y100.127 E65.82913
M204 S5000
M205 X30 Y30
G0 F7200 X109.8 Y100.3
M204 S500
M205 X20 Y20
;TYPE:WALL-OUTER
G1 F900 X109.8 Y100.432 E65.83467
G1 X108.764 Y100.717 E65.8797
G1 X107.651 Y101.281 E65.93199
G1 X106.676 Y102.057 E65.98421
G1 X105.875 Y103.013 E66.03648
G1 X105.297 Y104.067 E66.08685
G1 X104.925 Y105.258 E66.13914
G1 X104.799 Y106.5 E66.19146
G1 X104.924 Y107.741 E66.24373
G1 X105.296 Y108.932 E66.29602
G1 X105.899 Y110.023 E66.34826
G1 X106.707 Y110.973 E66.40052
G1 X107.651 Y111.718 E66.45092
G1 X108.762 Y112.282 E66.50314
G1 X109.8 Y112.568 E66.54826
G1 X109.8 Y112.7 E66.55379
G1 X120.2 Y112.7 E66.98963
G1 X120.2 Y112.568 E66.99516
G1 X121.236 Y112.283 E67.04019
G1 X122.349 Y111.719 E67.09248
G1 X123.324 Y110.943 E67.1447
G1 X124.125 Y109.987 E67.19697
G1 X124.703 Y108.933 E67.24735
G1 X125.075 Y107.742 E67.29964
G1 X125.201 Y106.5 E67.35196
G1 X125.076 Y105.259 E67.40423
G1 X124.704 Y104.068 E67.45652
G1 X124.101 Y102.977 E67.50876
G1 X123.293 Y102.027 E67.56102
G1 X122.349 Y101.282 E67.61142
G1 X121.238 Y100.718 E67.66363
G1 X120.2 Y100.432 E67.70875
G1 X120.2 Y100.3 E67.71429
G1 X109.8 Y100.3 E68.15013
M204 S5000
M205 X30 Y30
G0 F7200 X109.8 Y100.432
G0 X109.735 Y100.45
G0 X109.321 Y100.067
G0 X108.605 Y100.305
G0 X107.413 Y100.91
G0 X106.368 Y101.741
G0 X105.51 Y102.764
G0 X104.891 Y103.895
G0 X102.619 Y111.675
G0 X102.636 Y114.264
G0 X99 Y117.949
G0 X99 Y117.849
M204 S500
M205 X20 Y20
;TYPE:WALL-INNER
G1 F900 X102.6 Y114.249 E68.36349
G1 X102.6 Y98.751 E69.01297
G1 X99 Y95.151 E69.22633
G1 X95.4 Y98.751 E69.43969
G1 X95.4 Y114.249 E70.08918
G1 X99 Y117.849 E70.30254
M204 S5000
M205 X30 Y30
G0 F7200 X99 Y117.283
M204 S500
M205 X20 Y20
;TYPE:WALL-OUTER
G1 F900 X102.2 Y114.083 E70.49219
G1 X102.2 Y98.917 E71.12776
G1 X99 Y95.717 E71.31742
G1 X95.8 Y98.917 E71.50707
G1 X95.8 Y114.083 E72.14264
G1 X99 Y117.283 E72.3323
M204 S5000
M205 X30 Y30
G0 F7200 X99.141 Y117.142
G0 X99.451 Y117.454
G0 X99.492 Y117.497
G0 X98.051 Y120
G0 X98.151 Y120
M204 S500
M205 X20 Y20
;TYPE:WALL-INNER
G1 F900 X101.751 Y123.6 E72.54566
G1 X128.249 Y123.6 E73.65613
G1 X131.849 Y120 E73.86949
G1 X128.249 Y116.4 E74.08285
G1 X101.751 Y116.4 E75.19332
G1 X98.151 Y120 E75.40668
M204 S5000
M205 X30 Y30
G0 F7200 X98.717 Y120
M204 S500
M205 X20 Y20
;TYPE:WALL-OUTER
G1 F900 X101.917 Y123.2 E75.59633
G1 X128.083 Y123.2 E76.69289
G1 X131.283 Y120 E76.88254
G1 X128.083 Y116.8 E77.0722
G1 X101.917 Y116.8 E78.16876
G1 X98.717 Y120 E78.35841
M204 S5000
M205 X30 Y30
G0 F7200 X98.858 Y120.141
G0 X98.546 Y120.451
G0 X98.503 Y120.492
G0 X101.736 Y123.636
G0 X109.321 Y127.07
G0 X109.4 Y127.13
M204 S500
M205 X20 Y20
;TYPE:WALL-INNER
G1 F900 X108.527 Y127.376 E78.39642
G1 X107.27 Y128.051 E78.45621
G1 X106.187 Y128.979 E78.51598
G1 X105.328 Y130.118 E78.57577
G1 X104.735 Y131.417 E78.63561
G1 X104.434 Y132.809 E78.69529
G1 X104.433 Y134.19 E78.75317
G1 X104.734 Y135.582 E78.81285
G1 X105.327 Y136.881 E78.87269
G1 X106.186 Y138.02 E78.93248
G1 X107.269 Y138.948 E78.99225
G1 X108.526 Y139.623 E79.05204
G1 X109.4 Y139.87 E79.0901
G1 X109.4 Y140.1 E79.09974
G1 X120.6 Y140.1 E79.56911
G1 X120.6 Y139.873 E79.57862
G1 X121.381 Y139.658 E79.61257
