;FLAVOR:Marlin
M117 Time Left 0h49m19s
;TIME:2959
;Filament used: 2.497m
;Layer height: 0.2
;MINX:61.933
;MINY:81.575
;MINZ:0.28
;MAXX:154.06
;MAXY:155.163
;MAXZ:6.28
;POSTPROCESSED
;Generated with Cura_SteamEngine 5.2.1
M140 S70
M105
M190 S70
M104 S225
M105
M109 S225
M82 ;absolute extrusion mode
; Ender 3 Custom Start G-code
G92 E0 ; Reset Extruder
G28 ; Home all axes
G1 Z2.0 F3000 ; Move Z Axis up little to prevent scratching of Heat Bed
G1 X0.1 Y20 Z0.3 F5000.0 ; Move to start position
G1 X0.1 Y200.0 Z0.3 F1500.0 E15 ; Draw the first line
G1 X0.4 Y200.0 Z0.3 F5000.0 ; Move to side a little
G1 X0.4 Y20 Z0.3 F1500.0 E30 ; Draw the second line
G92 E0 ; Reset Extruder
G1 Z2.0 F3000 ; Move Z Axis up little to prevent scratching of Heat Bed
G1 X5 Y20 Z0.3 F5000.0 ; Move over to prevent blob squish
G92 E0
G92 E0
G1 F3300 E-6
;LAYER_COUNT:31
;LAYER:0
M107
M204 S500
M205 X5 Y5
G0 F7500 X67.361 Y115.138 Z0.28
M205 X8 Y8
;TYPE:SKIRT
G1 F3300 E0
G1 F1500 X68.191 Y114.689 E0.04461
G1 X68.63 Y114.486 E0.06748
G1 X71.243 Y113.349 E0.2022
G1 X73.504 Y112.287 E0.3203
G1 X75.759 Y111.148 E0.43974
G1 X77.96 Y109.958 E0.55803
G1 X80.123 Y108.707 E0.67616
G1 X82.261 Y107.389 E0.79491
G1 X84.365 Y106.009 E0.91386
G1 X86.436 Y104.564 E1.03325
G1 X88.475 Y103.055 E1.15318
G1 X90.428 Y101.521 E1.27059
G1 X92.355 Y99.918 E1.38909
G1 X94.267 Y98.235 E1.50952
G1 X96.082 Y96.543 E1.62683
G1 X97.871 Y94.777 E1.74567
G1 X99.638 Y92.931 E1.86649
G1 X101.295 Y91.101 E1.9832
G1 X102.945 Y89.17 E2.10328
G1 X104.514 Y87.226 E2.22139
G1 X105.593 Y85.839 E2.30447
G1 X106.206 Y85.122 E2.34906
G1 X106.878 Y84.46 E2.39366
G1 X107.604 Y83.858 E2.43825
G1 X108.378 Y83.319 E2.48284
G1 X109.194 Y82.847 E2.52741
G1 X110.048 Y82.446 E2.57201
G1 X110.933 Y82.12 E2.6166
G1 X111.842 Y81.869 E2.66118
G1 X112.769 Y81.696 E2.70577
G1 X114.032 Y81.588 E2.76569
G1 X114.665 Y81.575 E2.79563
G1 X142.387 Y81.576 E4.10625
G1 X143.085 Y81.586 E4.13925
G1 X144.027 Y81.64 E4.18386
G1 X144.961 Y81.773 E4.22846
G1 X145.88 Y81.984 E4.27304
G1 X146.778 Y82.273 E4.31764
G1 X147.648 Y82.637 E4.36222
G1 X148.484 Y83.073 E4.4068
G1 X149.281 Y83.578 E4.45141
G1 X150.031 Y84.15 E4.496
G1 X150.731 Y84.782 E4.54059
G1 X151.374 Y85.472 E4.58518
G1 X151.957 Y86.213 E4.62975
G1 X152.475 Y87.002 E4.67437
G1 X152.924 Y87.831 E4.71895
G1 X153.301 Y88.695 E4.76351
G1 X153.604 Y89.589 E4.80814
G1 X153.83 Y90.504 E4.8527
G1 X153.978 Y91.436 E4.89731
G1 X154.047 Y92.397 E4.94286
G1 X154.06 Y93.03 E4.9728
G1 X154.059 Y111.508 E5.84638
G1 X154.049 Y112.21 E5.87958
G1 X153.995 Y113.152 E5.92419
G1 X153.807 Y114.367 E5.98231
G1 X153.199 Y117.378 E6.12754
G1 X152.78 Y119.828 E6.24505
G1 X152.399 Y122.539 E6.37447
G1 X152.119 Y125.063 E6.49453
G1 X151.914 Y127.565 E6.61322
G1 X151.78 Y130.061 E6.73139
G1 X151.71 Y132.98 E6.86943
G1 X151.587 Y134.385 E6.93611
G1 X151.457 Y135.24 E6.977
G1 X151.247 Y136.508 E7.03776
G1 X150.911 Y138.958 E7.15468
G1 X150.594 Y141.903 E7.29471
G1 X150.464 Y142.837 E7.33929
G1 X150.158 Y144.098 E7.40064
G1 X149.985 Y144.663 E7.42858
G1 X149.798 Y145.23 E7.4568
G1 X149.458 Y146.11 E7.5014
G1 X149.044 Y146.958 E7.54602
G1 X148.561 Y147.767 E7.59056
G1 X148.01 Y148.533 E7.63517
G1 X147.397 Y149.25 E7.67977
G1 X146.725 Y149.912 E7.72437
G1 X145.953 Y150.55 E7.77172
G1 X145.548 Y150.855 E7.79569
G1 X145.045 Y151.217 E7.82499
G1 X144.254 Y151.731 E7.86958
G1 X143.422 Y152.175 E7.91417
G1 X142.556 Y152.548 E7.95875
G1 X141.661 Y152.845 E8.00333
G1 X140.744 Y153.066 E8.04792
G1 X139.722 Y153.218 E8.09677
G1 X138.365 Y153.353 E8.16124
G1 X136.87 Y153.468 E8.23213
G1 X134.351 Y153.603 E8.35139
G1 X133.738 Y153.619 E8.38038
G1 X132.783 Y153.613 E8.42554
G1 X131.961 Y153.586 E8.46442
G1 X128.995 Y153.446 E8.6048
G1 X125.386 Y153.383 E8.77545
G1 X122.481 Y153.29 E8.91286
G1 X119.948 Y153.281 E9.03261
G1 X117.46 Y153.345 E9.15028
G1 X114.951 Y153.479 E9.26906
G1 X112.443 Y153.684 E9.38803
G1 X109.931 Y153.962 E9.50752
G1 X107.433 Y154.31 E9.62676
G1 X104.914 Y154.734 E9.74752
G1 X103.709 Y154.961 E9.80549
G1 X102.776 Y155.097 E9.85007
G1 X101.961 Y155.15 E9.88868
G1 X101.328 Y155.163 E9.91861
G1 X73.622 Y155.162 E11.22848
G1 X72.924 Y155.153 E11.26148
G1 X71.982 Y155.101 E11.30608
G1 X71.048 Y154.969 E11.35068
G1 X70.128 Y154.759 E11.39529
G1 X69.23 Y154.471 E11.43988
G1 X68.359 Y154.109 E11.48447
G1 X67.523 Y153.674 E11.52902
G1 X66.725 Y153.17 E11.57365
G1 X65.974 Y152.6 E11.61822
G1 X65.274 Y151.968 E11.66281
G1 X64.629 Y151.279 E11.70743
G1 X64.045 Y150.539 E11.75199
G1 X63.526 Y149.751 E11.7966
G1 X63.076 Y148.922 E11.8412
G1 X62.697 Y148.058 E11.8858
G1 X62.393 Y147.166 E11.93035
G1 X62.166 Y146.25 E11.97497
G1 X62.017 Y145.319 E12.01955
G1 X61.946 Y144.33 E12.06642
G1 X61.933 Y143.696 E12.0964
G1 X61.934 Y125.218 E12.96999
G1 X61.944 Y124.527 E13.00266
G1 X61.998 Y123.585 E13.04727
G1 X62.131 Y122.652 E13.09183
G1 X62.343 Y121.733 E13.13642
G1 X62.632 Y120.835 E13.18102
G1 X62.996 Y119.965 E13.2256
G1 X63.432 Y119.128 E13.27022
G1 X63.937 Y118.332 E13.31479
G1 X64.509 Y117.581 E13.35942
G1 X65.141 Y116.882 E13.40397
G1 X65.831 Y116.239 E13.44856
G1 X66.573 Y115.656 E13.49317
G1 X67.361 Y115.138 E13.53775
M205 X5 Y5
G0 F7500 X67.788 Y115.41
M205 X8 Y8
G1 F1500 X68.81 Y114.899 E13.59177
G1 X71.428 Y113.76 E13.72675
G1 X73.682 Y112.701 E13.84449
G1 X75.975 Y111.543 E13.96594
G1 X78.157 Y110.363 E14.08321
G1 X80.368 Y109.084 E14.20397
G1 X82.503 Y107.769 E14.32252
G1 X84.628 Y106.374 E14.4427
G1 X86.7 Y104.929 E14.56213
G1 X88.74 Y103.419 E14.68212
G1 X90.695 Y101.884 E14.79963
G1 X92.677 Y100.236 E14.92149
G1 X94.535 Y98.599 E15.03856
G1 X96.422 Y96.841 E15.16049
G1 X98.194 Y95.092 E15.2782
G1 X99.944 Y93.264 E15.39784
G1 X101.652 Y91.377 E15.51817
G1 X103.272 Y89.481 E15.63608
G1 X104.884 Y87.483 E15.75745
G1 X105.947 Y86.117 E15.83928
G1 X106.548 Y85.415 E15.88297
G1 X107.208 Y84.769 E15.92663
G1 X107.921 Y84.182 E15.97029
G1 X108.683 Y83.658 E16.01401
G1 X109.487 Y83.203 E16.05769
G1 X110.327 Y82.818 E16.10137
G1 X111.197 Y82.508 E16.14504
G1 X112.091 Y82.274 E16.18873
G1 X113.001 Y82.119 E16.23237
G1 X114.045 Y82.038 E16.28188
G1 X114.665 Y82.025 E16.31119
G1 X142.228 Y82.025 E17.6143
G1 X143.079 Y82.036 E17.65453
G1 X144.001 Y82.089 E17.69819
G1 X144.916 Y82.222 E17.74191
G1 X145.815 Y82.433 E17.78556
G1 X146.693 Y82.722 E17.82926
G1 X147.542 Y83.085 E17.87292
G1 X148.357 Y83.52 E17.91659
G1 X149.132 Y84.024 E17.9603
G1 X149.859 Y84.593 E18.00395
G1 X150.535 Y85.223 E18.04763
G1 X151.154 Y85.909 E18.09132
G1 X151.711 Y86.646 E18.13499
G1 X152.203 Y87.428 E18.17867
G1 X152.625 Y88.25 E18.22235
G1 X152.974 Y89.106 E18.26606
G1 X153.248 Y89.988 E18.30972
G1 X153.445 Y90.891 E18.35342
G1 X153.563 Y91.807 E18.39708
G1 X153.597 Y92.41 E18.42563
G1 X153.61 Y93.03 E18.45495
G1 X153.609 Y111.502 E19.32826
G1 X153.599 Y112.204 E19.36145
G1 X153.546 Y113.126 E19.40511
G1 X153.366 Y114.273 E19.46
G1 X152.765 Y117.249 E19.60354
G1 X152.336 Y119.763 E19.72411
G1 X151.946 Y122.527 E19.85608
G1 X151.672 Y125.011 E19.97423
G1 X151.467 Y127.504 E20.09249
G1 X151.33 Y130.06 E20.2135
G1 X151.26 Y132.969 E20.35107
G1 X151.142 Y134.318 E20.41509
G1 X151.012 Y135.173 E20.45598
G1 X150.808 Y136.407 E20.51511
G1 X150.462 Y138.922 E20.63513
G1 X150.146 Y141.86 E20.77483
G1 X150.018 Y142.775 E20.81851
G1 X149.727 Y143.966 E20.87648
G1 X149.554 Y144.531 E20.90441
G1 X149.371 Y145.086 E20.93204
G1 X149.038 Y145.947 E20.97569
G1 X148.63 Y146.777 E21.01941
G1 X148.153 Y147.568 E21.06308
G1 X147.609 Y148.315 E21.10677
G1 X147.003 Y149.012 E21.15043
G1 X146.338 Y149.654 E21.19413
G1 X145.682 Y150.19 E21.23418
G1 X145.277 Y150.495 E21.25815
G1 X144.784 Y150.85 E21.28688
G1 X144.009 Y151.353 E21.33056
G1 X143.193 Y151.786 E21.37423
G1 X142.343 Y152.147 E21.41789
G1 X141.464 Y152.433 E21.46159
G1 X140.564 Y152.643 E21.50528
G1 X139.676 Y152.771 E21.5477
G1 X138.329 Y152.905 E21.6117
G1 X136.846 Y153.019 E21.68201
G1 X134.327 Y153.154 E21.80128
G1 X133.739 Y153.169 E21.82908
G1 X132.797 Y153.163 E21.87362
G1 X131.983 Y153.136 E21.91213
G1 X129.025 Y152.996 E22.05213
G1 X125.401 Y152.933 E22.22349
G1 X122.498 Y152.84 E22.3608
G1 X119.973 Y152.832 E22.48018
G1 X117.424 Y152.896 E22.60073
G1 X114.89 Y153.032 E22.7207
G1 X112.395 Y153.236 E22.83905
G1 X109.889 Y153.514 E22.95825
G1 X107.371 Y153.864 E23.07844
G1 X104.855 Y154.287 E23.19906
G1 X103.626 Y154.519 E23.25819
G1 X102.711 Y154.651 E23.3019
G1 X101.948 Y154.7 E23.33804
G1 X101.328 Y154.713 E23.36736
G1 X73.627 Y154.712 E24.67699
G1 X72.929 Y154.703 E24.70999
G1 X72.007 Y154.651 E24.75365
G1 X71.092 Y154.52 E24.79735
G1 X70.193 Y154.31 E24.84099
G1 X69.315 Y154.023 E24.88466
G1 X68.464 Y153.661 E24.92839
G1 X67.649 Y153.227 E24.97204
G1 X66.874 Y152.724 E25.01572
G1 X66.145 Y152.156 E25.05941
G1 X65.468 Y151.527 E25.1031
G1 X64.849 Y150.842 E25.14675
G1 X64.29 Y150.106 E25.19044
G1 X63.798 Y149.324 E25.23412
G1 X63.375 Y148.503 E25.27779
G1 X63.024 Y147.648 E25.32148
G1 X62.749 Y146.766 E25.36516
G1 X62.551 Y145.863 E25.40887
G1 X62.432 Y144.947 E25.45254
G1 X62.396 Y144.317 E25.48237
G1 X62.383 Y143.696 E25.51173
G1 X62.384 Y125.225 E26.38499
G1 X62.394 Y124.534 E26.41766
G1 X62.447 Y123.611 E26.46137
G1 X62.58 Y122.697 E26.50504
G1 X62.792 Y121.797 E26.54875
G1 X63.08 Y120.92 E26.59239
G1 X63.443 Y120.07 E26.63609
G1 X63.879 Y119.255 E26.67979
G1 X64.383 Y118.481 E26.72346
G1 X64.952 Y117.753 E26.76714
G1 X65.582 Y117.078 E26.81079
G1 X66.268 Y116.459 E26.85447
G1 X67.005 Y115.902 E26.89815
G1 X67.788 Y115.41 E26.94187
M205 X5 Y5
G0 F7500 X68.213 Y115.689
M205 X8 Y8
G1 F1500 X68.989 Y115.312 E26.98266
G1 X71.596 Y114.178 E27.11706
G1 X73.904 Y113.093 E27.23763
G1 X76.176 Y111.946 E27.35796
G1 X78.38 Y110.754 E27.47642
G1 X80.588 Y109.478 E27.59699
G1 X82.744 Y108.149 E27.71673
G1 X84.875 Y106.75 E27.83725
G1 X86.984 Y105.279 E27.95881
G1 X88.987 Y103.796 E28.07664
G1 X90.997 Y102.219 E28.19742
G1 X92.963 Y100.583 E28.31834
G1 X94.858 Y98.915 E28.43769
G1 X96.709 Y97.19 E28.55731
G1 X98.517 Y95.405 E28.67743
G1 X100.268 Y93.576 E28.79714
G1 X101.991 Y91.672 E28.91854
G1 X103.645 Y89.737 E29.03889
G1 X105.225 Y87.779 E29.15784
G1 X105.521 Y87.39 E29.18095
G1 X106.301 Y86.395 E29.24072
G1 X106.89 Y85.709 E29.28346
G1 X107.538 Y85.078 E29.32622
G1 X108.238 Y84.506 E29.36896
G1 X108.987 Y83.999 E29.41172
G1 X109.777 Y83.56 E29.45445
G1 X110.603 Y83.192 E29.4972
G1 X111.459 Y82.899 E29.53998
G1 X112.337 Y82.683 E29.58272
G1 X113.23 Y82.545 E29.62544
G1 X114.057 Y82.488 E29.66463
G1 X114.665 Y82.475 E29.69339
G1 X142.228 Y82.475 E30.99649
G1 X143.072 Y82.486 E31.03639
G1 X143.975 Y82.539 E31.07916
G1 X144.87 Y82.671 E31.12193
G1 X145.749 Y82.882 E31.16466
G1 X146.606 Y83.17 E31.20741
G1 X147.434 Y83.533 E31.25015
G1 X148.228 Y83.967 E31.29293
G1 X148.979 Y84.469 E31.33564
G1 X149.684 Y85.036 E31.37841
G1 X150.335 Y85.663 E31.42114
G1 X150.929 Y86.345 E31.4639
G1 X151.46 Y87.077 E31.50665
G1 X151.924 Y87.853 E31.5494
G1 X152.318 Y88.667 E31.59215
G1 X152.638 Y89.513 E31.63491
G1 X152.883 Y90.383 E31.67765
G1 X153.049 Y91.272 E31.7204
G1 X153.147 Y92.423 E31.77501
G1 X153.16 Y93.03 E31.80372
G1 X153.159 Y111.496 E32.67674
G1 X153.149 Y112.198 E32.70993
G1 X153.096 Y113.1 E32.75265
G1 X152.926 Y114.179 E32.80429
G1 X152.317 Y117.193 E32.94966
G1 X151.891 Y119.688 E33.06933
G1 X151.502 Y122.451 E33.20124
G1 X151.225 Y124.962 E33.32067
G1 X151.016 Y127.513 E33.44168
G1 X150.88 Y130.024 E33.56057
G1 X150.81 Y132.959 E33.69937
G1 X150.697 Y134.25 E33.76064
G1 X150.545 Y135.242 E33.80808
G1 X150.363 Y136.34 E33.8607
G1 X150.013 Y138.885 E33.98215
G1 X149.74 Y141.379 E34.10077
G1 X149.698 Y141.817 E34.12157
G1 X149.572 Y142.712 E34.1643
G1 X149.297 Y143.835 E34.21896
G1 X149.124 Y144.4 E34.2469
G1 X148.945 Y144.942 E34.27388
G1 X148.618 Y145.784 E34.31659
G1 X148.217 Y146.595 E34.35936
G1 X147.746 Y147.367 E34.40211
G1 X147.209 Y148.094 E34.44484
G1 X146.61 Y148.772 E34.48762
G1 X145.953 Y149.393 E34.53036
G1 X145.411 Y149.831 E34.5633
G1 X144.78 Y150.302 E34.60053
G1 X144.524 Y150.484 E34.61538
G1 X143.764 Y150.974 E34.65813
G1 X142.964 Y151.396 E34.70089
G1 X142.131 Y151.746 E34.74361
G1 X141.269 Y152.02 E34.78637
G1 X140.387 Y152.218 E34.82911
G1 X139.631 Y152.323 E34.86519
G1 X138.517 Y152.436 E34.91813
G1 X137.084 Y152.552 E34.9861
G1 X134.303 Y152.704 E35.11777
G1 X133.74 Y152.719 E35.1444
G1 X132.811 Y152.713 E35.18832
G1 X132.004 Y152.687 E35.22649
G1 X129.053 Y152.547 E35.36616
G1 X125.57 Y152.488 E35.53085
G1 X122.479 Y152.39 E35.67706
G1 X119.963 Y152.381 E35.79601
G1 X117.39 Y152.447 E35.9177
G1 X114.898 Y152.58 E36.03568
G1 X112.343 Y152.79 E36.15688
G1 X109.816 Y153.069 E36.27707
G1 X107.337 Y153.414 E36.3954
G1 X104.746 Y153.85 E36.51962
G1 X103.542 Y154.077 E36.57755
G1 X102.647 Y154.205 E36.62029
G1 X101.935 Y154.25 E36.65402
G1 X101.328 Y154.263 E36.68272
G1 X73.633 Y154.262 E37.99206
G1 X72.935 Y154.253 E38.02507
G1 X72.032 Y154.202 E38.06783
G1 X71.138 Y154.07 E38.11055
G1 X70.258 Y153.861 E38.15331
G1 X69.401 Y153.574 E38.19604
G1 X68.572 Y153.213 E38.23879
G1 X67.778 Y152.78 E38.28154
G1 X67.026 Y152.278 E38.32429
G1 X66.32 Y151.712 E38.36707
G1 X65.668 Y151.086 E38.4098
G1 X65.073 Y150.405 E38.45256
G1 X64.541 Y149.674 E38.4953
G1 X64.076 Y148.899 E38.53803
G1 X63.681 Y148.085 E38.5808
G1 X63.359 Y147.24 E38.62356
G1 X63.114 Y146.37 E38.66629
G1 X62.946 Y145.482 E38.70901
G1 X62.846 Y144.305 E38.76486
G1 X62.833 Y143.696 E38.79366
G1 X62.834 Y125.231 E39.66663
G1 X62.844 Y124.54 E39.6993
G1 X62.897 Y123.637 E39.74207
G1 X63.03 Y122.743 E39.7848
G1 X63.241 Y121.864 E39.82754
G1 X63.529 Y121.007 E39.87028
G1 X63.891 Y120.178 E39.91305
G1 X64.326 Y119.385 E39.95581
G1 X64.828 Y118.634 E39.99851
G1 X65.395 Y117.929 E40.04129
G1 X66.022 Y117.278 E40.08402
G1 X66.705 Y116.684 E40.12681
G1 X67.437 Y116.153 E40.16956
G1 X68.213 Y115.689 E40.21231
M205 X5 Y5
G1 F3300 E34.21231
G0 F7500 X102.311 Y124.028
G0 X136.145 Y140.153
M205 X8 Y8
G1 F3300 E40.21231
G1 F1500 X136.282 Y140.053 E40.22033
G1 X136.341 Y140.18 E40.22695
G1 X136.145 Y140.153 E40.2363
M205 X5 Y5
G0 F7500 X135.816 Y139.822
M205 X8 Y8
G1 F1500 X136.112 Y139.628 E40.25303
G1 X136.369 Y139.359 E40.27062
G1 X136.515 Y139.164 E40.28214
G1 X136.587 Y139.614 E40.30369
G1 X136.719 Y139.943 E40.32044
G1 X136.922 Y140.233 E40.33718
G1 X137.153 Y140.448 E40.3521
G1 X137.463 Y140.682 E40.37046
G1 X136.649 Y140.753 E40.40909
G1 X136.581 Y140.714 E40.4128
G1 X136.242 Y140.612 E40.42953
G1 X135.888 Y140.589 E40.44631
G1 X135.585 Y140.633 E40.46078
G1 X134.63 Y140.869 E40.50729
G1 X133.783 Y140.863 E40.54733
G1 X134.019 Y140.571 E40.56508
G1 X134.174 Y140.252 E40.58185
G1 X134.254 Y139.907 E40.5986
G1 X134.254 Y139.729 E40.60701
G1 X134.443 Y139.844 E40.61747
G1 X134.779 Y139.957 E40.63423
G1 X135.132 Y139.991 E40.651
G1 X135.484 Y139.945 E40.66778
G1 X135.816 Y139.822 E40.68452
M205 X5 Y5
G0 F7500 X135.552 Y139.449
M205 X8 Y8
G1 F1500 X135.809 Y139.295 E40.69868
G1 X136.008 Y139.089 E40.71222
G1 X136.519 Y138.405 E40.75259
G1 X137.723 Y137.593 E40.82125
G1 X138.191 Y137.18 E40.85075
G1 X138.416 Y137.171 E40.8614
G1 X138.487 Y137.28 E40.86755
G1 X138.446 Y137.406 E40.87381
G1 X137.367 Y138.342 E40.94135
G1 X137.169 Y138.567 E40.95552
G1 X137.037 Y138.836 E40.96968
G1 X136.981 Y139.13 E40.98383
G1 X137.004 Y139.428 E40.99796
G1 X137.105 Y139.71 E41.01212
G1 X137.31 Y140.002 E41.02899
G1 X138.305 Y140.755 E41.08798
G1 X138.343 Y140.873 E41.09384
G1 X138.309 Y140.98 E41.09915
G1 X138.176 Y141.077 E41.10693
G1 X136.552 Y141.214 E41.18399
G1 X136.361 Y141.11 E41.19427
G1 X136.069 Y141.042 E41.20844
G1 X135.693 Y141.07 E41.22627
G1 X134.684 Y141.319 E41.2754
G1 X133.833 Y141.313 E41.31564
G1 X133.536 Y141.351 E41.32979
G1 X133.485 Y141.375 E41.33246
G1 X132.823 Y141.364 E41.36376
G1 X132.715 Y141.305 E41.36958
G1 X132.351 Y141.233 E41.38712
G1 X131.733 Y141.214 E41.41635
G1 X130.873 Y140.595 E41.46644
G1 X129.907 Y139.803 E41.5255
G1 X129.653 Y139.646 E41.53962
G1 X129.365 Y139.561 E41.55381
G1 X129.066 Y139.555 E41.56795
G1 X128.776 Y139.629 E41.5821
G1 X128.515 Y139.776 E41.59627
