;FLAVOR:Marlin
M117 Time Left 0h29m46s
;TIME:1786
;Filament used: 1.62447m
;Layer height: 0.2
;MINX:64.675
;MINY:81.575
;MINZ:0.28
;MAXX:139.425
;MAXY:153.424
;MAXZ:6.28
;POSTPROCESSED
;Generated with Cura_SteamEngine 5.2.1
M140 S70
M105
M190 S70
M104 S225
M105
M109 S225
M82 ;absolute extrusion mode
; Ender 3 Custom Start G-code
G92 E0 ; Reset Extruder
G28 ; Home all axes
G1 Z2.0 F3000 ; Move Z Axis up little to prevent scratching of Heat Bed
G1 X0.1 Y20 Z0.3 F5000.0 ; Move to start position
G1 X0.1 Y200.0 Z0.3 F1500.0 E15 ; Draw the first line
G1 X0.4 Y200.0 Z0.3 F5000.0 ; Move to side a little
G1 X0.4 Y20 Z0.3 F1500.0 E30 ; Draw the second line
G92 E0 ; Reset Extruder
G1 Z2.0 F3000 ; Move Z Axis up little to prevent scratching of Heat Bed
G1 X5 Y20 Z0.3 F5000.0 ; Move over to prevent blob squish
G92 E0
G92 E0
G1 F3300 E-6
;LAYER_COUNT:31
;LAYER:0
M107
M204 S500
M205 X5 Y5
G0 F7500 X68.561 Y84.269 Z0.28
M205 X8 Y8
;TYPE:SKIRT
G1 F3300 E0
G1 F1500 X69.302 Y83.686 E0.04458
G1 X70.089 Y83.167 E0.08914
G1 X70.918 Y82.717 E0.13374
G1 X71.782 Y82.338 E0.17834
G1 X72.675 Y82.035 E0.22293
G1 X73.59 Y81.807 E0.26751
G1 X74.522 Y81.659 E0.31212
G1 X75.497 Y81.588 E0.35834
G1 X76.13 Y81.575 E0.38827
G1 X103.85 Y81.576 E1.6988
G1 X105.328 Y81.597 E1.76868
G1 X106.046 Y81.588 E1.80263
G1 X107.388 Y81.616 E1.86609
G1 X127.752 Y81.617 E2.82884
G1 X128.45 Y81.627 E2.86184
G1 X129.392 Y81.681 E2.90645
G1 X130.326 Y81.814 E2.95105
G1 X131.245 Y82.025 E2.99563
G1 X132.143 Y82.314 E3.04023
G1 X133.013 Y82.678 E3.08482
G1 X133.849 Y83.114 E3.12939
G1 X134.646 Y83.619 E3.174
G1 X135.396 Y84.191 E3.21859
G1 X136.096 Y84.823 E3.26318
G1 X136.739 Y85.513 E3.30777
G1 X137.322 Y86.254 E3.35235
G1 X137.84 Y87.043 E3.39697
G1 X138.289 Y87.872 E3.44154
G1 X138.666 Y88.736 E3.48611
G1 X138.969 Y89.63 E3.53073
G1 X139.195 Y90.545 E3.57529
G1 X139.343 Y91.477 E3.61991
G1 X139.411 Y92.433 E3.66522
G1 X139.425 Y93.066 E3.69515
G1 X139.424 Y141.661 E5.99259
G1 X139.415 Y142.388 E6.02696
G1 X139.364 Y143.329 E6.07151
G1 X139.232 Y144.263 E6.11611
G1 X139.022 Y145.183 E6.16072
G1 X138.735 Y146.081 E6.20529
G1 X138.373 Y146.952 E6.24989
G1 X137.939 Y147.79 E6.2945
G1 X137.435 Y148.587 E6.33909
G1 X136.865 Y149.339 E6.3837
G1 X136.234 Y150.039 E6.42825
G1 X135.546 Y150.684 E6.47284
G1 X134.805 Y151.268 E6.51744
G1 X134.018 Y151.788 E6.56204
G1 X133.189 Y152.239 E6.60666
G1 X132.326 Y152.618 E6.65122
G1 X131.433 Y152.922 E6.69581
G1 X130.518 Y153.15 E6.7404
G1 X129.586 Y153.299 E6.78502
G1 X128.62 Y153.37 E6.83081
G1 X127.988 Y153.384 E6.8607
G1 X106.995 Y153.385 E7.85319
G1 X104.422 Y153.423 E7.97484
G1 X76.348 Y153.424 E9.30211
G1 X75.65 Y153.414 E9.33511
G1 X74.708 Y153.36 E9.37972
G1 X73.774 Y153.227 E9.42432
G1 X72.855 Y153.016 E9.4689
G1 X71.957 Y152.727 E9.5135
G1 X71.087 Y152.363 E9.55808
G1 X70.251 Y151.927 E9.60266
G1 X69.454 Y151.422 E9.64727
G1 X68.704 Y150.85 E9.69186
G1 X68.004 Y150.218 E9.73645
G1 X67.361 Y149.528 E9.78104
G1 X66.778 Y148.787 E9.82561
G1 X66.26 Y147.998 E9.87023
G1 X65.811 Y147.169 E9.91481
G1 X65.434 Y146.305 E9.95937
G1 X65.131 Y145.411 E10.004
G1 X64.905 Y144.496 E10.04856
G1 X64.757 Y143.564 E10.09317
G1 X64.688 Y142.591 E10.13929
G1 X64.675 Y141.958 E10.16922
G1 X64.676 Y93.249 E12.47205
G1 X64.685 Y92.563 E12.50448
G1 X64.737 Y91.621 E12.54908
G1 X64.869 Y90.687 E12.59368
G1 X65.08 Y89.768 E12.63826
G1 X65.367 Y88.87 E12.68283
G1 X65.73 Y87.999 E12.72744
G1 X66.165 Y87.162 E12.77204
G1 X66.67 Y86.365 E12.81664
G1 X67.24 Y85.614 E12.86122
G1 X67.872 Y84.914 E12.9058
G1 X68.561 Y84.269 E12.95042
M205 X5 Y5
G0 F7500 X68.998 Y84.489
M205 X8 Y8
G1 F1500 X69.734 Y83.931 E12.99409
G1 X70.516 Y83.439 E13.03777
G1 X71.338 Y83.016 E13.08147
G1 X72.193 Y82.665 E13.12517
G1 X73.075 Y82.39 E13.16885
G1 X73.977 Y82.192 E13.21251
G1 X74.893 Y82.073 E13.25618
G1 X75.51 Y82.038 E13.28539
G1 X76.13 Y82.025 E13.31471
G1 X103.844 Y82.026 E14.62495
G1 X105.68 Y82.052 E14.71176
G1 X106.037 Y82.038 E14.72865
G1 X107.379 Y82.066 E14.79211
G1 X127.746 Y82.067 E15.75501
G1 X128.444 Y82.077 E15.78801
G1 X129.366 Y82.13 E15.83167
G1 X130.281 Y82.263 E15.87539
G1 X131.18 Y82.474 E15.91904
G1 X132.058 Y82.763 E15.96274
G1 X132.907 Y83.126 E16.0064
G1 X133.722 Y83.561 E16.05007
G1 X134.497 Y84.065 E16.09378
G1 X135.224 Y84.634 E16.13743
G1 X135.9 Y85.264 E16.18111
G1 X136.519 Y85.95 E16.2248
G1 X137.076 Y86.687 E16.26847
G1 X137.568 Y87.469 E16.31215
G1 X137.99 Y88.291 E16.35583
G1 X138.339 Y89.147 E16.39954
G1 X138.613 Y90.029 E16.4432
G1 X138.81 Y90.932 E16.4869
G1 X138.928 Y91.848 E16.53056
G1 X138.962 Y92.446 E16.55888
G1 X138.975 Y93.066 E16.5882
G1 X138.974 Y141.655 E18.88535
G1 X138.965 Y142.382 E18.91972
G1 X138.914 Y143.305 E18.96343
G1 X138.783 Y144.219 E19.00708
G1 X138.573 Y145.119 E19.05077
G1 X138.287 Y145.997 E19.09443
G1 X137.925 Y146.848 E19.13815
G1 X137.492 Y147.663 E19.18178
G1 X136.989 Y148.439 E19.2255
G1 X136.421 Y149.168 E19.26919
G1 X135.793 Y149.845 E19.31285
G1 X135.108 Y150.465 E19.35653
G1 X134.372 Y151.024 E19.40022
G1 X133.591 Y151.517 E19.44389
G1 X132.77 Y151.94 E19.48755
G1 X131.915 Y152.291 E19.53125
G1 X131.033 Y152.567 E19.57494
G1 X130.131 Y152.765 E19.6186
G1 X129.215 Y152.885 E19.66227
G1 X128.607 Y152.92 E19.69107
G1 X127.988 Y152.934 E19.72034
G1 X106.989 Y152.935 E20.71311
G1 X104.416 Y152.973 E20.83477
G1 X76.507 Y152.975 E22.15423
G1 X75.656 Y152.964 E22.19447
G1 X74.734 Y152.911 E22.23813
G1 X73.819 Y152.778 E22.28184
G1 X72.92 Y152.567 E22.3255
G1 X72.042 Y152.278 E22.3692
G1 X71.193 Y151.915 E22.41285
G1 X70.378 Y151.48 E22.45653
G1 X69.603 Y150.976 E22.50023
G1 X68.876 Y150.407 E22.54388
G1 X68.2 Y149.777 E22.58757
G1 X67.581 Y149.091 E22.63125
G1 X67.024 Y148.354 E22.67492
G1 X66.532 Y147.572 E22.7186
G1 X66.11 Y146.75 E22.76229
G1 X65.761 Y145.894 E22.80599
G1 X65.487 Y145.012 E22.84966
G1 X65.29 Y144.109 E22.89335
G1 X65.172 Y143.193 E22.93702
G1 X65.138 Y142.579 E22.96609
G1 X65.125 Y141.958 E22.99545
G1 X65.126 Y93.255 E25.298
G1 X65.135 Y92.569 E25.33043
G1 X65.187 Y91.647 E25.37409
G1 X65.319 Y90.732 E25.4178
G1 X65.529 Y89.832 E25.46149
G1 X65.816 Y88.954 E25.50516
G1 X66.178 Y88.104 E25.54884
G1 X66.612 Y87.289 E25.59249
G1 X67.116 Y86.514 E25.6362
G1 X67.684 Y85.785 E25.67989
G1 X68.313 Y85.109 E25.72354
G1 X68.998 Y84.489 E25.76722
M205 X5 Y5
G0 F7500 X69.435 Y84.714
M205 X8 Y8
G1 F1500 X70.166 Y84.182 E25.80997
G1 X70.941 Y83.717 E25.85269
G1 X71.755 Y83.322 E25.89547
G1 X72.6 Y83.001 E25.9382
G1 X73.47 Y82.755 E25.98095
G1 X74.359 Y82.587 E26.02372
G1 X75.522 Y82.488 E26.0789
G1 X76.13 Y82.475 E26.10766
G1 X103.693 Y82.475 E27.41076
G1 X105.522 Y82.5 E27.49724
G1 X106.027 Y82.488 E27.52112
G1 X107.369 Y82.516 E27.58458
G1 X127.739 Y82.517 E28.54761
G1 X128.437 Y82.527 E28.58062
G1 X129.34 Y82.58 E28.62338
G1 X130.235 Y82.712 E28.66615
G1 X131.114 Y82.923 E28.70889
G1 X131.971 Y83.211 E28.75163
G1 X132.799 Y83.574 E28.79437
G1 X133.593 Y84.008 E28.83715
G1 X134.344 Y84.51 E28.87986
G1 X135.049 Y85.077 E28.92263
G1 X135.7 Y85.704 E28.96536
G1 X136.294 Y86.386 E29.00812
G1 X136.825 Y87.118 E29.05088
G1 X137.289 Y87.894 E29.09362
G1 X137.683 Y88.708 E29.13638
G1 X138.003 Y89.554 E29.17914
G1 X138.248 Y90.424 E29.22187
G1 X138.414 Y91.313 E29.26463
G1 X138.512 Y92.459 E29.319
G1 X138.525 Y93.066 E29.34771
G1 X138.524 Y141.65 E31.64462
G1 X138.515 Y142.377 E31.679
G1 X138.464 Y143.279 E31.72171
G1 X138.333 Y144.174 E31.76447
G1 X138.124 Y145.054 E31.80723
G1 X137.838 Y145.911 E31.84995
G1 X137.477 Y146.741 E31.89274
G1 X137.045 Y147.535 E31.93547
G1 X136.543 Y148.287 E31.97822
G1 X135.978 Y148.993 E32.02097
G1 X135.352 Y149.645 E32.0637
G1 X134.671 Y150.24 E32.10645
G1 X133.94 Y150.773 E32.14922
G1 X133.165 Y151.238 E32.19195
G1 X132.352 Y151.634 E32.23471
G1 X131.507 Y151.956 E32.27746
G1 X130.637 Y152.202 E32.3202
G1 X129.749 Y152.371 E32.36294
G1 X128.594 Y152.471 E32.41775
G1 X127.987 Y152.484 E32.44645
G1 X106.982 Y152.485 E33.43951
G1 X104.409 Y152.523 E33.56117
G1 X76.507 Y152.525 E34.88029
G1 X75.663 Y152.514 E34.9202
G1 X74.76 Y152.461 E34.96296
G1 X73.865 Y152.329 E35.00574
G1 X72.986 Y152.118 E35.04847
G1 X72.129 Y151.83 E35.09122
G1 X71.301 Y151.467 E35.13396
G1 X70.507 Y151.033 E35.17674
G1 X69.756 Y150.531 E35.21944
G1 X69.051 Y149.964 E35.26222
G1 X68.4 Y149.337 E35.30495
G1 X67.806 Y148.655 E35.34771
G1 X67.275 Y147.923 E35.39046
G1 X66.811 Y147.147 E35.43321
G1 X66.417 Y146.333 E35.47596
G1 X66.097 Y145.487 E35.51872
G1 X65.852 Y144.617 E35.56145
G1 X65.686 Y143.728 E35.60421
G1 X65.588 Y142.567 E35.65929
G1 X65.575 Y141.958 E35.68809
G1 X65.576 Y93.261 E37.99035
G1 X65.585 Y92.575 E38.02278
G1 X65.637 Y91.672 E38.06555
G1 X65.768 Y90.778 E38.10826
G1 X65.978 Y89.898 E38.15104
G1 X66.265 Y89.04 E38.19381
G1 X66.626 Y88.212 E38.23651
G1 X67.059 Y87.418 E38.27927
G1 X67.561 Y86.666 E38.32202
G1 X68.127 Y85.961 E38.36476
G1 X68.753 Y85.308 E38.40753
G1 X69.435 Y84.714 E38.45028
M205 X5 Y5
G1 F3300 E32.45028
;MESH:pieza_2.stl
G0 F7500 X76.239 Y92.035
G0 X76.239 Y93.139
G0 X76.68 Y93.58
G1 F3300 E38.45028
G0 F7500 X76.5 Y93.4
M205 X8 Y8
;TYPE:WALL-INNER
G1 F1500 X76.5 Y141.6 E40.98224
G1 X103.7 Y141.6 E42.41106
G1 X103.7 Y107 E44.22861
G1 X103.7 Y93.4 E44.94302
G1 X76.5 Y93.4 E46.37184
M205 X5 Y5
G0 F7500 X76.225 Y93.125
M205 X8 Y8
;TYPE:WALL-OUTER
G1 F1500 X76.225 Y141.875 E48.67661
G1 X103.975 Y141.875 E49.98855
G1 X103.975 Y107 E51.63734
G1 X103.975 Y93.125 E52.29331
G1 X76.225 Y93.125 E53.60525
M205 X5 Y5
G0 F7500 X76.225 Y93.325
G0 X76.773 Y93.673
M205 X8 Y8
;TYPE:SKIN
G1 F1500 X76.773 Y141.327 E55.00709
G1 X103.427 Y141.327 E55.79117
G1 X103.427 Y107 E56.80096
G1 X103.427 Y93.673 E57.193
G1 X76.773 Y93.673 E57.97708
M205 X5 Y5
G0 F7500 X76.913 Y94.08
M205 X8 Y8
G1 F1500 X103.287 Y94.08 E58.75292
M205 X5 Y5
G0 F7500 X103.287 Y94.36
M205 X8 Y8
G1 F1500 X76.913 Y94.36 E59.52876
M205 X5 Y5
G0 F7500 X76.913 Y94.64
M205 X8 Y8
G1 F1500 X103.287 Y94.64 E60.30461
M205 X5 Y5
G0 F7500 X103.287 Y94.92
M205 X8 Y8
G1 F1500 X76.913 Y94.92 E61.08045
M205 X5 Y5
G0 F7500 X76.913 Y95.2
M205 X8 Y8
G1 F1500 X103.287 Y95.2 E61.85629
M205 X5 Y5
G0 F7500 X103.287 Y95.48
M205 X8 Y8
G1 F1500 X76.913 Y95.48 E62.63213
M205 X5 Y5
G0 F7500 X76.913 Y95.76
M205 X8 Y8
G1 F1500 X103.287 Y95.76 E63.40797
M205 X5 Y5
G0 F7500 X103.287 Y96.04
M205 X8 Y8
G1 F1500 X76.913 Y96.04 E64.18382
M205 X5 Y5
G0 F7500 X76.913 Y96.32
M205 X8 Y8
G1 F1500 X103.287 Y96.32 E64.95966
M205 X5 Y5
G0 F7500 X103.287 Y96.6
M205 X8 Y8
G1 F1500 X76.913 Y96.6 E65.7355
M205 X5 Y5
G0 F7500 X76.913 Y96.88
M205 X8 Y8
G1 F1500 X103.287 Y96.88 E66.51134
M205 X5 Y5
G0 F7500 X103.287 Y97.16
M205 X8 Y8
G1 F1500 X76.913 Y97.16 E67.28718
M205 X5 Y5
G0 F7500 X76.913 Y97.44
M205 X8 Y8
G1 F1500 X103.287 Y97.44 E68.06303
M205 X5 Y5
G0 F7500 X103.287 Y97.72
M205 X8 Y8
G1 F1500 X76.913 Y97.72 E68.83887
M205 X5 Y5
G0 F7500 X76.913 Y98
M205 X8 Y8
G1 F1500 X103.287 Y98 E69.61471
M205 X5 Y5
G0 F7500 X103.287 Y98.28
M205 X8 Y8
G1 F1500 X76.913 Y98.28 E70.39055
M205 X5 Y5
G0 F7500 X76.913 Y98.56
M205 X8 Y8
G1 F1500 X103.287 Y98.56 E71.16639
M205 X5 Y5
G0 F7500 X103.287 Y98.84
M205 X8 Y8
G1 F1500 X76.913 Y98.84 E71.94224
M205 X5 Y5
G0 F7500 X76.913 Y99.12
M205 X8 Y8
G1 F1500 X103.287 Y99.12 E72.71808
M205 X5 Y5
G0 F7500 X103.287 Y99.4
M205 X8 Y8
G1 F1500 X76.913 Y99.4 E73.49392
M205 X5 Y5
G0 F7500 X76.913 Y99.68
M205 X8 Y8
G1 F1500 X103.287 Y99.68 E74.26976
M205 X5 Y5
G0 F7500 X103.287 Y99.96
M205 X8 Y8
G1 F1500 X76.913 Y99.96 E75.0456
M205 X5 Y5
G0 F7500 X76.913 Y100.24
M205 X8 Y8
G1 F1500 X103.287 Y100.24 E75.82145
M205 X5 Y5
G0 F7500 X103.287 Y100.52
M205 X8 Y8
G1 F1500 X76.913 Y100.52 E76.59729
M205 X5 Y5
G0 F7500 X76.913 Y100.8
M205 X8 Y8
G1 F1500 X103.287 Y100.8 E77.37313
M205 X5 Y5
G0 F7500 X103.287 Y101.08
M205 X8 Y8
G1 F1500 X76.913 Y101.08 E78.14897
M205 X5 Y5
G0 F7500 X76.913 Y101.36
M205 X8 Y8
G1 F1500 X103.287 Y101.36 E78.92481
M205 X5 Y5
G0 F7500 X103.287 Y101.64
M205 X8 Y8
G1 F1500 X76.913 Y101.64 E79.70066
M205 X5 Y5
G0 F7500 X76.913 Y101.92
M205 X8 Y8
G1 F1500 X103.287 Y101.92 E80.4765
M205 X5 Y5
G0 F7500 X103.287 Y102.2
M205 X8 Y8
G1 F1500 X76.913 Y102.2 E81.25234
M205 X5 Y5
G0 F7500 X76.913 Y102.48
M205 X8 Y8
G1 F1500 X103.287 Y102.48 E82.02818
M205 X5 Y5
G0 F7500 X103.287 Y102.76
M205 X8 Y8
G1 F1500 X76.913 Y102.76 E82.80402
M205 X5 Y5
G0 F7500 X76.913 Y103.04
M205 X8 Y8
G1 F1500 X103.287 Y103.04 E83.57987
M205 X5 Y5
G0 F7500 X103.287 Y103.32
M205 X8 Y8
G1 F1500 X76.913 Y103.32 E84.35571
M205 X5 Y5
G0 F7500 X76.913 Y103.6
M205 X8 Y8
G1 F1500 X103.287 Y103.6 E85.13155
M205 X5 Y5
G0 F7500 X103.287 Y103.88
M205 X8 Y8
G1 F1500 X76.913 Y103.88 E85.90739
M205 X5 Y5
G0 F7500 X76.913 Y104.16
M205 X8 Y8
G1 F1500 X103.287 Y104.16 E86.68323
M205 X5 Y5
G0 F7500 X103.287 Y104.44
M205 X8 Y8
G1 F1500 X76.913 Y104.44 E87.45908
M205 X5 Y5
G0 F7500 X76.913 Y104.72
M205 X8 Y8
G1 F1500 X103.287 Y104.72 E88.23492
M205 X5 Y5
G0 F7500 X103.287 Y105
M205 X8 Y8
G1 F1500 X76.913 Y105 E89.01076
M205 X5 Y5
G0 F7500 X76.913 Y105.28
M205 X8 Y8
G1 F1500 X103.287 Y105.28 E89.7866
M205 X5 Y5
G0 F7500 X103.287 Y105.56
M205 X8 Y8
G1 F1500 X76.913 Y105.56 E90.56244
M205 X5 Y5
G0 F7500 X76.913 Y105.84
M205 X8 Y8
G1 F1500 X103.287 Y105.84 E91.33829
M205 X5 Y5
G0 F7500 X103.287 Y106.12
M205 X8 Y8
G1 F1500 X76.913 Y106.12 E92.11413
M205 X5 Y5
G0 F7500 X76.913 Y106.4
M205 X8 Y8
G1 F1500 X103.287 Y106.4 E92.88997
M205 X5 Y5
G0 F7500 X103.287 Y106.68
M205 X8 Y8
G1 F1500 X76.913 Y106.68 E93.66581
M205 X5 Y5
G0 F7500 X76.913 Y106.96
M205 X8 Y8
G1 F1500 X103.287 Y106.96 E94.44165
M205 X5 Y5
G0 F7500 X103.287 Y107.24
M205 X8 Y8
G1 F1500 X76.913 Y107.24 E95.2175
M205 X5 Y5
G0 F7500 X76.913 Y107.52
M205 X8 Y8
G1 F1500 X103.287 Y107.52 E95.99334
M205 X5 Y5
G0 F7500 X103.287 Y107.8
M205 X8 Y8
G1 F1500 X76.913 Y107.8 E96.76918
M205 X5 Y5
G0 F7500 X76.913 Y108.08
M205 X8 Y8
G1 F1500 X103.287 Y108.08 E97.54502
M205 X5 Y5
G0 F7500 X103.287 Y108.36
M205 X8 Y8
G1 F1500 X76.913 Y108.36 E98.32086
M205 X5 Y5
G0 F7500 X76.913 Y108.64
M205 X8 Y8
G1 F1500 X103.287 Y108.64 E99.09671
M205 X5 Y5
G0 F7500 X103.287 Y108.92
M205 X8 Y8
G1 F1500 X76.913 Y108.92 E99.87255
M205 X5 Y5
G0 F7500 X76.913 Y109.2
M205 X8 Y8
G1 F1500 X103.287 Y109.2 E100.64839
M205 X5 Y5
G0 F7500 X103.287 Y109.48
M205 X8 Y8
G1 F1500 X76.913 Y109.48 E101.42423
M205 X5 Y5
G0 F7500 X76.913 Y109.76
M205 X8 Y8
G1 F1500 X103.287 Y109.76 E102.20008
M205 X5 Y5
G0 F7500 X103.287 Y110.04
M205 X8 Y8
G1 F1500 X76.913 Y110.04 E102.97592
M205 X5 Y5
G0 F7500 X76.913 Y110.32
M205 X8 Y8
G1 F1500 X103.287 Y110.32 E103.75176
M205 X5 Y5
G0 F7500 X103.287 Y110.6
M205 X8 Y8
G1 F1500 X76.913 Y110.6 E104.5276
M205 X5 Y5
G0 F7500 X76.913 Y110.88
M205 X8 Y8
G1 F1500 X103.287 Y110.88 E105.30344
M205 X5 Y5
G0 F7500 X103.287 Y111.16
M205 X8 Y8
G1 F1500 X76.913 Y111.16 E106.07929
M205 X5 Y5
G0 F7500 X76.913 Y111.44
M205 X8 Y8
G1 F1500 X103.287 Y111.44 E106.85513
M205 X5 Y5
G0 F7500 X103.287 Y111.72
M205 X8 Y8
G1 F1500 X76.913 Y111.72 E107.63097
M205 X5 Y5
G0 F7500 X76.913 Y112
M205 X8 Y8
G1 F1500 X103.287 Y112 E108.40681
M205 X5 Y5
G0 F7500 X103.287 Y112.28
M205 X8 Y8
G1 F1500 X76.913 Y112.28 E109.18265
M205 X5 Y5
G0 F7500 X76.913 Y112.56
M205 X8 Y8
G1 F1500 X103.287 Y112.56 E109.9585
M205 X5 Y5
G0 F7500 X103.287 Y112.84
M205 X8 Y8
G1 F1500 X76.913 Y112.84 E110.73434
M205 X5 Y5
G0 F7500 X76.913 Y113.12
M205 X8 Y8
G1 F1500 X103.287 Y113.12 E111.51018
M205 X5 Y5
G0 F7500 X103.287 Y113.4
M205 X8 Y8
G1 F1500 X76.913 Y113.4 E112.28602
M205 X5 Y5
G0 F7500 X76.913 Y113.68
M205 X8 Y8
G1 F1500 X103.287 Y113.68 E113.06186
M205 X5 Y5
G0 F7500 X103.287 Y113.96
M205 X8 Y8
G1 F1500 X76.913 Y113.96 E113.83771
M205 X5 Y5
G0 F7500 X76.913 Y114.24
M205 X8 Y8
G1 F1500 X103.287 Y114.24 E114.61355
M205 X5 Y5
G0 F7500 X103.287 Y114.52
M205 X8 Y8
G1 F1500 X76.913 Y114.52 E115.38939
M205 X5 Y5
G0 F7500 X76.913 Y114.8
M205 X8 Y8
G1 F1500 X103.287 Y114.8 E116.16523
M205 X5 Y5
G0 F7500 X103.287 Y115.08
M205 X8 Y8
G1 F1500 X76.913 Y115.08 E116.94107
M205 X5 Y5
G0 F7500 X76.913 Y115.36
M205 X8 Y8
G1 F1500 X103.287 Y115.36 E117.71692
M205 X5 Y5
G0 F7500 X103.287 Y115.64
