;FLAVOR:Marlin
M117 Time Left 0h20m57s
;TIME:1257
;Filament used: 1.12047m
;Layer height: 0.2
;MINX:92.075
;MINY:81.575
;MINZ:0.28
;MAXX:142.925
;MAXY:142.275
;MAXZ:6.28
;POSTPROCESSED
;Generated with Cura_SteamEngine 5.2.1
M140 S70
M105
M190 S70
M104 S225
M105
M109 S225
M82 ;absolute extrusion mode
; Ender 3 Custom Start G-code
G92 E0 ; Reset Extruder
G28 ; Home all axes
G1 Z2.0 F3000 ; Move Z Axis up little to prevent scratching of Heat Bed
G1 X0.1 Y20 Z0.3 F5000.0 ; Move to start position
G1 X0.1 Y200.0 Z0.3 F1500.0 E15 ; Draw the first line
G1 X0.4 Y200.0 Z0.3 F5000.0 ; Move to side a little
G1 X0.4 Y20 Z0.3 F1500.0 E30 ; Draw the second line
G92 E0 ; Reset Extruder
G1 Z2.0 F3000 ; Move Z Axis up little to prevent scratching of Heat Bed
G1 X5 Y20 Z0.3 F5000.0 ; Move over to prevent blob squish
G92 E0
G92 E0
G1 F3300 E-6
;LAYER_COUNT:31
;LAYER:0
M107
M204 S500
M205 X5 Y5
G0 F7500 X94.643 Y85.611 Z0.28
M205 X8 Y8
;TYPE:SKIRT
G1 F3300 E0
G1 F1500 X95.275 Y84.91 E0.04462
G1 X95.964 Y84.266 E0.08921
G1 X96.705 Y83.683 E0.13378
G1 X97.493 Y83.165 E0.17837
G1 X98.322 Y82.715 E0.22296
G1 X99.186 Y82.337 E0.26755
G1 X100.079 Y82.033 E0.31215
G1 X100.995 Y81.807 E0.35675
G1 X101.926 Y81.658 E0.40133
G1 X102.897 Y81.588 E0.44735
G1 X103.53 Y81.575 E0.47728
G1 X131.252 Y81.576 E1.7879
G1 X131.95 Y81.586 E1.82091
G1 X132.892 Y81.64 E1.86551
G1 X133.826 Y81.773 E1.91012
G1 X134.745 Y81.984 E1.95469
G1 X135.643 Y82.273 E1.99929
G1 X136.513 Y82.637 E2.04388
G1 X137.349 Y83.073 E2.08846
G1 X138.146 Y83.578 E2.13306
G1 X138.896 Y84.15 E2.17766
G1 X139.596 Y84.782 E2.22224
G1 X140.239 Y85.472 E2.26683
G1 X140.822 Y86.213 E2.31141
G1 X141.34 Y87.002 E2.35603
G1 X141.789 Y87.831 E2.4006
G1 X142.166 Y88.695 E2.44517
G1 X142.469 Y89.589 E2.4898
G1 X142.695 Y90.504 E2.53436
G1 X142.843 Y91.436 E2.57897
G1 X142.912 Y92.397 E2.62452
G1 X142.925 Y93.03 E2.65445
G1 X142.924 Y111.459 E3.52572
G1 X142.915 Y112.186 E3.5601
G1 X142.864 Y113.127 E3.60465
G1 X142.732 Y114.061 E3.64925
G1 X142.522 Y114.981 E3.69386
G1 X142.235 Y115.879 E3.73843
G1 X141.873 Y116.75 E3.78302
G1 X141.439 Y117.588 E3.82764
G1 X140.935 Y118.385 E3.87222
G1 X140.365 Y119.137 E3.91683
G1 X139.734 Y119.837 E3.96139
G1 X139.046 Y120.482 E4.00597
G1 X138.305 Y121.066 E4.05058
G1 X137.518 Y121.586 E4.09517
G1 X136.689 Y122.037 E4.13979
G1 X135.826 Y122.416 E4.18435
G1 X134.933 Y122.72 E4.22895
G1 X134.018 Y122.948 E4.27353
G1 X133.086 Y123.097 E4.31815
G1 X132.103 Y123.169 E4.36475
G1 X131.47 Y123.182 E4.39468
G1 X103.764 Y123.181 E5.70455
G1 X103.066 Y123.172 E5.73755
G1 X102.124 Y123.12 E5.78215
G1 X101.19 Y122.988 E5.82675
G1 X100.27 Y122.778 E5.87136
G1 X99.372 Y122.49 E5.91595
G1 X98.501 Y122.128 E5.96054
G1 X97.665 Y121.693 E6.00509
G1 X96.867 Y121.189 E6.04972
G1 X96.116 Y120.619 E6.09429
G1 X95.416 Y119.987 E6.13888
G1 X94.771 Y119.298 E6.1835
G1 X94.187 Y118.558 E6.22806
G1 X93.668 Y117.77 E6.27267
G1 X93.218 Y116.941 E6.31727
G1 X92.839 Y116.077 E6.36187
G1 X92.535 Y115.185 E6.40642
G1 X92.308 Y114.269 E6.45104
G1 X92.159 Y113.338 E6.49562
G1 X92.088 Y112.349 E6.54249
G1 X92.075 Y111.715 E6.57247
G1 X92.076 Y93.223 E7.44672
G1 X92.085 Y92.558 E7.47817
G1 X92.138 Y91.617 E7.52272
G1 X92.27 Y90.683 E7.56732
G1 X92.481 Y89.764 E7.6119
G1 X92.769 Y88.865 E7.65653
G1 X93.132 Y87.995 E7.7011
G1 X93.568 Y87.158 E7.74571
G1 X94.072 Y86.362 E7.79026
G1 X94.643 Y85.611 E7.83486
M205 X5 Y5
G0 F7500 X95.087 Y85.782
M205 X8 Y8
G1 F1500 X95.716 Y85.106 E7.87851
G1 X96.402 Y84.486 E7.92223
G1 X97.138 Y83.928 E7.96589
G1 X97.92 Y83.436 E8.00957
G1 X98.742 Y83.014 E8.05326
G1 X99.597 Y82.664 E8.09693
G1 X100.479 Y82.389 E8.14061
G1 X101.381 Y82.192 E8.18426
G1 X102.298 Y82.073 E8.22798
G1 X102.91 Y82.038 E8.25696
G1 X103.53 Y82.025 E8.28628
G1 X131.093 Y82.025 E9.58938
G1 X131.944 Y82.036 E9.62962
G1 X132.866 Y82.089 E9.67328
G1 X133.781 Y82.222 E9.71699
G1 X134.68 Y82.433 E9.76065
G1 X135.558 Y82.722 E9.80435
G1 X136.407 Y83.085 E9.848
G1 X137.222 Y83.52 E9.89168
G1 X137.997 Y84.024 E9.93538
G1 X138.724 Y84.593 E9.97903
G1 X139.4 Y85.223 E10.02272
G1 X140.019 Y85.909 E10.0664
G1 X140.576 Y86.646 E10.11007
G1 X141.068 Y87.428 E10.15375
G1 X141.49 Y88.25 E10.19744
G1 X141.839 Y89.106 E10.24114
G1 X142.113 Y89.988 E10.28481
G1 X142.31 Y90.891 E10.3285
G1 X142.428 Y91.807 E10.37217
G1 X142.462 Y92.41 E10.40072
G1 X142.475 Y93.03 E10.43004
G1 X142.474 Y111.453 E11.30102
G1 X142.465 Y112.18 E11.3354
G1 X142.414 Y113.103 E11.3791
G1 X142.283 Y114.017 E11.42275
G1 X142.073 Y114.917 E11.46645
G1 X141.787 Y115.795 E11.5101
G1 X141.425 Y116.646 E11.55382
G1 X140.992 Y117.461 E11.59746
G1 X140.489 Y118.237 E11.64118
G1 X139.921 Y118.966 E11.68487
G1 X139.293 Y119.643 E11.72852
G1 X138.608 Y120.263 E11.7722
G1 X137.872 Y120.822 E11.8159
G1 X137.091 Y121.315 E11.85956
G1 X136.27 Y121.738 E11.90323
G1 X135.415 Y122.089 E11.94692
G1 X134.533 Y122.365 E11.99062
G1 X133.631 Y122.563 E12.03427
G1 X132.715 Y122.683 E12.07795
G1 X132.09 Y122.719 E12.10755
G1 X131.47 Y122.732 E12.13687
G1 X103.769 Y122.731 E13.44649
G1 X103.071 Y122.722 E13.47949
G1 X102.149 Y122.67 E13.52315
G1 X101.234 Y122.539 E13.56685
G1 X100.335 Y122.329 E13.6105
G1 X99.457 Y122.042 E13.65417
G1 X98.606 Y121.68 E13.69789
G1 X97.791 Y121.246 E13.74155
G1 X97.016 Y120.743 E13.78523
G1 X96.287 Y120.175 E13.82892
G1 X95.61 Y119.546 E13.87261
G1 X94.991 Y118.861 E13.91625
G1 X94.432 Y118.125 E13.95995
G1 X93.94 Y117.343 E14.00363
G1 X93.517 Y116.522 E14.04729
G1 X93.166 Y115.667 E14.09099
G1 X92.891 Y114.785 E14.13467
G1 X92.693 Y113.882 E14.17837
G1 X92.574 Y112.966 E14.22204
G1 X92.538 Y112.336 E14.25187
G1 X92.525 Y111.715 E14.28124
G1 X92.526 Y93.23 E15.15516
G1 X92.535 Y92.565 E15.1866
G1 X92.587 Y91.642 E15.23031
G1 X92.719 Y90.728 E15.27397
G1 X92.93 Y89.828 E15.31767
G1 X93.218 Y88.95 E15.36136
G1 X93.58 Y88.1 E15.40503
G1 X94.015 Y87.285 E15.44871
G1 X94.518 Y86.51 E15.49239
G1 X95.087 Y85.782 E15.53607
M205 X5 Y5
G0 F7500 X95.53 Y85.957
M205 X8 Y8
G1 F1500 X96.156 Y85.305 E15.57881
G1 X96.838 Y84.711 E15.62156
G1 X97.57 Y84.18 E15.66432
G1 X98.345 Y83.715 E15.70705
G1 X99.159 Y83.32 E15.74982
G1 X100.004 Y82.999 E15.79256
G1 X100.874 Y82.754 E15.83529
G1 X101.763 Y82.587 E15.87805
G1 X102.922 Y82.488 E15.93305
G1 X103.53 Y82.475 E15.9618
G1 X131.093 Y82.475 E17.2649
G1 X131.937 Y82.486 E17.3048
G1 X132.84 Y82.539 E17.34757
G1 X133.735 Y82.671 E17.39034
G1 X134.614 Y82.882 E17.43308
G1 X135.471 Y83.17 E17.47582
G1 X136.299 Y83.533 E17.51856
G1 X137.093 Y83.967 E17.56134
G1 X137.844 Y84.469 E17.60405
G1 X138.549 Y85.036 E17.64682
G1 X139.2 Y85.663 E17.68955
G1 X139.794 Y86.345 E17.73231
G1 X140.325 Y87.077 E17.77506
G1 X140.789 Y87.853 E17.81781
G1 X141.183 Y88.667 E17.86056
G1 X141.503 Y89.513 E17.90333
G1 X141.748 Y90.383 E17.94606
G1 X141.914 Y91.272 E17.98881
G1 X142.012 Y92.423 E18.04343
G1 X142.025 Y93.03 E18.07213
G1 X142.024 Y111.448 E18.94288
G1 X142.015 Y112.175 E18.97725
G1 X141.964 Y113.077 E19.01997
G1 X141.833 Y113.972 E19.06273
G1 X141.624 Y114.852 E19.10549
G1 X141.338 Y115.709 E19.14821
G1 X140.977 Y116.539 E19.191
G1 X140.545 Y117.333 E19.23373
G1 X140.043 Y118.085 E19.27648
G1 X139.478 Y118.791 E19.31923
G1 X138.852 Y119.443 E19.36196
G1 X138.171 Y120.038 E19.40471
G1 X137.44 Y120.571 E19.44748
G1 X136.665 Y121.036 E19.49021
G1 X135.852 Y121.432 E19.53297
G1 X135.007 Y121.754 E19.57572
G1 X134.137 Y122 E19.61846
G1 X133.249 Y122.169 E19.6612
G1 X132.078 Y122.269 E19.71676
G1 X131.47 Y122.282 E19.74551
G1 X103.775 Y122.281 E21.05485
G1 X103.077 Y122.272 E21.08786
G1 X102.174 Y122.221 E21.13062
G1 X101.28 Y122.089 E21.17334
G1 X100.4 Y121.88 E21.2161
G1 X99.543 Y121.593 E21.25883
G1 X98.714 Y121.232 E21.30158
G1 X97.92 Y120.799 E21.34433
G1 X97.168 Y120.297 E21.38708
G1 X96.462 Y119.731 E21.42986
G1 X95.81 Y119.105 E21.47259
G1 X95.215 Y118.424 E21.51535
G1 X94.683 Y117.693 E21.55809
G1 X94.218 Y116.918 E21.60082
G1 X93.823 Y116.104 E21.64359
G1 X93.501 Y115.259 E21.68634
G1 X93.256 Y114.389 E21.72908
G1 X93.088 Y113.501 E21.7718
G1 X92.988 Y112.324 E21.82765
G1 X92.975 Y111.715 E21.85645
G1 X92.976 Y93.236 E22.73008
G1 X92.985 Y92.571 E22.76152
G1 X93.037 Y91.668 E22.80429
G1 X93.169 Y90.773 E22.84706
G1 X93.379 Y89.894 E22.88978
G1 X93.666 Y89.037 E22.93251
G1 X94.028 Y88.208 E22.97528
G1 X94.462 Y87.414 E23.01806
G1 X94.964 Y86.662 E23.0608
G1 X95.53 Y85.957 E23.10355
M205 X5 Y5
G1 F3300 E17.10355
;MESH:pieza_4.stl
G0 F7500 X102.535 Y93.139
G0 X103.639 Y93.139
G0 X104.08 Y93.581
G1 F3300 E23.10355
G0 F7500 X103.9 Y93.401
M205 X8 Y8
;TYPE:WALL-INNER
G1 F1500 X103.9 Y111.357 E24.04678
G1 X131.1 Y111.357 E25.4756
G1 X131.1 Y102.379 E25.94722
G1 X131.1 Y93.401 E26.41883
G1 X103.9 Y93.401 E27.84766
M205 X5 Y5
G0 F7500 X103.625 Y93.126
M205 X8 Y8
;TYPE:WALL-OUTER
G1 F1500 X103.625 Y111.632 E28.72257
G1 X131.375 Y111.632 E30.03451
G1 X131.375 Y102.379 E30.47197
G1 X131.375 Y93.126 E30.90942
G1 X103.625 Y93.126 E32.22136
M205 X5 Y5
G0 F7500 X103.625 Y93.326
G0 X104.173 Y93.674
M205 X8 Y8
;TYPE:SKIN
G1 F1500 X104.173 Y111.084 E32.73351
G1 X130.827 Y111.084 E33.51759
G1 X130.827 Y102.379 E33.77367
G1 X130.827 Y93.674 E34.02974
G1 X104.173 Y93.674 E34.81382
M205 X5 Y5
G0 F7500 X104.313 Y94.08
M205 X8 Y8
G1 F1500 X130.687 Y94.08 E35.58966
M205 X5 Y5
G0 F7500 X130.687 Y94.36
M205 X8 Y8
G1 F1500 X104.313 Y94.36 E36.3655
M205 X5 Y5
G0 F7500 X104.313 Y94.64
M205 X8 Y8
G1 F1500 X130.687 Y94.64 E37.14135
M205 X5 Y5
G0 F7500 X130.687 Y94.92
M205 X8 Y8
G1 F1500 X104.313 Y94.92 E37.91719
M205 X5 Y5
G0 F7500 X104.313 Y95.2
M205 X8 Y8
G1 F1500 X130.687 Y95.2 E38.69303
M205 X5 Y5
G0 F7500 X130.687 Y95.48
M205 X8 Y8
G1 F1500 X104.313 Y95.48 E39.46887
M205 X5 Y5
G0 F7500 X104.313 Y95.76
M205 X8 Y8
G1 F1500 X130.687 Y95.76 E40.24471
M205 X5 Y5
G0 F7500 X130.687 Y96.04
M205 X8 Y8
G1 F1500 X104.313 Y96.04 E41.02056
M205 X5 Y5
G0 F7500 X104.313 Y96.32
M205 X8 Y8
G1 F1500 X130.687 Y96.32 E41.7964
M205 X5 Y5
G0 F7500 X130.687 Y96.6
M205 X8 Y8
G1 F1500 X104.313 Y96.6 E42.57224
M205 X5 Y5
G0 F7500 X104.313 Y96.88
M205 X8 Y8
G1 F1500 X130.687 Y96.88 E43.34808
M205 X5 Y5
G0 F7500 X130.687 Y97.16
M205 X8 Y8
G1 F1500 X104.313 Y97.16 E44.12392
M205 X5 Y5
G0 F7500 X104.313 Y97.44
M205 X8 Y8
G1 F1500 X130.687 Y97.44 E44.89977
M205 X5 Y5
G0 F7500 X130.687 Y97.72
M205 X8 Y8
G1 F1500 X104.313 Y97.72 E45.67561
M205 X5 Y5
G0 F7500 X104.313 Y98
M205 X8 Y8
G1 F1500 X130.687 Y98 E46.45145
M205 X5 Y5
G0 F7500 X130.687 Y98.28
M205 X8 Y8
G1 F1500 X104.313 Y98.28 E47.22729
M205 X5 Y5
G0 F7500 X104.313 Y98.56
M205 X8 Y8
G1 F1500 X130.687 Y98.56 E48.00313
M205 X5 Y5
G0 F7500 X130.687 Y98.84
M205 X8 Y8
G1 F1500 X104.313 Y98.84 E48.77898
M205 X5 Y5
G0 F7500 X104.313 Y99.12
M205 X8 Y8
G1 F1500 X130.687 Y99.12 E49.55482
M205 X5 Y5
G0 F7500 X130.687 Y99.4
M205 X8 Y8
G1 F1500 X104.313 Y99.4 E50.33066
M205 X5 Y5
G0 F7500 X104.313 Y99.68
M205 X8 Y8
G1 F1500 X130.687 Y99.68 E51.1065
M205 X5 Y5
G0 F7500 X130.687 Y99.96
M205 X8 Y8
G1 F1500 X104.313 Y99.96 E51.88234
M205 X5 Y5
G0 F7500 X104.313 Y100.24
M205 X8 Y8
G1 F1500 X130.687 Y100.24 E52.65819
M205 X5 Y5
G0 F7500 X130.687 Y100.52
M205 X8 Y8
G1 F1500 X104.313 Y100.52 E53.43403
M205 X5 Y5
G0 F7500 X104.313 Y100.8
M205 X8 Y8
G1 F1500 X130.687 Y100.8 E54.20987
M205 X5 Y5
G0 F7500 X130.687 Y101.08
M205 X8 Y8
G1 F1500 X104.313 Y101.08 E54.98571
M205 X5 Y5
G0 F7500 X104.313 Y101.36
M205 X8 Y8
G1 F1500 X130.687 Y101.36 E55.76155
M205 X5 Y5
G0 F7500 X130.687 Y101.64
M205 X8 Y8
G1 F1500 X104.313 Y101.64 E56.5374
M205 X5 Y5
G0 F7500 X104.313 Y101.92
M205 X8 Y8
G1 F1500 X130.687 Y101.92 E57.31324
M205 X5 Y5
G0 F7500 X130.687 Y102.2
M205 X8 Y8
G1 F1500 X104.313 Y102.2 E58.08908
M205 X5 Y5
G0 F7500 X104.313 Y102.48
M205 X8 Y8
G1 F1500 X130.687 Y102.48 E58.86492
M205 X5 Y5
G0 F7500 X130.687 Y102.76
M205 X8 Y8
G1 F1500 X104.313 Y102.76 E59.64076
M205 X5 Y5
G0 F7500 X104.313 Y103.04
M205 X8 Y8
G1 F1500 X130.687 Y103.04 E60.41661
M205 X5 Y5
G0 F7500 X130.687 Y103.32
M205 X8 Y8
G1 F1500 X104.313 Y103.32 E61.19245
M205 X5 Y5
G0 F7500 X104.313 Y103.6
M205 X8 Y8
G1 F1500 X130.687 Y103.6 E61.96829
M205 X5 Y5
G0 F7500 X130.687 Y103.88
M205 X8 Y8
G1 F1500 X104.313 Y103.88 E62.74413
M205 X5 Y5
G0 F7500 X104.313 Y104.16
M205 X8 Y8
G1 F1500 X130.687 Y104.16 E63.51997
M205 X5 Y5
G0 F7500 X130.687 Y104.44
M205 X8 Y8
G1 F1500 X104.313 Y104.44 E64.29582
M205 X5 Y5
G0 F7500 X104.313 Y104.72
M205 X8 Y8
G1 F1500 X130.687 Y104.72 E65.07166
M205 X5 Y5
G0 F7500 X130.687 Y105
M205 X8 Y8
G1 F1500 X104.313 Y105 E65.8475
M205 X5 Y5
G0 F7500 X104.313 Y105.28
M205 X8 Y8
G1 F1500 X130.687 Y105.28 E66.62334
M205 X5 Y5
G0 F7500 X130.687 Y105.56
M205 X8 Y8
G1 F1500 X104.313 Y105.56 E67.39918
M205 X5 Y5
G0 F7500 X104.313 Y105.84
M205 X8 Y8
G1 F1500 X130.687 Y105.84 E68.17503
M205 X5 Y5
G0 F7500 X130.687 Y106.12
M205 X8 Y8
G1 F1500 X104.313 Y106.12 E68.95087
M205 X5 Y5
G0 F7500 X104.313 Y106.4
M205 X8 Y8
G1 F1500 X130.687 Y106.4 E69.72671
M205 X5 Y5
G0 F7500 X130.687 Y106.68
M205 X8 Y8
G1 F1500 X104.313 Y106.68 E70.50255
M205 X5 Y5
G0 F7500 X104.313 Y106.96
M205 X8 Y8
G1 F1500 X130.687 Y106.96 E71.27839
M205 X5 Y5
G0 F7500 X130.687 Y107.24
M205 X8 Y8
G1 F1500 X104.313 Y107.24 E72.05424
M205 X5 Y5
G0 F7500 X104.313 Y107.52
M205 X8 Y8
G1 F1500 X130.687 Y107.52 E72.83008
M205 X5 Y5
G0 F7500 X130.687 Y107.8
M205 X8 Y8
G1 F1500 X104.313 Y107.8 E73.60592
M205 X5 Y5
G0 F7500 X104.313 Y108.08
M205 X8 Y8
G1 F1500 X130.687 Y108.08 E74.38176
M205 X5 Y5
G0 F7500 X130.687 Y108.36
M205 X8 Y8
G1 F1500 X104.313 Y108.36 E75.1576
M205 X5 Y5
G0 F7500 X104.313 Y108.64
M205 X8 Y8
G1 F1500 X130.687 Y108.64 E75.93345
M205 X5 Y5
G0 F7500 X130.687 Y108.92
M205 X8 Y8
G1 F1500 X104.313 Y108.92 E76.70929
M205 X5 Y5
G0 F7500 X104.313 Y109.2
M205 X8 Y8
G1 F1500 X130.687 Y109.2 E77.48513
M205 X5 Y5
G0 F7500 X130.687 Y109.48
M205 X8 Y8
G1 F1500 X104.313 Y109.48 E78.26097
M205 X5 Y5
G0 F7500 X104.313 Y109.76
M205 X8 Y8
G1 F1500 X130.687 Y109.76 E79.03681
M205 X5 Y5
G0 F7500 X130.687 Y110.04
M205 X8 Y8
G1 F1500 X104.313 Y110.04 E79.81266
M205 X5 Y5
G0 F7500 X104.313 Y110.32
M205 X8 Y8
G1 F1500 X130.687 Y110.32 E80.5885
M205 X5 Y5
G0 F7500 X130.687 Y110.6
M205 X8 Y8
G1 F1500 X104.313 Y110.6 E81.36434
M205 X5 Y5
G0 F7500 X104.313 Y110.88
M205 X8 Y8
G1 F1500 X130.687 Y110.88 E82.14018
M205 X5 Y5
G1 F3300 E76.14018
;MESH:NONMESH
G0 F600 X130.687 Y110.88 Z0.48
G0 F7500 X130.95 Y110.88
G0 X130.878 Y93.623
G0 X104.095 Y93.595
G1 F3300 E82.14018
G0 F7500 X103.5 Y93
M117 Time Left 0h19m10s
;TIME_ELAPSED:106.643728
;LAYER:1
M106 S42.5
M205 X14 Y14
;TYPE:WALL-INNER
;MESH:pieza_4.stl
G1 F2700 X103.5 Y112.992 E82.9298
G1 X131.5 Y112.992 E84.03569
G1 X131.5 Y93 E84.82531
G1 X103.5 Y93 E85.93121
M205 X12.5 Y12.5
G0 F8250 X103.225 Y92.725
M205 X14 Y14
;TYPE:WALL-OUTER
G1 F2250 X103.225 Y113.267 E86.66141
G1 X131.775 Y113.267 E87.67627
G1 X131.775 Y92.725 E88.40647
G1 X103.225 Y92.725 E89.42133
M205 X12.5 Y12.5
G0 F8250 X103.225 Y92.925
G0 X103.773 Y93.273
M205 X14 Y14
;TYPE:SKIN
G1 F2100 X103.773 Y112.719 E89.85144
G1 X131.227 Y112.719 E90.45866
G1 X131.227 Y102.996 E90.67372
G1 X131.227 Y93.273 E90.88877
G1 X103.773 Y93.273 E91.496
M205 X12.5 Y12.5
G0 F8250 X103.65 Y93.273
G0 X131.04 Y93.15
G0 X131.04 Y93.413
M205 X14 Y14
G1 F2100 X131.04 Y112.579 E91.91991
M205 X12.5 Y12.5
G0 F8250 X130.76 Y112.579
M205 X14 Y14
G1 F2100 X130.76 Y93.413 E92.34382
M205 X12.5 Y12.5
G0 F8250 X130.48 Y93.413
M205 X14 Y14
G1 F2100 X130.48 Y112.579 E92.76774
M205 X12.5 Y12.5
G0 F8250 X130.2 Y112.579
M205 X14 Y14
G1 F2100 X130.2 Y93.413 E93.19165
M205 X12.5 Y12.5
G0 F8250 X129.92 Y93.413
M205 X14 Y14
G1 F2100 X129.92 Y112.579 E93.61556
M205 X12.5 Y12.5
G0 F8250 X129.64 Y112.579
M205 X14 Y14
G1 F2100 X129.64 Y93.413 E94.03948
M205 X12.5 Y12.5
G0 F8250 X129.36 Y93.413
M205 X14 Y14
G1 F2100 X129.36 Y112.579 E94.46339
M205 X12.5 Y12.5
G0 F8250 X129.08 Y112.579
M205 X14 Y14
G1 F2100 X129.08 Y93.413 E94.8873
M205 X12.5 Y12.5
G0 F8250 X128.8 Y93.413
M205 X14 Y14
G1 F2100 X128.8 Y112.579 E95.31122
M205 X12.5 Y12.5
G0 F8250 X128.52 Y112.579
M205 X14 Y14
G1 F2100 X128.52 Y93.413 E95.73513
M205 X12.5 Y12.5
