;FLAVOR:Marlin
M117 Time Left 0h25m30s
;TIME:1530
;Filament used: 1.26959m
;Layer height: 0.2
;MINX:91.681
;MINY:81.575
;MINZ:0.28
;MAXX:143.323
;MAXY:153.824
;MAXZ:6.28
;POSTPROCESSED
;Generated with Cura_SteamEngine 5.2.1
M140 S70
M105
M190 S70
M104 S225
M105
M109 S225
M82 ;absolute extrusion mode
; Ender 3 Custom Start G-code
G92 E0 ; Reset Extruder
G28 ; Home all axes
G1 Z2.0 F3000 ; Move Z Axis up little to prevent scratching of Heat Bed
G1 X0.1 Y20 Z0.3 F5000.0 ; Move to start position
G1 X0.1 Y200.0 Z0.3 F1500.0 E15 ; Draw the first line
G1 X0.4 Y200.0 Z0.3 F5000.0 ; Move to side a little
G1 X0.4 Y20 Z0.3 F1500.0 E30 ; Draw the second line
G92 E0 ; Reset Extruder
G1 Z2.0 F3000 ; Move Z Axis up little to prevent scratching of Heat Bed
G1 X5 Y20 Z0.3 F5000.0 ; Move over to prevent blob squish
G92 E0
G92 E0
G1 F3300 E-6
;LAYER_COUNT:31
;LAYER:0
M107
M204 S500
M205 X5 Y5
G0 F7500 X94.655 Y85.598 Z0.28
M205 X8 Y8
;TYPE:SKIRT
G1 F3300 E0
G1 F1500 X95.288 Y84.899 E0.04458
G1 X95.978 Y84.256 E0.08917
G1 X96.72 Y83.673 E0.13379
G1 X97.509 Y83.156 E0.17838
G1 X98.338 Y82.707 E0.22295
G1 X99.203 Y82.331 E0.26755
G1 X100.096 Y82.029 E0.31211
G1 X101.012 Y81.803 E0.35672
G1 X101.944 Y81.656 E0.40132
G1 X102.897 Y81.588 E0.44649
G1 X103.53 Y81.575 E0.47643
G1 X131.252 Y81.576 E1.78705
G1 X131.95 Y81.586 E1.82005
G1 X132.892 Y81.64 E1.86466
G1 X133.826 Y81.773 E1.90926
G1 X134.745 Y81.984 E1.95384
G1 X135.643 Y82.273 E1.99844
G1 X136.513 Y82.637 E2.04302
G1 X137.349 Y83.073 E2.0876
G1 X138.146 Y83.578 E2.13221
G1 X138.896 Y84.15 E2.1768
G1 X139.596 Y84.782 E2.22139
G1 X140.239 Y85.472 E2.26598
G1 X140.822 Y86.213 E2.31055
G1 X141.34 Y87.002 E2.35517
G1 X141.789 Y87.831 E2.39975
G1 X142.166 Y88.695 E2.44431
G1 X142.469 Y89.589 E2.48894
G1 X142.695 Y90.504 E2.5335
G1 X142.843 Y91.436 E2.57811
G1 X142.912 Y92.397 E2.62366
G1 X142.925 Y93.03 E2.6536
G1 X142.925 Y103.003 E3.12509
G1 X142.962 Y105.605 E3.24812
G1 X143.067 Y108.092 E3.3658
G1 X143.196 Y109.788 E3.44622
G1 X143.289 Y111.166 E3.51151
G1 X143.312 Y111.721 E3.53777
G1 X143.323 Y112.644 E3.58141
G1 X143.314 Y113.284 E3.61167
G1 X143.261 Y114.226 E3.65628
G1 X143.058 Y115.505 E3.7175
G1 X142.733 Y116.992 E3.78947
G1 X142.223 Y119.534 E3.91204
G1 X141.802 Y121.988 E4.02975
G1 X141.443 Y124.507 E4.15005
G1 X141.162 Y126.984 E4.2679
G1 X140.947 Y129.507 E4.38762
G1 X140.807 Y131.983 E4.50486
G1 X140.734 Y134.565 E4.62698
G1 X140.725 Y135.856 E4.68802
G1 X140.724 Y141.894 E4.97348
G1 X140.713 Y142.731 E5.01305
G1 X140.661 Y143.673 E5.05765
G1 X140.529 Y144.607 E5.10225
G1 X140.318 Y145.526 E5.14683
G1 X140.03 Y146.424 E5.19141
G1 X139.668 Y147.295 E5.23601
G1 X139.233 Y148.132 E5.2806
G1 X138.728 Y148.929 E5.32521
G1 X138.158 Y149.68 E5.36978
G1 X137.526 Y150.38 E5.41437
G1 X136.837 Y151.025 E5.45899
G1 X136.096 Y151.608 E5.50356
G1 X135.309 Y152.127 E5.54813
G1 X134.489 Y152.578 E5.59238
G1 X133.541 Y153.005 E5.64153
G1 X132.651 Y153.319 E5.68615
G1 X131.738 Y153.555 E5.73073
G1 X130.808 Y153.714 E5.77534
G1 X129.635 Y153.801 E5.83095
G1 X128.574 Y153.823 E5.88112
G1 X106.151 Y153.824 E6.94122
G1 X105.349 Y153.812 E6.97914
G1 X104.407 Y153.758 E7.02375
G1 X103.473 Y153.624 E7.06836
G1 X102.554 Y153.412 E7.11294
G1 X101.657 Y153.122 E7.15751
G1 X100.787 Y152.758 E7.2021
G1 X99.951 Y152.321 E7.2467
G1 X99.155 Y151.815 E7.29129
G1 X98.404 Y151.244 E7.33589
G1 X97.705 Y150.611 E7.38048
G1 X97.062 Y149.921 E7.42507
G1 X96.48 Y149.179 E7.46965
G1 X95.962 Y148.39 E7.51427
G1 X95.531 Y147.606 E7.55657
G1 X95.104 Y146.663 E7.60551
G1 X94.789 Y145.774 E7.6501
G1 X94.55 Y144.862 E7.69467
G1 X94.389 Y143.933 E7.73925
G1 X94.299 Y142.73 E7.79628
G1 X94.277 Y141.649 E7.8474
G1 X94.275 Y135.836 E8.12222
G1 X94.238 Y133.233 E8.24529
G1 X94.131 Y130.719 E8.36426
G1 X93.955 Y128.229 E8.48227
G1 X93.705 Y125.71 E8.60195
G1 X93.386 Y123.217 E8.72077
G1 X93 Y120.758 E8.83845
G1 X92.533 Y118.249 E8.9591
G1 X91.945 Y115.519 E9.09113
G1 X91.785 Y114.589 E9.13574
G1 X91.697 Y113.398 E9.1922
G1 X91.681 Y112.599 E9.22999
G1 X91.686 Y111.81 E9.26729
G1 X91.713 Y111.188 E9.29672
G1 X91.801 Y109.961 E9.35488
G1 X91.855 Y109.317 E9.38543
G1 X91.992 Y106.897 E9.50003
G1 X92.075 Y102.932 E9.68752
G1 X92.076 Y93.207 E10.14729
G1 X92.086 Y92.542 E10.17874
G1 X92.14 Y91.6 E10.22335
G1 X92.274 Y90.666 E10.26795
G1 X92.486 Y89.747 E10.31254
G1 X92.776 Y88.85 E10.35711
G1 X93.14 Y87.98 E10.4017
G1 X93.577 Y87.144 E10.4463
G1 X94.083 Y86.348 E10.49089
G1 X94.655 Y85.598 E10.53548
M205 X5 Y5
G0 F7500 X95.098 Y85.77
M205 X8 Y8
G1 F1500 X95.728 Y85.094 E10.57917
G1 X96.415 Y84.476 E10.62286
G1 X97.152 Y83.919 E10.66653
G1 X97.935 Y83.428 E10.71023
G1 X98.757 Y83.007 E10.75389
G1 X99.613 Y82.658 E10.79759
G1 X100.495 Y82.385 E10.84124
G1 X101.398 Y82.189 E10.88493
G1 X102.315 Y82.072 E10.92863
G1 X102.91 Y82.038 E10.95681
G1 X103.53 Y82.025 E10.98613
G1 X131.093 Y82.025 E12.28923
G1 X131.944 Y82.036 E12.32946
G1 X132.866 Y82.089 E12.37313
G1 X133.781 Y82.222 E12.41684
G1 X134.68 Y82.433 E12.4605
G1 X135.558 Y82.722 E12.5042
G1 X136.407 Y83.085 E12.54785
G1 X137.222 Y83.52 E12.59152
G1 X137.997 Y84.024 E12.63523
G1 X138.724 Y84.593 E12.67888
G1 X139.4 Y85.223 E12.72256
G1 X140.019 Y85.909 E12.76625
G1 X140.576 Y86.646 E12.80992
G1 X141.068 Y87.428 E12.8536
G1 X141.49 Y88.25 E12.89729
G1 X141.839 Y89.106 E12.94099
G1 X142.113 Y89.988 E12.98465
G1 X142.31 Y90.891 E13.02835
G1 X142.428 Y91.807 E13.07201
G1 X142.462 Y92.41 E13.10057
G1 X142.475 Y93.03 E13.12988
G1 X142.475 Y103.009 E13.60166
G1 X142.512 Y105.631 E13.72564
G1 X142.618 Y108.115 E13.84318
G1 X142.747 Y109.818 E13.92392
G1 X142.84 Y111.196 E13.98922
G1 X142.862 Y111.729 E14.01444
G1 X142.873 Y112.638 E14.05742
G1 X142.864 Y113.278 E14.08768
G1 X142.811 Y114.2 E14.13134
G1 X142.618 Y115.409 E14.18922
G1 X142.3 Y116.862 E14.25954
G1 X141.782 Y119.444 E14.38404
G1 X141.353 Y121.952 E14.50434
G1 X140.999 Y124.432 E14.62277
G1 X140.712 Y126.964 E14.74325
G1 X140.501 Y129.444 E14.86092
G1 X140.357 Y131.981 E14.98105
G1 X140.284 Y134.549 E15.10251
G1 X140.275 Y135.852 E15.16411
G1 X140.274 Y141.888 E15.44948
G1 X140.263 Y142.725 E15.48905
G1 X140.211 Y143.648 E15.53276
G1 X140.079 Y144.562 E15.57642
G1 X139.869 Y145.462 E15.62011
G1 X139.582 Y146.34 E15.66378
G1 X139.22 Y147.19 E15.70746
G1 X138.785 Y148.005 E15.75114
G1 X138.282 Y148.78 E15.79482
G1 X137.714 Y149.509 E15.83851
G1 X137.085 Y150.185 E15.88216
G1 X136.4 Y150.805 E15.92584
G1 X135.663 Y151.363 E15.96955
G1 X134.882 Y151.856 E16.01321
G1 X134.199 Y152.216 E16.04971
G1 X133.356 Y152.595 E16.09341
G1 X132.484 Y152.899 E16.13707
G1 X131.588 Y153.127 E16.18078
G1 X130.677 Y153.277 E16.22443
G1 X129.625 Y153.351 E16.27429
G1 X128.564 Y153.373 E16.32446
G1 X106.157 Y153.374 E17.3838
G1 X105.355 Y153.362 E17.42172
G1 X104.433 Y153.308 E17.46538
G1 X103.519 Y153.175 E17.50905
G1 X102.619 Y152.963 E17.55276
G1 X101.742 Y152.674 E17.59642
G1 X100.893 Y152.31 E17.64009
G1 X100.078 Y151.875 E17.68377
G1 X99.304 Y151.37 E17.72746
G1 X98.576 Y150.8 E17.77117
G1 X97.901 Y150.17 E17.81482
G1 X97.282 Y149.484 E17.85851
G1 X96.726 Y148.746 E17.90219
G1 X96.235 Y147.964 E17.94585
G1 X95.895 Y147.319 E17.98032
G1 X95.514 Y146.478 E18.02397
G1 X95.208 Y145.606 E18.06766
G1 X94.978 Y144.711 E18.11135
G1 X94.826 Y143.8 E18.15501
G1 X94.749 Y142.721 E18.20615
G1 X94.727 Y141.64 E18.25727
G1 X94.725 Y135.83 E18.53195
G1 X94.688 Y133.208 E18.65592
G1 X94.582 Y130.703 E18.77446
G1 X94.403 Y128.187 E18.89371
G1 X94.155 Y125.681 E19.01276
G1 X93.832 Y123.159 E19.13297
G1 X93.437 Y120.645 E19.25328
G1 X92.977 Y118.174 E19.37211
G1 X92.385 Y115.424 E19.5051
G1 X92.229 Y114.513 E19.5488
G1 X92.147 Y113.389 E19.60208
G1 X92.131 Y112.59 E19.63986
G1 X92.136 Y111.817 E19.67641
G1 X92.162 Y111.22 E19.70466
G1 X92.302 Y109.381 E19.79185
G1 X92.442 Y106.903 E19.90919
G1 X92.525 Y102.938 E20.09669
G1 X92.526 Y93.213 E20.55646
G1 X92.536 Y92.548 E20.5879
G1 X92.59 Y91.626 E20.63157
G1 X92.723 Y90.712 E20.67523
G1 X92.935 Y89.813 E20.7189
G1 X93.224 Y88.935 E20.7626
G1 X93.588 Y88.086 E20.80627
G1 X94.024 Y87.271 E20.84997
G1 X94.528 Y86.497 E20.89364
G1 X95.098 Y85.77 E20.93731
M205 X5 Y5
G0 F7500 X95.541 Y85.946
M205 X8 Y8
G1 F1500 X96.169 Y85.295 E20.98008
G1 X96.851 Y84.702 E21.0228
G1 X97.583 Y84.171 E21.06556
G1 X98.36 Y83.708 E21.10832
G1 X99.174 Y83.314 E21.15107
G1 X100.02 Y82.994 E21.19384
G1 X100.89 Y82.751 E21.23654
G1 X101.779 Y82.585 E21.2793
G1 X102.923 Y82.488 E21.33358
G1 X103.53 Y82.475 E21.36228
G1 X131.093 Y82.475 E22.66538
G1 X131.937 Y82.486 E22.70529
G1 X132.84 Y82.539 E22.74805
G1 X133.735 Y82.671 E22.79082
G1 X134.614 Y82.882 E22.83356
G1 X135.471 Y83.17 E22.8763
G1 X136.299 Y83.533 E22.91905
G1 X137.093 Y83.967 E22.96183
G1 X137.844 Y84.469 E23.00453
G1 X138.549 Y85.036 E23.04731
G1 X139.2 Y85.663 E23.09004
G1 X139.794 Y86.345 E23.13279
G1 X140.325 Y87.077 E23.17555
G1 X140.789 Y87.853 E23.21829
G1 X141.183 Y88.667 E23.26105
G1 X141.503 Y89.513 E23.30381
G1 X141.748 Y90.383 E23.34654
G1 X141.914 Y91.272 E23.3893
G1 X142.012 Y92.423 E23.44391
G1 X142.025 Y93.03 E23.47261
G1 X142.025 Y103.015 E23.94468
G1 X142.062 Y105.621 E24.06789
G1 X142.169 Y108.138 E24.187
G1 X142.298 Y109.848 E24.26807
G1 X142.391 Y111.226 E24.33337
G1 X142.412 Y111.737 E24.35755
G1 X142.423 Y112.632 E24.39986
G1 X142.414 Y113.272 E24.43012
G1 X142.361 Y114.174 E24.47284
G1 X142.179 Y115.313 E24.52737
G1 X141.842 Y116.854 E24.60195
G1 X141.342 Y119.348 E24.7222
G1 X140.913 Y121.851 E24.84226
G1 X140.552 Y124.382 E24.96313
G1 X140.265 Y126.913 E25.08356
G1 X140.052 Y129.417 E25.20237
G1 X139.907 Y131.977 E25.32359
G1 X139.834 Y134.533 E25.44448
G1 X139.825 Y135.849 E25.5067
G1 X139.824 Y141.882 E25.79192
G1 X139.813 Y142.719 E25.8315
G1 X139.761 Y143.622 E25.87426
G1 X139.63 Y144.517 E25.91702
G1 X139.42 Y145.396 E25.95975
G1 X139.133 Y146.254 E26.00252
G1 X138.772 Y147.083 E26.04527
G1 X138.338 Y147.876 E26.08801
G1 X137.837 Y148.629 E26.13077
G1 X137.271 Y149.334 E26.17351
G1 X136.644 Y149.986 E26.21628
G1 X135.963 Y150.58 E26.259
G1 X135.232 Y151.112 E26.30174
G1 X134.105 Y151.765 E26.36332
G1 X133.171 Y152.184 E26.41172
G1 X132.317 Y152.479 E26.45443
G1 X131.44 Y152.698 E26.49717
G1 X130.546 Y152.839 E26.53996
G1 X129.616 Y152.901 E26.58402
G1 X128.343 Y152.925 E26.64422
G1 X106.164 Y152.924 E27.69278
G1 X105.362 Y152.912 E27.7307
G1 X104.459 Y152.858 E27.77347
G1 X103.565 Y152.725 E27.8162
G1 X102.686 Y152.514 E27.85894
G1 X101.829 Y152.225 E27.90169
G1 X101.001 Y151.863 E27.94442
G1 X100.208 Y151.428 E27.98718
G1 X99.456 Y150.925 E28.02995
G1 X98.752 Y150.357 E28.07272
G1 X98.101 Y149.73 E28.11545
G1 X97.508 Y149.047 E28.15821
G1 X96.978 Y148.315 E28.20094
G1 X96.344 Y147.222 E28.26067
G1 X95.925 Y146.292 E28.3089
G1 X95.627 Y145.438 E28.35166
G1 X95.406 Y144.561 E28.39442
G1 X95.264 Y143.669 E28.43712
G1 X95.199 Y142.712 E28.48247
G1 X95.175 Y141.423 E28.54342
G1 X95.175 Y135.824 E28.80812
G1 X95.138 Y133.218 E28.93134
G1 X95.029 Y130.652 E29.05276
G1 X94.852 Y128.148 E29.17144
G1 X94.601 Y125.614 E29.29183
G1 X94.276 Y123.08 E29.41261
G1 X93.886 Y120.602 E29.5312
G1 X93.421 Y118.098 E29.65161
G1 X92.824 Y115.329 E29.78553
G1 X92.673 Y114.437 E29.8283
G1 X92.597 Y113.38 E29.8784
G1 X92.581 Y112.581 E29.91618
G1 X92.586 Y111.824 E29.95197
G1 X92.611 Y111.252 E29.97904
G1 X92.698 Y110.037 E30.03663
G1 X92.751 Y109.409 E30.06643
G1 X92.892 Y106.908 E30.18485
G1 X92.975 Y102.969 E30.37112
G1 X92.976 Y93.22 E30.83203
G1 X92.986 Y92.555 E30.86347
G1 X93.04 Y91.653 E30.90619
G1 X93.173 Y90.758 E30.94897
G1 X93.384 Y89.879 E30.9917
G1 X93.673 Y89.022 E31.03446
G1 X94.036 Y88.194 E31.0772
G1 X94.471 Y87.401 E31.11997
G1 X94.974 Y86.65 E31.1627
G1 X95.541 Y85.946 E31.20543
M205 X5 Y5
G1 F3300 E25.20543
G0 F7500 X102.137 Y113.291
G0 X104.743 Y117.805
G0 X109.225 Y120.756
G0 X109.225 Y121.202
M205 X8 Y8
G1 F3300 E31.20543
G1 F1500 X109.858 Y121.156 E31.23544
G1 X110.398 Y121.037 E31.26158
G1 X110.503 Y120.995 E31.26693
G1 X111.07 Y121.139 E31.29459
G1 X111.728 Y121.196 E31.32581
G1 X116.107 Y121.196 E31.53284
G1 X116.658 Y121.156 E31.55896
G1 X117.198 Y121.037 E31.5851
G1 X117.483 Y120.924 E31.59959
G1 X117.733 Y121.006 E31.61203
G1 X118.27 Y121.14 E31.6382
G1 X118.929 Y121.197 E31.66947
G1 X123.308 Y121.196 E31.8765
G1 X123.859 Y121.156 E31.90262
G1 X124.399 Y121.037 E31.92876
G1 X124.502 Y120.996 E31.934
G1 X125.07 Y121.14 E31.9617
G1 X125.775 Y121.197 E31.99514
G1 X125.775 Y138.875 E32.83091
G1 X109.225 Y138.875 E33.61334
G1 X109.225 Y121.202 E34.44887
M205 X5 Y5
G0 F7500 X109.307 Y120.746
M205 X8 Y8
G1 F1500 X109.825 Y120.706 E34.47344
G1 X110.33 Y120.587 E34.49797
G1 X110.475 Y120.528 E34.50537
G1 X111.178 Y120.701 E34.53959
G1 X111.728 Y120.746 E34.56568
G1 X116.107 Y120.746 E34.77271
G1 X116.625 Y120.706 E34.79727
G1 X117.13 Y120.587 E34.8218
G1 X117.478 Y120.445 E34.83957
G1 X117.874 Y120.578 E34.85932
G1 X118.378 Y120.702 E34.88386
G1 X118.929 Y120.747 E34.91
G1 X123.308 Y120.746 E35.11702
G1 X123.825 Y120.706 E35.14154
G1 X124.331 Y120.587 E35.16611
G1 X124.474 Y120.529 E35.17341
G1 X125.178 Y120.702 E35.20768
G1 X125.729 Y120.747 E35.23382
G1 X126.225 Y120.747 E35.25727
G1 X126.225 Y139.325 E36.13558
G1 X108.775 Y139.325 E36.96057
G1 X108.775 Y120.746 E37.83893
G1 X109.307 Y120.746 E37.86409
M205 X5 Y5
G0 F7500 X109.307 Y120.296
M205 X8 Y8
G1 F1500 X109.789 Y120.256 E37.88695
G1 X110.257 Y120.137 E37.90978
G1 X110.484 Y120.041 E37.92143
G1 X110.814 Y120.15 E37.93786
G1 X111.285 Y120.262 E37.96075
G1 X111.728 Y120.296 E37.98176
G1 X116.107 Y120.296 E38.18878
G1 X116.589 Y120.256 E38.21165
G1 X117.057 Y120.137 E38.23448
G1 X117.453 Y119.966 E38.25487
G1 X118.014 Y120.151 E38.2828
G1 X118.485 Y120.263 E38.30569
G1 X118.929 Y120.297 E38.32674
G1 X123.308 Y120.296 E38.53377
G1 X123.789 Y120.256 E38.55659
G1 X124.258 Y120.137 E38.57946
G1 X124.483 Y120.042 E38.59101
G1 X124.814 Y120.151 E38.60749
G1 X125.285 Y120.263 E38.63037
G1 X125.729 Y120.297 E38.65143
G1 X126.675 Y120.297 E38.69615
G1 X126.675 Y139.775 E39.61702
G1 X108.325 Y139.775 E40.48455
G1 X108.325 Y120.296 E41.40547
G1 X109.307 Y120.296 E41.45189
M205 X5 Y5
G0 F7500 X109.307 Y119.846
M205 X8 Y8
G1 F1500 X109.75 Y119.806 E41.47292
G1 X110.178 Y119.688 E41.49391
G1 X110.462 Y119.56 E41.50864
G1 X110.955 Y119.722 E41.53317
G1 X111.388 Y119.823 E41.55419
G1 X111.728 Y119.846 E41.5703
G1 X116.107 Y119.846 E41.77733
G1 X116.55 Y119.806 E41.79836
G1 X116.978 Y119.688 E41.81935
G1 X117.22 Y119.582 E41.83184
G1 X117.474 Y119.454 E41.84529
G1 X117.79 Y119.603 E41.8618
G1 X118.155 Y119.723 E41.87997
G1 X118.588 Y119.824 E41.90099
G1 X118.929 Y119.847 E41.91715
G1 X123.308 Y119.846 E42.12417
G1 X123.75 Y119.806 E42.14516
G1 X124.179 Y119.687 E42.1662
G1 X124.46 Y119.56 E42.18078
G1 X124.955 Y119.723 E42.20542
G1 X125.388 Y119.824 E42.22644
G1 X125.729 Y119.847 E42.2426
G1 X127.125 Y119.847 E42.3086
G1 X127.125 Y140.225 E43.27201
G1 X107.875 Y140.225 E44.1821
G1 X107.875 Y119.846 E45.14556
G1 X109.307 Y119.846 E45.21326
M205 X5 Y5
G0 F7500 X109.307 Y119.396
M205 X8 Y8
G1 F1500 X109.707 Y119.356 E45.23227
G1 X110.218 Y119.18 E45.25782
G1 X110.462 Y119.057 E45.27074
G1 X110.731 Y119.175 E45.28462
G1 X111.096 Y119.295 E45.30279
G1 X111.551 Y119.396 E45.32482
G1 X116.107 Y119.396 E45.54022
G1 X116.507 Y119.356 E45.55922
G1 X117.018 Y119.18 E45.58478
G1 X117.472 Y118.947 E45.6089
G1 X117.578 Y119.021 E45.61501
G1 X117.931 Y119.176 E45.63324
G1 X118.296 Y119.296 E45.6514
G1 X118.751 Y119.397 E45.67344
G1 X123.307 Y119.396 E45.88883
G1 X123.707 Y119.356 E45.90784
G1 X124.218 Y119.18 E45.93339
G1 X124.461 Y119.058 E45.94625
G1 X124.731 Y119.176 E45.96018
G1 X125.096 Y119.296 E45.97834
G1 X125.551 Y119.397 E46.00038
G1 X127.575 Y119.397 E46.09606
G1 X127.575 Y140.675 E47.10203
G1 X107.425 Y140.675 E48.05466
G1 X107.425 Y119.396 E49.06068
G1 X109.307 Y119.396 E49.14965
M205 X5 Y5
G0 F7500 X109.307 Y118.946
M205 X8 Y8
G1 F1500 X109.659 Y118.906 E49.1664
G1 X110.015 Y118.778 E49.18429
G1 X110.483 Y118.542 E49.20907
G1 X110.871 Y118.747 E49.22981
G1 X111.236 Y118.867 E49.24798
