;FLAVOR:Marlin
M117 Time Left 0h28m00s
;TIME:1680
;Filament used: 1.38608m
;Layer height: 0.2
;MINX:92.075
;MINY:81.575
;MINZ:0.28
;MAXX:142.925
;MAXY:153.619
;MAXZ:6.28
;POSTPROCESSED
;Generated with Cura_SteamEngine 5.2.1
M140 S70
M105
M190 S70
M104 S225
M105
M109 S225
M82 ;absolute extrusion mode
; Ender 3 Custom Start G-code
G92 E0 ; Reset Extruder
G28 ; Home all axes
G1 Z2.0 F3000 ; Move Z Axis up little to prevent scratching of Heat Bed
G1 X0.1 Y20 Z0.3 F5000.0 ; Move to start position
G1 X0.1 Y200.0 Z0.3 F1500.0 E15 ; Draw the first line
G1 X0.4 Y200.0 Z0.3 F5000.0 ; Move to side a little
G1 X0.4 Y20 Z0.3 F1500.0 E30 ; Draw the second line
G92 E0 ; Reset Extruder
G1 Z2.0 F3000 ; Move Z Axis up little to prevent scratching of Heat Bed
G1 X5 Y20 Z0.3 F5000.0 ; Move over to prevent blob squish
G92 E0
G92 E0
G1 F3300 E-6
;LAYER_COUNT:31
;LAYER:0
M107
M204 S500
M205 X5 Y5
G0 F7500 X94.643 Y85.611 Z0.28
M205 X8 Y8
;TYPE:SKIRT
G1 F3300 E0
G1 F1500 X95.275 Y84.91 E0.04462
G1 X95.964 Y84.266 E0.08921
G1 X96.705 Y83.683 E0.13378
G1 X97.493 Y83.165 E0.17837
G1 X98.322 Y82.715 E0.22296
G1 X99.186 Y82.337 E0.26755
G1 X100.079 Y82.033 E0.31215
G1 X100.995 Y81.807 E0.35675
G1 X101.926 Y81.658 E0.40133
G1 X102.897 Y81.588 E0.44735
G1 X103.53 Y81.575 E0.47728
G1 X131.252 Y81.576 E1.7879
G1 X131.95 Y81.586 E1.82091
G1 X132.892 Y81.64 E1.86551
G1 X133.826 Y81.773 E1.91012
G1 X134.745 Y81.984 E1.95469
G1 X135.643 Y82.273 E1.99929
G1 X136.513 Y82.637 E2.04388
G1 X137.349 Y83.073 E2.08846
G1 X138.146 Y83.578 E2.13306
G1 X138.896 Y84.15 E2.17766
G1 X139.596 Y84.782 E2.22224
G1 X140.239 Y85.472 E2.26683
G1 X140.822 Y86.213 E2.31141
G1 X141.34 Y87.002 E2.35603
G1 X141.789 Y87.831 E2.4006
G1 X142.166 Y88.695 E2.44517
G1 X142.469 Y89.589 E2.4898
G1 X142.695 Y90.504 E2.53436
G1 X142.843 Y91.436 E2.57897
G1 X142.912 Y92.397 E2.62452
G1 X142.925 Y93.03 E2.65445
G1 X142.924 Y111.485 E3.52695
G1 X142.914 Y112.206 E3.56104
G1 X142.861 Y113.148 E3.60565
G1 X142.672 Y114.367 E3.66397
G1 X142.064 Y117.378 E3.80919
G1 X141.645 Y119.828 E3.9267
G1 X141.264 Y122.539 E4.05613
G1 X140.984 Y125.063 E4.17619
G1 X140.779 Y127.565 E4.29488
G1 X140.645 Y130.061 E4.41305
G1 X140.575 Y132.98 E4.55109
G1 X140.452 Y134.385 E4.61777
G1 X140.322 Y135.24 E4.65866
G1 X140.112 Y136.508 E4.71942
G1 X139.776 Y138.958 E4.83633
G1 X139.459 Y141.903 E4.97637
G1 X139.329 Y142.837 E5.02095
G1 X139.023 Y144.098 E5.0823
G1 X138.85 Y144.663 E5.11024
G1 X138.663 Y145.23 E5.13846
G1 X138.323 Y146.11 E5.18306
G1 X137.909 Y146.958 E5.22768
G1 X137.426 Y147.767 E5.27222
G1 X136.875 Y148.533 E5.31683
G1 X136.262 Y149.25 E5.36143
G1 X135.59 Y149.912 E5.40603
G1 X134.818 Y150.55 E5.45338
G1 X134.413 Y150.855 E5.47734
G1 X133.91 Y151.217 E5.50664
G1 X133.119 Y151.731 E5.55124
G1 X132.287 Y152.175 E5.59583
G1 X131.421 Y152.548 E5.64041
G1 X130.526 Y152.845 E5.68499
G1 X129.609 Y153.066 E5.72958
G1 X128.587 Y153.218 E5.77843
G1 X127.23 Y153.353 E5.8429
G1 X125.735 Y153.468 E5.91379
G1 X123.216 Y153.603 E6.03305
G1 X122.603 Y153.619 E6.06204
G1 X121.648 Y153.613 E6.10719
G1 X120.826 Y153.586 E6.14608
G1 X117.86 Y153.446 E6.28646
G1 X114.379 Y153.386 E6.45105
G1 X113.757 Y153.358 E6.48049
G1 X112.89 Y153.294 E6.52159
G1 X111.572 Y153.179 E6.58414
G1 X109.482 Y153.065 E6.6831
G1 X108.416 Y152.998 E6.73359
G1 X107.478 Y152.899 E6.77818
G1 X106.552 Y152.721 E6.82276
G1 X105.644 Y152.465 E6.86737
G1 X104.761 Y152.133 E6.91196
G1 X103.91 Y151.728 E6.95652
G1 X103.372 Y151.424 E6.98574
G1 X102.685 Y151.01 E7.02366
G1 X101.862 Y150.487 E7.06976
G1 X101.09 Y149.946 E7.11433
G1 X100.366 Y149.34 E7.15896
G1 X99.697 Y148.676 E7.20353
G1 X99.281 Y148.2 E7.23341
G1 X98.19 Y146.876 E7.31452
G1 X97.529 Y146.042 E7.36483
G1 X96.975 Y145.279 E7.40941
G1 X96.488 Y144.471 E7.45401
G1 X95.977 Y143.406 E7.50986
G1 X95.688 Y142.686 E7.54654
G1 X95.275 Y141.559 E7.60328
G1 X94.989 Y140.66 E7.64789
G1 X94.779 Y139.741 E7.69245
G1 X94.64 Y138.724 E7.74098
G1 X94.582 Y138.077 E7.77169
G1 X94.497 Y136.968 E7.82428
G1 X94.467 Y136.314 E7.85523
G1 X94.44 Y134.729 E7.93017
G1 X94.35 Y132.155 E8.05194
G1 X94.192 Y129.649 E8.17065
G1 X93.959 Y127.112 E8.2911
G1 X93.72 Y125.065 E8.38853
G1 X93.632 Y124.17 E8.43105
G1 X93.495 Y122.516 E8.50951
G1 X93.213 Y119.988 E8.62977
G1 X92.866 Y117.511 E8.74802
G1 X92.444 Y115.015 E8.8677
G1 X92.341 Y114.483 E8.89332
G1 X92.238 Y113.89 E8.92177
G1 X92.121 Y112.954 E8.96637
G1 X92.088 Y112.36 E8.99449
G1 X92.075 Y111.727 E9.02443
G1 X92.076 Y93.223 E9.89924
G1 X92.085 Y92.558 E9.93069
G1 X92.138 Y91.617 E9.97525
G1 X92.27 Y90.683 E10.01984
G1 X92.481 Y89.764 E10.06442
G1 X92.769 Y88.865 E10.10905
G1 X93.132 Y87.995 E10.15362
G1 X93.568 Y87.158 E10.19823
G1 X94.072 Y86.362 E10.24278
G1 X94.643 Y85.611 E10.28738
M205 X5 Y5
G0 F7500 X95.087 Y85.782
M205 X8 Y8
G1 F1500 X95.716 Y85.106 E10.33103
G1 X96.402 Y84.486 E10.37475
G1 X97.138 Y83.928 E10.41841
G1 X97.92 Y83.436 E10.46209
G1 X98.742 Y83.014 E10.50578
G1 X99.597 Y82.664 E10.54946
G1 X100.479 Y82.389 E10.59313
G1 X101.381 Y82.192 E10.63678
G1 X102.298 Y82.073 E10.6805
G1 X102.91 Y82.038 E10.70948
G1 X103.53 Y82.025 E10.7388
G1 X131.093 Y82.025 E12.0419
G1 X131.944 Y82.036 E12.08214
G1 X132.866 Y82.089 E12.1258
G1 X133.781 Y82.222 E12.16951
G1 X134.68 Y82.433 E12.21317
G1 X135.558 Y82.722 E12.25687
G1 X136.407 Y83.085 E12.30052
G1 X137.222 Y83.52 E12.3442
G1 X137.997 Y84.024 E12.3879
G1 X138.724 Y84.593 E12.43155
G1 X139.4 Y85.223 E12.47524
G1 X140.019 Y85.909 E12.51892
G1 X140.576 Y86.646 E12.5626
G1 X141.068 Y87.428 E12.60628
G1 X141.49 Y88.25 E12.64996
G1 X141.839 Y89.106 E12.69366
G1 X142.113 Y89.988 E12.73733
G1 X142.31 Y90.891 E12.78102
G1 X142.428 Y91.807 E12.82469
G1 X142.462 Y92.41 E12.85324
G1 X142.475 Y93.03 E12.88256
G1 X142.474 Y111.479 E13.75478
G1 X142.464 Y112.2 E13.78887
G1 X142.411 Y113.122 E13.83253
G1 X142.231 Y114.273 E13.8876
G1 X141.63 Y117.249 E14.03114
G1 X141.201 Y119.763 E14.15171
G1 X140.811 Y122.527 E14.28368
G1 X140.537 Y125.011 E14.40183
G1 X140.332 Y127.504 E14.52009
G1 X140.195 Y130.06 E14.64111
G1 X140.125 Y132.969 E14.77868
G1 X140.007 Y134.318 E14.8427
G1 X139.877 Y135.173 E14.88358
G1 X139.673 Y136.407 E14.94271
G1 X139.327 Y138.922 E15.06274
G1 X139.011 Y141.86 E15.20244
G1 X138.883 Y142.775 E15.24612
G1 X138.592 Y143.966 E15.30408
G1 X138.419 Y144.531 E15.33202
G1 X138.236 Y145.086 E15.35965
G1 X137.903 Y145.947 E15.40329
G1 X137.495 Y146.777 E15.44701
G1 X137.018 Y147.568 E15.49068
G1 X136.474 Y148.315 E15.53437
G1 X135.868 Y149.012 E15.57804
G1 X135.203 Y149.654 E15.62174
G1 X134.547 Y150.19 E15.66179
G1 X134.142 Y150.495 E15.68576
G1 X133.649 Y150.85 E15.71448
G1 X132.874 Y151.353 E15.75816
G1 X132.058 Y151.786 E15.80183
G1 X131.208 Y152.147 E15.84549
G1 X130.329 Y152.433 E15.88919
G1 X129.429 Y152.643 E15.93289
G1 X128.541 Y152.771 E15.9753
G1 X127.194 Y152.905 E16.0393
G1 X125.711 Y153.019 E16.10962
G1 X123.192 Y153.154 E16.22888
G1 X122.604 Y153.169 E16.25669
G1 X121.662 Y153.163 E16.30122
G1 X120.848 Y153.136 E16.33973
G1 X117.89 Y152.996 E16.47973
G1 X114.387 Y152.936 E16.64537
G1 X113.79 Y152.909 E16.67362
G1 X112.929 Y152.845 E16.71444
G1 X111.606 Y152.729 E16.77723
G1 X109.51 Y152.616 E16.87646
G1 X108.444 Y152.549 E16.92696
G1 X107.526 Y152.451 E16.97061
G1 X106.619 Y152.274 E17.0143
G1 X105.731 Y152.02 E17.05796
G1 X104.868 Y151.689 E17.10166
G1 X104.037 Y151.285 E17.14534
G1 X103.604 Y151.038 E17.16891
G1 X102.917 Y150.624 E17.20683
G1 X102.104 Y150.108 E17.25236
G1 X101.348 Y149.577 E17.29603
G1 X100.641 Y148.982 E17.33972
G1 X99.988 Y148.329 E17.38338
G1 X99.628 Y147.914 E17.40935
G1 X98.543 Y146.597 E17.49003
G1 X97.882 Y145.763 E17.54034
G1 X97.34 Y145.014 E17.58405
G1 X96.865 Y144.222 E17.62771
G1 X96.392 Y143.233 E17.67954
G1 X96.111 Y142.531 E17.71529
G1 X95.698 Y141.404 E17.77203
G1 X95.418 Y140.524 E17.81569
G1 X95.215 Y139.622 E17.8594
G1 X95.089 Y138.684 E17.90415
G1 X95.019 Y137.893 E17.94169
G1 X94.946 Y136.933 E17.98721
G1 X94.917 Y136.307 E18.01683
G1 X94.89 Y134.706 E18.09254
G1 X94.8 Y132.147 E18.21359
G1 X94.638 Y129.579 E18.33524
G1 X94.41 Y127.094 E18.45322
G1 X94.167 Y125.012 E18.55232
G1 X94.081 Y124.133 E18.59407
G1 X93.943 Y122.463 E18.6733
G1 X93.664 Y119.964 E18.79218
G1 X93.311 Y117.442 E18.91257
G1 X92.888 Y114.943 E19.0324
G1 X92.783 Y114.398 E19.05864
G1 X92.682 Y113.816 E19.08656
G1 X92.568 Y112.899 E19.13025
G1 X92.538 Y112.347 E19.15639
G1 X92.525 Y111.727 E19.1857
G1 X92.526 Y93.23 E20.06019
G1 X92.535 Y92.565 E20.09163
G1 X92.587 Y91.642 E20.13534
G1 X92.719 Y90.728 E20.179
G1 X92.93 Y89.828 E20.2227
G1 X93.218 Y88.95 E20.26639
G1 X93.58 Y88.1 E20.31007
G1 X94.015 Y87.285 E20.35374
G1 X94.518 Y86.51 E20.39742
G1 X95.087 Y85.782 E20.44111
M205 X5 Y5
G0 F7500 X95.53 Y85.957
M205 X8 Y8
G1 F1500 X96.156 Y85.305 E20.48384
G1 X96.838 Y84.711 E20.5266
G1 X97.57 Y84.18 E20.56935
G1 X98.345 Y83.715 E20.61208
G1 X99.159 Y83.32 E20.65485
G1 X100.004 Y82.999 E20.69759
G1 X100.874 Y82.754 E20.74032
G1 X101.763 Y82.587 E20.78308
G1 X102.922 Y82.488 E20.83808
G1 X103.53 Y82.475 E20.86683
G1 X131.093 Y82.475 E22.16993
G1 X131.937 Y82.486 E22.20984
G1 X132.84 Y82.539 E22.2526
G1 X133.735 Y82.671 E22.29537
G1 X134.614 Y82.882 E22.33811
G1 X135.471 Y83.17 E22.38085
G1 X136.299 Y83.533 E22.42359
G1 X137.093 Y83.967 E22.46637
G1 X137.844 Y84.469 E22.50908
G1 X138.549 Y85.036 E22.55185
G1 X139.2 Y85.663 E22.59458
G1 X139.794 Y86.345 E22.63734
G1 X140.325 Y87.077 E22.6801
G1 X140.789 Y87.853 E22.72284
G1 X141.183 Y88.667 E22.7656
G1 X141.503 Y89.513 E22.80836
G1 X141.748 Y90.383 E22.85109
G1 X141.914 Y91.272 E22.89385
G1 X142.012 Y92.423 E22.94846
G1 X142.025 Y93.03 E22.97716
G1 X142.024 Y111.473 E23.8491
G1 X142.014 Y112.194 E23.88319
G1 X141.962 Y113.096 E23.9259
G1 X141.791 Y114.179 E23.97774
G1 X141.182 Y117.193 E24.12311
G1 X140.756 Y119.688 E24.24277
G1 X140.367 Y122.451 E24.37469
G1 X140.09 Y124.96 E24.49403
G1 X139.881 Y127.513 E24.61513
G1 X139.745 Y130.024 E24.73402
G1 X139.675 Y132.959 E24.87281
G1 X139.562 Y134.25 E24.93408
G1 X139.41 Y135.242 E24.98153
G1 X139.228 Y136.34 E25.03415
G1 X138.878 Y138.885 E25.1556
G1 X138.605 Y141.379 E25.27421
G1 X138.563 Y141.817 E25.29502
G1 X138.437 Y142.712 E25.33775
G1 X138.162 Y143.835 E25.39241
G1 X137.989 Y144.4 E25.42034
G1 X137.81 Y144.942 E25.44733
G1 X137.483 Y145.784 E25.49003
G1 X137.082 Y146.595 E25.53281
G1 X136.611 Y147.367 E25.57556
G1 X136.074 Y148.094 E25.61829
G1 X135.475 Y148.772 E25.66106
G1 X134.818 Y149.393 E25.7038
G1 X134.276 Y149.831 E25.73675
G1 X133.645 Y150.302 E25.77397
G1 X133.389 Y150.484 E25.78882
G1 X132.629 Y150.974 E25.83158
G1 X131.829 Y151.396 E25.87434
G1 X130.996 Y151.746 E25.91705
G1 X130.134 Y152.02 E25.95982
G1 X129.252 Y152.218 E26.00255
G1 X128.496 Y152.323 E26.03864
G1 X127.382 Y152.436 E26.09157
G1 X125.949 Y152.552 E26.15954
G1 X123.168 Y152.704 E26.29122
G1 X122.605 Y152.719 E26.31784
G1 X121.676 Y152.713 E26.36177
G1 X120.869 Y152.687 E26.39994
G1 X117.885 Y152.546 E26.54117
G1 X114.395 Y152.486 E26.70619
G1 X113.823 Y152.461 E26.73326
G1 X113.113 Y152.409 E26.76692
G1 X111.642 Y152.281 E26.83673
G1 X109.539 Y152.167 E26.9363
G1 X108.473 Y152.1 E26.98679
G1 X107.574 Y152.003 E27.02954
G1 X106.687 Y151.828 E27.07228
G1 X105.819 Y151.574 E27.11504
G1 X104.976 Y151.245 E27.15782
G1 X103.836 Y150.653 E27.21855
G1 X103.149 Y150.239 E27.25648
G1 X102.347 Y149.729 E27.30141
G1 X101.608 Y149.209 E27.34413
G1 X100.917 Y148.625 E27.3869
G1 X100.281 Y147.982 E27.42966
G1 X99.975 Y147.627 E27.45182
G1 X98.896 Y146.317 E27.53205
G1 X98.235 Y145.483 E27.58237
G1 X97.705 Y144.75 E27.62513
G1 X97.242 Y143.974 E27.66785
G1 X96.808 Y143.06 E27.71569
G1 X96.533 Y142.376 E27.75054
G1 X96.12 Y141.249 E27.80729
G1 X95.847 Y140.387 E27.85003
G1 X95.651 Y139.505 E27.89275
G1 X95.537 Y138.644 E27.93381
G1 X95.467 Y137.859 E27.97107
G1 X95.394 Y136.899 E28.01659
G1 X95.366 Y136.299 E28.04499
G1 X95.338 Y134.683 E28.1214
G1 X95.248 Y132.102 E28.24349
G1 X95.087 Y129.547 E28.36453
G1 X94.857 Y127.042 E28.48345
G1 X94.593 Y124.767 E28.59173
G1 X94.542 Y124.245 E28.61653
G1 X94.39 Y122.414 E28.70339
G1 X94.108 Y119.887 E28.8236
G1 X93.761 Y117.407 E28.94199
G1 X93.325 Y114.829 E29.0656
G1 X93.225 Y114.313 E29.09045
G1 X93.126 Y113.741 E29.1179
G1 X93.015 Y112.844 E29.16063
G1 X92.988 Y112.334 E29.18477
G1 X92.975 Y111.727 E29.21348
G1 X92.976 Y93.236 E30.08768
G1 X92.985 Y92.571 E30.11912
G1 X93.037 Y91.668 E30.16188
G1 X93.169 Y90.773 E30.20465
G1 X93.379 Y89.894 E30.24738
G1 X93.666 Y89.037 E30.29011
G1 X94.028 Y88.208 E30.33287
G1 X94.462 Y87.414 E30.37565
G1 X94.964 Y86.662 E30.4184
G1 X95.53 Y85.957 E30.46114
M205 X5 Y5
G1 F3300 E24.46114
G0 F7500 X102.547 Y112.71
G0 X110.086 Y112.717
G0 X110.703 Y116.603
G0 X110.324 Y118.323
G0 X110.615 Y119.219
G0 X125.01 Y140.153
M205 X8 Y8
G1 F3300 E30.46114
G1 F1500 X125.147 Y140.053 E30.46916
G1 X125.206 Y140.18 E30.47578
G1 X125.01 Y140.153 E30.48514
M205 X5 Y5
G0 F7500 X124.681 Y139.822
M205 X8 Y8
G1 F1500 X124.977 Y139.628 E30.50187
G1 X125.234 Y139.359 E30.51946
G1 X125.38 Y139.164 E30.53097
G1 X125.452 Y139.614 E30.55252
G1 X125.584 Y139.943 E30.56928
G1 X125.787 Y140.233 E30.58601
G1 X126.018 Y140.448 E30.60093
G1 X126.328 Y140.682 E30.6193
G1 X125.514 Y140.753 E30.65793
G1 X125.446 Y140.714 E30.66163
G1 X125.107 Y140.612 E30.67837
G1 X124.753 Y140.589 E30.69514
G1 X124.45 Y140.633 E30.70962
G1 X123.495 Y140.869 E30.75612
G1 X122.648 Y140.863 E30.79617
G1 X122.884 Y140.571 E30.81392
G1 X123.039 Y140.252 E30.83069
G1 X123.119 Y139.907 E30.84743
G1 X123.119 Y139.729 E30.85584
G1 X123.308 Y139.844 E30.8663
G1 X123.644 Y139.957 E30.88306
G1 X123.997 Y139.991 E30.89983
G1 X124.349 Y139.945 E30.91661
G1 X124.681 Y139.822 E30.93335
M205 X5 Y5
G0 F7500 X124.417 Y139.449
M205 X8 Y8
G1 F1500 X124.674 Y139.295 E30.94752
G1 X124.873 Y139.089 E30.96106
G1 X125.384 Y138.405 E31.00142
G1 X126.588 Y137.593 E31.07008
G1 X127.056 Y137.18 E31.09959
G1 X127.281 Y137.171 E31.11023
G1 X127.352 Y137.28 E31.11638
G1 X127.311 Y137.406 E31.12265
G1 X126.232 Y138.342 E31.19018
G1 X126.034 Y138.567 E31.20435
G1 X125.902 Y138.836 E31.21852
G1 X125.846 Y139.13 E31.23266
G1 X125.869 Y139.428 E31.2468
G1 X125.97 Y139.71 E31.26096
G1 X126.175 Y140.002 E31.27782
G1 X127.17 Y140.755 E31.33682
G1 X127.208 Y140.873 E31.34268
G1 X127.174 Y140.98 E31.34799
G1 X127.041 Y141.077 E31.35577
G1 X125.417 Y141.214 E31.43282
G1 X125.226 Y141.11 E31.4431
G1 X124.934 Y141.042 E31.45728
G1 X124.558 Y141.07 E31.4751
G1 X123.549 Y141.319 E31.52423
G1 X122.698 Y141.313 E31.56447
G1 X122.401 Y141.351 E31.57862
G1 X122.35 Y141.375 E31.58129
G1 X121.688 Y141.364 E31.61259
G1 X121.58 Y141.305 E31.61841
G1 X121.216 Y141.233 E31.63595
G1 X120.598 Y141.214 E31.66518
G1 X119.738 Y140.595 E31.71528
G1 X118.772 Y139.803 E31.77433
G1 X118.518 Y139.646 E31.78845
G1 X118.23 Y139.561 E31.80265
G1 X117.931 Y139.555 E31.81679
G1 X117.641 Y139.629 E31.83094
G1 X117.38 Y139.776 E31.8451
G1 X117.126 Y140.045 E31.86259
G1 X116.703 Y140.674 E31.89843
G1 X115.855 Y141.151 E31.94442
G1 X114.955 Y141.149 E31.98697
G1 X114.286 Y140.623 E32.02721
G1 X114.164 Y140.136 E32.05094
G1 X114.054 Y139.857 E32.06512
G1 X113.873 Y139.618 E32.0793
G1 X113.637 Y139.435 E32.09341
G1 X113.36 Y139.321 E32.10758
G1 X113.063 Y139.284 E32.12173
G1 X112.767 Y139.327 E32.13587
G1 X112.411 Y139.499 E32.15456
G1 X110.732 Y140.721 E32.25274
G1 X109.414 Y140.769 E32.31509
G1 X108.792 Y140.384 E32.34967
G1 X108.592 Y139.779 E32.3798
G1 X108.461 Y139.51 E32.39394
G1 X108.212 Y139.243 E32.4112
G1 X107.18 Y138.445 E32.47288
G1 X106.852 Y137.572 E32.51697
G1 X106.909 Y136.854 E32.55102
G1 X106.856 Y136.416 E32.57188
G1 X106.756 Y136.112 E32.58701
G1 X107.116 Y134.861 E32.64855
G1 X107.2 Y134.254 E32.67752
G1 X107.422 Y134.394 E32.68993
G1 X107.527 Y134.718 E32.70603
G1 X107.199 Y136.003 E32.76873
G1 X107.159 Y136.339 E32.78473
G1 X107.373 Y137.717 E32.85066
G1 X107.458 Y138.004 E32.86481
G1 X107.616 Y138.259 E32.87899
G1 X107.816 Y138.449 E32.89203
G1 X108.62 Y139.044 E32.93932
G1 X109.012 Y139.689 E32.97501
