;FLAVOR:Marlin
;TIME:2239
;Filament used: 1.52468m
;Layer height: 0.2
;MINX:55.061
;MINY:66.03
;MINZ:0.2
;MAXX:168.97
;MAXY:215.937
;MAXZ:3
;Generated with Cura_SteamEngine 4.5.0
M140 S60
M105
M190 S60
M104 S205
M105
M109 S205
M82 ;absolute extrusion mode
; Ender 3 Custom Start G-code
G92 E0 ; Reset Extruder
G28 ; Home all axes
G1 Z2.0 F3000 ; Move Z Axis up little to prevent scratching of Heat Bed
G1 X0.1 Y20 Z0.3 F5000.0 ; Move to start position
G1 X0.1 Y200.0 Z0.3 F1500.0 E15 ; Draw the first line
G1 X0.4 Y200.0 Z0.3 F5000.0 ; Move to side a little
G1 X0.4 Y20 Z0.3 F1500.0 E30 ; Draw the second line
G92 E0 ; Reset Extruder
G1 Z2.0 F3000 ; Move Z Axis up little to prevent scratching of Heat Bed
G1 X5 Y20 Z0.3 F5000.0 ; Move over to prevent blob squish
G92 E0
G92 E0
G1 F1500 E-6
;LAYER_COUNT:15
;LAYER:0
M107
M204 S500
M205 X20 Y20
G0 F7500 X69.226 Y69.319 Z0.2
;TYPE:SKIRT
G1 F1500 E0
G1 X69.913 Y68.68 E0.03121
G1 X70.651 Y68.102 E0.06238
G1 X71.436 Y67.589 E0.09357
G1 X72.262 Y67.144 E0.12478
G1 X73.123 Y66.772 E0.15598
G1 X74.013 Y66.474 E0.18719
G1 X74.924 Y66.254 E0.21836
G1 X75.851 Y66.111 E0.24956
G1 X76.864 Y66.047 E0.28332
G1 X77.914 Y66.03 E0.31825
G1 X83.421 Y66.031 E0.50141
G1 X84.119 Y66.041 E0.52463
G1 X85.055 Y66.095 E0.55581
G1 X85.983 Y66.227 E0.58699
G1 X86.86 Y66.429 E0.61692
G1 X87.978 Y66.734 E0.65547
G1 X90.735 Y67.459 E0.75028
G1 X93.177 Y68.024 E0.83365
G1 X95.651 Y68.521 E0.91758
G1 X98.1 Y68.941 E1.00022
G1 X100.613 Y69.301 E1.08466
G1 X103.095 Y69.585 E1.16775
G1 X105.629 Y69.803 E1.25234
G1 X108.145 Y69.947 E1.33616
G1 X110.651 Y70.02 E1.41954
G1 X112.048 Y70.03 E1.46601
G1 X153.436 Y70.031 E2.84258
G1 X154.134 Y70.042 E2.8658
G1 X155.071 Y70.097 E2.89702
G1 X155.999 Y70.231 E2.9282
G1 X156.912 Y70.444 E2.95938
G1 X157.804 Y70.734 E2.99058
G1 X158.668 Y71.099 E3.02178
G1 X159.498 Y71.536 E3.05298
G1 X160.287 Y72.042 E3.08415
G1 X161.031 Y72.614 E3.11536
G1 X161.723 Y73.247 E3.14656
G1 X162.359 Y73.936 E3.17774
G1 X162.934 Y74.678 E3.20897
G1 X163.443 Y75.465 E3.24014
G1 X163.884 Y76.293 E3.27134
G1 X164.252 Y77.155 E3.30251
G1 X164.545 Y78.046 E3.33371
G1 X164.762 Y78.959 E3.36492
G1 X164.9 Y79.886 E3.39609
G1 X164.957 Y80.731 E3.42426
G1 X164.97 Y81.36 E3.44519
G1 X164.97 Y122.98 E4.82948
G1 X165.007 Y125.588 E4.91623
G1 X165.114 Y128.109 E5.00015
G1 X165.291 Y130.604 E5.08334
G1 X165.539 Y133.104 E5.1669
G1 X165.858 Y135.597 E5.2505
G1 X166.249 Y138.09 E5.33443
G1 X166.71 Y140.57 E5.41832
G1 X167.242 Y143.043 E5.50246
G1 X167.835 Y145.458 E5.58517
G1 X168.552 Y148.063 E5.67503
G1 X168.762 Y148.977 E5.70622
G1 X168.927 Y150.313 E5.751
G1 X168.95 Y150.69 E5.76356
G1 X168.97 Y151.36 E5.78585
G1 X168.969 Y157.394 E5.98655
G1 X168.959 Y158.103 E6.01013
G1 X168.906 Y159.039 E6.04131
G1 X168.773 Y159.968 E6.07252
G1 X168.562 Y160.882 E6.10372
G1 X168.273 Y161.774 E6.13491
G1 X167.91 Y162.639 E6.16611
G1 X167.474 Y163.469 E6.19729
G1 X166.969 Y164.26 E6.22851
G1 X166.399 Y165.004 E6.25968
G1 X165.767 Y165.697 E6.29088
G1 X165.079 Y166.334 E6.32206
G1 X164.338 Y166.91 E6.35328
G1 X163.738 Y167.309 E6.37724
G1 X161.255 Y168.841 E6.47428
G1 X159.165 Y170.213 E6.55744
G1 X157.103 Y171.653 E6.64109
G1 X155.068 Y173.161 E6.72533
G1 X153.092 Y174.714 E6.80892
G1 X151.176 Y176.309 E6.89184
G1 X149.269 Y177.99 E6.97639
G1 X147.431 Y179.705 E7.06
G1 X145.634 Y181.48 E7.14401
G1 X143.917 Y183.274 E7.2266
G1 X142.212 Y185.16 E7.31116
G1 X140.559 Y187.095 E7.39581
G1 X139.014 Y189.013 E7.47772
G1 X137.483 Y191.027 E7.56187
G1 X136.001 Y193.093 E7.64643
G1 X134.602 Y195.166 E7.72961
G1 X133.247 Y197.302 E7.81375
G1 X131.968 Y199.451 E7.89692
G1 X130.746 Y201.639 E7.98028
G1 X129.569 Y203.898 E8.065
G1 X128.47 Y206.161 E8.14867
G1 X127.456 Y208.405 E8.23058
G1 X126.941 Y209.577 E8.27315
G1 X126.492 Y210.44 E8.30551
G1 X125.989 Y211.232 E8.33672
G1 X125.42 Y211.977 E8.36789
G1 X124.79 Y212.672 E8.39909
G1 X124.103 Y213.31 E8.43028
G1 X123.364 Y213.888 E8.46148
G1 X122.579 Y214.4 E8.49265
G1 X121.752 Y214.844 E8.52387
G1 X120.891 Y215.216 E8.55507
G1 X120.002 Y215.513 E8.58624
G1 X119.09 Y215.733 E8.61745
G1 X118.163 Y215.875 E8.64864
G1 X117.227 Y215.937 E8.67984
G1 X116.289 Y215.919 E8.71104
G1 X115.357 Y215.822 E8.74221
G1 X114.435 Y215.645 E8.77343
G1 X113.281 Y215.304 E8.81346
G1 X112.294 Y214.952 E8.84831
G1 X110.564 Y214.303 E8.90977
G1 X108.084 Y213.413 E8.9974
G1 X105.739 Y212.645 E9.07947
G1 X103.3 Y211.922 E9.16408
G1 X100.756 Y211.247 E9.25162
G1 X97.129 Y210.341 E9.37597
G1 X94.628 Y209.753 E9.46142
G1 X92.131 Y209.239 E9.54621
G1 X89.687 Y208.81 E9.62874
G1 X87.922 Y208.537 E9.68814
G1 X87.185 Y208.405 E9.71304
G1 X86.808 Y208.33 E9.72583
G1 X86.144 Y208.187 E9.74842
G1 X85.753 Y208.096 E9.76177
G1 X85.056 Y207.919 E9.78569
G1 X84.679 Y207.816 E9.79869
G1 X83.984 Y207.613 E9.82277
G1 X83.636 Y207.505 E9.83489
G1 X83.027 Y207.305 E9.85621
G1 X82.684 Y207.186 E9.86829
G1 X82.038 Y206.95 E9.89116
G1 X81.637 Y206.794 E9.90547
G1 X80.906 Y206.494 E9.93175
G1 X80.553 Y206.342 E9.94454
G1 X79.993 Y206.089 E9.96497
G1 X79.682 Y205.943 E9.9764
G1 X79.031 Y205.624 E10.00051
G1 X78.671 Y205.439 E10.01398
G1 X78.123 Y205.145 E10.03466
G1 X77.796 Y204.963 E10.04711
G1 X77.075 Y204.544 E10.07484
G1 X76.742 Y204.342 E10.0878
G1 X76.24 Y204.026 E10.10753
G1 X75.917 Y203.815 E10.12036
G1 X75.296 Y203.393 E10.14533
G1 X74.979 Y203.169 E10.15824
G1 X74.422 Y202.761 E10.1812
G1 X74.12 Y202.532 E10.19381
G1 X73.618 Y202.137 E10.21506
G1 X73.318 Y201.892 E10.22794
G1 X72.729 Y201.394 E10.25359
G1 X72.442 Y201.143 E10.26627
G1 X71.938 Y200.686 E10.2889
G1 X71.667 Y200.432 E10.30126
G1 X71.231 Y200.009 E10.32146
G1 X70.954 Y199.73 E10.33454
G1 X70.385 Y199.137 E10.36187
G1 X70.118 Y198.848 E10.37496
G1 X69.675 Y198.352 E10.39708
G1 X69.422 Y198.059 E10.40995
G1 X68.997 Y197.548 E10.43206
G1 X68.759 Y197.252 E10.44469
G1 X68.325 Y196.692 E10.46825
G1 X68.103 Y196.394 E10.48061
G1 X67.7 Y195.836 E10.50351
G1 X67.479 Y195.519 E10.51636
G1 X67.085 Y194.931 E10.5399
G1 X66.876 Y194.607 E10.55273
G1 X66.518 Y194.03 E10.57531
G1 X66.318 Y193.695 E10.58829
G1 X65.962 Y193.073 E10.61212
G1 X65.78 Y192.741 E10.62472
G1 X65.454 Y192.123 E10.64796
G1 X65.273 Y191.765 E10.6613
G1 X64.957 Y191.109 E10.68552
G1 X64.805 Y190.779 E10.6976
G1 X64.555 Y190.213 E10.71818
G1 X64.41 Y189.87 E10.73057
G1 X64.146 Y189.213 E10.75412
G1 X63.998 Y188.823 E10.76799
G1 X63.736 Y188.092 E10.79382
G1 X63.615 Y187.737 E10.80629
G1 X63.426 Y187.147 E10.8269
G1 X63.319 Y186.792 E10.83923
G1 X63.129 Y186.122 E10.86239
G1 X63.029 Y185.742 E10.87546
G1 X62.845 Y184.992 E10.90115
G1 X62.761 Y184.623 E10.91373
G1 X62.642 Y184.054 E10.93307
G1 X62.569 Y183.671 E10.94604
G1 X62.287 Y182.022 E11.00168
G1 X62.133 Y180.999 E11.03609
G1 X61.688 Y178.514 E11.12005
G1 X61.169 Y176.025 E11.20462
G1 X60.658 Y173.865 E11.27844
G1 X59.765 Y170.293 E11.40091
G1 X59.087 Y167.732 E11.48902
G1 X58.384 Y165.352 E11.57156
G1 X57.597 Y162.946 E11.65576
G1 X56.706 Y160.461 E11.74356
G1 X55.943 Y158.422 E11.81597
G1 X55.71 Y157.774 E11.83887
G1 X55.43 Y156.879 E11.87006
G1 X55.228 Y155.963 E11.90126
G1 X55.105 Y155.033 E11.93246
G1 X55.061 Y154.096 E11.96366
G1 X55.097 Y153.159 E11.99485
G1 X55.213 Y152.228 E12.02605
G1 X55.408 Y151.311 E12.05724
G1 X55.68 Y150.414 E12.08841
G1 X56.028 Y149.542 E12.11964
G1 X56.482 Y148.644 E12.15311
G1 X56.95 Y147.815 E12.18477
G1 X58.294 Y145.456 E12.27507
G1 X59.48 Y143.232 E12.3589
G1 X60.595 Y140.989 E12.44221
G1 X61.657 Y138.69 E12.52644
G1 X62.648 Y136.378 E12.61011
G1 X63.585 Y134.008 E12.69487
G1 X64.42 Y131.705 E12.77635
G1 X65.23 Y129.258 E12.86208
G1 X65.946 Y126.875 E12.94484
G1 X66.599 Y124.448 E13.02843
G1 X67.189 Y121.99 E13.11251
G1 X67.71 Y119.504 E13.19699
G1 X68.15 Y117.06 E13.27958
G1 X68.526 Y114.573 E13.36324
G1 X68.83 Y112.087 E13.44654
G1 X69.068 Y109.557 E13.53106
G1 X69.234 Y107.023 E13.61552
G1 X69.325 Y104.563 E13.6974
G1 X69.348 Y102.008 E13.78238
G1 X69.298 Y99.478 E13.86654
G1 X69.179 Y96.994 E13.94926
G1 X68.988 Y94.484 E14.03298
G1 X68.726 Y91.988 E14.11646
G1 X68.389 Y89.464 E14.20115
G1 X67.988 Y86.99 E14.28451
G1 X67.513 Y84.512 E14.36843
G1 X66.968 Y82.051 E14.45226
G1 X66.384 Y79.71 E14.53251
G1 X66.195 Y78.791 E14.56372
G1 X66.086 Y77.86 E14.59489
G1 X66.057 Y76.922 E14.62611
G1 X66.107 Y75.986 E14.65728
G1 X66.237 Y75.057 E14.68848
G1 X66.446 Y74.143 E14.71967
G1 X66.732 Y73.249 E14.75089
G1 X67.093 Y72.384 E14.78206
G1 X67.526 Y71.552 E14.81326
G1 X68.028 Y70.76 E14.84444
G1 X68.597 Y70.014 E14.87565
G1 X68.689 Y69.912 E14.88022
G0 F1350 X69.226 Y69.319
G0 F7500 X69.655 Y69.457
G1 F1500 X70.341 Y68.843 E14.91084
G1 X71.078 Y68.291 E14.94147
G1 X71.86 Y67.806 E14.97207
G1 X72.682 Y67.39 E15.00271
G1 X73.536 Y67.047 E15.03332
G1 X74.417 Y66.779 E15.06395
G1 X75.318 Y66.589 E15.09458
G1 X76.231 Y66.477 E15.12517
G1 X76.871 Y66.447 E15.14648
G1 X77.914 Y66.43 E15.18118
G1 X83.415 Y66.431 E15.36414
G1 X84.113 Y66.441 E15.38736
G1 X85.032 Y66.494 E15.41797
G1 X85.943 Y66.627 E15.4486
G1 X86.754 Y66.815 E15.47629
G1 X87.864 Y67.118 E15.51455
G1 X90.648 Y67.85 E15.6103
G1 X93.107 Y68.419 E15.69425
G1 X95.548 Y68.909 E15.77705
G1 X98.047 Y69.338 E15.86139
G1 X100.543 Y69.696 E15.94525
G1 X103.091 Y69.987 E16.03055
G1 X105.57 Y70.2 E16.11331
G1 X108.11 Y70.345 E16.19793
G1 X110.682 Y70.42 E16.28351
G1 X112.046 Y70.43 E16.32887
G1 X153.43 Y70.431 E17.70531
G1 X154.128 Y70.442 E17.72853
G1 X155.047 Y70.497 E17.75915
G1 X155.958 Y70.631 E17.78978
G1 X156.854 Y70.843 E17.8204
G1 X157.728 Y71.133 E17.85103
G1 X158.573 Y71.497 E17.88163
G1 X159.384 Y71.933 E17.91226
G1 X160.154 Y72.438 E17.94288
G1 X160.877 Y73.008 E17.9735
G1 X161.548 Y73.638 E18.00412
G1 X162.162 Y74.325 E18.03476
G1 X162.713 Y75.062 E18.06537
G1 X163.199 Y75.844 E18.09599
G1 X163.615 Y76.665 E18.1266
G1 X163.959 Y77.519 E18.15723
G1 X164.227 Y78.4 E18.18785
G1 X164.417 Y79.301 E18.21848
G1 X164.529 Y80.214 E18.24907
G1 X164.557 Y80.742 E18.26666
G1 X164.57 Y81.36 E18.28722
G1 X164.57 Y122.986 E19.67171
G1 X164.607 Y125.611 E19.75902
G1 X164.714 Y128.119 E19.84251
G1 X164.892 Y130.639 E19.92654
G1 X165.141 Y133.154 E20.0106
G1 X165.46 Y135.643 E20.09406
G1 X165.861 Y138.195 E20.17998
G1 X166.313 Y140.626 E20.26222
G1 X166.851 Y143.125 E20.34724
G1 X167.445 Y145.546 E20.43015
G1 X168.167 Y148.169 E20.52064
G1 X168.372 Y149.066 E20.55124
G1 X168.527 Y150.338 E20.59386
G1 X168.55 Y150.715 E20.60643
G1 X168.57 Y151.36 E20.62789
G1 X168.569 Y157.388 E20.82838
G1 X168.559 Y158.097 E20.85196
G1 X168.506 Y159.017 E20.88261
G1 X168.373 Y159.928 E20.91324
G1 X168.162 Y160.824 E20.94385
G1 X167.874 Y161.698 E20.97446
G1 X167.512 Y162.544 E21.00506
G1 X167.077 Y163.356 E21.0357
G1 X166.573 Y164.127 E21.06634
G1 X166.004 Y164.851 E21.09697
G1 X165.375 Y165.523 E21.12758
G1 X164.69 Y166.137 E21.15818
G1 X163.954 Y166.691 E21.18882
G1 X163.527 Y166.968 E21.20574
G1 X161.063 Y168.489 E21.30205
G1 X158.937 Y169.884 E21.38663
G1 X156.858 Y171.336 E21.47097
G1 X154.85 Y172.823 E21.55408
G1 X152.834 Y174.409 E21.63939
G1 X150.901 Y176.018 E21.72304
G1 X148.995 Y177.698 E21.80755
G1 X147.159 Y179.41 E21.89104
G1 X145.365 Y181.184 E21.97496
G1 X143.598 Y183.03 E22.05995
G1 X141.927 Y184.877 E22.14279
G1 X140.259 Y186.83 E22.22821
G1 X138.682 Y188.788 E22.31183
G1 X137.159 Y190.791 E22.39552
G1 X135.689 Y192.841 E22.47943
G1 X134.267 Y194.949 E22.564
G1 X132.918 Y197.073 E22.64769
G1 X131.609 Y199.273 E22.73283
G1 X130.385 Y201.466 E22.81636
G1 X129.212 Y203.717 E22.90079
G1 X128.124 Y205.957 E22.98361
G1 X127.064 Y208.302 E23.06921
G1 X126.579 Y209.407 E23.10934
G1 X126.137 Y210.255 E23.14115
G1 X125.642 Y211.031 E23.17176
G1 X125.08 Y211.76 E23.20238
G1 X124.458 Y212.439 E23.23301
G1 X123.779 Y213.061 E23.26363
G1 X123.049 Y213.621 E23.29423
G1 X122.272 Y214.116 E23.32488
G1 X121.456 Y214.542 E23.35549
G1 X120.606 Y214.895 E23.3861
G1 X119.728 Y215.174 E23.41675
G1 X118.83 Y215.375 E23.44735
G1 X117.917 Y215.497 E23.47799
G1 X116.998 Y215.54 E23.50859
G1 X116.078 Y215.503 E23.53921
G1 X115.165 Y215.386 E23.56983
G1 X114.265 Y215.19 E23.60046
G1 X113.415 Y214.927 E23.63006
G1 X112.435 Y214.577 E23.66467
G1 X110.715 Y213.932 E23.72576
G1 X108.238 Y213.043 E23.8133
G1 X105.862 Y212.265 E23.89645
G1 X103.38 Y211.529 E23.98255
G1 X100.891 Y210.869 E24.0682
G1 X97.238 Y209.955 E24.19344
G1 X94.695 Y209.358 E24.28032
G1 X92.216 Y208.847 E24.36451
G1 X89.729 Y208.411 E24.44849
G1 X87.992 Y208.143 E24.50695
G1 X87.255 Y208.011 E24.53185
G1 X86.892 Y207.939 E24.54416
G1 X86.228 Y207.796 E24.56675
G1 X85.851 Y207.708 E24.57962
G1 X85.154 Y207.531 E24.60354
G1 X84.791 Y207.432 E24.61606
G1 X84.096 Y207.229 E24.64014
G1 X83.761 Y207.125 E24.65181
G1 X83.152 Y206.925 E24.67313
G1 X82.822 Y206.81 E24.68475
G1 X82.176 Y206.574 E24.70762
G1 X81.789 Y206.424 E24.72143
G1 X81.058 Y206.124 E24.74771
G1 X80.718 Y205.978 E24.76002
G1 X79.858 Y205.584 E24.79148
G1 X79.207 Y205.265 E24.81559
G1 X78.86 Y205.087 E24.82856
G1 X78.312 Y204.793 E24.84925
G1 X77.997 Y204.617 E24.86125
G1 X77.276 Y204.198 E24.88898
G1 X76.955 Y204.004 E24.90146
G1 X76.453 Y203.688 E24.92119
G1 X76.142 Y203.484 E24.93356
G1 X75.521 Y203.062 E24.95853
G1 X75.215 Y202.846 E24.97099
G1 X74.658 Y202.438 E24.99395
G1 X74.367 Y202.217 E25.00611
G1 X73.865 Y201.822 E25.02735
G1 X73.576 Y201.587 E25.03974
G1 X72.987 Y201.089 E25.06539
G1 X72.711 Y200.847 E25.0776
G1 X72.207 Y200.39 E25.10023
G1 X71.946 Y200.145 E25.11214
G1 X71.51 Y199.722 E25.13234
G1 X71.242 Y199.453 E25.14497
G1 X70.673 Y198.86 E25.17231
G1 X70.416 Y198.582 E25.1849
G1 X69.973 Y198.086 E25.20702
G1 X69.729 Y197.803 E25.21945
G1 X69.304 Y197.292 E25.24155
G1 X69.076 Y197.007 E25.25369
G1 X68.642 Y196.447 E25.27726
G1 X68.427 Y196.16 E25.28918
G1 X68.024 Y195.602 E25.31208
G1 X67.811 Y195.297 E25.32445
G1 X67.417 Y194.709 E25.34799
G1 X67.216 Y194.396 E25.36036
G1 X66.858 Y193.819 E25.38295
G1 X66.665 Y193.496 E25.39546
G1 X66.309 Y192.874 E25.4193
G1 X66.133 Y192.555 E25.43142
G1 X65.807 Y191.937 E25.45466
G1 X65.633 Y191.591 E25.46754
G1 X65.317 Y190.935 E25.49176
G1 X65.171 Y190.618 E25.50336
G1 X64.921 Y190.052 E25.52394
G1 X64.781 Y189.721 E25.5359
G1 X64.517 Y189.064 E25.55945
G1 X64.375 Y188.688 E25.57281
G1 X64.113 Y187.957 E25.59864
G1 X63.996 Y187.615 E25.61066
G1 X63.807 Y187.025 E25.63127
G1 X63.704 Y186.683 E25.64315
G1 X63.514 Y186.013 E25.66631
G1 X63.417 Y185.647 E25.67891
G1 X63.233 Y184.897 E25.70459
G1 X63.152 Y184.541 E25.71673
G1 X63.033 Y183.972 E25.73607
G1 X62.963 Y183.603 E25.74856
G1 X62.683 Y181.963 E25.8039
G1 X62.528 Y180.935 E25.83847
G1 X62.08 Y178.433 E25.92301
G1 X61.566 Y175.965 E26.00686
G1 X61.033 Y173.716 E26.08374
G1 X60.143 Y170.157 E26.20575
G1 X59.474 Y167.631 E26.29267
G1 X58.768 Y165.241 E26.37555
G1 X57.971 Y162.803 E26.46086
G1 X57.077 Y160.31 E26.54895
G1 X56.319 Y158.287 E26.62081
G1 X56.086 Y157.639 E26.64371
G1 X55.813 Y156.76 E26.67432
G1 X55.616 Y155.86 E26.70496
G1 X55.499 Y154.947 E26.73558
G1 X55.461 Y154.027 E26.76621
G1 X55.503 Y153.107 E26.79684
G1 X55.625 Y152.195 E26.82744
G1 X55.825 Y151.296 E26.85807
G1 X56.103 Y150.419 E26.88867
G1 X56.456 Y149.568 E26.91931
G1 X56.83 Y148.841 E26.94651
G1 X57.298 Y148.012 E26.97817
G1 X58.652 Y145.636 E27.06913
G1 X59.834 Y143.419 E27.15269
G1 X60.958 Y141.156 E27.23673
G1 X62.016 Y138.866 E27.32063
G1 X63.023 Y136.517 E27.40564
G1 X63.957 Y134.155 E27.49012
G1 X64.804 Y131.818 E27.57279
G1 X65.607 Y129.394 E27.65772
G1 X66.329 Y126.988 E27.74127
G1 X66.989 Y124.54 E27.8256
G1 X67.577 Y122.086 E27.90953
G1 X68.099 Y119.598 E27.99408
G1 X68.546 Y117.113 E28.07806
G1 X68.924 Y114.61 E28.16226
G1 X69.232 Y112.102 E28.2463
G1 X69.465 Y109.622 E28.32915
G1 X69.632 Y107.063 E28.41444
G1 X69.725 Y104.546 E28.49821
G1 X69.748 Y102.003 E28.5828
G1 X69.698 Y99.487 E28.6665
G1 X69.576 Y96.946 E28.75111
G1 X69.386 Y94.445 E28.83453
G1 X69.122 Y91.929 E28.91867
G1 X68.787 Y89.418 E29.00293
G1 X68.382 Y86.922 E29.08703
G1 X67.908 Y84.448 E29.17082
G1 X67.355 Y81.946 E29.25604
G1 X66.772 Y79.613 E29.33602
G1 X66.588 Y78.711 E29.36664
