;FLAVOR:Marlin
;TIME:1142
;Filament used: 1.00612m
;Layer height: 0.28
;MINX:31.25
;MINY:98.5
;MINZ:0.28
;MAXX:203.75
;MAXY:136.5
;MAXZ:2.8
;Generated with Cura_SteamEngine 4.5.0
M140 S60
M105
M190 S60
M104 S205
M105
M109 S205
M82 ;absolute extrusion mode
; Ender 3 Custom Start G-code
G92 E0 ; Reset Extruder
G28 ; Home all axes
G1 Z2.0 F3000 ; Move Z Axis up little to prevent scratching of Heat Bed
G1 X0.1 Y20 Z0.3 F5000.0 ; Move to start position
G1 X0.1 Y200.0 Z0.3 F1500.0 E15 ; Draw the first line
G1 X0.4 Y200.0 Z0.3 F5000.0 ; Move to side a little
G1 X0.4 Y20 Z0.3 F1500.0 E30 ; Draw the second line
G92 E0 ; Reset Extruder
G1 Z2.0 F3000 ; Move Z Axis up little to prevent scratching of Heat Bed
G1 X5 Y20 Z0.3 F5000.0 ; Move over to prevent blob squish
G92 E0
G92 E0
G1 F1500 E-6
;LAYER_COUNT:10
;LAYER:0
M107
G0 F7500 X38.351 Y99.227 Z0.28
;TYPE:SKIRT
G1 F1500 E0
G1 X39.241 Y98.931 E0.04367
G1 X40.153 Y98.713 E0.08734
G1 X41.08 Y98.572 E0.131
G1 X41.951 Y98.513 E0.17165
G1 X42.58 Y98.5 E0.20094
G1 X192.043 Y98.5 E7.16057
G1 X192.201 Y98.501 E7.16792
G1 X192.899 Y98.511 E7.20043
G1 X193.835 Y98.565 E7.24409
G1 X194.763 Y98.697 E7.28773
G1 X195.677 Y98.909 E7.33142
G1 X196.569 Y99.198 E7.37508
G1 X197.434 Y99.561 E7.41876
G1 X198.264 Y99.997 E7.46242
G1 X199.055 Y100.502 E7.50612
G1 X199.799 Y101.073 E7.54979
G1 X200.492 Y101.705 E7.59346
G1 X201.129 Y102.393 E7.63712
G1 X201.704 Y103.134 E7.6808
G1 X202.215 Y103.92 E7.72445
G1 X202.657 Y104.748 E7.76815
G1 X203.026 Y105.61 E7.81182
G1 X203.321 Y106.5 E7.85547
G1 X203.539 Y107.412 E7.89914
G1 X203.679 Y108.34 E7.94284
G1 X203.737 Y109.201 E7.98302
G1 X203.75 Y109.83 E8.01232
G1 X203.749 Y124.9 E8.71404
G1 X203.74 Y125.627 E8.74789
G1 X203.689 Y126.564 E8.79159
G1 X203.557 Y127.492 E8.83523
G1 X203.348 Y128.406 E8.87889
G1 X203.061 Y129.299 E8.92257
G1 X202.699 Y130.165 E8.96628
G1 X202.265 Y130.996 E9.00993
G1 X201.761 Y131.787 E9.0536
G1 X201.192 Y132.532 E9.09725
G1 X200.561 Y133.227 E9.14096
G1 X199.874 Y133.865 E9.18462
G1 X199.135 Y134.442 E9.22828
G1 X198.349 Y134.954 E9.27196
G1 X197.523 Y135.397 E9.3156
G1 X196.661 Y135.769 E9.35932
G1 X195.772 Y136.065 E9.40295
G1 X194.86 Y136.285 E9.44663
G1 X193.933 Y136.426 E9.4903
G1 X193.049 Y136.487 E9.53156
G1 X192.42 Y136.5 E9.56085
G1 X42.957 Y136.5 E16.52047
G1 X42.117 Y136.49 E16.55959
G1 X41.181 Y136.438 E16.60324
G1 X40.252 Y136.306 E16.64693
G1 X39.338 Y136.096 E16.6906
G1 X38.445 Y135.809 E16.73428
G1 X37.58 Y135.446 E16.77796
G1 X36.749 Y135.012 E16.82162
G1 X35.958 Y134.508 E16.86529
G1 X35.213 Y133.938 E16.90897
G1 X34.519 Y133.307 E16.95264
G1 X33.882 Y132.62 E16.99627
G1 X33.305 Y131.88 E17.03996
G1 X32.793 Y131.094 E17.08364
G1 X32.35 Y130.267 E17.12733
G1 X31.979 Y129.406 E17.17098
G1 X31.683 Y128.516 E17.21466
G1 X31.464 Y127.604 E17.25833
G1 X31.323 Y126.677 E17.30199
G1 X31.263 Y125.788 E17.34348
G1 X31.25 Y125.158 E17.37282
G1 X31.251 Y110.025 E18.07748
G1 X31.26 Y109.36 E18.10845
G1 X31.313 Y108.424 E18.1521
G1 X31.445 Y107.495 E18.19579
G1 X31.656 Y106.581 E18.23947
G1 X31.944 Y105.689 E18.28312
G1 X32.307 Y104.824 E18.3268
G1 X32.742 Y103.993 E18.37048
G1 X33.246 Y103.203 E18.41411
G1 X33.816 Y102.458 E18.45779
G1 X34.448 Y101.764 E18.5015
G1 X35.136 Y101.127 E18.54516
G1 X35.876 Y100.551 E18.58882
G1 X36.662 Y100.039 E18.6325
G1 X37.489 Y99.597 E18.67617
G1 X37.828 Y99.451 E18.69335
G0 F1350 X38.351 Y99.227
G0 F7500 X38.715 Y99.519
G1 F1500 X39.595 Y99.249 E18.73621
G1 X40.495 Y99.057 E18.77907
G1 X41.409 Y98.943 E18.82195
G1 X41.962 Y98.913 E18.84774
G1 X42.58 Y98.9 E18.87653
G1 X192.043 Y98.9 E25.83615
G1 X192.195 Y98.901 E25.84323
G1 X192.893 Y98.911 E25.87573
G1 X193.812 Y98.964 E25.9186
G1 X194.723 Y99.097 E25.96147
G1 X195.619 Y99.308 E26.00433
G1 X196.493 Y99.596 E26.04718
G1 X197.34 Y99.959 E26.09009
G1 X198.151 Y100.394 E26.13294
G1 X198.921 Y100.898 E26.17579
G1 X199.645 Y101.467 E26.21867
G1 X200.317 Y102.097 E26.26156
G1 X200.932 Y102.782 E26.30443
G1 X201.485 Y103.518 E26.34729
G1 X201.972 Y104.299 E26.39015
G1 X202.389 Y105.12 E26.43303
G1 X202.734 Y105.974 E26.47592
G1 X203.003 Y106.854 E26.51877
G1 X203.195 Y107.755 E26.56166
G1 X203.308 Y108.668 E26.6045
G1 X203.337 Y109.212 E26.62987
G1 X203.35 Y109.83 E26.65865
G1 X203.349 Y124.895 E27.36014
G1 X203.34 Y125.622 E27.39399
G1 X203.289 Y126.541 E27.43685
G1 X203.158 Y127.453 E27.47975
G1 X202.948 Y128.349 E27.52261
G1 X202.662 Y129.224 E27.56547
G1 X202.301 Y130.071 E27.60834
G1 X201.867 Y130.883 E27.65122
G1 X201.365 Y131.655 E27.6941
G1 X200.797 Y132.38 E27.73698
G1 X200.169 Y133.053 E27.77984
G1 X199.485 Y133.669 E27.82271
G1 X198.75 Y134.223 E27.86556
G1 X197.97 Y134.712 E27.90843
G1 X197.15 Y135.131 E27.95131
G1 X196.297 Y135.477 E27.99417
G1 X195.417 Y135.748 E28.03705
G1 X194.517 Y135.941 E28.07991
G1 X193.603 Y136.056 E28.1228
G1 X193.038 Y136.087 E28.14915
G1 X192.42 Y136.1 E28.17793
G1 X42.957 Y136.1 E35.13756
G1 X42.122 Y136.09 E35.17644
G1 X41.203 Y136.038 E35.2193
G1 X40.292 Y135.907 E35.26216
G1 X39.396 Y135.697 E35.30501
G1 X38.521 Y135.41 E35.34789
G1 X37.674 Y135.048 E35.39078
G1 X36.862 Y134.614 E35.43365
G1 X36.091 Y134.112 E35.47649
G1 X35.366 Y133.544 E35.51938
G1 X34.693 Y132.915 E35.56227
G1 X34.078 Y132.231 E35.6051
G1 X33.524 Y131.496 E35.64796
G1 X33.036 Y130.715 E35.69084
G1 X32.617 Y129.895 E35.73372
G1 X32.271 Y129.042 E35.77659
G1 X32.001 Y128.162 E35.81945
G1 X31.808 Y127.261 E35.86235
G1 X31.694 Y126.348 E35.9052
G1 X31.663 Y125.777 E35.93182
G1 X31.65 Y125.158 E35.96065
G1 X31.651 Y110.031 E36.66503
G1 X31.66 Y109.366 E36.696
G1 X31.712 Y108.446 E36.73891
G1 X31.844 Y107.535 E36.78177
G1 X32.055 Y106.639 E36.82463
G1 X32.342 Y105.764 E36.86751
G1 X32.705 Y104.918 E36.91038
G1 X33.139 Y104.106 E36.95325
G1 X33.642 Y103.335 E36.99611
G1 X34.211 Y102.611 E37.03899
G1 X34.839 Y101.939 E37.08182
G1 X35.524 Y101.323 E37.12472
G1 X36.26 Y100.77 E37.16758
G1 X37.041 Y100.282 E37.21047
G1 X37.861 Y99.864 E37.25332
G1 X38.187 Y99.732 E37.2697
G0 F1350 X38.715 Y99.519
G0 F7500 X38.232 Y100.138
G1 F1500 X39.077 Y99.818 E37.31177
G1 X39.946 Y99.575 E37.35379
G1 X40.834 Y99.409 E37.39586
G1 X41.973 Y99.313 E37.44908
G1 X42.58 Y99.3 E37.47735
G1 X192.043 Y99.3 E44.43698
G1 X192.189 Y99.301 E44.44377
G1 X192.887 Y99.311 E44.47628
G1 X193.789 Y99.364 E44.51835
G1 X194.682 Y99.496 E44.56039
G1 X195.56 Y99.707 E44.60243
G1 X196.416 Y99.995 E44.64449
G1 X197.243 Y100.357 E44.68652
G1 X198.035 Y100.792 E44.7286
G1 X198.786 Y101.294 E44.77066
G1 X199.489 Y101.861 E44.81272
G1 X200.139 Y102.488 E44.85477
G1 X200.731 Y103.17 E44.89682
G1 X201.261 Y103.901 E44.93887
G1 X201.723 Y104.677 E44.98092
G1 X202.116 Y105.49 E45.02297
G1 X202.434 Y106.335 E45.06501
G1 X202.677 Y107.205 E45.10707
G1 X202.842 Y108.093 E45.14913
G1 X202.937 Y109.223 E45.20193
G1 X202.95 Y109.83 E45.2302
G1 X202.949 Y124.89 E45.93146
G1 X202.94 Y125.617 E45.96531
G1 X202.889 Y126.519 E46.00738
G1 X202.758 Y127.413 E46.04945
G1 X202.549 Y128.291 E46.09148
G1 X202.263 Y129.148 E46.13355
G1 X201.902 Y129.976 E46.17561
G1 X201.47 Y130.768 E46.21761
G1 X200.969 Y131.52 E46.25969
G1 X200.403 Y132.224 E46.30175
G1 X199.778 Y132.875 E46.34377
G1 X199.097 Y133.469 E46.38585
G1 X198.366 Y134 E46.42792
G1 X197.592 Y134.464 E46.46994
G1 X196.779 Y134.858 E46.51201
G1 X195.935 Y135.178 E46.55404
G1 X195.065 Y135.423 E46.59613
G1 X194.178 Y135.589 E46.63815
G1 X193.027 Y135.687 E46.69194
G1 X192.42 Y135.7 E46.72021
G1 X42.957 Y135.7 E53.67983
G1 X42.127 Y135.69 E53.71848
G1 X41.226 Y135.639 E53.7605
G1 X40.332 Y135.507 E53.80258
G1 X39.454 Y135.298 E53.84461
G1 X38.597 Y135.011 E53.88669
G1 X37.77 Y134.65 E53.92871
G1 X36.977 Y134.217 E53.97078
G1 X36.226 Y133.716 E54.01282
G1 X35.522 Y133.15 E54.05488
G1 X34.871 Y132.524 E54.09694
G1 X34.278 Y131.843 E54.13898
G1 X33.748 Y131.112 E54.18103
G1 X33.284 Y130.337 E54.22309
G1 X32.89 Y129.524 E54.26516
G1 X32.57 Y128.68 E54.30719
G1 X32.326 Y127.81 E54.34926
G1 X32.16 Y126.922 E54.39133
G1 X32.063 Y125.767 E54.4453
G1 X32.05 Y125.158 E54.47366
G1 X32.051 Y110.036 E55.1778
G1 X32.06 Y109.371 E55.20877
G1 X32.112 Y108.469 E55.25084
G1 X32.244 Y107.576 E55.29288
G1 X32.454 Y106.698 E55.33491
G1 X32.741 Y105.841 E55.377
G1 X33.103 Y105.014 E55.41903
G1 X33.536 Y104.222 E55.46106
G1 X34.038 Y103.471 E55.50313
G1 X34.605 Y102.767 E55.54522
G1 X35.231 Y102.117 E55.58724
G1 X35.912 Y101.524 E55.62929
G1 X36.644 Y100.994 E55.67137
G1 X37.419 Y100.531 E55.7134
G1 X37.719 Y100.386 E55.72892
G0 F1350 X38.232 Y100.138
G1 F1500 E49.72892
;MESH:marcador_cortes_mas1.stl
G0 F7500 X159.25 Y112
;TYPE:WALL-INNER
G1 F1500 E55.72892
G1 X159.25 Y121 E56.148
G1 X191.25 Y121 E57.63805
G1 X191.25 Y112 E58.05713
G1 X159.82 Y112 E59.52064
G0 F1350 X159.25 Y112
G0 F7500 X159.65 Y112.4
G1 F1500 X159.65 Y120.6 E59.90247
G1 X190.85 Y120.6 E61.35527
G1 X190.85 Y112.4 E61.7371
G1 X160.22 Y112.4 E63.16336
G0 F1350 X159.65 Y112.4
G0 F7500 X160.05 Y112.8
;TYPE:WALL-OUTER
G1 F1500 X160.05 Y120.2 E63.4907
G1 X190.45 Y120.2 E64.83548
G1 X190.45 Y112.8 E65.16282
G1 X160.62 Y112.8 E66.48238
G0 F1350 X160.05 Y112.8
G0 F7500 X160.05 Y113.2
G0 X159.61 Y113.2
G1 F1500 E60.48238
G0 F7500 X124.25 Y112
;TYPE:WALL-INNER
G1 F1500 E66.48238
G1 X124.25 Y121 E66.90146
G1 X156.25 Y121 E68.39151
G1 X156.25 Y112 E68.81059
G1 X124.82 Y112 E70.27411
G0 F1350 X124.25 Y112
G0 F7500 X124.65 Y112.4
G1 F1500 X124.65 Y120.6 E70.65593
G1 X155.85 Y120.6 E72.10873
G1 X155.85 Y112.4 E72.49056
G1 X125.22 Y112.4 E73.91682
G0 F1350 X124.65 Y112.4
G0 F7500 X125.05 Y112.8
;TYPE:WALL-OUTER
G1 F1500 X125.05 Y120.2 E74.24417
G1 X155.45 Y120.2 E75.58894
G1 X155.45 Y112.8 E75.91629
G1 X125.62 Y112.8 E77.23585
G0 F1350 X125.05 Y112.8
G0 F7500 X125.05 Y113.2
G0 X124.61 Y113.2
G1 F1500 E71.23585
G0 F7500 X113.227 Y111.5
;TYPE:WALL-INNER
G1 F1500 E77.23585
G1 X118.075 Y123.5 E77.83849
G1 X119.425 Y123.5 E77.90136
G1 X124.273 Y111.5 E78.504
G1 X113.797 Y111.5 E78.99181
G0 F1350 X113.227 Y111.5
G0 F7500 X113.82 Y111.9
G1 F1500 X118.345 Y123.1 E79.55429
G1 X119.155 Y123.1 E79.592
G1 X123.68 Y111.9 E80.15448
G1 X114.39 Y111.9 E80.58706
G0 F1350 X113.82 Y111.9
G0 F7500 X114.413 Y112.3
;TYPE:WALL-OUTER
G1 F1500 X118.615 Y122.7 E81.08324
G1 X118.885 Y122.7 E81.09519
G1 X123.087 Y112.3 E81.59137
G1 X114.983 Y112.3 E81.94986
G0 F1350 X114.413 Y112.3
G0 F7500 X114.562 Y112.67
G0 X114.155 Y112.833
G1 F1500 E75.94986
G0 F7500 X80.25 Y112
;TYPE:WALL-INNER
G1 F1500 E81.94986
G1 X80.25 Y121 E82.36894
G1 X112.25 Y121 E83.859
G1 X112.25 Y112 E84.27807
G1 X80.82 Y112 E85.74159
G0 F1350 X80.25 Y112
G0 F7500 X80.65 Y112.4
G1 F1500 X80.65 Y120.6 E86.12341
G1 X111.85 Y120.6 E87.57621
G1 X111.85 Y112.4 E87.95804
G1 X81.22 Y112.4 E89.3843
G0 F1350 X80.65 Y112.4
G0 F7500 X81.05 Y112.8
;TYPE:WALL-OUTER
G1 F1500 X81.05 Y120.2 E89.71165
G1 X111.45 Y120.2 E91.05642
G1 X111.45 Y112.8 E91.38377
G1 X81.62 Y112.8 E92.70333
G0 F1350 X81.05 Y112.8
G0 F7500 X81.05 Y113.2
G0 X80.61 Y113.2
G1 F1500 E86.70333
G0 F7500 X47.25 Y112
;TYPE:WALL-INNER
G1 F1500 E92.70333
G1 X47.25 Y121 E93.12241
G1 X79.25 Y121 E94.61246
G1 X79.25 Y112 E95.03154
G1 X47.82 Y112 E96.49505
G0 F1350 X47.25 Y112
G0 F7500 X47.65 Y112.4
G1 F1500 X47.65 Y120.6 E96.87688
G1 X78.85 Y120.6 E98.32968
G1 X78.85 Y112.4 E98.7115
G1 X48.22 Y112.4 E100.13777
G0 F1350 X47.65 Y112.4
G0 F7500 X48.05 Y112.8
;TYPE:WALL-OUTER
G1 F1500 X48.05 Y120.2 E100.46511
G1 X78.45 Y120.2 E101.80989
G1 X78.45 Y112.8 E102.13723
G1 X48.62 Y112.8 E103.45679
G0 F1350 X48.05 Y112.8
G0 F7500 X48.05 Y113.2
G0 X47.61 Y113.2
G1 F1500 E97.45679
G0 F7500 X43.25 Y110.5
;TYPE:WALL-INNER
G1 F1500 E103.45679
G1 X191.75 Y110.5 E110.37157
G1 X191.75 Y124.5 E111.02347
G1 X43.25 Y124.5 E117.93825
G1 X43.25 Y111.07 E118.56361
G0 F1350 X43.25 Y110.5
G0 F7500 X42.85 Y110.1
G1 F1500 X192.15 Y110.1 E125.51564
G1 X192.15 Y124.9 E126.20479
G1 X42.85 Y124.9 E133.15683
G1 X42.85 Y110.67 E133.81944
G0 F1350 X42.85 Y110.1
G0 F7500 X42.45 Y109.7
;TYPE:WALL-OUTER
G1 F1500 X192.55 Y109.7 E140.45926
G1 X192.55 Y125.3 E141.14934
G1 X42.45 Y125.3 E147.78916
G1 X42.45 Y110.27 E148.45403
G0 F1350 X42.45 Y109.7
G0 F7500 X42.85 Y109.7
G0 X42.89 Y110.14
G0 X43.64 Y110.89
;TYPE:SKIN
G1 F1500 X191.36 Y110.89 E155.33249
G1 X191.36 Y111.61 E155.36601
G1 X158.86 Y111.61 E156.87935
G1 X158.86 Y121.39 E157.33475
G1 X191.36 Y121.39 E158.84808
G1 X191.36 Y124.11 E158.97474
G1 X43.64 Y124.11 E165.8532
G1 X43.64 Y111.46 E166.44224
G0 F1350 X43.64 Y110.89
G1 F1500 E160.44224
G0 F7500 X46.86 Y111.61
G1 F1500 E166.44224
G1 X46.86 Y121.39 E166.89764
G1 X79.64 Y121.39 E168.42401
G1 X79.64 Y111.61 E168.87941
G1 X47.43 Y111.61 E170.37924
G0 F1350 X46.86 Y111.61
G1 F1500 E164.37924
G0 F7500 X79.86 Y111.61
G1 F1500 E170.37924
G1 X79.86 Y121.39 E170.83464
G1 X112.64 Y121.39 E172.36101
G1 X112.64 Y111.61 E172.81641
G1 X80.43 Y111.61 E174.31624
G0 F1350 X79.86 Y111.61
G1 F1500 E168.31624
G0 F7500 X112.648 Y111.11
G1 F1500 E174.31624
G1 X117.812 Y123.89 E174.95808
G1 X119.688 Y123.89 E175.04543
G1 X123.86 Y113.564 E175.56401
G1 X123.86 Y121.39 E175.92843
G1 X156.64 Y121.39 E177.4548
G1 X156.64 Y111.61 E177.9102
G1 X124.65 Y111.61 E179.39979
G1 X124.852 Y111.11 E179.4249
G1 X113.218 Y111.11 E179.96662
G0 F1350 X112.648 Y111.11
G1 F1500 E173.96662
G0 F7500 X44.187 Y123.949
G1 F1500 E179.96662
G1 X43.8 Y123.561 E179.99214
G0 F7500 X43.8 Y122.996
G1 F1500 X44.753 Y123.949 E180.0549
G0 F7500 X45.319 Y123.949
G1 F1500 X43.8 Y122.43 E180.15493
G0 F7500 X43.8 Y121.864
G1 F1500 X45.884 Y123.949 E180.2922
G0 F7500 X46.45 Y123.949
G1 F1500 X43.8 Y121.299 E180.4667
G0 F7500 X43.8 Y120.733
G1 F1500 X47.016 Y123.949 E180.67848
G0 F7500 X47.581 Y123.949
G1 F1500 X43.8 Y120.167 E180.9275
G0 F7500 X43.8 Y119.602
G1 F1500 X48.147 Y123.949 E181.21376
G0 F7500 X48.713 Y123.949
G1 F1500 X43.8 Y119.036 E181.53729
G0 F7500 X43.8 Y118.47
G1 F1500 X46.7 Y121.37 E181.72826
G0 F7500 X46.879 Y121.549
G1 F1500 X49.278 Y123.949 E181.88627
G0 F7500 X49.844 Y123.949
G1 F1500 X47.444 Y121.549 E182.04431
G0 F7500 X48.01 Y121.549
G1 F1500 X50.41 Y123.949 E182.20236
G0 F7500 X50.976 Y123.949
G1 F1500 X48.576 Y121.549 E182.3604
G0 F7500 X49.141 Y121.549
G1 F1500 X51.541 Y123.949 E182.51844
G0 F7500 X52.107 Y123.949
G1 F1500 X49.707 Y121.549 E182.67649
G0 F7500 X50.273 Y121.549
G1 F1500 X52.673 Y123.949 E182.83453
G0 F7500 X53.238 Y123.949
G1 F1500 X50.838 Y121.549 E182.99258
G0 F7500 X51.404 Y121.549
G1 F1500 X53.804 Y123.949 E183.15062
G0 F7500 X54.37 Y123.949
G1 F1500 X51.97 Y121.549 E183.30866
G0 F7500 X52.535 Y121.549
G1 F1500 X54.935 Y123.949 E183.46671
G0 F7500 X55.501 Y123.949
G1 F1500 X53.101 Y121.549 E183.62475
G0 F7500 X53.667 Y121.549
G1 F1500 X56.067 Y123.949 E183.7828
G0 F7500 X56.632 Y123.949
G1 F1500 X54.232 Y121.549 E183.94084
G0 F7500 X54.798 Y121.549
G1 F1500 X57.198 Y123.949 E184.09889
G0 F7500 X57.764 Y123.949
G1 F1500 X55.364 Y121.549 E184.25693
G0 F7500 X55.93 Y121.549
G1 F1500 X58.329 Y123.949 E184.41494
G0 F7500 X58.895 Y123.949
G1 F1500 X56.495 Y121.549 E184.57298
G0 F7500 X57.061 Y121.549
G1 F1500 X59.461 Y123.949 E184.73103
G0 F7500 X60.027 Y123.949
G1 F1500 X57.627 Y121.549 E184.88907
G0 F7500 X58.192 Y121.549
G1 F1500 X60.592 Y123.949 E185.04712
G0 F7500 X61.158 Y123.949
G1 F1500 X58.758 Y121.549 E185.20516
G0 F7500 X59.324 Y121.549
G1 F1500 X61.724 Y123.949 E185.3632
G0 F7500 X62.289 Y123.949
G1 F1500 X59.889 Y121.549 E185.52125
G0 F7500 X60.455 Y121.549
G1 F1500 X62.855 Y123.949 E185.67929
G0 F7500 X63.421 Y123.949
G1 F1500 X61.021 Y121.549 E185.83734
G0 F7500 X61.586 Y121.549
G1 F1500 X63.986 Y123.949 E185.99538
G0 F7500 X64.552 Y123.949
G1 F1500 X62.152 Y121.549 E186.15343
G0 F7500 X62.718 Y121.549
G1 F1500 X65.118 Y123.949 E186.31147
G0 F7500 X65.683 Y123.949
G1 F1500 X63.283 Y121.549 E186.46951
G0 F7500 X63.849 Y121.549
G1 F1500 X66.249 Y123.949 E186.62756
G0 F7500 X66.815 Y123.949
G1 F1500 X64.415 Y121.549 E186.7856
G0 F7500 X64.98 Y121.549
G1 F1500 X67.38 Y123.949 E186.94365
G0 F7500 X67.946 Y123.949
G1 F1500 X65.546 Y121.549 E187.10169
G0 F7500 X66.112 Y121.549
G1 F1500 X68.512 Y123.949 E187.25973
G0 F7500 X69.077 Y123.949
