;FLAVOR:Marlin
;TIME:4387
;Filament used: 4.90089m
;Layer height: 0.24
;MINX:27.504
;MINY:16.175
;MINZ:0.24
;MAXX:207.5
;MAXY:218.696
;MAXZ:4.8
;Generated with Cura_SteamEngine 4.5.0
M140 S60
M105
M190 S60
M104 S205
M105
M109 S205
M82 ;absolute extrusion mode
; Ender 3 Custom Start G-code
G92 E0 ; Reset Extruder
G28 ; Home all axes
G1 Z2.0 F3000 ; Move Z Axis up little to prevent scratching of Heat Bed
G1 X0.1 Y20 Z0.3 F5000.0 ; Move to start position
G1 X0.1 Y200.0 Z0.3 F1500.0 E15 ; Draw the first line
G1 X0.4 Y200.0 Z0.3 F5000.0 ; Move to side a little
G1 X0.4 Y20 Z0.3 F1500.0 E30 ; Draw the second line
G92 E0 ; Reset Extruder
G1 Z2.0 F3000 ; Move Z Axis up little to prevent scratching of Heat Bed
G1 X5 Y20 Z0.3 F5000.0 ; Move over to prevent blob squish
G92 E0
G92 E0
G1 F1500 E-6
;LAYER_COUNT:20
;LAYER:0
M107
M204 S500
M205 X20 Y20
G0 F7500 X48.481 Y40.108 Z0.24
;TYPE:SKIRT
G1 F1500 E0
G1 X50.054 Y38.128 E0.10093
G1 X51.548 Y36.133 E0.20041
G1 X53.417 Y33.463 E0.33049
G1 X54 Y32.605 E0.37189
G1 X54.313 Y32.165 E0.39344
G1 X54.739 Y31.601 E0.42165
G1 X55.137 Y31.121 E0.44654
G1 X55.66 Y30.525 E0.47818
G1 X56.218 Y29.935 E0.5106
G1 X56.567 Y29.592 E0.53013
G1 X56.826 Y29.345 E0.54441
G1 X57.154 Y29.043 E0.56221
G1 X57.589 Y28.663 E0.58526
G1 X57.781 Y28.504 E0.59521
G1 X58.229 Y28.152 E0.61795
G1 X58.632 Y27.852 E0.638
G1 X59.225 Y27.44 E0.66682
G1 X59.749 Y27.101 E0.69173
G1 X60.164 Y26.846 E0.71117
G1 X60.531 Y26.631 E0.72815
G1 X61.047 Y26.347 E0.75165
G1 X61.297 Y26.218 E0.76288
G1 X61.759 Y25.993 E0.78339
G1 X62.84 Y25.499 E0.83083
G1 X64.59 Y24.728 E0.90715
G1 X66.865 Y23.649 E1.00765
G1 X69.11 Y22.505 E1.10821
G1 X71.34 Y21.288 E1.20961
G1 X73.445 Y20.061 E1.30686
G1 X75.07 Y19.039 E1.38347
G1 X76.239 Y18.321 E1.43823
G1 X77.058 Y17.864 E1.47566
G1 X77.914 Y17.48 E1.51311
G1 X78.799 Y17.169 E1.55055
G1 X79.708 Y16.935 E1.58801
G1 X80.023 Y16.868 E1.60086
G1 X80.56 Y16.767 E1.62267
G1 X82.904 Y16.391 E1.71742
G1 X83.612 Y16.288 E1.74598
G1 X84.545 Y16.192 E1.78341
G1 X85.483 Y16.177 E1.82085
G1 X86.419 Y16.241 E1.8583
G1 X86.982 Y16.319 E1.88098
G1 X87.431 Y16.393 E1.89915
G1 X90.066 Y16.794 E2.00553
G1 X92.521 Y17.097 E2.10425
G1 X95.042 Y17.336 E2.20532
G1 X97.573 Y17.505 E2.30657
G1 X100.085 Y17.6 E2.4069
G1 X102.581 Y17.624 E2.50652
G1 X105.096 Y17.578 E2.60692
G1 X107.397 Y17.473 E2.69885
G1 X108.325 Y17.421 E2.73595
G1 X109.618 Y17.362 E2.78761
G1 X112.667 Y17.257 E2.90937
G1 X113.9 Y17.23 E2.9586
G1 X116.923 Y17.195 E3.07926
G1 X118.194 Y17.195 E3.12999
G1 X121.214 Y17.23 E3.25053
G1 X122.586 Y17.263 E3.30531
G1 X125.515 Y17.366 E3.42228
G1 X126.869 Y17.429 E3.47638
G1 X127.672 Y17.475 E3.50848
G1 X130.197 Y17.586 E3.60936
G1 X132.748 Y17.625 E3.71119
G1 X135.243 Y17.592 E3.81077
G1 X137.789 Y17.488 E3.91248
G1 X140.253 Y17.316 E4.01106
G1 X142.789 Y17.067 E4.11276
G1 X145.277 Y16.751 E4.21286
G1 X148.121 Y16.306 E4.32775
G1 X149.053 Y16.201 E4.36519
G1 X149.99 Y16.175 E4.4026
G1 X151.385 Y16.285 E4.45845
G1 X152.348 Y16.425 E4.49729
G1 X154.23 Y16.73 E4.57338
G1 X154.919 Y16.851 E4.6013
G1 X155.835 Y17.052 E4.63873
G1 X156.73 Y17.331 E4.67615
G1 X157.599 Y17.685 E4.7136
G1 X158.434 Y18.112 E4.75103
G1 X158.899 Y18.39 E4.77266
G1 X159.343 Y18.671 E4.79363
G1 X161.52 Y20.024 E4.89593
G1 X163.709 Y21.299 E4.99704
G1 X165.937 Y22.514 E5.09832
G1 X168.139 Y23.635 E5.19694
G1 X170.472 Y24.742 E5.30001
G1 X171.993 Y25.42 E5.36647
G1 X172.77 Y25.758 E5.40029
G1 X173.238 Y25.975 E5.42088
G1 X173.718 Y26.211 E5.44223
G1 X174.302 Y26.52 E5.4686
G1 X174.754 Y26.777 E5.48935
G1 X175.192 Y27.039 E5.50972
G1 X175.545 Y27.262 E5.52639
G1 X176.033 Y27.589 E5.54983
G1 X176.339 Y27.806 E5.56481
G1 X176.737 Y28.102 E5.5846
G1 X177.149 Y28.423 E5.60545
G1 X177.775 Y28.949 E5.63808
G1 X178.202 Y29.336 E5.66108
G1 X178.772 Y29.892 E5.69286
G1 X179.254 Y30.397 E5.72073
G1 X179.706 Y30.895 E5.74757
G1 X180.133 Y31.404 E5.77409
G1 X180.445 Y31.8 E5.79421
G1 X180.894 Y32.411 E5.82447
G1 X181.374 Y33.115 E5.85848
G1 X182.859 Y35.273 E5.96303
G1 X184.338 Y37.295 E6.06302
G1 X185.887 Y39.29 E6.16383
G1 X187.476 Y41.222 E6.26367
G1 X189.155 Y43.15 E6.36571
G1 X190.845 Y44.985 E6.46527
G1 X192.597 Y46.781 E6.56541
G1 X194.396 Y48.523 E6.66536
G1 X194.949 Y49.031 E6.69533
G1 X195.839 Y49.868 E6.7441
G1 X196.269 Y50.288 E6.76809
G1 X196.619 Y50.646 E6.78807
G1 X196.805 Y50.845 E6.79894
G1 X197.185 Y51.273 E6.82178
G1 X197.594 Y51.759 E6.84714
G1 X198.068 Y52.364 E6.87781
G1 X198.358 Y52.762 E6.89747
G1 X198.591 Y53.094 E6.91365
G1 X198.814 Y53.425 E6.92958
G1 X199.263 Y54.151 E6.96365
G1 X199.545 Y54.649 E6.9865
G1 X199.719 Y54.968 E7.001
G1 X199.92 Y55.352 E7.0183
G1 X200.182 Y55.887 E7.04207
G1 X200.307 Y56.161 E7.05409
G1 X200.504 Y56.621 E7.07407
G1 X200.677 Y57.051 E7.09256
G1 X200.895 Y57.634 E7.11741
G1 X201.055 Y58.112 E7.13753
G1 X201.181 Y58.519 E7.15453
G1 X201.28 Y58.859 E7.16866
G1 X201.397 Y59.285 E7.1863
G1 X201.543 Y59.879 E7.21071
G1 X201.587 Y60.083 E7.21904
G1 X201.673 Y60.529 E7.23717
G1 X201.772 Y61.102 E7.26038
G1 X201.835 Y61.509 E7.27681
G1 X202.01 Y62.85 E7.33079
G1 X202.356 Y65.454 E7.43563
G1 X202.754 Y67.919 E7.53529
G1 X203.229 Y70.405 E7.63631
G1 X203.767 Y72.845 E7.73603
G1 X204.383 Y75.312 E7.83752
G1 X205.066 Y77.744 E7.93834
G1 X205.81 Y80.138 E8.0384
G1 X206.889 Y83.253 E8.16997
G1 X207.158 Y84.151 E8.20739
G1 X207.35 Y85.069 E8.24482
G1 X207.462 Y86 E8.28225
G1 X207.493 Y86.648 E8.30814
G1 X207.499 Y86.971 E8.32103
G1 X207.5 Y87.355 E8.33636
G1 X207.46 Y89.721 E8.4308
G1 X207.438 Y90.422 E8.4588
G1 X207.368 Y91.357 E8.49622
G1 X207.219 Y92.283 E8.53365
G1 X206.992 Y93.193 E8.57109
G1 X206.639 Y94.206 E8.6139
G1 X206.393 Y94.802 E8.63964
G1 X205.582 Y96.658 E8.72048
G1 X204.633 Y99.005 E8.82152
G1 X203.77 Y101.326 E8.92035
G1 X202.951 Y103.739 E9.02205
G1 X202.219 Y106.11 E9.12109
G1 X201.53 Y108.589 E9.22379
G1 X200.934 Y110.997 E9.32279
G1 X200.333 Y113.782 E9.43651
G1 X199.696 Y116.946 E9.56532
G1 X199.419 Y118.239 E9.6181
G1 X198.834 Y120.819 E9.72369
G1 X198.488 Y122.263 E9.78295
G1 X197.846 Y124.801 E9.88744
G1 X197.506 Y126.08 E9.94026
G1 X196.779 Y128.692 E10.04848
G1 X196.391 Y130.019 E10.10366
G1 X195.618 Y132.551 E10.20932
G1 X195.199 Y133.868 E10.26448
G1 X194.338 Y136.461 E10.37353
G1 X193.925 Y137.653 E10.42388
G1 X192.998 Y140.236 E10.53341
G1 X192.522 Y141.508 E10.58762
G1 X191.555 Y144.007 E10.69456
G1 X191.059 Y145.241 E10.74764
G1 X190.035 Y147.709 E10.85429
G1 X189.474 Y149.012 E10.91091
G1 X188.377 Y151.481 E11.01874
G1 X187.842 Y152.646 E11.06991
G1 X186.67 Y155.117 E11.17906
G1 X186.066 Y156.351 E11.2339
G1 X184.872 Y158.719 E11.33974
G1 X184.23 Y159.954 E11.3953
G1 X182.971 Y162.303 E11.50167
G1 X182.328 Y163.474 E11.55499
G1 X181.959 Y164.124 E11.58482
G1 X180.731 Y166.364 E11.68678
G1 X179.571 Y168.628 E11.78831
G1 X178.504 Y170.865 E11.88723
G1 X177.477 Y173.185 E11.98849
G1 X176.514 Y175.536 E12.08989
G1 X175.644 Y177.847 E12.18845
G1 X174.807 Y180.275 E12.29095
G1 X174.07 Y182.624 E12.38921
G1 X173.38 Y185.067 E12.49053
G1 X172.755 Y187.543 E12.59245
G1 X172.22 Y189.955 E12.69106
G1 X171.734 Y192.476 E12.79353
G1 X171.336 Y194.904 E12.89173
G1 X170.994 Y197.445 E12.99406
G1 X170.761 Y199.596 E13.08042
G1 X170.716 Y200.07 E13.09942
G1 X170.649 Y200.642 E13.12241
G1 X170.587 Y201.068 E13.13959
G1 X170.492 Y201.644 E13.16289
G1 X170.417 Y202.051 E13.17941
G1 X170.364 Y202.311 E13.19
G1 X170.225 Y202.91 E13.21454
G1 X170.051 Y203.572 E13.24186
G1 X169.852 Y204.24 E13.26968
G1 X169.704 Y204.686 E13.28843
G1 X169.552 Y205.115 E13.3066
G1 X169.384 Y205.559 E13.32554
G1 X169.148 Y206.134 E13.35035
G1 X168.932 Y206.62 E13.37158
G1 X168.741 Y207.027 E13.38952
G1 X168.563 Y207.387 E13.40555
G1 X168.25 Y207.974 E13.4321
G1 X167.976 Y208.453 E13.45413
G1 X167.774 Y208.793 E13.46991
G1 X167.553 Y209.149 E13.48664
G1 X167.166 Y209.73 E13.5145
G1 X166.819 Y210.217 E13.53836
G1 X166.563 Y210.562 E13.55551
G1 X166.362 Y210.822 E13.56863
G1 X166.001 Y211.265 E13.59144
G1 X165.652 Y211.671 E13.6128
G1 X165.343 Y212.014 E13.63123
G1 X165.039 Y212.339 E13.64899
G1 X164.555 Y212.826 E13.6764
G1 X164.165 Y213.194 E13.6978
G1 X163.86 Y213.471 E13.71424
G1 X163.548 Y213.744 E13.73079
G1 X163.018 Y214.18 E13.75818
G1 X162.53 Y214.556 E13.78277
G1 X161.904 Y215.004 E13.81349
G1 X161.299 Y215.406 E13.84248
G1 X160.756 Y215.747 E13.86807
G1 X160.223 Y216.053 E13.8926
G1 X159.644 Y216.364 E13.91884
G1 X159.27 Y216.556 E13.93562
G1 X159.002 Y216.687 E13.94752
G1 X158.376 Y216.968 E13.97491
G1 X157.75 Y217.227 E14.00195
G1 X157.381 Y217.372 E14.01777
G1 X157.08 Y217.484 E14.03059
G1 X156.57 Y217.66 E14.05212
G1 X156.28 Y217.752 E14.06427
G1 X155.786 Y217.896 E14.0848
G1 X155.073 Y218.086 E14.11425
G1 X154.531 Y218.216 E14.1365
G1 X154.329 Y218.259 E14.14474
G1 X153.805 Y218.357 E14.16602
G1 X153.061 Y218.478 E14.1961
G1 X152.467 Y218.561 E14.22004
G1 X151.906 Y218.619 E14.24255
G1 X151.503 Y218.65 E14.25868
G1 X150.993 Y218.677 E14.27907
G1 X150.467 Y218.693 E14.30007
G1 X149.882 Y218.695 E14.32342
G1 X149.443 Y218.685 E14.34095
G1 X148.946 Y218.663 E14.3608
G1 X148.418 Y218.627 E14.38192
G1 X147.877 Y218.576 E14.40361
G1 X147.504 Y218.532 E14.4186
G1 X146.969 Y218.456 E14.44017
G1 X146.398 Y218.36 E14.46328
G1 X145.854 Y218.254 E14.4854
G1 X145.473 Y218.17 E14.50097
G1 X144.966 Y218.046 E14.5218
G1 X144.112 Y217.811 E14.55716
G1 X142.695 Y217.387 E14.61619
G1 X140.211 Y216.694 E14.71912
G1 X137.801 Y216.093 E14.81825
G1 X135.29 Y215.541 E14.92086
G1 X132.871 Y215.084 E15.01912
G1 X130.384 Y214.685 E15.11965
G1 X127.872 Y214.355 E15.22077
G1 X125.386 Y214.098 E15.32052
G1 X122.838 Y213.909 E15.4225
G1 X120.352 Y213.794 E15.52182
G1 X117.827 Y213.75 E15.62262
G1 X115.341 Y213.775 E15.72184
G1 X112.784 Y213.875 E15.82398
G1 X110.289 Y214.043 E15.92378
G1 X107.793 Y214.281 E16.02386
G1 X105.266 Y214.595 E16.12549
G1 X102.817 Y214.97 E16.22437
G1 X100.306 Y215.428 E16.32625
G1 X97.865 Y215.944 E16.42583
G1 X95.43 Y216.532 E16.52581
G1 X92.988 Y217.194 E16.62679
G1 X91.755 Y217.565 E16.67818
G1 X90.039 Y218.047 E16.74932
G1 X88.982 Y218.288 E16.79259
G1 X88.118 Y218.441 E16.82761
G1 X87.102 Y218.573 E16.8685
G1 X86.142 Y218.652 E16.90695
G1 X85.636 Y218.682 E16.92718
G1 X85.414 Y218.69 E16.93604
G1 X84.901 Y218.696 E16.95652
G1 X84.525 Y218.692 E16.97153
G1 X84.027 Y218.676 E16.99141
G1 X83.473 Y218.645 E17.01356
G1 X82.936 Y218.602 E17.03506
G1 X82.556 Y218.562 E17.05031
G1 X82.004 Y218.489 E17.07254
G1 X81.449 Y218.402 E17.09496
G1 X80.95 Y218.312 E17.1152
G1 X80.632 Y218.247 E17.12815
G1 X80.112 Y218.128 E17.14944
G1 X79.47 Y217.964 E17.17589
G1 X78.906 Y217.804 E17.19929
G1 X78.692 Y217.737 E17.20824
G1 X78.119 Y217.54 E17.23242
G1 X77.241 Y217.211 E17.26984
G1 X76.3 Y216.807 E17.31071
G1 X75.461 Y216.4 E17.34793
G1 X74.533 Y215.893 E17.39014
G1 X73.784 Y215.436 E17.42516
G1 X73.154 Y215.022 E17.45525
G1 X72.883 Y214.83 E17.4685
G1 X72.58 Y214.607 E17.48352
G1 X72.107 Y214.247 E17.50724
G1 X71.564 Y213.806 E17.53516
G1 X71.241 Y213.526 E17.55222
G1 X70.966 Y213.279 E17.56697
G1 X70.663 Y212.998 E17.58347
G1 X70.173 Y212.515 E17.61093
G1 X69.724 Y212.043 E17.63693
G1 X69.264 Y211.533 E17.66434
G1 X68.831 Y211.012 E17.69138
G1 X68.397 Y210.456 E17.71953
G1 X68.157 Y210.138 E17.73543
G1 X67.984 Y209.899 E17.74721
G1 X67.702 Y209.49 E17.76704
G1 X67.495 Y209.175 E17.78208
G1 X67.21 Y208.716 E17.80364
G1 X66.818 Y208.042 E17.83476
G1 X66.688 Y207.806 E17.84552
G1 X66.373 Y207.189 E17.87317
G1 X66.068 Y206.542 E17.90172
G1 X65.753 Y205.806 E17.93367
G1 X65.461 Y205.048 E17.96609
G1 X65.287 Y204.563 E17.98665
G1 X65.179 Y204.238 E18.00032
G1 X64.952 Y203.46 E18.03267
G1 X64.757 Y202.687 E18.06449
G1 X64.622 Y202.079 E18.08935
G1 X64.541 Y201.659 E18.10642
G1 X64.45 Y201.111 E18.12859
G1 X64.365 Y200.488 E18.15368
G1 X64.285 Y199.799 E18.18137
G1 X64.061 Y197.645 E18.2678
G1 X63.73 Y195.147 E18.36838
G1 X63.332 Y192.671 E18.46847
G1 X62.854 Y190.157 E18.5706
G1 X62.321 Y187.736 E18.66954
G1 X61.71 Y185.29 E18.77017
G1 X61.036 Y182.879 E18.87009
G1 X60.28 Y180.445 E18.97181
G1 X59.473 Y178.084 E19.0714
G1 X58.589 Y175.721 E19.17209
G1 X57.64 Y173.383 E19.2728
G1 X56.627 Y171.081 E19.37318
G1 X55.558 Y168.827 E19.47275
G1 X54.401 Y166.555 E19.57451
G1 X53.073 Y164.125 E19.68503
G1 X52.667 Y163.407 E19.71796
G1 X52 Y162.193 E19.77324
G1 X50.731 Y159.821 E19.88061
G1 X50.108 Y158.619 E19.93464
G1 X48.904 Y156.23 E20.04142
G1 X48.307 Y155.007 E20.09574
G1 X47.146 Y152.552 E20.20413
G1 X46.59 Y151.338 E20.25742
G1 X45.488 Y148.854 E20.36588
G1 X44.972 Y147.651 E20.41812
G1 X43.922 Y145.121 E20.52745
G1 X43.43 Y143.89 E20.58036
G1 X42.459 Y141.382 E20.6877
G1 X41.984 Y140.103 E20.74216
G1 X41.062 Y137.53 E20.85125
G1 X40.648 Y136.329 E20.90195
G1 X39.789 Y133.735 E21.01101
G1 X39.375 Y132.431 E21.06562
G1 X38.603 Y129.895 E21.17142
G1 X38.213 Y128.558 E21.22701
G1 X37.501 Y125.994 E21.33321
G1 X37.148 Y124.664 E21.38813
G1 X36.487 Y122.037 E21.49625
G1 X36.175 Y120.726 E21.55004
G1 X35.592 Y118.147 E21.65557
G1 X35.294 Y116.75 E21.71258
G1 X34.709 Y113.839 E21.83109
G1 X34.166 Y111.321 E21.9339
G1 X33.571 Y108.894 E22.03363
G1 X32.896 Y106.444 E22.13506
G1 X32.165 Y104.056 E22.23474
G1 X31.364 Y101.683 E22.3347
G1 X30.473 Y99.272 E22.43729
G1 X29.548 Y96.97 E22.5363
G1 X28.903 Y95.463 E22.60173
G1 X28.483 Y94.505 E22.64348
G1 X28.144 Y93.63 E22.68093
G1 X27.88 Y92.73 E22.71837
G1 X27.694 Y91.811 E22.75579
G1 X27.573 Y90.643 E22.80266
G1 X27.555 Y90.285 E22.81696
G1 X27.542 Y89.915 E22.83174
G1 X27.505 Y87.569 E22.92538
G1 X27.504 Y86.871 E22.95324
G1 X27.543 Y85.934 E22.99067
G1 X27.661 Y85.003 E23.02813
G1 X27.858 Y84.086 E23.06556
G1 X28.12 Y83.225 E23.10148
G1 X28.673 Y81.655 E23.16792
G1 X29.466 Y79.277 E23.26797
G1 X30.19 Y76.882 E23.36783
G1 X30.864 Y74.401 E23.47044
G1 X31.447 Y71.992 E23.56936
G1 X31.969 Y69.519 E23.67024
G1 X32.415 Y67.073 E23.76948
G1 X32.808 Y64.514 E23.87281
G1 X33.16 Y61.774 E23.98307
G1 X33.213 Y61.405 E23.99795
G1 X33.311 Y60.804 E24.02225
G1 X33.371 Y60.472 E24.03572
G1 X33.444 Y60.097 E24.05096
G1 X33.588 Y59.46 E24.07703
G1 X33.66 Y59.18 E24.08857
G1 X33.798 Y58.689 E24.10892
G1 X33.947 Y58.204 E24.12917
G1 X34.169 Y57.553 E24.15663
G1 X34.373 Y57.012 E24.1797
G1 X34.554 Y56.563 E24.19903
G1 X34.718 Y56.18 E24.21565
G1 X34.955 Y55.665 E24.23828
G1 X35.06 Y55.451 E24.24779
G1 X35.423 Y54.759 E24.27898
G1 X35.655 Y54.343 E24.29799
G1 X36.096 Y53.62 E24.3318
G1 X36.435 Y53.109 E24.35627
G1 X36.761 Y52.643 E24.37897
G1 X37.058 Y52.242 E24.39889
G1 X37.449 Y51.742 E24.42422
G1 X37.779 Y51.35 E24.44467
G1 X38.071 Y51.019 E24.46229
G1 X38.389 Y50.673 E24.48104
G1 X38.686 Y50.364 E24.49815
G1 X39.165 Y49.896 E24.52488
G1 X39.822 Y49.291 E24.56052
G1 X41.683 Y47.528 E24.66284
G1 X43.475 Y45.731 E24.76413
G1 X45.187 Y43.916 E24.86371
G1 X46.87 Y42.025 E24.96475
G1 X48.054 Y40.617 E25.03817
G0 F1350 X48.481 Y40.108
G0 F7500 X48.799 Y40.352
G1 F1500 X50.372 Y38.371 E25.13913
G1 X51.868 Y36.373 E25.23875
G1 X53.752 Y33.682 E25.36986
G1 X54.326 Y32.837 E25.41063
G1 X54.639 Y32.397 E25.43218
G1 X54.925 Y32.012 E25.45133
G1 X55.054 Y31.847 E25.45969
G1 X55.438 Y31.385 E25.48366
G1 X55.961 Y30.789 E25.51531
G1 X56.498 Y30.22 E25.54654
G1 X56.847 Y29.877 E25.56607
G1 X57.097 Y29.639 E25.57984
G1 X57.425 Y29.337 E25.59764
G1 X57.844 Y28.971 E25.61984
G1 X58.036 Y28.812 E25.62979
G1 X58.467 Y28.473 E25.65168
G1 X58.87 Y28.173 E25.67173
G1 X59.442 Y27.776 E25.69952
G1 X59.966 Y27.437 E25.72443
G1 X60.366 Y27.191 E25.74317
G1 X60.733 Y26.976 E25.76015
G1 X61.23 Y26.702 E25.7828
G1 X61.48 Y26.573 E25.79403
G1 X61.925 Y26.357 E25.81377
G1 X63.001 Y25.865 E25.86099
G1 X64.743 Y25.098 E25.93696
G1 X67.053 Y24.002 E26.03901
G1 X69.289 Y22.863 E26.13916
G1 X71.527 Y21.642 E26.24092
G1 X73.679 Y20.387 E26.34035
G1 X75.279 Y19.38 E26.4158
G1 X76.448 Y18.662 E26.47056
G1 X77.253 Y18.214 E26.50733
G1 X78.093 Y17.839 E26.54404
G1 X78.963 Y17.537 E26.5808
G1 X79.791 Y17.326 E26.6149
G1 X80.106 Y17.259 E26.62775
G1 X80.624 Y17.162 E26.64879
G1 X82.962 Y16.786 E26.7433
