;FLAVOR:Marlin
;TIME:2560
;Filament used: 2.40131m
;Layer height: 0.28
;MINX:27.5
;MINY:47.206
;MINZ:0.285
;MAXX:207.496
;MAXY:182.566
;MAXZ:4.765
;Generated with Cura_SteamEngine 4.6.1
M140 S60
M105
M190 S60
M104 S200
M105
M109 S200
M82 ;absolute extrusion mode
; Ender 3 Custom Start G-code
G92 E0 ; Reset Extruder
G28 ; Home all axes
G1 Z2.0 F3000 ; Move Z Axis up little to prevent scratching of Heat Bed
G1 X0.1 Y20 Z0.3 F5000.0 ; Move to start position
G1 X0.1 Y200.0 Z0.3 F1500.0 E15 ; Draw the first line
G1 X0.4 Y200.0 Z0.3 F5000.0 ; Move to side a little
G1 X0.4 Y20 Z0.3 F1500.0 E30 ; Draw the second line
G92 E0 ; Reset Extruder
G1 Z2.0 F3000 ; Move Z Axis up little to prevent scratching of Heat Bed
G1 X5 Y20 Z0.3 F5000.0 ; Move over to prevent blob squish
G92 E0
G92 E0
G1 F2700 E-6
;LAYER_COUNT:17
;LAYER:0
M107
M204 S500
M205 X8 Y8
G0 F7500 X45.621 Y48.017 Z0.285
;TYPE:SKIRT
G1 F2700 E0
G1 F1500 X46.523 Y48.07 E0.04068
G1 X47.416 Y48.202 E0.08133
G1 X48.294 Y48.413 E0.12199
G1 X49.15 Y48.701 E0.16265
G1 X49.977 Y49.063 E0.2033
G1 X50.769 Y49.498 E0.24398
G1 X51.52 Y50 E0.28466
G1 X52.459 Y50.783 E0.33971
G1 X52.608 Y50.923 E0.34891
G1 X52.883 Y51.19 E0.36617
G1 X54.47 Y52.798 E0.4679
G1 X56.319 Y54.568 E0.58315
G1 X58.177 Y56.25 E0.69599
G1 X60.147 Y57.932 E0.81263
G1 X62.095 Y59.504 E0.92533
G1 X64.101 Y61.031 E1.03885
G1 X66.184 Y62.525 E1.15427
G1 X68.3 Y63.954 E1.26923
G1 X70.441 Y65.313 E1.38341
G1 X72.603 Y66.602 E1.49675
G1 X74.826 Y67.843 E1.61138
G1 X77.081 Y69.019 E1.72589
G1 X79.363 Y70.129 E1.84015
G1 X81.696 Y71.182 E1.9554
G1 X84.036 Y72.161 E2.06961
G1 X86.398 Y73.072 E2.1836
G1 X88.807 Y73.92 E2.29859
G1 X91.202 Y74.69 E2.41186
G1 X93.648 Y75.401 E2.52655
G1 X96.121 Y76.044 E2.64161
G1 X98.571 Y76.609 E2.75481
G1 X101.08 Y77.113 E2.87004
G1 X103.603 Y77.544 E2.98529
G1 X106.087 Y77.897 E3.09826
G1 X108.578 Y78.18 E3.21114
G1 X111.147 Y78.398 E3.32722
G1 X113.687 Y78.542 E3.44177
G1 X116.221 Y78.614 E3.55592
G1 X118.754 Y78.614 E3.66997
G1 X121.288 Y78.542 E3.78411
G1 X123.849 Y78.397 E3.8996
G1 X126.351 Y78.184 E4.01267
G1 X128.891 Y77.896 E4.12776
G1 X131.409 Y77.537 E4.24229
G1 X133.903 Y77.109 E4.35622
G1 X136.36 Y76.617 E4.46905
G1 X138.889 Y76.035 E4.58589
G1 X141.32 Y75.402 E4.699
G1 X143.744 Y74.698 E4.81265
G1 X146.2 Y73.908 E4.92882
G1 X148.584 Y73.066 E5.04266
G1 X150.899 Y72.174 E5.15436
G1 X153.313 Y71.166 E5.27215
G1 X155.593 Y70.136 E5.3848
G1 X157.894 Y69.017 E5.50001
G1 X160.142 Y67.845 E5.61415
G1 X162.376 Y66.598 E5.72935
G1 X164.545 Y65.305 E5.84305
G1 X166.669 Y63.957 E5.95632
G1 X168.798 Y62.519 E6.072
G1 X170.87 Y61.033 E6.1868
G1 X172.853 Y59.522 E6.29906
G1 X174.854 Y57.909 E6.41478
G1 X176.784 Y56.26 E6.52908
G1 X178.655 Y54.567 E6.64269
G1 X180.498 Y52.802 E6.75759
G1 X181.272 Y52.013 E6.80736
G1 X182.282 Y51.008 E6.87151
G1 X182.95 Y50.4 E6.91218
G1 X183.669 Y49.853 E6.95286
G1 X184.434 Y49.372 E6.99354
G1 X185.238 Y48.961 E7.0342
G1 X186.075 Y48.622 E7.07486
G1 X186.939 Y48.359 E7.11553
G1 X187.822 Y48.173 E7.15616
G1 X188.719 Y48.066 E7.19683
G1 X189.194 Y48.042 E7.21825
G1 X189.95 Y48.023 E7.2523
G1 X191.887 Y48.011 E7.33951
G1 X192.556 Y48.016 E7.36964
G1 X193.458 Y48.063 E7.4103
G1 X194.352 Y48.189 E7.45096
G1 X195.232 Y48.394 E7.49164
G1 X196.09 Y48.676 E7.5323
G1 X196.92 Y49.033 E7.57299
G1 X197.714 Y49.462 E7.61362
G1 X198.479 Y49.967 E7.65489
G1 X199.102 Y50.42 E7.68958
G1 X202.277 Y52.638 E7.86396
G1 X202.994 Y53.188 E7.90465
G1 X203.659 Y53.798 E7.94528
G1 X204.268 Y54.465 E7.98595
G1 X204.815 Y55.184 E8.02663
G1 X205.297 Y55.948 E8.0673
G1 X205.709 Y56.751 E8.10794
G1 X206.048 Y57.588 E8.1486
G1 X206.313 Y58.452 E8.18929
G1 X206.499 Y59.335 E8.22992
G1 X206.613 Y60.313 E8.27425
G1 X206.635 Y60.639 E8.28896
G1 X206.657 Y61.161 E8.31249
G1 X206.694 Y63.522 E8.41881
G1 X206.696 Y64.245 E8.45136
G1 X206.658 Y65.147 E8.49201
G1 X206.474 Y66.392 E8.54868
G1 X205.929 Y68.957 E8.66675
G1 X205.463 Y71.491 E8.78276
G1 X205.081 Y73.96 E8.89525
G1 X204.761 Y76.5 E9.01052
G1 X204.515 Y79.026 E9.12479
G1 X204.342 Y81.547 E9.23857
G1 X204.238 Y84.114 E9.35425
G1 X204.207 Y86.583 E9.46542
G1 X204.249 Y89.188 E9.58273
G1 X204.36 Y91.708 E9.69631
G1 X204.546 Y94.249 E9.81102
G1 X204.802 Y96.779 E9.92552
G1 X205.129 Y99.295 E10.03976
G1 X205.526 Y101.793 E10.15364
G1 X205.997 Y104.297 E10.26837
G1 X206.402 Y106.197 E10.35584
G1 X206.558 Y107.086 E10.39648
G1 X206.633 Y107.952 E10.43562
G1 X206.657 Y108.574 E10.46364
G1 X206.694 Y110.914 E10.56902
G1 X206.696 Y111.652 E10.60225
G1 X206.658 Y112.555 E10.64294
G1 X206.541 Y113.45 E10.68358
G1 X206.345 Y114.332 E10.72426
G1 X206.072 Y115.193 E10.76493
G1 X205.568 Y116.343 E10.82147
G1 X205.22 Y117.02 E10.85574
G1 X204.059 Y119.337 E10.97243
G1 X203 Y121.607 E11.08521
G1 X201.968 Y123.993 E11.20226
G1 X201.029 Y126.343 E11.31621
G1 X200.162 Y128.711 E11.42975
G1 X199.637 Y130.253 E11.5031
G1 X198.498 Y133.694 E11.6663
G1 X198.156 Y134.672 E11.71295
G1 X198.07 Y134.902 E11.724
G1 X197.934 Y135.246 E11.74066
G1 X196.434 Y138.851 E11.91647
G1 X196.034 Y139.766 E11.96143
G1 X195.933 Y139.982 E11.97217
G1 X195.79 Y140.275 E11.98685
G1 X193.997 Y143.809 E12.16528
G1 X193.575 Y144.607 E12.20592
G1 X193.431 Y144.865 E12.21923
G1 X193.248 Y145.179 E12.23559
G1 X191.226 Y148.515 E12.41123
G1 X190.705 Y149.34 E12.45517
G1 X190.241 Y150.018 E12.49216
G1 X188.072 Y153.055 E12.6602
G1 X187.515 Y153.807 E12.70233
G1 X187.205 Y154.2 E12.72487
G1 X186.955 Y154.504 E12.74259
G1 X184.638 Y157.28 E12.9054
G1 X183.982 Y158.039 E12.95057
G1 X183.823 Y158.215 E12.96125
G1 X183.575 Y158.48 E12.97759
G1 X180.865 Y161.271 E13.15275
G1 X180.13 Y162.002 E13.19943
G1 X179.525 Y162.559 E13.23646
G1 X176.781 Y164.988 E13.40146
G1 X176.028 Y165.631 E13.44604
G1 X175.832 Y165.791 E13.45744
G1 X175.555 Y166.009 E13.47331
G1 X172.461 Y168.36 E13.64827
G1 X171.616 Y168.978 E13.69541
G1 X169.964 Y170.124 E13.78594
G1 X167.865 Y171.648 E13.90273
G1 X165.872 Y173.181 E14.01594
G1 X163.908 Y174.782 E14.13003
G1 X161.969 Y176.458 E14.24543
G1 X159.928 Y178.324 E14.36995
G1 X159.238 Y178.907 E14.41062
G1 X158.499 Y179.426 E14.45128
G1 X157.717 Y179.878 E14.49195
G1 X156.898 Y180.26 E14.53264
G1 X156.049 Y180.567 E14.57329
G1 X154.929 Y180.848 E14.62528
G1 X154.314 Y180.962 E14.65344
G1 X151.941 Y181.344 E14.76167
G1 X151.274 Y181.442 E14.79202
G1 X150.375 Y181.533 E14.83271
G1 X149.472 Y181.545 E14.87337
G1 X148.726 Y181.494 E14.90703
G1 X148.258 Y181.445 E14.92822
G1 X145.6 Y181.194 E15.04843
G1 X143.06 Y181.026 E15.16305
G1 X140.529 Y180.93 E15.27709
G1 X137.96 Y180.905 E15.39277
G1 X135.463 Y180.952 E15.50522
G1 X132.905 Y181.072 E15.62052
G1 X128.465 Y181.42 E15.82105
G1 X128.153 Y181.437 E15.83512
G1 X122.224 Y181.718 E16.10238
G1 X120.657 Y181.761 E16.17296
G1 X114.7 Y181.766 E16.44118
G1 X113.238 Y181.736 E16.50702
G1 X107.278 Y181.464 E16.77565
G1 X106.108 Y181.392 E16.82843
G1 X105.736 Y181.361 E16.84524
G1 X104.962 Y181.289 E16.88024
G1 X102.339 Y181.083 E16.99871
G1 X99.833 Y180.957 E17.11169
G1 X97.269 Y180.902 E17.22716
G1 X94.737 Y180.918 E17.34117
G1 X92.197 Y181.007 E17.4556
G1 X89.685 Y181.165 E17.56893
G1 X86.32 Y181.488 E17.72114
G1 X85.419 Y181.548 E17.7618
G1 X84.516 Y181.527 E17.80247
G1 X83.722 Y181.443 E17.83842
G1 X82.789 Y181.306 E17.88088
G1 X80.882 Y180.996 E17.96787
G1 X80.193 Y180.875 E17.99937
G1 X79.311 Y180.68 E18.04004
G1 X78.45 Y180.407 E18.08071
G1 X77.617 Y180.059 E18.12136
G1 X76.817 Y179.639 E18.16204
G1 X76.058 Y179.15 E18.20269
G1 X75.078 Y178.36 E18.25937
G1 X74.136 Y177.5 E18.3168
G1 X72.176 Y175.762 E18.43475
G1 X70.217 Y174.121 E18.54981
G1 X68.254 Y172.568 E18.66252
G1 X66.23 Y171.058 E18.77622
G1 X63.745 Y169.332 E18.91245
G1 X62.93 Y168.751 E18.95751
G1 X62.64 Y168.535 E18.97379
G1 X59.708 Y166.31 E19.13952
G1 X58.897 Y165.672 E19.18598
G1 X58.299 Y165.161 E19.2214
G1 X55.514 Y162.695 E19.38889
G1 X54.8 Y162.04 E19.43251
G1 X54.218 Y161.464 E19.46938
G1 X51.624 Y158.792 E19.63706
G1 X50.817 Y157.924 E19.69042
G1 X50.437 Y157.481 E19.7167
G1 X48.023 Y154.587 E19.88639
G1 X47.604 Y154.069 E19.91639
G1 X47.377 Y153.777 E19.93304
G1 X46.95 Y153.204 E19.96522
G1 X44.761 Y150.137 E20.13488
G1 X44.385 Y149.594 E20.16462
G1 X44.169 Y149.269 E20.18219
G1 X43.808 Y148.697 E20.21264
G1 X41.896 Y145.538 E20.3789
G1 X41.364 Y144.624 E20.42652
G1 X41.243 Y144.404 E20.43782
G1 X41.084 Y144.103 E20.45315
G1 X39.293 Y140.571 E20.63146
G1 X38.905 Y139.769 E20.67158
G1 X38.782 Y139.5 E20.68489
G1 X38.64 Y139.176 E20.70082
G1 X37.147 Y135.583 E20.87601
G1 X36.884 Y134.929 E20.90775
G1 X36.723 Y134.501 E20.92834
G1 X36.5 Y133.863 E20.95877
G1 X35.265 Y130.114 E21.1365
G1 X34.425 Y127.68 E21.25243
G1 X33.524 Y125.294 E21.36727
G1 X32.562 Y122.947 E21.48148
G1 X31.53 Y120.619 E21.59613
G1 X30.45 Y118.359 E21.70891
G1 X30.017 Y117.52 E21.75143
G1 X29.38 Y116.244 E21.81564
G1 X29.013 Y115.419 E21.8563
G1 X28.72 Y114.564 E21.89699
G1 X28.504 Y113.688 E21.93761
G1 X28.366 Y112.795 E21.9783
G1 X28.308 Y111.908 E22.01832
G1 X28.301 Y111.584 E22.03292
G1 X28.3 Y111.197 E22.05034
G1 X28.34 Y108.804 E22.1581
G1 X28.361 Y108.097 E22.18995
G1 X28.428 Y107.197 E22.23059
G1 X28.565 Y106.352 E22.26913
G1 X28.74 Y105.5 E22.30829
G1 X28.999 Y104.31 E22.36313
G1 X29.464 Y101.839 E22.47634
G1 X29.866 Y99.309 E22.59168
G1 X30.196 Y96.775 E22.70674
G1 X30.449 Y94.269 E22.82015
G1 X30.633 Y91.742 E22.93423
G1 X30.746 Y89.204 E23.04862
G1 X30.788 Y86.635 E23.16431
G1 X30.758 Y84.142 E23.27657
G1 X30.653 Y81.566 E23.39265
G1 X30.48 Y79.043 E23.50652
G1 X30.233 Y76.505 E23.62133
G1 X29.917 Y73.996 E23.73519
G1 X29.526 Y71.473 E23.85015
G1 X29.063 Y68.957 E23.96534
G1 X28.783 Y67.597 E24.02786
G1 X28.53 Y66.413 E24.08237
G1 X28.38 Y65.522 E24.12306
G1 X28.305 Y64.399 E24.17373
G1 X28.301 Y63.776 E24.20178
G1 X28.34 Y61.417 E24.30801
G1 X28.362 Y60.695 E24.34054
G1 X28.429 Y59.795 E24.38117
G1 X28.576 Y58.904 E24.42183
G1 X28.801 Y58.029 E24.46251
G1 X29.103 Y57.178 E24.50317
G1 X29.478 Y56.357 E24.54381
G1 X29.925 Y55.572 E24.58449
G1 X30.44 Y54.83 E24.62515
G1 X31.018 Y54.136 E24.66582
G1 X31.655 Y53.496 E24.70648
G1 X32.346 Y52.915 E24.74713
G1 X32.73 Y52.634 E24.76855
G1 X33.863 Y51.845 E24.83072
G1 X35.541 Y50.657 E24.92329
G1 X35.956 Y50.349 E24.94656
G1 X36.538 Y49.931 E24.97882
G1 X37.294 Y49.437 E25.01948
G1 X38.091 Y49.012 E25.06015
G1 X38.922 Y48.66 E25.10079
G1 X39.781 Y48.382 E25.14144
G1 X40.662 Y48.181 E25.18213
G1 X41.557 Y48.059 E25.2228
G1 X42.175 Y48.021 E25.25068
G1 X42.814 Y48.006 E25.27946
G1 X44.923 Y48.007 E25.37442
G1 X45.621 Y48.017 E25.40585
G0 F7500 X45.627 Y47.617
G1 F1500 X46.546 Y47.67 E25.44729
G1 X47.457 Y47.803 E25.48875
G1 X48.353 Y48.014 E25.53019
G1 X49.227 Y48.302 E25.57163
G1 X50.074 Y48.665 E25.61312
G1 X50.885 Y49.1 E25.65456
G1 X51.655 Y49.604 E25.69599
G1 X52.379 Y50.173 E25.73746
G1 X52.882 Y50.631 E25.76809
G1 X53.168 Y50.909 E25.78604
G1 X54.749 Y52.51 E25.88736
G1 X56.599 Y54.281 E26.00267
G1 X58.442 Y55.95 E26.11462
G1 X60.374 Y57.6 E26.22902
G1 X62.36 Y59.203 E26.34393
G1 X64.354 Y60.72 E26.45674
G1 X66.434 Y62.213 E26.57203
G1 X68.491 Y63.602 E26.68378
G1 X70.638 Y64.965 E26.79829
G1 X72.824 Y66.267 E26.91285
G1 X75 Y67.482 E27.02507
G1 X77.262 Y68.662 E27.13994
G1 X79.553 Y69.776 E27.25464
G1 X81.836 Y70.807 E27.36743
G1 X84.179 Y71.787 E27.48179
G1 X86.557 Y72.704 E27.59654
G1 X88.925 Y73.538 E27.70958
G1 X91.321 Y74.308 E27.8229
G1 X93.755 Y75.016 E27.93703
G1 X96.207 Y75.653 E28.0511
G1 X98.668 Y76.22 E28.16481
G1 X101.155 Y76.72 E28.27903
G1 X103.621 Y77.141 E28.39167
G1 X106.157 Y77.502 E28.50701
G1 X108.655 Y77.786 E28.62021
G1 X111.168 Y77.999 E28.73377
G1 X113.687 Y78.142 E28.84737
G1 X116.232 Y78.214 E28.96201
G1 X118.743 Y78.214 E29.07507
G1 X121.288 Y78.142 E29.1897
G1 X123.793 Y78 E29.30267
G1 X126.344 Y77.783 E29.41795
G1 X128.826 Y77.501 E29.53042
G1 X131.322 Y77.145 E29.64395
G1 X133.867 Y76.709 E29.76021
G1 X136.257 Y76.23 E29.86996
G1 X138.77 Y75.651 E29.98607
G1 X141.256 Y75.005 E30.10172
G1 X143.648 Y74.31 E30.21388
G1 X146.05 Y73.537 E30.32749
G1 X148.444 Y72.692 E30.4418
G1 X150.749 Y71.803 E30.55304
G1 X153.131 Y70.808 E30.66927
G1 X155.432 Y69.769 E30.78295
G1 X157.713 Y68.66 E30.89715
G1 X159.968 Y67.484 E31.01166
G1 X162.156 Y66.263 E31.12448
G1 X164.348 Y64.956 E31.23939
G1 X166.478 Y63.605 E31.35296
G1 X168.547 Y62.207 E31.46539
G1 X170.6 Y60.734 E31.57916
G1 X172.645 Y59.177 E31.69489
G1 X174.588 Y57.61 E31.80728
G1 X176.52 Y55.96 E31.92168
G1 X178.376 Y54.28 E32.0344
G1 X180.218 Y52.516 E32.14923
G1 X180.99 Y51.729 E32.19887
G1 X182 Y50.724 E32.26302
G1 X182.68 Y50.104 E32.30446
G1 X183.412 Y49.545 E32.34593
G1 X184.189 Y49.051 E32.38738
G1 X185.006 Y48.627 E32.42883
G1 X185.857 Y48.275 E32.47029
G1 X186.735 Y47.999 E32.51173
G1 X187.634 Y47.799 E32.5532
G1 X188.547 Y47.679 E32.59466
G1 X189.183 Y47.642 E32.62335
G1 X189.947 Y47.623 E32.65776
G1 X191.89 Y47.611 E32.74525
G1 X192.559 Y47.616 E32.77537
G1 X193.479 Y47.663 E32.81685
G1 X194.391 Y47.79 E32.85831
G1 X195.288 Y47.995 E32.89974
G1 X196.164 Y48.277 E32.94117
G1 X197.013 Y48.634 E32.98264
G1 X197.827 Y49.064 E33.02409
G1 X198.715 Y49.643 E33.07182
G1 X199.369 Y50.119 E33.10824
G1 X202.506 Y52.31 E33.28053
G1 X203.237 Y52.87 E33.32199
G1 X203.917 Y53.491 E33.36346
G1 X204.541 Y54.168 E33.40491
G1 X205.103 Y54.897 E33.44636
G1 X205.6 Y55.672 E33.48781
G1 X206.027 Y56.487 E33.52924
G1 X206.383 Y57.337 E33.57073
G1 X206.663 Y58.214 E33.61218
G1 X206.866 Y59.112 E33.65364
G1 X207.012 Y60.286 E33.70691
G1 X207.034 Y60.612 E33.72162
G1 X207.057 Y61.154 E33.74604
G1 X207.094 Y63.521 E33.85263
G1 X207.096 Y64.244 E33.88519
G1 X207.059 Y65.164 E33.92664
G1 X206.865 Y66.475 E33.98632
G1 X206.319 Y69.045 E34.10462
G1 X205.863 Y71.525 E34.21815
G1 X205.475 Y74.035 E34.33251
G1 X205.157 Y76.556 E34.44692
G1 X204.914 Y79.053 E34.55988
G1 X204.739 Y81.592 E34.67447
G1 X204.638 Y84.099 E34.78744
G1 X204.607 Y86.587 E34.89948
G1 X204.649 Y89.165 E35.01557
G1 X204.761 Y91.695 E35.1296
G1 X204.945 Y94.216 E35.24341
G1 X205.198 Y96.719 E35.35668
G1 X205.527 Y99.252 E35.47169
G1 X205.921 Y101.727 E35.58453
G1 X206.392 Y104.237 E35.69952
G1 X206.67 Y105.554 E35.76013
G1 X206.793 Y106.11 E35.78577
G1 X206.952 Y107.017 E35.82723
G1 X207.033 Y107.934 E35.86868
G1 X207.057 Y108.568 E35.89724
G1 X207.094 Y110.913 E36.00284
G1 X207.096 Y111.651 E36.03607
G1 X207.058 Y112.571 E36.07753
G1 X206.941 Y113.484 E36.11898
G1 X206.745 Y114.384 E36.16045
G1 X206.472 Y115.263 E36.20189
G1 X205.923 Y116.526 E36.2639
G1 X205.575 Y117.203 E36.29817
G1 X204.435 Y119.477 E36.41271
G1 X203.358 Y121.786 E36.52743
G1 X202.348 Y124.121 E36.64198
G1 X201.401 Y126.493 E36.75697
G1 X200.537 Y128.852 E36.87009
G1 X200.017 Y130.378 E36.94268
G1 X198.876 Y133.825 E37.10617
G1 X198.531 Y134.812 E37.15324
G1 X198.445 Y135.042 E37.1643
G1 X198.304 Y135.4 E37.18162
G1 X196.801 Y139.01 E37.35769
G1 X196.396 Y139.936 E37.4032
G1 X196.295 Y140.152 E37.41394
G1 X196.147 Y140.456 E37.42916
G1 X194.351 Y143.995 E37.60785
G1 X193.924 Y144.802 E37.64896
G1 X193.78 Y145.06 E37.66226
G1 X193.59 Y145.387 E37.67929
G1 X191.565 Y148.727 E37.85516
G1 X191.039 Y149.56 E37.89952
G1 X190.567 Y150.25 E37.93716
G1 X188.394 Y153.292 E38.10548
G1 X187.831 Y154.053 E38.14811
G1 X187.514 Y154.454 E38.17112
G1 X187.262 Y154.761 E38.18901
G1 X184.941 Y157.541 E38.35207
G1 X184.279 Y158.307 E38.39765
G1 X184.12 Y158.483 E38.40833
G1 X183.862 Y158.758 E38.42531
G1 X181.148 Y161.553 E38.60073
G1 X180.405 Y162.292 E38.64791
G1 X179.79 Y162.859 E38.68558
G1 X177.042 Y165.291 E38.8508
G1 X176.281 Y165.94 E38.89584
G1 X176.085 Y166.1 E38.90723
G1 X175.797 Y166.327 E38.92374
G1 X172.698 Y168.682 E39.09899
G1 X171.844 Y169.307 E39.14664
G1 X170.194 Y170.452 E39.23707
G1 X168.121 Y171.956 E39.35239
G1 X166.102 Y173.51 E39.4671
G1 X164.156 Y175.095 E39.58011
G1 X162.257 Y176.737 E39.69315
G1 X160.199 Y178.618 E39.81868
G1 X159.496 Y179.213 E39.86015
G1 X158.744 Y179.744 E39.9016
G1 X157.949 Y180.208 E39.94305
G1 X157.117 Y180.602 E39.9845
G1 X156.254 Y180.922 E40.02594
G1 X155.004 Y181.241 E40.08403
