;FLAVOR:Marlin
;TIME:2152
;Filament used: 1.47755m
;Layer height: 0.2
;MINX:69.5
;MINY:69.5
;MINZ:0.2
;MAXX:165.5
;MAXY:212.5
;MAXZ:2
;Generated with Cura_SteamEngine 4.5.0
M140 S60
M105
M190 S60
M104 S205
M105
M109 S205
M82 ;absolute extrusion mode
; Ender 3 Custom Start G-code
G92 E0 ; Reset Extruder
G28 ; Home all axes
G1 Z2.0 F3000 ; Move Z Axis up little to prevent scratching of Heat Bed
G1 X0.1 Y20 Z0.3 F5000.0 ; Move to start position
G1 X0.1 Y200.0 Z0.3 F1500.0 E15 ; Draw the first line
G1 X0.4 Y200.0 Z0.3 F5000.0 ; Move to side a little
G1 X0.4 Y20 Z0.3 F1500.0 E30 ; Draw the second line
G92 E0 ; Reset Extruder
G1 Z2.0 F3000 ; Move Z Axis up little to prevent scratching of Heat Bed
G1 X5 Y20 Z0.3 F5000.0 ; Move over to prevent blob squish
G92 E0
G92 E0
G1 F1500 E-6
;LAYER_COUNT:10
;LAYER:0
M107
M204 S500
M205 X20 Y20
G0 F7500 X72.698 Y72.764 Z0.2
;TYPE:SKIRT
G1 F1500 E0
G1 X73.386 Y72.127 E0.03119
G1 X74.126 Y71.551 E0.06237
G1 X74.912 Y71.039 E0.09357
G1 X75.739 Y70.597 E0.12476
G1 X76.601 Y70.227 E0.15596
G1 X77.491 Y69.931 E0.18716
G1 X78.403 Y69.713 E0.21835
G1 X79.33 Y69.572 E0.24953
G1 X80.201 Y69.513 E0.27857
G1 X80.83 Y69.5 E0.29949
G1 X153.793 Y69.5 E2.72625
G1 X153.951 Y69.501 E2.73151
G1 X154.649 Y69.511 E2.75473
G1 X155.585 Y69.565 E2.78591
G1 X156.513 Y69.697 E2.81709
G1 X157.427 Y69.909 E2.84829
G1 X158.319 Y70.198 E2.87948
G1 X159.184 Y70.561 E2.91068
G1 X160.014 Y70.997 E2.94186
G1 X160.805 Y71.502 E2.97308
G1 X161.549 Y72.073 E3.00427
G1 X162.242 Y72.705 E3.03546
G1 X162.879 Y73.393 E3.06665
G1 X163.454 Y74.134 E3.09784
G1 X163.965 Y74.92 E3.12903
G1 X164.407 Y75.748 E3.16024
G1 X164.776 Y76.61 E3.19143
G1 X165.071 Y77.5 E3.22262
G1 X165.289 Y78.412 E3.2538
G1 X165.429 Y79.34 E3.28502
G1 X165.487 Y80.201 E3.31372
G1 X165.5 Y80.83 E3.33464
G1 X165.499 Y83.951 E3.43845
G1 X165.489 Y84.649 E3.46167
G1 X165.435 Y85.585 E3.49285
G1 X165.261 Y86.724 E3.53117
G1 X165.21 Y86.97 E3.53953
G1 X165.063 Y87.6 E3.56105
G1 X163.357 Y94.431 E3.79522
G1 X162.762 Y96.963 E3.88173
G1 X162.262 Y99.394 E3.96428
G1 X161.823 Y101.89 E4.04857
G1 X161.454 Y104.394 E4.13276
G1 X160.95 Y108.611 E4.27401
G1 X160.689 Y110.37 E4.33316
G1 X160.396 Y112.014 E4.3887
G1 X160.044 Y113.712 E4.44637
G1 X159.615 Y115.517 E4.50808
G1 X159.182 Y117.128 E4.56357
G1 X158.767 Y118.529 E4.61216
G1 X158.67 Y118.838 E4.62294
G1 X158.468 Y119.452 E4.64443
G1 X157.669 Y122.007 E4.73347
G1 X156.984 Y124.438 E4.81748
G1 X156.379 Y126.847 E4.90009
G1 X155.826 Y129.337 E4.98492
G1 X155.356 Y131.785 E5.06783
G1 X154.946 Y134.301 E5.15262
G1 X154.617 Y136.747 E5.23471
G1 X154.351 Y139.276 E5.31928
G1 X154.157 Y141.806 E5.40368
G1 X154.036 Y144.291 E5.48643
G1 X153.985 Y146.816 E5.57043
G1 X154.006 Y149.338 E5.65431
G1 X154.098 Y151.86 E5.73825
G1 X154.261 Y154.372 E5.82198
G1 X154.337 Y155.199 E5.8496
G1 X154.452 Y156.588 E5.89595
G1 X154.485 Y157.167 E5.91524
G1 X154.5 Y157.83 E5.9373
G1 X154.499 Y160.951 E6.0411
G1 X154.489 Y161.649 E6.06432
G1 X154.435 Y162.585 E6.09551
G1 X154.261 Y163.724 E6.13383
G1 X154.21 Y163.97 E6.14218
G1 X154.111 Y164.402 E6.15693
G1 X151.887 Y173.308 E6.46224
G1 X151.289 Y175.851 E6.54912
G1 X150.775 Y178.351 E6.63401
G1 X150.331 Y180.877 E6.71932
G1 X150.075 Y182.531 E6.77498
G1 X149.922 Y183.381 E6.80371
G1 X149.848 Y183.754 E6.81636
G1 X149.721 Y184.342 E6.83637
G1 X149.635 Y184.709 E6.8489
G1 X149.456 Y185.419 E6.87326
G1 X149.349 Y185.815 E6.8869
G1 X149.136 Y186.544 E6.91216
G1 X149.03 Y186.884 E6.92401
G1 X148.839 Y187.467 E6.94441
G1 X148.713 Y187.831 E6.95722
G1 X148.469 Y188.496 E6.98078
G1 X148.324 Y188.869 E6.99409
G1 X148.035 Y189.576 E7.0195
G1 X147.878 Y189.941 E7.03271
G1 X147.608 Y190.539 E7.05453
G1 X147.456 Y190.862 E7.06641
G1 X147.147 Y191.491 E7.08972
G1 X146.972 Y191.832 E7.10246
G1 X146.668 Y192.4 E7.12389
G1 X146.479 Y192.739 E7.1368
G1 X146.094 Y193.401 E7.16227
G1 X145.894 Y193.732 E7.17513
G1 X145.532 Y194.307 E7.19773
G1 X145.328 Y194.619 E7.21013
G1 X144.949 Y195.178 E7.23259
G1 X144.71 Y195.515 E7.24634
G1 X144.243 Y196.151 E7.27258
G1 X144.024 Y196.44 E7.28464
G1 X143.693 Y196.861 E7.30245
G1 X143.451 Y197.158 E7.31519
G1 X142.925 Y197.781 E7.34231
G1 X142.663 Y198.08 E7.35554
G1 X141.967 Y198.839 E7.38979
G1 X141.506 Y199.315 E7.41183
G1 X141.211 Y199.608 E7.42566
G1 X140.672 Y200.124 E7.45047
G1 X140.397 Y200.378 E7.46292
G1 X139.915 Y200.809 E7.48443
G1 X139.62 Y201.064 E7.4974
G1 X139 Y201.58 E7.52423
G1 X138.699 Y201.822 E7.53707
G1 X138.26 Y202.162 E7.55554
G1 X137.963 Y202.383 E7.56785
G1 X137.337 Y202.835 E7.59354
G1 X137.024 Y203.053 E7.60622
G1 X136.414 Y203.462 E7.63065
G1 X136.087 Y203.673 E7.64359
G1 X135.597 Y203.977 E7.66277
G1 X135.258 Y204.179 E7.6759
G1 X134.541 Y204.589 E7.70337
G1 X134.22 Y204.766 E7.71556
G1 X133.692 Y205.045 E7.73542
G1 X133.344 Y205.221 E7.74839
G1 X132.633 Y205.565 E7.77466
G1 X132.269 Y205.733 E7.788
G1 X131.698 Y205.984 E7.80874
G1 X131.377 Y206.119 E7.82033
G1 X130.701 Y206.391 E7.84456
G1 X130.294 Y206.546 E7.85905
G1 X129.605 Y206.792 E7.88338
G1 X129.269 Y206.905 E7.89517
G1 X128.643 Y207.106 E7.91704
G1 X128.286 Y207.214 E7.92944
G1 X127.677 Y207.387 E7.9505
G1 X127.293 Y207.489 E7.96371
G1 X126.47 Y207.691 E7.9919
G1 X126.091 Y207.777 E8.00483
G1 X125.515 Y207.897 E8.0244
G1 X125.15 Y207.966 E8.03675
G1 X123.679 Y208.219 E8.08639
G1 X122.463 Y208.402 E8.12729
G1 X119.999 Y208.844 E8.21056
G1 X117.524 Y209.361 E8.29465
G1 X115.281 Y209.892 E8.37132
G1 X106.704 Y212.036 E8.66537
G1 X106.015 Y212.198 E8.68891
G1 X105.093 Y212.374 E8.72013
G1 X103.891 Y212.483 E8.76027
G1 X103.122 Y212.5 E8.78585
G1 X100.049 Y212.499 E8.88806
G1 X99.351 Y212.489 E8.91128
G1 X98.415 Y212.435 E8.94246
G1 X97.487 Y212.303 E8.97364
G1 X96.573 Y212.091 E9.00484
G1 X95.681 Y211.802 E9.03603
G1 X94.816 Y211.439 E9.06723
G1 X93.986 Y211.003 E9.09841
G1 X93.195 Y210.498 E9.12963
G1 X92.451 Y209.927 E9.16082
G1 X91.758 Y209.295 E9.19202
G1 X91.121 Y208.607 E9.2232
G1 X90.546 Y207.866 E9.2544
G1 X90.035 Y207.08 E9.28558
G1 X89.593 Y206.252 E9.3168
G1 X89.224 Y205.39 E9.34798
G1 X88.929 Y204.5 E9.37917
G1 X88.711 Y203.588 E9.41036
G1 X88.621 Y203.059 E9.4282
G1 X88.432 Y201.745 E9.47236
G1 X88.073 Y199.426 E9.55041
G1 X87.622 Y196.965 E9.63362
G1 X87.093 Y194.482 E9.71806
G1 X86.505 Y192.055 E9.80112
G1 X85.848 Y189.648 E9.8841
G1 X85.106 Y187.203 E9.96909
G1 X84.302 Y184.798 E10.05343
G1 X83.453 Y182.477 E10.13563
G1 X82.517 Y180.132 E10.21961
G1 X81.517 Y177.817 E10.30348
G1 X80.449 Y175.522 E10.38767
G1 X79.32 Y173.269 E10.47149
G1 X78.143 Y171.075 E10.5543
G1 X76.879 Y168.872 E10.63878
G1 X75.576 Y166.741 E10.72185
G1 X74.185 Y164.606 E10.80661
G1 X72.779 Y162.576 E10.88874
G1 X72.398 Y162.057 E10.91015
G1 X71.583 Y160.925 E10.95654
G1 X71.068 Y160.141 E10.98774
G1 X70.622 Y159.317 E11.01891
G1 X70.247 Y158.457 E11.05011
G1 X69.947 Y157.568 E11.08132
G1 X69.724 Y156.657 E11.11251
G1 X69.579 Y155.73 E11.14372
G1 X69.515 Y154.833 E11.17363
G1 X69.505 Y154.505 E11.18454
G1 X69.5 Y154.17 E11.19569
G1 X69.5 Y81.174 E13.62354
G1 X69.51 Y80.36 E13.65062
G1 X69.563 Y79.424 E13.6818
G1 X69.695 Y78.495 E13.71301
G1 X69.906 Y77.581 E13.74421
G1 X70.194 Y76.689 E13.77539
G1 X70.557 Y75.824 E13.80659
G1 X70.992 Y74.993 E13.83778
G1 X71.496 Y74.203 E13.86895
G1 X72.066 Y73.458 E13.90015
G1 X72.159 Y73.355 E13.90477
G0 F1350 X72.698 Y72.764
G0 F7500 X73.089 Y72.939
G1 F1500 X73.774 Y72.323 E13.93541
G1 X74.51 Y71.77 E13.96603
G1 X75.291 Y71.282 E13.99666
G1 X76.111 Y70.864 E14.02727
G1 X76.965 Y70.519 E14.0579
G1 X77.845 Y70.249 E14.08852
G1 X78.745 Y70.057 E14.11913
G1 X79.659 Y69.943 E14.14976
G1 X80.212 Y69.913 E14.16818
G1 X80.83 Y69.9 E14.18874
G1 X153.793 Y69.9 E16.6155
G1 X153.945 Y69.901 E16.62056
G1 X154.643 Y69.911 E16.64377
G1 X155.562 Y69.964 E16.67439
G1 X156.473 Y70.097 E16.70501
G1 X157.369 Y70.308 E16.73563
G1 X158.243 Y70.596 E16.76623
G1 X159.09 Y70.959 E16.79688
G1 X159.901 Y71.394 E16.82749
G1 X160.671 Y71.898 E16.8581
G1 X161.395 Y72.467 E16.88873
G1 X162.067 Y73.097 E16.91937
G1 X162.682 Y73.782 E16.94998
G1 X163.235 Y74.518 E16.9806
G1 X163.722 Y75.299 E17.01122
G1 X164.139 Y76.12 E17.04184
G1 X164.484 Y76.974 E17.07248
G1 X164.753 Y77.854 E17.10308
G1 X164.945 Y78.755 E17.13372
G1 X165.058 Y79.668 E17.16432
G1 X165.087 Y80.212 E17.18244
G1 X165.1 Y80.83 E17.203
G1 X165.099 Y83.945 E17.30661
G1 X165.089 Y84.643 E17.32982
G1 X165.036 Y85.562 E17.36044
G1 X164.869 Y86.643 E17.39682
G1 X164.818 Y86.889 E17.40518
G1 X164.675 Y87.503 E17.42615
G1 X162.972 Y94.323 E17.65994
G1 X162.376 Y96.855 E17.74646
G1 X161.862 Y99.356 E17.83138
G1 X161.427 Y101.828 E17.91486
G1 X161.054 Y104.36 E17.99999
G1 X160.554 Y108.553 E18.14044
G1 X160.295 Y110.301 E18.19921
G1 X160.004 Y111.934 E18.25438
G1 X159.655 Y113.62 E18.31164
G1 X159.303 Y115.117 E18.36279
G1 X159.228 Y115.414 E18.37298
G1 X158.798 Y117.015 E18.42812
G1 X158.29 Y118.713 E18.48707
G1 X158.086 Y119.333 E18.50878
G1 X157.288 Y121.884 E18.59768
G1 X156.598 Y124.332 E18.68227
G1 X155.986 Y126.768 E18.76581
G1 X155.438 Y129.24 E18.85002
G1 X154.961 Y131.717 E18.93392
G1 X154.553 Y134.22 E19.01827
G1 X154.218 Y136.723 E19.10227
G1 X153.953 Y139.24 E19.18644
G1 X153.759 Y141.757 E19.27041
G1 X153.636 Y144.298 E19.35502
G1 X153.585 Y146.811 E19.43862
G1 X153.606 Y149.356 E19.52327
G1 X153.697 Y151.865 E19.60677
G1 X153.862 Y154.399 E19.69123
G1 X153.939 Y155.232 E19.71906
G1 X154.054 Y156.621 E19.76541
G1 X154.085 Y157.179 E19.784
G1 X154.1 Y157.83 E19.80566
G1 X154.099 Y160.945 E19.90927
G1 X154.089 Y161.643 E19.93248
G1 X154.036 Y162.562 E19.9631
G1 X153.869 Y163.643 E19.99948
G1 X153.818 Y163.889 E20.00784
G1 X153.723 Y164.305 E20.02203
G1 X151.495 Y173.227 E20.32789
G1 X150.894 Y175.784 E20.41525
G1 X150.383 Y178.267 E20.49957
G1 X149.939 Y180.792 E20.58484
G1 X149.681 Y182.46 E20.64098
G1 X149.528 Y183.31 E20.6697
G1 X149.457 Y183.67 E20.68191
G1 X149.33 Y184.258 E20.70191
G1 X149.247 Y184.611 E20.71398
G1 X149.068 Y185.321 E20.73833
G1 X148.965 Y185.703 E20.75149
G1 X148.752 Y186.432 E20.77675
G1 X148.65 Y186.759 E20.78814
G1 X148.459 Y187.342 E20.80855
G1 X148.337 Y187.693 E20.82091
G1 X148.093 Y188.358 E20.84447
G1 X147.954 Y188.718 E20.8573
G1 X147.665 Y189.425 E20.8827
G1 X147.514 Y189.776 E20.89541
G1 X147.244 Y190.374 E20.91724
G1 X147.097 Y190.686 E20.92871
G1 X146.788 Y191.315 E20.95202
G1 X146.62 Y191.643 E20.96427
G1 X146.316 Y192.211 E20.9857
G1 X146.133 Y192.538 E20.99816
G1 X145.748 Y193.2 E21.02363
G1 X145.555 Y193.518 E21.03601
G1 X145.193 Y194.093 E21.05861
G1 X144.997 Y194.394 E21.07055
G1 X144.618 Y194.953 E21.09302
G1 X144.388 Y195.279 E21.10629
G1 X143.921 Y195.915 E21.13253
G1 X143.71 Y196.193 E21.14414
G1 X143.379 Y196.614 E21.16195
G1 X143.145 Y196.9 E21.17424
G1 X142.619 Y197.523 E21.20136
G1 X142.367 Y197.811 E21.21409
G1 X141.912 Y198.312 E21.2366
G1 X141.679 Y198.56 E21.24791
G1 X141.218 Y199.036 E21.26995
G1 X140.934 Y199.319 E21.28329
G1 X140.395 Y199.835 E21.30811
G1 X140.131 Y200.08 E21.32009
G1 X139.649 Y200.511 E21.34159
G1 X139.364 Y200.756 E21.35409
G1 X138.744 Y201.272 E21.38092
G1 X138.454 Y201.505 E21.39329
G1 X138.015 Y201.845 E21.41176
G1 X137.729 Y202.059 E21.42364
G1 X137.103 Y202.511 E21.44932
G1 X136.801 Y202.721 E21.46156
G1 X136.191 Y203.13 E21.48599
G1 X135.876 Y203.333 E21.49845
G1 X135.386 Y203.637 E21.51763
G1 X135.06 Y203.832 E21.53026
G1 X134.343 Y204.242 E21.55773
G1 X134.033 Y204.412 E21.56949
G1 X133.505 Y204.691 E21.58936
G1 X133.17 Y204.861 E21.60185
G1 X132.459 Y205.205 E21.62812
G1 X132.108 Y205.367 E21.64098
G1 X131.537 Y205.618 E21.66172
G1 X131.228 Y205.748 E21.67287
G1 X130.552 Y206.02 E21.69711
G1 X130.159 Y206.169 E21.71109
G1 X129.47 Y206.415 E21.73542
G1 X129.147 Y206.525 E21.74677
G1 X128.521 Y206.726 E21.76864
G1 X128.177 Y206.83 E21.78059
G1 X127.568 Y207.003 E21.80165
G1 X127.198 Y207.1 E21.81437
G1 X126.375 Y207.302 E21.84256
G1 X126.01 Y207.385 E21.85501
G1 X125.434 Y207.505 E21.87457
G1 X125.082 Y207.572 E21.88649
G1 X123.62 Y207.823 E21.93583
G1 X122.399 Y208.007 E21.9769
G1 X119.918 Y208.452 E22.06073
G1 X117.456 Y208.966 E22.14439
G1 X115.188 Y209.503 E22.22191
G1 X106.612 Y211.647 E22.51592
G1 X105.923 Y211.809 E22.53946
G1 X105.019 Y211.98 E22.57007
G1 X103.877 Y212.083 E22.6082
G1 X103.361 Y212.098 E22.62537
G1 X103.118 Y212.1 E22.63345
G1 X100.055 Y212.099 E22.73533
G1 X99.357 Y212.089 E22.75855
G1 X98.438 Y212.036 E22.78917
G1 X97.527 Y211.903 E22.81979
G1 X96.631 Y211.692 E22.8504
G1 X95.757 Y211.404 E22.88101
G1 X94.91 Y211.041 E22.91166
G1 X94.099 Y210.606 E22.94227
G1 X93.329 Y210.102 E22.97288
G1 X92.605 Y209.533 E23.0035
G1 X91.933 Y208.903 E23.03414
G1 X91.318 Y208.218 E23.06476
G1 X90.765 Y207.482 E23.09538
G1 X90.278 Y206.701 E23.12599
G1 X89.861 Y205.88 E23.15662
G1 X89.516 Y205.026 E23.18725
G1 X89.247 Y204.146 E23.21786
G1 X89.017 Y203.002 E23.25667
G1 X88.819 Y201.628 E23.30284
G1 X88.469 Y199.364 E23.37904
G1 X88.012 Y196.874 E23.46324
G1 X87.489 Y194.418 E23.54676
G1 X86.896 Y191.971 E23.6305
G1 X86.228 Y189.522 E23.71493
G1 X85.486 Y187.075 E23.79998
G1 X84.696 Y184.714 E23.88278
G1 X83.812 Y182.298 E23.96835
G1 X82.892 Y179.991 E24.05096
G1 X81.875 Y177.638 E24.13621
G1 X80.812 Y175.352 E24.22007
G1 X79.687 Y173.108 E24.30356
G1 X78.484 Y170.866 E24.38818
G1 X77.225 Y168.669 E24.4724
G1 X75.909 Y166.519 E24.55624
G1 X74.517 Y164.381 E24.6411
G1 X73.114 Y162.357 E24.72301
G1 X72.723 Y161.823 E24.74502
G1 X71.908 Y160.691 E24.79141
G1 X71.403 Y159.922 E24.82201
G1 X70.966 Y159.111 E24.85265
G1 X70.602 Y158.265 E24.88329
G1 X70.313 Y157.391 E24.9139
G1 X70.1 Y156.496 E24.9445
G1 X69.966 Y155.585 E24.97513
G1 X69.915 Y154.821 E25.0006
G1 X69.9 Y154.17 E25.02225
G1 X69.9 Y81.174 E27.45011
G1 X69.91 Y80.366 E27.47699
G1 X69.962 Y79.446 E27.50763
G1 X70.094 Y78.535 E27.53825
G1 X70.305 Y77.639 E27.56887
G1 X70.592 Y76.764 E27.5995
G1 X70.955 Y75.918 E27.63011
G1 X71.389 Y75.106 E27.66074
G1 X71.892 Y74.335 E27.69136
G1 X72.461 Y73.611 E27.72198
G1 X72.543 Y73.523 E27.72598
G0 F1350 X73.089 Y72.939
G0 F7500 X73.481 Y73.117
G1 F1500 X74.162 Y72.524 E27.75602
G1 X74.894 Y71.994 E27.78608
G1 X75.669 Y71.531 E27.8161
G1 X76.482 Y71.138 E27.84614
G1 X77.327 Y70.818 E27.87619
G1 X78.196 Y70.575 E27.9062
G1 X79.084 Y70.409 E27.93625
G1 X80.223 Y70.313 E27.97426
G1 X80.83 Y70.3 E27.99446
G1 X153.793 Y70.3 E30.42122
G1 X153.939 Y70.301 E30.42607
G1 X154.637 Y70.311 E30.44929
G1 X155.539 Y70.364 E30.47934
G1 X156.432 Y70.496 E30.50937
G1 X157.31 Y70.707 E30.5394
G1 X158.166 Y70.995 E30.56944
G1 X158.993 Y71.357 E30.59947
G1 X159.785 Y71.792 E30.62952
G1 X160.536 Y72.294 E30.65956
G1 X161.239 Y72.861 E30.6896
G1 X161.889 Y73.488 E30.71964
G1 X162.481 Y74.17 E30.74968
G1 X163.011 Y74.901 E30.77971
G1 X163.473 Y75.677 E30.80975
G1 X163.866 Y76.49 E30.83978
G1 X164.184 Y77.335 E30.86981
G1 X164.427 Y78.205 E30.89986
G1 X164.592 Y79.093 E30.9299
G1 X164.687 Y80.223 E30.96761
G1 X164.7 Y80.83 E30.98781
G1 X164.699 Y83.939 E31.09121
G1 X164.689 Y84.637 E31.11443
G1 X164.636 Y85.539 E31.14448
G1 X164.478 Y86.562 E31.17891
G1 X164.427 Y86.808 E31.18727
G1 X164.287 Y87.406 E31.20769
G1 X162.574 Y94.266 E31.44286
G1 X161.987 Y96.762 E31.52815
G1 X161.471 Y99.271 E31.61334
G1 X161.03 Y101.777 E31.69797
G1 X160.66 Y104.287 E31.78236
G1 X160.159 Y108.496 E31.92334
G1 X159.901 Y110.232 E31.98171
G1 X159.612 Y111.853 E32.03648
G1 X159.265 Y113.529 E32.0934
G1 X158.842 Y115.311 E32.15432
G1 X158.415 Y116.901 E32.20908
G1 X157.91 Y118.589 E32.26768
G1 X157.684 Y119.276 E32.29173
G1 X156.907 Y121.761 E32.37833
G1 X156.21 Y124.237 E32.46388
G1 X155.6 Y126.664 E32.54712
G1 X155.041 Y129.183 E32.63294
G1 X154.568 Y131.643 E32.71626
G1 X154.155 Y134.174 E32.80155
G1 X153.821 Y136.664 E32.88511
G1 X153.554 Y139.2 E32.96992
G1 X153.359 Y141.743 E33.05475
G1 X153.236 Y144.272 E33.13897
G1 X153.185 Y146.805 E33.22323
G1 X153.206 Y149.375 E33.30871
G1 X153.297 Y151.87 E33.39175
G1 X153.463 Y154.426 E33.47694
G1 X153.54 Y155.265 E33.50497
G1 X153.655 Y156.654 E33.55132
G1 X153.685 Y157.191 E33.56921
G1 X153.7 Y157.83 E33.59047
