;FLAVOR:Marlin
;TIME:2084
;Filament used: 1.04373m
;Layer height: 0.1
;Generated with Cura_SteamEngine 3.4.1
M190 S60
M104 S205
M109 S205
M82 ;absolute extrusion mode
; Pefix G-Code for most 200mm x 200mm 3D printers by www.DIY3DTech.com to clean nozzle
; Place as start G-Code in Slicer
; Use of this code is at your own risk (no warranties made or implied)
;
M117 Clean ; Indicate nozzle clean in progress on LCD
M107 ; Turn layer fan off
G21 ; Set to metric [change to G20 if you want Imperial]
G90                          ; Force coordinates to be absolute relative to the origin
G28                          ; Home X/Y/Z axis
G0 X1 Y0 Z0.15 F9000         ; Move in 1mm from edge and up [z] 0.15mm
G92 E0                       ; Set extruder to [0] zero
G1 Y190 E50 F500             ; Extrude 100mm filiment along Y axis 190mm long to prime and clean the nozzle
G92 E0                       ; Reset extruder to [0] zero end of cleaning run
G1 E-3 F500                  ; Retract filiment by 3 mm to reduce string effect
G1 X3 Y190 Z15 F9000      ; Move over and rise to safe Z height
G1 X3 Y0 Z15 F9000 ; Move back to front of bed at safe Z height to shear strings
;
; Ensure extruder is not reset by other code or it will be 3mm short [see next line also]
;G1 E3 F500 ; Uncomment if you believe exruder will be reset
; Recommend turning off SKIRT in the slicer to avoid strings pulled into first layer
M117 Printing ; Indicate printing on LCD
; Begin printing with sliced GCode after here
G92 E0
G1 F3000 E-8
;LAYER_COUNT:26
;LAYER:0
M107
M204 S5000
M205 X30 Y30
G0 F3600 X67.81 Y87.423 Z0.1
M204 S500
M205 X20 Y20
;TYPE:SKIRT
G1 F3000 E0
G1 F1800 X68.412 Y87.011 E0.01213
G1 X68.899 Y86.717 E0.02159
G1 X69.531 Y86.382 E0.03349
G1 X70.272 Y86.096 E0.0467
G1 X71.224 Y85.794 E0.06331
G1 X71.917 Y85.616 E0.0752
G1 X72.771 Y85.506 E0.08952
G1 X73.693 Y85.45 E0.10488
G1 X74.086 Y85.438 E0.11142
G1 X135.178 Y85.485 E1.12739
G1 X135.892 Y85.526 E1.13928
G1 X136.51 Y85.626 E1.14969
G1 X136.964 Y85.723 E1.15741
G1 X137.654 Y85.912 E1.16931
G1 X138.258 Y86.148 E1.18009
G1 X139.145 Y86.548 E1.19628
G1 X139.78 Y86.878 E1.20818
G1 X140.373 Y87.277 E1.22006
G1 X140.723 Y87.56 E1.22755
G1 X141.494 Y88.233 E1.24457
G1 X142.005 Y88.733 E1.25646
G1 X142.458 Y89.287 E1.26836
G1 X142.717 Y89.671 E1.27606
G1 X143.224 Y90.485 E1.29201
G1 X143.568 Y91.113 E1.30392
G1 X143.84 Y91.774 E1.3158
G1 X143.986 Y92.257 E1.32419
G1 X144.264 Y93.325 E1.34255
G1 X144.405 Y94.026 E1.35444
G1 X144.47 Y94.865 E1.36843
G1 X144.476 Y95.396 E1.37726
G1 X144.43 Y96.231 E1.39117
G1 X144.068 Y99.244 E1.44164
G1 X143.665 Y104.578 E1.53059
G1 X143.564 Y109.894 E1.61902
G1 X143.657 Y113.256 E1.67495
G1 X143.647 Y113.829 E1.68448
G1 X143.237 Y120.451 E1.79481
G1 X143.2 Y125.754 E1.88301
G1 X143.464 Y131.098 E1.97198
G1 X143.645 Y133.188 E2.00687
G1 X143.667 Y133.903 E2.01877
G1 X143.609 Y134.616 E2.03066
G1 X143.471 Y135.318 E2.04256
G1 X143.346 Y135.747 E2.04999
G1 X143.236 Y136.08 E2.05582
G1 X142.974 Y136.746 E2.06773
G1 X142.639 Y137.378 E2.07962
G1 X142.236 Y137.969 E2.09152
G1 X141.77 Y138.511 E2.1034
G1 X141.246 Y138.998 E2.1153
G1 X140.639 Y139.444 E2.12783
G1 X140.389 Y139.606 E2.13278
G1 X139.768 Y139.961 E2.14468
G1 X139.112 Y140.244 E2.15656
G1 X138.427 Y140.452 E2.16846
G1 X137.724 Y140.583 E2.18036
G1 X136.912 Y140.635 E2.19389
G1 X84.626 Y140.662 E3.06341
G1 X84 Y140.632 E3.07383
G1 X80.791 Y140.318 E3.12745
G1 X80.084 Y140.208 E3.13935
G1 X79.152 Y139.935 E3.1555
G1 X76.78 Y139.039 E3.19767
G1 X76.126 Y138.749 E3.20956
G1 X75.434 Y138.338 E3.22295
G1 X73.915 Y137.301 E3.25354
G1 X73.493 Y136.987 E3.26228
G1 X72.707 Y136.35 E3.27911
G1 X72.178 Y135.869 E3.291
G1 X71.926 Y135.599 E3.29714
G1 X70.472 Y133.942 E3.3338
G1 X70.031 Y133.379 E3.34569
G1 X69.617 Y132.697 E3.35896
G1 X68.441 Y130.458 E3.40102
G1 X68.144 Y129.807 E3.41292
G1 X67.892 Y129.01 E3.42682
G1 X67.289 Y126.558 E3.46881
G1 X67.157 Y125.855 E3.48071
G1 X67.104 Y125.088 E3.49349
G1 X67.029 Y116.815 E3.63108
G1 X66.657 Y111.553 E3.71881
G1 X65.985 Y106.307 E3.80676
G1 X65.014 Y101.083 E3.89512
G1 X64.195 Y97.606 E3.95453
G1 X64.062 Y96.824 E3.96772
G1 X63.951 Y95.793 E3.98496
G1 X63.914 Y95.079 E3.99685
G1 X63.957 Y94.365 E4.00875
G1 X64.036 Y93.863 E4.0172
G1 X64.245 Y92.809 E4.03507
G1 X64.423 Y92.116 E4.04697
G1 X64.678 Y91.448 E4.05886
G1 X64.923 Y90.956 E4.068
G1 X65.406 Y90.083 E4.08459
G1 X65.787 Y89.477 E4.0965
G1 X66.233 Y88.918 E4.10839
G1 X66.555 Y88.582 E4.11613
G1 X67.269 Y87.891 E4.13265
G1 X67.81 Y87.423 E4.14455
M204 S5000
M205 X30 Y30
G0 F3600 X68.072 Y87.726
M204 S500
M205 X20 Y20
G1 F1800 X68.619 Y87.353 E4.15556
G1 X69.106 Y87.059 E4.16502
G1 X69.719 Y86.736 E4.17654
G1 X70.393 Y86.477 E4.18855
G1 X71.345 Y86.175 E4.20516
G1 X72.016 Y86.004 E4.21667
G1 X72.795 Y85.905 E4.22973
G1 X73.717 Y85.849 E4.24509
G1 X74.086 Y85.838 E4.25123
G1 X135.178 Y85.885 E5.2672
G1 X135.869 Y85.926 E5.27871
G1 X136.427 Y86.017 E5.28811
G1 X136.881 Y86.114 E5.29583
G1 X137.548 Y86.298 E5.30734
G1 X138.094 Y86.512 E5.31709
G1 X138.981 Y86.912 E5.33327
G1 X139.594 Y87.233 E5.34478
G1 X140.167 Y87.622 E5.3563
G1 X140.46 Y87.862 E5.3626
G1 X141.231 Y88.535 E5.37961
G1 X141.725 Y89.02 E5.39113
G1 X142.161 Y89.558 E5.40264
G1 X142.378 Y89.883 E5.40914
G1 X142.885 Y90.697 E5.42509
G1 X143.217 Y91.305 E5.43661
G1 X143.476 Y91.947 E5.44812
G1 X143.599 Y92.358 E5.45526
G1 X143.877 Y93.426 E5.47361
G1 X144.012 Y94.105 E5.48512
G1 X144.07 Y94.869 E5.49787
G1 X144.076 Y95.4 E5.5067
G1 X144.033 Y96.183 E5.51974
G1 X143.67 Y99.21 E5.57044
G1 X143.265 Y104.558 E5.65963
G1 X143.164 Y109.898 E5.74845
G1 X143.257 Y113.267 E5.8045
G1 X143.248 Y113.804 E5.81343
G1 X142.837 Y120.442 E5.92403
G1 X142.8 Y125.754 E6.01237
G1 X143.066 Y131.126 E6.10182
G1 X143.247 Y133.223 E6.13682
G1 X143.266 Y133.915 E6.14833
G1 X143.206 Y134.605 E6.15985
G1 X143.067 Y135.283 E6.17136
G1 X142.966 Y135.622 E6.17724
G1 X142.856 Y135.955 E6.18308
G1 X142.601 Y136.599 E6.19459
G1 X142.274 Y137.209 E6.2061
G1 X141.879 Y137.778 E6.21762
G1 X141.42 Y138.297 E6.22915
G1 X140.905 Y138.76 E6.24066
G1 X140.422 Y139.108 E6.25056
G1 X140.172 Y139.27 E6.25552
G1 X139.57 Y139.613 E6.26704
G1 X138.933 Y139.883 E6.27854
G1 X138.268 Y140.079 E6.29007
G1 X137.586 Y140.197 E6.30158
G1 X136.912 Y140.235 E6.31281
G1 X84.626 Y140.262 E7.18233
G1 X84.039 Y140.233 E7.1921
G1 X80.83 Y139.919 E7.24573
G1 X80.145 Y139.812 E7.25725
G1 X79.294 Y139.561 E7.27201
G1 X76.922 Y138.665 E7.31418
G1 X76.289 Y138.383 E7.3257
G1 X75.659 Y138.007 E7.3379
G1 X74.14 Y136.97 E7.36849
G1 X73.745 Y136.676 E7.37668
G1 X72.959 Y136.039 E7.3935
G1 X72.227 Y135.335 E7.41039
G1 X70.773 Y133.678 E7.44705
G1 X70.347 Y133.132 E7.45857
G1 X69.971 Y132.511 E7.47064
G1 X68.795 Y130.272 E7.5127
G1 X68.509 Y129.641 E7.52422
G1 X68.281 Y128.915 E7.53688
G1 X67.678 Y126.463 E7.57887
G1 X67.551 Y125.782 E7.59039
G1 X67.504 Y125.085 E7.60201
G1 X67.429 Y116.8 E7.73979
G1 X67.055 Y111.511 E7.82797
G1 X66.382 Y106.253 E7.91612
G1 X65.401 Y100.981 E8.0053
G1 X64.585 Y97.514 E8.06453
G1 X64.459 Y96.781 E8.0769
G1 X64.348 Y95.75 E8.09415
G1 X64.314 Y95.059 E8.10565
G1 X64.36 Y94.368 E8.11717
G1 X64.429 Y93.941 E8.12436
G1 X64.638 Y92.887 E8.14223
G1 X64.811 Y92.217 E8.15374
G1 X65.061 Y91.571 E8.16526
G1 X65.273 Y91.149 E8.17311
G1 X65.756 Y90.276 E8.1897
G1 X66.126 Y89.691 E8.20121
G1 X66.56 Y89.152 E8.21272
G1 X66.833 Y88.869 E8.21926
G1 X67.547 Y88.178 E8.23579
G1 X68.072 Y87.726 E8.24731
M204 S5000
M205 X30 Y30
G0 F3600 X68.333 Y88.03
M204 S500
M205 X20 Y20
G1 F1800 X68.826 Y87.696 E8.25721
G1 X69.313 Y87.402 E8.26667
G1 X69.905 Y87.091 E8.27779
G1 X70.514 Y86.858 E8.28863
G1 X71.466 Y86.556 E8.30524
G1 X72.114 Y86.392 E8.31636
G1 X72.819 Y86.304 E8.32817
G1 X73.741 Y86.248 E8.34354
G1 X74.085 Y86.238 E8.34926
G1 X135.177 Y86.285 E9.36522
G1 X135.845 Y86.325 E9.37635
G1 X136.343 Y86.409 E9.38475
G1 X136.797 Y86.506 E9.39247
G1 X137.442 Y86.684 E9.4036
G1 X137.929 Y86.877 E9.41231
G1 X138.816 Y87.277 E9.42849
G1 X139.408 Y87.588 E9.43961
G1 X140.197 Y88.163 E9.45585
G1 X140.968 Y88.836 E9.47287
G1 X141.444 Y89.305 E9.48398
G1 X142.038 Y90.094 E9.5004
G1 X142.545 Y90.908 E9.51635
G1 X142.865 Y91.496 E9.52748
G1 X143.111 Y92.118 E9.53861
G1 X143.211 Y92.458 E9.5445
G1 X143.489 Y93.526 E9.56285
G1 X143.619 Y94.183 E9.57399
G1 X143.67 Y94.874 E9.58552
G1 X143.676 Y95.405 E9.59435
G1 X143.636 Y96.135 E9.6065
G1 X143.271 Y99.176 E9.65744
G1 X142.865 Y104.538 E9.74687
G1 X142.764 Y109.901 E9.83607
G1 X142.857 Y113.278 E9.89225
G1 X142.848 Y113.779 E9.90058
G1 X142.437 Y120.414 E10.01113
G1 X142.4 Y125.771 E10.10022
G1 X142.666 Y131.152 E10.18982
G1 X142.848 Y133.257 E10.22496
G1 X142.866 Y133.926 E10.23609
G1 X142.804 Y134.592 E10.24721
G1 X142.586 Y135.496 E10.26267
G1 X142.476 Y135.829 E10.26851
G1 X142.229 Y136.451 E10.27964
G1 X141.909 Y137.039 E10.29077
G1 X141.522 Y137.584 E10.30188
G1 X141.072 Y138.079 E10.31301
G1 X140.566 Y138.517 E10.32414
G1 X140.204 Y138.773 E10.33151
G1 X139.954 Y138.935 E10.33647
G1 X139.372 Y139.264 E10.34758
G1 X138.755 Y139.522 E10.35871
G1 X138.111 Y139.704 E10.36984
G1 X137.45 Y139.809 E10.38097
G1 X136.912 Y139.835 E10.38992
G1 X84.626 Y139.862 E11.25944
G1 X84.078 Y139.835 E11.26857
G1 X80.869 Y139.521 E11.32219
G1 X80.208 Y139.417 E11.33332
G1 X79.435 Y139.187 E11.34673
G1 X77.063 Y138.291 E11.38889
G1 X76.453 Y138.017 E11.40002
G1 X75.885 Y137.677 E11.41102
G1 X74.366 Y136.64 E11.44161
G1 X73.997 Y136.366 E11.44925
G1 X73.211 Y135.729 E11.46608
G1 X72.528 Y135.072 E11.48184
G1 X71.074 Y133.415 E11.5185
G1 X70.663 Y132.886 E11.52964
G1 X70.325 Y132.325 E11.54053
G1 X69.149 Y130.086 E11.58259
G1 X68.874 Y129.476 E11.59372
G1 X68.669 Y128.819 E11.60516
G1 X68.066 Y126.367 E11.64716
G1 X67.945 Y125.709 E11.65828
G1 X67.904 Y125.081 E11.66875
G1 X67.829 Y116.785 E11.80672
G1 X67.454 Y111.484 E11.89509
G1 X66.775 Y106.183 E11.98397
G1 X65.793 Y100.903 E12.07328
G1 X64.974 Y97.423 E12.13273
G1 X64.857 Y96.738 E12.14429
G1 X64.746 Y95.707 E12.16154
G1 X64.714 Y95.039 E12.17266
G1 X64.763 Y94.372 E12.18378
G1 X64.821 Y94.019 E12.18973
G1 X65.03 Y92.965 E12.2076
G1 X65.199 Y92.317 E12.21873
G1 X65.444 Y91.695 E12.22985
G1 X65.623 Y91.343 E12.23642
G1 X66.106 Y90.47 E12.25301
G1 X66.464 Y89.905 E12.26413
G1 X67.112 Y89.157 E12.28059
G1 X67.826 Y88.466 E12.29712
G1 X68.333 Y88.03 E12.30824
M204 S5000
M205 X30 Y30
G0 F3600 X68.594 Y88.335
M204 S500
M205 X20 Y20
G1 F1800 X69.033 Y88.038 E12.31705
G1 X69.52 Y87.744 E12.32651
G1 X70.091 Y87.446 E12.33722
G1 X70.635 Y87.239 E12.3469
G1 X71.587 Y86.937 E12.36351
G1 X72.212 Y86.781 E12.37422
G1 X72.844 Y86.704 E12.38481
G1 X73.766 Y86.648 E12.40017
G1 X74.085 Y86.638 E12.40548
G1 X135.177 Y86.685 E13.42145
G1 X135.82 Y86.725 E13.43216
G1 X136.259 Y86.8 E13.43957
G1 X136.713 Y86.897 E13.44729
G1 X137.334 Y87.07 E13.45801
G1 X137.765 Y87.242 E13.46572
G1 X138.652 Y87.642 E13.48191
G1 X139.222 Y87.943 E13.49262
G1 X139.934 Y88.465 E13.50731
G1 X140.705 Y89.138 E13.52433
G1 X141.163 Y89.591 E13.53504
G1 X141.699 Y90.306 E13.5499
G1 X142.206 Y91.12 E13.56585
G1 X142.512 Y91.687 E13.57656
G1 X142.824 Y92.559 E13.59196
G1 X143.102 Y93.627 E13.61032
G1 X143.226 Y94.26 E13.62104
G1 X143.27 Y94.878 E13.63135
G1 X143.276 Y95.409 E13.64018
G1 X143.239 Y96.088 E13.65149
G1 X142.872 Y99.145 E13.70269
G1 X142.465 Y104.519 E13.79232
G1 X142.363 Y109.905 E13.8819
G1 X142.457 Y113.289 E13.9382
G1 X142.449 Y113.755 E13.94595
G1 X142.037 Y120.405 E14.05675
G1 X142 Y125.769 E14.14596
G1 X142.267 Y131.181 E14.23607
G1 X142.45 Y133.292 E14.27131
G1 X142.465 Y133.936 E14.28202
G1 X142.401 Y134.578 E14.29275
G1 X142.207 Y135.371 E14.30633
G1 X142.097 Y135.704 E14.31216
G1 X141.857 Y136.302 E14.32287
G1 X141.545 Y136.867 E14.33361
G1 X141.165 Y137.388 E14.34433
G1 X140.725 Y137.858 E14.35504
G1 X139.987 Y138.437 E14.37064
G1 X139.737 Y138.599 E14.37559
G1 X139.175 Y138.915 E14.38631
G1 X138.579 Y139.16 E14.39703
G1 X137.956 Y139.328 E14.40776
G1 X137.318 Y139.419 E14.41848
G1 X136.912 Y139.435 E14.42523
G1 X84.626 Y139.462 E15.29475
G1 X84.117 Y139.437 E15.30323
G1 X80.908 Y139.123 E15.35685
G1 X80.271 Y139.021 E15.36758
G1 X79.576 Y138.813 E15.37964
G1 X77.204 Y137.917 E15.42181
G1 X76.617 Y137.652 E15.43252
G1 X76.11 Y137.347 E15.44236
G1 X74.591 Y136.31 E15.47295
G1 X74.249 Y136.055 E15.48004
G1 X73.463 Y135.418 E15.49687
G1 X72.828 Y134.808 E15.51151
G1 X71.374 Y133.151 E15.54817
G1 X70.98 Y132.641 E15.55889
G1 X70.679 Y132.139 E15.56862
G1 X69.503 Y129.9 E15.61068
G1 X69.24 Y129.312 E15.62139
G1 X69.057 Y128.724 E15.63163
G1 X68.454 Y126.272 E15.67362
G1 X68.34 Y125.637 E15.68435
G1 X68.304 Y125.077 E15.69369
G1 X68.228 Y116.769 E15.83185
G1 X67.851 Y111.439 E15.92071
G1 X67.17 Y106.113 E16.01001
G1 X66.189 Y100.84 E16.0992
G1 X65.363 Y97.331 E16.15915
G1 X65.255 Y96.696 E16.16986
G1 X65.144 Y95.665 E16.18711
G1 X65.115 Y95.021 E16.19783
G1 X65.213 Y94.097 E16.21328
G1 X65.422 Y93.043 E16.23115
G1 X65.587 Y92.419 E16.24188
G1 X65.973 Y91.537 E16.25789
G1 X66.456 Y90.664 E16.27449
G1 X66.802 Y90.12 E16.28521
G1 X67.39 Y89.444 E16.30011
G1 X68.104 Y88.753 E16.31663
G1 X68.594 Y88.335 E16.32734
M204 S5000
M205 X30 Y30
G1 F3000 E8.32734
G0 F3600 X73.623 Y91.178
G0 X73.716 Y92.457
G0 X135.063 Y92.87
M204 S500
M205 X20 Y20
;TYPE:WALL-INNER
G1 F3000 E16.32734
G1 F1800 X135.405 Y92.947 E16.33317
G1 X135.744 Y93.082 E16.33924
G1 X136.045 Y93.256 E16.34502
G1 X136.326 Y93.48 E16.351
G1 X136.574 Y93.748 E16.35707
G1 X136.776 Y94.046 E16.36306
G1 X136.929 Y94.363 E16.36891
G1 X137.034 Y94.703 E16.37483
G1 X137.087 Y95.061 E16.38085
G1 X137.086 Y95.417 E16.38677
G1 X137.032 Y95.777 E16.39282
G1 X136.924 Y96.125 E16.39888
G1 X136.777 Y96.431 E16.40453
G1 X136.568 Y96.735 E16.41066
G1 X136.325 Y96.997 E16.4166
G1 X136.041 Y97.223 E16.42264
G1 X135.733 Y97.4 E16.42855
G1 X135.403 Y97.529 E16.43444
G1 X135.054 Y97.608 E16.44039
G1 X134.671 Y97.637 E16.44678
G1 X73.726 Y97.638 E17.4603
G1 X73.342 Y97.608 E17.4667
G1 X72.978 Y97.525 E17.47291
G1 X72.659 Y97.399 E17.47862
G1 X72.344 Y97.217 E17.48467
G1 X72.065 Y96.994 E17.49061
G1 X71.816 Y96.724 E17.49671
G1 X71.623 Y96.441 E17.50241
G1 X71.46 Y96.101 E17.50868
G1 X71.362 Y95.784 E17.5142
G1 X71.306 Y95.403 E17.5206
G1 X71.306 Y95.055 E17.52639
G1 X71.36 Y94.7 E17.53236
G1 X71.463 Y94.367 E17.53816
G1 X71.625 Y94.035 E17.5443
G1 X71.823 Y93.742 E17.55018
G1 X72.072 Y93.476 E17.55624
G1 X72.346 Y93.258 E17.56206
G1 X72.664 Y93.076 E17.56816
G1 X72.991 Y92.948 E17.574
G1 X73.347 Y92.867 E17.58007
G1 X73.733 Y92.838 E17.58651
G1 X134.659 Y92.838 E18.59971
G1 X135.063 Y92.87 E18.60645
M204 S5000
M205 X30 Y30
G0 F3600 X135.122 Y92.473
M204 S500
M205 X20 Y20
G1 F1800 X135.523 Y92.564 E18.61329
G1 X135.917 Y92.72 E18.62034
G1 X136.273 Y92.926 E18.62718
G1 X136.602 Y93.188 E18.63417
G1 X136.885 Y93.494 E18.6411
G1 X137.124 Y93.847 E18.64819
G1 X137.302 Y94.216 E18.655
G1 X137.426 Y94.618 E18.662
G1 X137.487 Y95.029 E18.66891
G1 X137.486 Y95.45 E18.67591
G1 X137.424 Y95.865 E18.68289
G1 X137.299 Y96.267 E18.68989
G1 X137.122 Y96.635 E18.69668
G1 X136.882 Y96.985 E18.70374
G1 X136.597 Y97.292 E18.7107
G1 X136.266 Y97.555 E18.71774
G1 X135.909 Y97.76 E18.72458
G1 X135.518 Y97.913 E18.73156
G1 X135.113 Y98.005 E18.73847
G1 X134.688 Y98.037 E18.74556
G1 X73.708 Y98.038 E19.75966
G1 X73.283 Y98.005 E19.76675
G1 X72.86 Y97.908 E19.77397
G1 X72.487 Y97.761 E19.78063
G1 X72.113 Y97.545 E19.78782
G1 X71.795 Y97.291 E19.79458
G1 X71.502 Y96.973 E19.80177
G1 X71.274 Y96.64 E19.80849
G1 X71.088 Y96.252 E19.81564
G1 X70.97 Y95.867 E19.82234
G1 X70.906 Y95.435 E19.8296
G1 X70.906 Y95.028 E19.83637
G1 X70.97 Y94.608 E19.84343
G1 X71.091 Y94.217 E19.85024
G1 X71.277 Y93.834 E19.85732
G1 X71.508 Y93.494 E19.86416
G1 X71.801 Y93.18 E19.8713
G1 X72.121 Y92.926 E19.87809
G1 X72.494 Y92.712 E19.88525
G1 X72.87 Y92.565 E19.89196
G1 X73.288 Y92.47 E19.89909
G1 X73.716 Y92.438 E19.90623
G1 X134.677 Y92.438 E20.92001
G1 X135.122 Y92.473 E20.92743
M204 S5000
M205 X30 Y30
G0 F3600 X135.179 Y92.076
M204 S500
M205 X20 Y20
;TYPE:WALL-OUTER
