;FLAVOR:Marlin
M117 Time Left 0h28m22s
;TIME:1702
;Filament used: 0.742388m
;Layer height: 0.12
;MINX:94.013
;MINY:94.016
;MINZ:0.12
;MAXX:140.988
;MAXY:140.979
;MAXZ:4.2
;POSTPROCESSED
;Generated with Cura_SteamEngine 4.8.0
M140 S60
M105
M190 S60
M104 S205
M105
M109 S205
M82 ;absolute extrusion mode
; Ender 3 Custom Start G-code
G92 E0 ; Reset Extruder
G28 ; Home all axes
; ***SET NEW E STEP *** (93 is factory value - 95 mine - start)
G90                          ; Force coordinates to be absolute relative to the origin
M92 E95 ;					 ; ***SET NEW E STEP *** (93 is factory value - 95 mine - end)
G90                          ; Force coordinates to be absolute relative to the origin
G28                          ; Home X/Y/Z axis
G92 E0 ; Reset Extruder
G28 ; Home all axes
G1 Z2.0 F3000 ; Move Z Axis up little to prevent scratching of Heat Bed
G1 X0.1 Y20 Z0.3 F5000.0 ; Move to start position
G1 X0.1 Y200.0 Z0.3 F1500.0 E15 ; Draw the first line
G1 X0.4 Y200.0 Z0.3 F5000.0 ; Move to side a little
G1 X0.4 Y20 Z0.3 F1500.0 E30 ; Draw the second line
G92 E0 ; Reset Extruder
G1 Z2.0 F3000 ; Move Z Axis up little to prevent scratching of Heat Bed
G1 X5 Y20 Z0.3 F5000.0 ; Move over to prevent blob squish
G92 E0
G92 E0
G1 F2700 E-5
;LAYER_COUNT:35
;LAYER:0
M107
G0 F6000 X100.965 Y100.82 Z0.12
;TYPE:SKIRT
G1 F2700 E0
G1 F1200 X101.239 Y100.557 E0.00758
G1 X101.507 Y100.308 E0.01488
G1 X101.995 Y99.872 E0.02794
G1 X102.459 Y99.468 E0.04022
G1 X103.229 Y98.856 E0.05985
G1 X104.02 Y98.283 E0.07934
G1 X104.31 Y98.08 E0.0864
G1 X104.823 Y97.733 E0.09876
G1 X105.521 Y97.298 E0.11517
G1 X105.783 Y97.148 E0.1212
G1 X106.094 Y96.976 E0.12829
G1 X106.727 Y96.642 E0.14257
G1 X107.345 Y96.328 E0.15641
G1 X108.203 Y95.938 E0.17522
G1 X109.004 Y95.614 E0.19246
G1 X109.347 Y95.482 E0.19979
G1 X109.896 Y95.281 E0.21146
G1 X110.736 Y95.011 E0.22907
G1 X111.388 Y94.83 E0.24257
G1 X111.705 Y94.747 E0.24911
G1 X112.344 Y94.59 E0.26224
G1 X113.207 Y94.414 E0.27982
G1 X114.045 Y94.278 E0.29676
G1 X114.381 Y94.229 E0.30354
G1 X114.924 Y94.158 E0.31446
G1 X115.807 Y94.078 E0.33216
G1 X116.616 Y94.038 E0.34832
G1 X116.944 Y94.027 E0.35487
G1 X117.507 Y94.016 E0.36611
G1 X118.365 Y94.033 E0.38323
G1 X119.168 Y94.08 E0.39929
G1 X119.491 Y94.103 E0.40575
G1 X119.979 Y94.146 E0.41552
G1 X120.839 Y94.257 E0.43283
G1 X121.748 Y94.41 E0.45122
G1 X122.024 Y94.46 E0.45682
G1 X122.286 Y94.511 E0.46215
G1 X122.734 Y94.608 E0.4713
G1 X123.225 Y94.725 E0.48137
G1 X123.69 Y94.846 E0.49096
G1 X124.118 Y94.971 E0.49986
G1 X124.543 Y95.102 E0.50873
G1 X125.263 Y95.335 E0.52383
G1 X125.989 Y95.599 E0.53925
G1 X126.18 Y95.676 E0.54336
G1 X126.482 Y95.803 E0.5499
G1 X127.016 Y96.037 E0.56153
G1 X127.221 Y96.129 E0.56602
G1 X127.759 Y96.378 E0.57785
G1 X128.09 Y96.537 E0.58517
G1 X128.773 Y96.903 E0.60064
G1 X129.561 Y97.361 E0.61883
G1 X129.853 Y97.537 E0.62563
G1 X130.339 Y97.84 E0.63706
G1 X131.153 Y98.4 E0.65678
G1 X132.01 Y99.048 E0.67822
G1 X132.312 Y99.284 E0.68587
G1 X132.669 Y99.574 E0.69504
G1 X133.105 Y99.948 E0.70651
G1 X133.451 Y100.271 E0.71595
G1 X134.159 Y100.963 E0.73571
G1 X134.406 Y101.213 E0.74272
G1 X134.621 Y101.437 E0.74892
G1 X134.884 Y101.721 E0.75664
G1 X135.206 Y102.081 E0.76628
G1 X135.679 Y102.647 E0.781
G1 X136.162 Y103.266 E0.79667
G1 X136.362 Y103.531 E0.8033
G1 X136.694 Y103.984 E0.81451
G1 X136.897 Y104.27 E0.8215
G1 X136.997 Y104.416 E0.82504
G1 X137.394 Y105.039 E0.83978
G1 X137.906 Y105.906 E0.85987
G1 X138.086 Y106.223 E0.86715
G1 X138.373 Y106.748 E0.87909
G1 X138.811 Y107.643 E0.89897
G1 X139.194 Y108.525 E0.91816
G1 X139.335 Y108.866 E0.92552
G1 X139.472 Y109.213 E0.93297
G1 X139.575 Y109.483 E0.93874
G1 X139.633 Y109.642 E0.94211
G1 X139.853 Y110.31 E0.95615
G1 X140.089 Y111.113 E0.97285
G1 X140.18 Y111.444 E0.9797
G1 X140.313 Y111.955 E0.99024
G1 X140.388 Y112.261 E0.99653
G1 X140.471 Y112.622 E1.00392
G1 X140.602 Y113.282 E1.01735
G1 X140.686 Y113.787 E1.02756
G1 X140.735 Y114.11 E1.03408
G1 X140.794 Y114.544 E1.04282
G1 X140.838 Y114.915 E1.05028
G1 X140.877 Y115.299 E1.05798
G1 X140.909 Y115.684 E1.06569
G1 X140.949 Y116.289 E1.07779
G1 X140.966 Y116.63 E1.0846
G1 X140.983 Y117.115 E1.09429
G1 X140.988 Y117.709 E1.10614
G1 X140.983 Y117.972 E1.11139
G1 X140.967 Y118.4 E1.11994
G1 X140.95 Y118.685 E1.12564
G1 X140.873 Y119.752 E1.14699
G1 X140.804 Y120.423 E1.16045
G1 X140.773 Y120.654 E1.1651
G1 X140.686 Y121.197 E1.17607
G1 X140.466 Y122.383 E1.20014
G1 X140.23 Y123.39 E1.22078
G1 X139.983 Y124.251 E1.23866
G1 X139.772 Y124.94 E1.25304
G1 X139.631 Y125.368 E1.26203
G1 X139.599 Y125.459 E1.26396
G1 X139.456 Y125.842 E1.27212
G1 X139.352 Y126.106 E1.27778
G1 X139.247 Y126.364 E1.28334
G1 X139.06 Y126.802 E1.29284
G1 X138.752 Y127.494 E1.30796
G1 X138.521 Y127.979 E1.31868
G1 X138.316 Y128.375 E1.32758
G1 X138.054 Y128.857 E1.33852
G1 X137.886 Y129.154 E1.34533
G1 X137.543 Y129.741 E1.3589
G1 X137.041 Y130.522 E1.37743
G1 X136.549 Y131.221 E1.39449
G1 X136.375 Y131.461 E1.4004
G1 X136.118 Y131.806 E1.40899
G1 X135.904 Y132.085 E1.416
G1 X135.709 Y132.33 E1.42225
G1 X135.248 Y132.872 E1.43645
G1 X134.719 Y133.455 E1.45216
G1 X134.524 Y133.664 E1.45787
G1 X134.155 Y134.05 E1.46852
G1 X133.906 Y134.303 E1.47561
G1 X133.315 Y134.852 E1.49171
G1 X132.526 Y135.533 E1.5125
G1 X132.235 Y135.776 E1.52007
G1 X131.8 Y136.126 E1.53121
G1 X131.032 Y136.691 E1.55024
G1 X130.306 Y137.178 E1.56769
G1 X129.994 Y137.38 E1.5751
G1 X129.636 Y137.603 E1.58352
G1 X129.374 Y137.761 E1.58963
G1 X129.109 Y137.916 E1.59575
G1 X128.564 Y138.214 E1.60815
G1 X128.049 Y138.477 E1.61969
G1 X127.761 Y138.618 E1.62609
G1 X127.115 Y138.925 E1.64036
G1 X126.663 Y139.128 E1.65025
G1 X126.356 Y139.254 E1.65687
G1 X126.056 Y139.372 E1.6633
G1 X125.548 Y139.557 E1.67409
G1 X124.443 Y139.93 E1.69737
G1 X123.759 Y140.137 E1.71163
G1 X123.368 Y140.238 E1.71969
G1 X123.034 Y140.319 E1.72655
G1 X122.822 Y140.368 E1.73089
G1 X122.114 Y140.525 E1.74536
G1 X121.261 Y140.679 E1.76266
G1 X120.477 Y140.789 E1.77846
G1 X120.116 Y140.834 E1.78572
G1 X119.535 Y140.896 E1.79738
G1 X118.946 Y140.943 E1.80917
G1 X118.594 Y140.958 E1.8162
G1 X117.975 Y140.975 E1.82856
G1 X117.673 Y140.979 E1.83458
G1 X116.994 Y140.979 E1.84813
G1 X116.519 Y140.969 E1.85762
G1 X115.998 Y140.936 E1.86803
G1 X115.255 Y140.872 E1.88292
G1 X114.943 Y140.841 E1.88917
G1 X114.447 Y140.784 E1.89914
G1 X114.109 Y140.74 E1.90594
G1 X113.829 Y140.699 E1.91159
G1 X113.439 Y140.635 E1.91947
G1 X113.088 Y140.568 E1.9266
G1 X112.694 Y140.487 E1.93463
G1 X112.445 Y140.433 E1.93971
G1 X111.888 Y140.305 E1.95112
G1 X111.078 Y140.086 E1.96786
G1 X110.106 Y139.783 E1.98818
G1 X109.736 Y139.66 E1.99596
G1 X109.343 Y139.522 E2.00428
G1 X108.496 Y139.184 E2.02248
G1 X107.51 Y138.743 E2.04403
G1 X107.15 Y138.575 E2.05196
G1 X106.686 Y138.347 E2.06228
G1 X106.015 Y137.988 E2.07746
G1 X105.698 Y137.804 E2.08478
G1 X105.447 Y137.654 E2.09061
G1 X105.168 Y137.482 E2.09715
G1 X104.347 Y136.955 E2.11662
G1 X103.719 Y136.52 E2.13187
G1 X103.486 Y136.346 E2.13767
G1 X103.207 Y136.13 E2.14471
G1 X102.647 Y135.681 E2.15904
G1 X102.074 Y135.206 E2.17389
G1 X101.467 Y134.664 E2.19013
G1 X101.335 Y134.537 E2.19378
G1 X101.113 Y134.316 E2.20003
G1 X100.45 Y133.638 E2.21896
G1 X100.005 Y133.163 E2.23195
G1 X99.355 Y132.402 E2.25192
G1 X98.749 Y131.624 E2.2716
G1 X98.537 Y131.342 E2.27864
G1 X98.298 Y131.014 E2.28674
G1 X98.083 Y130.708 E2.2942
G1 X97.942 Y130.5 E2.29922
G1 X97.597 Y129.957 E2.31206
G1 X97.211 Y129.309 E2.32711
G1 X97.061 Y129.05 E2.33308
G1 X96.769 Y128.528 E2.34502
G1 X96.325 Y127.642 E2.36479
G1 X95.904 Y126.699 E2.3854
G1 X95.757 Y126.356 E2.39285
G1 X95.553 Y125.854 E2.40366
G1 X95.24 Y124.98 E2.42219
G1 X95.003 Y124.218 E2.43811
G1 X94.904 Y123.879 E2.44516
G1 X94.743 Y123.296 E2.45723
G1 X94.548 Y122.469 E2.47419
G1 X94.405 Y121.734 E2.48913
G1 X94.342 Y121.379 E2.49633
G1 X94.256 Y120.844 E2.50714
G1 X94.156 Y120.02 E2.5237
G1 X94.084 Y119.164 E2.54085
G1 X94.057 Y118.755 E2.54903
G1 X94.024 Y118.048 E2.56315
G1 X94.013 Y117.425 E2.57559
G1 X94.015 Y117.225 E2.57958
G1 X94.023 Y116.899 E2.58608
G1 X94.046 Y116.363 E2.59679
G1 X94.071 Y115.937 E2.60531
G1 X94.1 Y115.559 E2.61287
G1 X94.142 Y115.109 E2.62189
G1 X94.186 Y114.71 E2.6299
G1 X94.263 Y114.119 E2.6418
G1 X94.315 Y113.766 E2.64892
G1 X94.357 Y113.509 E2.65411
G1 X94.407 Y113.225 E2.65987
G1 X94.439 Y113.057 E2.66328
G1 X94.541 Y112.581 E2.673
G1 X94.746 Y111.715 E2.69076
G1 X94.833 Y111.371 E2.69784
G1 X94.952 Y110.932 E2.70691
G1 X95.212 Y110.104 E2.72423
G1 X95.495 Y109.313 E2.741
G1 X95.613 Y108.999 E2.74769
G1 X95.772 Y108.594 E2.75637
G1 X95.915 Y108.246 E2.76388
G1 X96.037 Y107.964 E2.77001
G1 X96.294 Y107.413 E2.78215
G1 X96.57 Y106.861 E2.79446
G1 X96.703 Y106.604 E2.80024
G1 X96.984 Y106.077 E2.81216
G1 X97.167 Y105.747 E2.81969
G1 X97.252 Y105.6 E2.82308
G1 X97.572 Y105.081 E2.83524
G1 X97.989 Y104.444 E2.85044
G1 X98.177 Y104.166 E2.85713
G1 X98.521 Y103.674 E2.86911
G1 X99.097 Y102.921 E2.88803
G1 X99.76 Y102.128 E2.90866
G1 X100.002 Y101.849 E2.91603
G1 X100.385 Y101.421 E2.92749
G1 X100.965 Y100.82 E2.94416
G0 F6000 X101.242 Y101.109
G1 F1200 X101.516 Y100.846 E2.95174
G1 X101.775 Y100.605 E2.9588
G1 X102.257 Y100.174 E2.9717
G1 X102.721 Y99.77 E2.98398
G1 X103.464 Y99.18 E3.00291
G1 X104.255 Y98.607 E3.02241
G1 X104.534 Y98.411 E3.02921
G1 X105.047 Y98.064 E3.04157
G1 X105.719 Y97.645 E3.05737
G1 X105.981 Y97.495 E3.0634
G1 X106.282 Y97.329 E3.07026
G1 X106.908 Y96.999 E3.08438
G1 X107.526 Y96.685 E3.09821
G1 X108.353 Y96.308 E3.11635
G1 X109.154 Y95.984 E3.13359
G1 X109.485 Y95.857 E3.14067
G1 X110.034 Y95.656 E3.15234
G1 X110.843 Y95.396 E3.16929
G1 X111.495 Y95.215 E3.1828
G1 X111.801 Y95.135 E3.18911
G1 X112.44 Y94.978 E3.20224
G1 X113.271 Y94.809 E3.21916
G1 X114.109 Y94.673 E3.23611
G1 X114.433 Y94.625 E3.24264
G1 X114.976 Y94.554 E3.25357
G1 X115.827 Y94.478 E3.27062
G1 X116.636 Y94.438 E3.28679
G1 X116.952 Y94.427 E3.2931
G1 X117.515 Y94.416 E3.30433
G1 X118.341 Y94.432 E3.32082
G1 X119.144 Y94.479 E3.33687
G1 X119.455 Y94.502 E3.34309
G1 X119.943 Y94.545 E3.35287
G1 X120.772 Y94.651 E3.36955
G1 X121.681 Y94.804 E3.38794
G1 X121.947 Y94.852 E3.39334
G1 X122.209 Y94.903 E3.39867
G1 X122.641 Y94.997 E3.40749
G1 X123.132 Y95.114 E3.41756
G1 X123.581 Y95.231 E3.42682
G1 X124.001 Y95.353 E3.43555
G1 X124.42 Y95.483 E3.4443
G1 X125.14 Y95.716 E3.45941
G1 X125.839 Y95.97 E3.47425
G1 X126.03 Y96.047 E3.47836
G1 X126.321 Y96.169 E3.48465
G1 X126.855 Y96.403 E3.49629
G1 X127.053 Y96.492 E3.50062
G1 X127.591 Y96.741 E3.51245
G1 X127.914 Y96.896 E3.5196
G1 X128.572 Y97.249 E3.5345
G1 X129.36 Y97.707 E3.55269
G1 X129.641 Y97.876 E3.55923
G1 X130.127 Y98.179 E3.57066
G1 X130.912 Y98.719 E3.58968
G1 X131.769 Y99.367 E3.61112
G1 X132.059 Y99.594 E3.61847
G1 X132.416 Y99.884 E3.62765
G1 X132.838 Y100.246 E3.63874
G1 X133.171 Y100.558 E3.64785
G1 X133.879 Y101.25 E3.66761
G1 X134.117 Y101.49 E3.67435
G1 X134.332 Y101.714 E3.68055
G1 X134.586 Y101.987 E3.68799
G1 X134.908 Y102.347 E3.69763
G1 X135.364 Y102.893 E3.71182
G1 X135.847 Y103.512 E3.72749
G1 X136.04 Y103.767 E3.73387
G1 X136.372 Y104.22 E3.74508
G1 X136.567 Y104.496 E3.75183
G1 X136.667 Y104.642 E3.75536
G1 X137.049 Y105.242 E3.76955
G1 X137.561 Y106.109 E3.78964
G1 X137.735 Y106.414 E3.79665
G1 X138.022 Y106.939 E3.80859
G1 X138.444 Y107.802 E3.82776
G1 X138.827 Y108.684 E3.84695
G1 X138.963 Y109.013 E3.85406
G1 X139.1 Y109.36 E3.8615
G1 X139.199 Y109.62 E3.86705
G1 X139.257 Y109.779 E3.87043
G1 X139.469 Y110.423 E3.88396
G1 X139.705 Y111.226 E3.90066
G1 X139.793 Y111.545 E3.90727
G1 X139.926 Y112.056 E3.9178
G1 X139.998 Y112.351 E3.92386
G1 X140.081 Y112.712 E3.93126
G1 X140.207 Y113.348 E3.9442
G1 X140.291 Y113.853 E3.95441
G1 X140.338 Y114.164 E3.96069
G1 X140.397 Y114.598 E3.96943
G1 X140.44 Y114.955 E3.97661
G1 X140.479 Y115.339 E3.98431
G1 X140.51 Y115.711 E3.99176
G1 X140.55 Y116.316 E4.00386
G1 X140.566 Y116.644 E4.01041
G1 X140.583 Y117.129 E4.02009
G1 X140.588 Y117.701 E4.03151
G1 X140.583 Y117.964 E4.03676
G1 X140.568 Y118.382 E4.04511
G1 X140.552 Y118.656 E4.05058
G1 X140.475 Y119.723 E4.07193
G1 X140.408 Y120.37 E4.08491
G1 X140.377 Y120.601 E4.08956
G1 X140.293 Y121.124 E4.10013
G1 X140.073 Y122.31 E4.12421
G1 X139.846 Y123.281 E4.14411
G1 X139.66 Y123.934 E4.15766
G1 X139.389 Y124.823 E4.1762
G1 X139.254 Y125.235 E4.18485
G1 X139.222 Y125.326 E4.18678
G1 X139.084 Y125.695 E4.19464
G1 X138.879 Y126.208 E4.20567
G1 X138.694 Y126.639 E4.21503
G1 X138.386 Y127.331 E4.23014
G1 X138.164 Y127.799 E4.24048
G1 X137.964 Y128.184 E4.24914
G1 X137.702 Y128.666 E4.26009
G1 X137.541 Y128.952 E4.26663
G1 X137.198 Y129.539 E4.2802
G1 X136.714 Y130.292 E4.29807
G1 X136.222 Y130.991 E4.31512
G1 X136.055 Y131.222 E4.32081
G1 X135.798 Y131.567 E4.3294
G1 X135.591 Y131.836 E4.33617
G1 X135.396 Y132.081 E4.34242
G1 X134.952 Y132.603 E4.3561
G1 X134.423 Y133.186 E4.37181
G1 X134.235 Y133.388 E4.37731
G1 X133.866 Y133.774 E4.38797
G1 X133.623 Y134.02 E4.39487
G1 X133.054 Y134.549 E4.41037
G1 X132.265 Y135.23 E4.43117
G1 X131.984 Y135.465 E4.43848
G1 X131.549 Y135.815 E4.44962
G1 X130.809 Y136.359 E4.46795
G1 X130.083 Y136.846 E4.4854
G1 X129.782 Y137.04 E4.49255
G1 X129.424 Y137.263 E4.50096
G1 X129.172 Y137.416 E4.50685
G1 X128.907 Y137.571 E4.51297
G1 X128.382 Y137.858 E4.52491
G1 X127.872 Y138.118 E4.53634
G1 X127.589 Y138.257 E4.54263
G1 X126.943 Y138.564 E4.5569
G1 X126.506 Y138.76 E4.56646
G1 X126.21 Y138.881 E4.57284
G1 X125.91 Y138.999 E4.57927
G1 X125.42 Y139.178 E4.58968
G1 X124.315 Y139.551 E4.61296
G1 X123.656 Y139.75 E4.6267
G1 X123.273 Y139.849 E4.63459
G1 X122.736 Y139.978 E4.64561
G1 X122.028 Y140.135 E4.66008
G1 X121.206 Y140.283 E4.67675
G1 X120.422 Y140.393 E4.69255
G1 X120.074 Y140.436 E4.69955
G1 X119.493 Y140.498 E4.71121
G1 X118.925 Y140.543 E4.72258
G1 X118.583 Y140.558 E4.72941
G1 X117.964 Y140.575 E4.74177
G1 X117.673 Y140.579 E4.74758
G1 X116.994 Y140.579 E4.76113
G1 X116.535 Y140.569 E4.77029
G1 X116.032 Y140.538 E4.78034
G1 X115.289 Y140.474 E4.79523
G1 X114.989 Y140.444 E4.80124
G1 X114.493 Y140.387 E4.81121
G1 X114.167 Y140.344 E4.81777
G1 X113.887 Y140.303 E4.82342
G1 X113.512 Y140.241 E4.831
G1 X113.168 Y140.176 E4.83799
G1 X112.774 Y140.095 E4.84602
G1 X112.535 Y140.043 E4.8509
G1 X111.978 Y139.915 E4.8623
G1 X111.197 Y139.704 E4.87845
G1 X110.225 Y139.401 E4.89876
G1 X109.868 Y139.282 E4.90627
G1 X109.475 Y139.144 E4.91459
G1 X108.659 Y138.819 E4.93211
G1 X107.673 Y138.378 E4.95367
G1 X107.326 Y138.216 E4.96131
G1 X106.862 Y137.988 E4.97163
G1 X106.216 Y137.642 E4.98625
G1 X105.899 Y137.458 E4.99357
G1 X105.657 Y137.313 E4.9992
G1 X105.203 Y137.031 E5.00986
G1 X104.563 Y136.619 E5.02505
G1 X103.959 Y136.199 E5.03973
G1 X103.726 Y136.025 E5.04554
G1 X103.456 Y135.817 E5.05234
G1 X102.902 Y135.373 E5.06651
G1 X102.329 Y134.898 E5.08136
G1 X101.745 Y134.376 E5.09699
G1 X101.613 Y134.249 E5.10065
G1 X101.398 Y134.036 E5.10669
G1 X100.914 Y133.543 E5.12047
G1 X100.742 Y133.364 E5.12543
G1 X100.297 Y132.889 E5.13842
G1 X99.67 Y132.156 E5.15767
G1 X99.064 Y131.378 E5.17735
G1 X98.86 Y131.106 E5.18413
G1 X98.621 Y130.778 E5.19223
G1 X98.414 Y130.484 E5.1994
G1 X98.273 Y130.276 E5.20442
G1 X97.94 Y129.753 E5.21679
G1 X97.554 Y129.105 E5.23184
G1 X97.41 Y128.855 E5.2376
G1 X97.118 Y128.333 E5.24954
G1 X96.69 Y127.479 E5.2686
G1 X96.269 Y126.536 E5.28921
G1 X96.128 Y126.206 E5.29637
G1 X95.924 Y125.704 E5.30718
G1 X95.622 Y124.861 E5.32505
G1 X95.385 Y124.099 E5.34098
G1 X95.289 Y123.773 E5.34776
G1 X95.128 Y123.19 E5.35983
G1 X94.941 Y122.392 E5.37619
G1 X94.798 Y121.657 E5.39113
G1 X94.737 Y121.315 E5.39806
G1 X94.651 Y120.78 E5.40888
G1 X94.554 Y119.986 E5.42484
G1 X94.482 Y119.13 E5.44198
G1 X94.457 Y118.736 E5.44986
G1 X94.424 Y118.029 E5.46399
G1 X94.413 Y117.429 E5.47596
G1 X94.415 Y117.229 E5.47995
G1 X94.422 Y116.915 E5.48622
G1 X94.445 Y116.386 E5.49679
G1 X94.47 Y115.96 E5.5053
G1 X94.498 Y115.596 E5.51259
G1 X94.54 Y115.146 E5.52161
G1 X94.583 Y114.762 E5.52932
G1 X94.66 Y114.171 E5.54121
G1 X94.71 Y113.83 E5.54809
