;FLAVOR:Marlin
M117 Time Left 0h51m30s
;TIME:3090
;Filament used: 1.22065m
;Layer height: 0.12
;MINX:94.022
;MINY:94.027
;MINZ:0.12
;MAXX:140.983
;MAXY:140.97
;MAXZ:6.24
;POSTPROCESSED
;Generated with Cura_SteamEngine 4.8.0
M140 S60
M105
M190 S60
M104 S205
M105
M109 S205
M82 ;absolute extrusion mode
; Ender 3 Custom Start G-code
G92 E0 ; Reset Extruder
G28 ; Home all axes
; ***SET NEW E STEP *** (93 is factory value - 95 mine - start)
G90                          ; Force coordinates to be absolute relative to the origin
M92 E95 ;					 ; ***SET NEW E STEP *** (93 is factory value - 95 mine - end)
G90                          ; Force coordinates to be absolute relative to the origin
G28                          ; Home X/Y/Z axis
G92 E0 ; Reset Extruder
G28 ; Home all axes
G1 Z2.0 F3000 ; Move Z Axis up little to prevent scratching of Heat Bed
G1 X0.1 Y20 Z0.3 F5000.0 ; Move to start position
G1 X0.1 Y200.0 Z0.3 F1500.0 E15 ; Draw the first line
G1 X0.4 Y200.0 Z0.3 F5000.0 ; Move to side a little
G1 X0.4 Y20 Z0.3 F1500.0 E30 ; Draw the second line
G92 E0 ; Reset Extruder
G1 Z2.0 F3000 ; Move Z Axis up little to prevent scratching of Heat Bed
G1 X5 Y20 Z0.3 F5000.0 ; Move over to prevent blob squish
G92 E0
G92 E0
G1 F2700 E-5
;LAYER_COUNT:52
;LAYER:0
M107
G0 F6000 X101.103 Y100.711 Z0.12
;TYPE:SKIRT
G1 F2700 E0
G1 F1200 X101.565 Y100.254 E0.01297
G1 X101.669 Y100.157 E0.01581
G1 X102.439 Y99.502 E0.03598
G1 X103.262 Y98.865 E0.05675
G1 X103.433 Y98.735 E0.06104
G1 X103.893 Y98.395 E0.07245
G1 X104.52 Y97.943 E0.08788
G1 X105.304 Y97.427 E0.10661
G1 X105.9 Y97.095 E0.12022
G1 X106.801 Y96.629 E0.14046
G1 X106.991 Y96.533 E0.14471
G1 X107.615 Y96.227 E0.15858
G1 X108.205 Y95.946 E0.17162
G1 X108.945 Y95.626 E0.18771
G1 X109.094 Y95.568 E0.1909
G1 X109.765 Y95.332 E0.2051
G1 X110.481 Y95.106 E0.22008
G1 X111.095 Y94.922 E0.23287
G1 X111.781 Y94.727 E0.2471
G1 X112.247 Y94.606 E0.25671
G1 X113.23 Y94.417 E0.27669
G1 X114.201 Y94.277 E0.29627
G1 X114.935 Y94.182 E0.31104
G1 X115.705 Y94.094 E0.3265
G1 X116.64 Y94.027 E0.34521
G1 X117.238 Y94.027 E0.35714
G1 X118.316 Y94.056 E0.37866
G1 X118.953 Y94.085 E0.39139
G1 X119.695 Y94.127 E0.40622
G1 X120.652 Y94.223 E0.42541
G1 X120.783 Y94.242 E0.42805
G1 X121.299 Y94.329 E0.4385
G1 X121.94 Y94.454 E0.45153
G1 X122.591 Y94.589 E0.4648
G1 X123.201 Y94.724 E0.47727
G1 X124.474 Y95.087 E0.50368
G1 X125.54 Y95.462 E0.52623
G1 X125.932 Y95.606 E0.53457
G1 X126.825 Y95.955 E0.5537
G1 X127.796 Y96.392 E0.57495
G1 X127.959 Y96.475 E0.5786
G1 X128.337 Y96.676 E0.58714
G1 X128.83 Y96.953 E0.59843
G1 X129.587 Y97.388 E0.61585
G1 X130.17 Y97.734 E0.62938
G1 X130.955 Y98.247 E0.64809
G1 X131.372 Y98.56 E0.6585
G1 X132.114 Y99.147 E0.67738
G1 X132.487 Y99.45 E0.68697
G1 X133.13 Y99.99 E0.70373
G1 X133.624 Y100.432 E0.71696
G1 X133.847 Y100.644 E0.7231
G1 X134.512 Y101.334 E0.74222
G1 X134.914 Y101.789 E0.75434
G1 X135.59 Y102.571 E0.77496
G1 X135.972 Y103.025 E0.7868
G1 X136.332 Y103.476 E0.79832
G1 X136.4 Y103.566 E0.80057
G1 X137.032 Y104.499 E0.82306
G1 X137.712 Y105.625 E0.84931
G1 X138.088 Y106.279 E0.86436
G1 X138.423 Y106.876 E0.87803
G1 X138.753 Y107.513 E0.89234
G1 X138.797 Y107.605 E0.89438
G1 X139.147 Y108.418 E0.91204
G1 X139.499 Y109.342 E0.93177
G1 X139.668 Y109.813 E0.94176
G1 X139.864 Y110.373 E0.9536
G1 X140.086 Y111.083 E0.96845
G1 X140.185 Y111.442 E0.97588
G1 X140.334 Y112.049 E0.98835
G1 X140.455 Y112.614 E0.99988
G1 X140.561 Y113.145 E1.01069
G1 X140.694 Y113.852 E1.02504
G1 X140.826 Y114.759 E1.04333
G1 X140.843 Y114.924 E1.04664
G1 X140.87 Y115.227 E1.05271
G1 X140.903 Y115.669 E1.06156
G1 X140.941 Y116.262 E1.07342
G1 X140.975 Y116.933 E1.08683
G1 X140.983 Y117.853 E1.10519
G1 X140.964 Y118.338 E1.11487
G1 X140.938 Y118.763 E1.12337
G1 X140.896 Y119.377 E1.13565
G1 X140.846 Y119.999 E1.1481
G1 X140.809 Y120.374 E1.15562
G1 X140.669 Y121.304 E1.17439
G1 X140.493 Y122.205 E1.19271
G1 X140.411 Y122.588 E1.20053
G1 X140.256 Y123.275 E1.21458
G1 X139.915 Y124.47 E1.23938
G1 X139.576 Y125.444 E1.25996
G1 X139.45 Y125.791 E1.26733
G1 X139.111 Y126.672 E1.28617
G1 X138.629 Y127.746 E1.30966
G1 X138.561 Y127.878 E1.31262
G1 X138.405 Y128.169 E1.31921
G1 X138.099 Y128.72 E1.33179
G1 X137.622 Y129.556 E1.351
G1 X137.333 Y130.047 E1.36237
G1 X136.976 Y130.613 E1.37572
G1 X136.848 Y130.803 E1.38029
G1 X136.245 Y131.614 E1.40046
G1 X135.625 Y132.372 E1.42
G1 X135.002 Y133.107 E1.43923
G1 X134.619 Y133.547 E1.45087
G1 X134.232 Y133.969 E1.4623
G1 X134.146 Y134.058 E1.46477
G1 X133.297 Y134.848 E1.48791
G1 X132.437 Y135.568 E1.5103
G1 X132.268 Y135.707 E1.51466
G1 X131.676 Y136.182 E1.52981
G1 X131.172 Y136.575 E1.54256
G1 X130.242 Y137.226 E1.56522
G1 X130.023 Y137.363 E1.57037
G1 X129.461 Y137.692 E1.58337
G1 X129.036 Y137.923 E1.59302
G1 X128.097 Y138.422 E1.61424
G1 X127.432 Y138.766 E1.62918
G1 X126.208 Y139.308 E1.6559
G1 X125.998 Y139.386 E1.66037
G1 X125.647 Y139.51 E1.6678
G1 X125.167 Y139.669 E1.67789
G1 X124.226 Y139.971 E1.69761
G1 X123.853 Y140.085 E1.70539
G1 X123.501 Y140.186 E1.7127
G1 X123.015 Y140.317 E1.72275
G1 X121.991 Y140.541 E1.74366
G1 X121.223 Y140.671 E1.75921
G1 X120.757 Y140.742 E1.76862
G1 X120.07 Y140.838 E1.78246
G1 X118.849 Y140.94 E1.80691
G1 X117.823 Y140.967 E1.82739
G1 X117.511 Y140.97 E1.83362
G1 X116.766 Y140.969 E1.84849
G1 X115.829 Y140.928 E1.8672
G1 X115.339 Y140.874 E1.87704
G1 X114.278 Y140.732 E1.8984
G1 X113.529 Y140.618 E1.91352
G1 X113.013 Y140.535 E1.92395
G1 X112.248 Y140.384 E1.93951
G1 X111.924 Y140.308 E1.94615
G1 X111.015 Y140.053 E1.96499
G1 X110.257 Y139.804 E1.98092
G1 X109.275 Y139.465 E2.00165
G1 X108.693 Y139.255 E2.01399
G1 X107.825 Y138.899 E2.03272
G1 X107.271 Y138.625 E2.04505
G1 X106.27 Y138.094 E2.06766
G1 X105.839 Y137.857 E2.07748
G1 X105.186 Y137.482 E2.09251
G1 X104.899 Y137.31 E2.09918
G1 X104.697 Y137.185 E2.10392
G1 X103.892 Y136.636 E2.12337
G1 X103.681 Y136.478 E2.12863
G1 X103.424 Y136.28 E2.1351
G1 X102.53 Y135.567 E2.15792
G1 X102.143 Y135.25 E2.16791
G1 X101.839 Y134.991 E2.17588
G1 X101.611 Y134.79 E2.18194
G1 X100.943 Y134.15 E2.2004
G1 X100.617 Y133.806 E2.20986
G1 X100.391 Y133.559 E2.21654
G1 X99.767 Y132.863 E2.2352
G1 X99.42 Y132.467 E2.2457
G1 X99.196 Y132.203 E2.25261
G1 X99.099 Y132.085 E2.25566
G1 X98.483 Y131.261 E2.27619
G1 X97.884 Y130.375 E2.29754
G1 X97.682 Y130.064 E2.30494
G1 X97.216 Y129.322 E2.32242
G1 X96.874 Y128.739 E2.33591
G1 X96.59 Y128.19 E2.34825
G1 X96.433 Y127.864 E2.35547
G1 X96.32 Y127.621 E2.36081
G1 X95.959 Y126.818 E2.37838
G1 X95.752 Y126.34 E2.38878
G1 X95.625 Y126.035 E2.39537
G1 X95.518 Y125.766 E2.40115
G1 X95.203 Y124.863 E2.42023
G1 X94.999 Y124.18 E2.43446
G1 X94.895 Y123.82 E2.44194
G1 X94.71 Y123.139 E2.45602
G1 X94.631 Y122.829 E2.4624
G1 X94.583 Y122.628 E2.46653
G1 X94.395 Y121.645 E2.4865
G1 X94.233 Y120.513 E2.50932
G1 X94.186 Y120.138 E2.51686
G1 X94.11 Y119.453 E2.53062
G1 X94.08 Y119.151 E2.53667
G1 X94.059 Y118.897 E2.54176
G1 X94.022 Y117.925 E2.56117
G1 X94.024 Y117.59 E2.56786
G1 X94.031 Y117.269 E2.57426
G1 X94.069 Y116.215 E2.59531
G1 X94.104 Y115.528 E2.60904
G1 X94.192 Y114.595 E2.62774
G1 X94.278 Y114.063 E2.63849
G1 X94.452 Y113.134 E2.65736
G1 X94.588 Y112.463 E2.67102
G1 X94.624 Y112.292 E2.67451
G1 X94.768 Y111.642 E2.68779
G1 X95.01 Y110.736 E2.70651
G1 X95.203 Y110.172 E2.7184
G1 X95.6 Y109.109 E2.74105
G1 X95.681 Y108.899 E2.74554
G1 X95.901 Y108.349 E2.75736
G1 X96.165 Y107.711 E2.77114
G1 X96.56 Y106.861 E2.78984
G1 X96.897 Y106.256 E2.80366
G1 X97.457 Y105.323 E2.82538
G1 X97.814 Y104.749 E2.83887
G1 X98.246 Y104.08 E2.85476
G1 X98.567 Y103.612 E2.86609
G1 X98.669 Y103.471 E2.86956
G1 X99.369 Y102.599 E2.89187
G1 X99.984 Y101.909 E2.91032
G1 X100.543 Y101.301 E2.9268
G1 X101.103 Y100.711 E2.94303
G0 F6000 X101.393 Y100.987
G1 F1200 X101.838 Y100.546 E2.95554
G1 X101.942 Y100.449 E2.95838
G1 X102.684 Y99.819 E2.9778
G1 X103.672 Y99.056 E3.00271
G1 X104.127 Y98.719 E3.01401
G1 X104.754 Y98.267 E3.02944
G1 X105.524 Y97.762 E3.04781
G1 X106.083 Y97.451 E3.06058
G1 X106.984 Y96.985 E3.08082
G1 X107.168 Y96.892 E3.08493
G1 X107.787 Y96.588 E3.0987
G1 X108.377 Y96.307 E3.11174
G1 X109.09 Y95.999 E3.12724
G1 X109.239 Y95.941 E3.13043
G1 X109.885 Y95.713 E3.1441
G1 X110.596 Y95.489 E3.15898
G1 X111.205 Y95.307 E3.17166
G1 X111.891 Y95.112 E3.18589
G1 X112.34 Y94.995 E3.19515
G1 X113.288 Y94.812 E3.21442
G1 X114.252 Y94.673 E3.23386
G1 X114.811 Y94.6 E3.24511
G1 X115.75 Y94.492 E3.26397
G1 X116.669 Y94.427 E3.28235
G1 X117.228 Y94.427 E3.29351
G1 X118.299 Y94.456 E3.31489
G1 X118.93 Y94.484 E3.3275
G1 X119.672 Y94.526 E3.34233
G1 X120.594 Y94.619 E3.36082
G1 X120.725 Y94.638 E3.36346
G1 X121.222 Y94.722 E3.37352
G1 X121.86 Y94.846 E3.38649
G1 X122.504 Y94.979 E3.39961
G1 X123.114 Y95.114 E3.41208
G1 X124.342 Y95.465 E3.43757
G1 X125.586 Y95.904 E3.46389
G1 X125.971 Y96.049 E3.4721
G1 X126.679 Y96.327 E3.48728
G1 X127.615 Y96.748 E3.50776
G1 X127.778 Y96.831 E3.51141
G1 X128.142 Y97.026 E3.51966
G1 X128.631 Y97.3 E3.53084
G1 X129.383 Y97.732 E3.54815
G1 X129.966 Y98.078 E3.56168
G1 X130.736 Y98.582 E3.58004
G1 X131.124 Y98.874 E3.58973
G1 X131.746 Y99.365 E3.60555
G1 X132.379 Y99.88 E3.62183
G1 X132.873 Y100.296 E3.63472
G1 X133.348 Y100.722 E3.64745
G1 X133.571 Y100.934 E3.65359
G1 X134.213 Y101.599 E3.67204
G1 X134.546 Y101.976 E3.68208
G1 X135.284 Y102.828 E3.70457
G1 X135.666 Y103.282 E3.71641
G1 X136.012 Y103.717 E3.7275
G1 X136.08 Y103.807 E3.72976
G1 X136.69 Y104.706 E3.75144
G1 X137.252 Y105.634 E3.77309
G1 X137.365 Y105.825 E3.77752
G1 X137.739 Y106.475 E3.79248
G1 X138.074 Y107.072 E3.80614
G1 X138.393 Y107.686 E3.81995
G1 X138.437 Y107.778 E3.82198
G1 X138.773 Y108.561 E3.83899
G1 X139.054 Y109.295 E3.85467
G1 X139.291 Y109.945 E3.86848
G1 X139.487 Y110.505 E3.88032
G1 X139.701 Y111.189 E3.89462
G1 X139.8 Y111.548 E3.90205
G1 X139.943 Y112.133 E3.91407
G1 X140.063 Y112.693 E3.9255
G1 X140.168 Y113.219 E3.93621
G1 X140.301 Y113.926 E3.95056
G1 X140.428 Y114.8 E3.96819
G1 X140.445 Y114.965 E3.9715
G1 X140.471 Y115.257 E3.97735
G1 X140.504 Y115.695 E3.98611
G1 X140.532 Y116.117 E3.99455
G1 X140.575 Y116.954 E4.01128
G1 X140.583 Y117.84 E4.02896
G1 X140.576 Y118.052 E4.03319
G1 X140.564 Y118.314 E4.03843
G1 X140.539 Y118.736 E4.04686
G1 X140.497 Y119.345 E4.05904
G1 X140.447 Y119.967 E4.0715
G1 X140.412 Y120.331 E4.07879
G1 X140.277 Y121.227 E4.09688
G1 X140.101 Y122.124 E4.11512
G1 X140.021 Y122.5 E4.12279
G1 X139.866 Y123.187 E4.13685
G1 X139.537 Y124.338 E4.16073
G1 X139.198 Y125.312 E4.18132
G1 X139.074 Y125.653 E4.18856
G1 X139.015 Y125.811 E4.19192
G1 X138.738 Y126.528 E4.20726
G1 X138.273 Y127.562 E4.22989
G1 X138.205 Y127.694 E4.23285
G1 X138.055 Y127.975 E4.23921
G1 X137.751 Y128.522 E4.25169
G1 X137.277 Y129.353 E4.27079
G1 X136.988 Y129.844 E4.28216
G1 X136.644 Y130.389 E4.29502
G1 X136.516 Y130.579 E4.29959
G1 X135.935 Y131.361 E4.31903
G1 X135.319 Y132.113 E4.33843
G1 X134.7 Y132.845 E4.35756
G1 X134.317 Y133.285 E4.3692
G1 X133.945 Y133.691 E4.38019
G1 X133.859 Y133.78 E4.38266
G1 X133.041 Y134.542 E4.40497
G1 X132.181 Y135.262 E4.42735
G1 X131.553 Y135.769 E4.44346
G1 X130.926 Y136.259 E4.45934
G1 X130.03 Y136.886 E4.48116
G1 X129.811 Y137.023 E4.48632
G1 X129.269 Y137.341 E4.49886
G1 X128.848 Y137.57 E4.50842
G1 X127.913 Y138.067 E4.52955
G1 X127.248 Y138.411 E4.5445
G1 X126.069 Y138.933 E4.57023
G1 X125.859 Y139.011 E4.5747
G1 X125.52 Y139.13 E4.58187
G1 X125.044 Y139.288 E4.59188
G1 X124.109 Y139.588 E4.61147
G1 X123.736 Y139.702 E4.61926
G1 X123.397 Y139.8 E4.6263
G1 X122.911 Y139.931 E4.63634
G1 X121.924 Y140.147 E4.6565
G1 X121.161 Y140.275 E4.67194
G1 X120.702 Y140.346 E4.68121
G1 X120.015 Y140.442 E4.69506
G1 X118.838 Y140.54 E4.71863
G1 X117.817 Y140.567 E4.73901
G1 X117.512 Y140.57 E4.74509
G1 X116.767 Y140.569 E4.75996
G1 X115.391 Y140.478 E4.78748
G1 X114.529 Y140.364 E4.80483
G1 X113.593 Y140.223 E4.82372
G1 X113.077 Y140.14 E4.83415
G1 X112.339 Y139.995 E4.84916
G1 X112.015 Y139.919 E4.8558
G1 X111.139 Y139.673 E4.87396
G1 X110.387 Y139.426 E4.88976
G1 X109.41 Y139.089 E4.91038
G1 X108.828 Y138.879 E4.92273
G1 X107.977 Y138.529 E4.94109
G1 X107.459 Y138.272 E4.95263
G1 X106.458 Y137.741 E4.97524
G1 X106.033 Y137.507 E4.98493
G1 X105.386 Y137.135 E4.99982
G1 X105.109 Y136.97 E5.00625
G1 X104.907 Y136.845 E5.01099
G1 X104.131 Y136.316 E5.02974
G1 X103.92 Y136.158 E5.035
G1 X103.673 Y135.967 E5.04123
G1 X102.783 Y135.257 E5.06395
G1 X102.396 Y134.94 E5.07393
G1 X102.103 Y134.691 E5.0816
G1 X101.875 Y134.49 E5.08767
G1 X101.232 Y133.873 E5.10545
G1 X100.912 Y133.536 E5.11473
G1 X100.689 Y133.292 E5.12132
G1 X100.068 Y132.6 E5.13988
G1 X99.721 Y132.204 E5.15039
G1 X99.505 Y131.949 E5.15706
G1 X99.408 Y131.831 E5.1601
G1 X98.815 Y131.037 E5.17988
G1 X98.216 Y130.151 E5.20122
G1 X98.02 Y129.852 E5.20836
G1 X97.554 Y129.11 E5.22584
G1 X97.225 Y128.548 E5.23884
G1 X97.195 Y128.493 E5.24009
G1 X96.951 Y128.016 E5.25078
G1 X96.794 Y127.69 E5.258
G1 X96.684 Y127.456 E5.26316
G1 X96.393 Y126.812 E5.27726
G1 X96.119 Y126.181 E5.29099
G1 X95.997 Y125.887 E5.29734
G1 X95.89 Y125.618 E5.30312
G1 X95.587 Y124.748 E5.32151
G1 X95.383 Y124.069 E5.33566
G1 X95.279 Y123.709 E5.34313
G1 X95.096 Y123.035 E5.35707
G1 X95.02 Y122.736 E5.36323
G1 X94.972 Y122.535 E5.36735
G1 X94.791 Y121.588 E5.38659
G1 X94.63 Y120.463 E5.40927
G1 X94.565 Y119.934 E5.41991
G1 X94.507 Y119.409 E5.43045
G1 X94.479 Y119.118 E5.43628
G1 X94.458 Y118.864 E5.44137
G1 X94.422 Y117.928 E5.46006
G1 X94.424 Y117.593 E5.46675
G1 X94.431 Y117.283 E5.47293
G1 X94.469 Y116.236 E5.49384
G1 X94.504 Y115.549 E5.50757
G1 X94.59 Y114.632 E5.52595
G1 X94.671 Y114.137 E5.53596
G1 X94.845 Y113.208 E5.55482
G1 X94.98 Y112.543 E5.56836
G1 X95.159 Y111.728 E5.58501
G1 X95.397 Y110.839 E5.60338
G1 X95.578 Y110.312 E5.6145
G1 X95.975 Y109.249 E5.63714
G1 X96.213 Y108.644 E5.65012
G1 X96.534 Y107.864 E5.66695
G1 X96.923 Y107.029 E5.68533
G1 X97.24 Y106.462 E5.6983
G1 X97.8 Y105.529 E5.72001
G1 X98.153 Y104.961 E5.73336
G1 X98.581 Y104.298 E5.74911
G1 X98.891 Y103.846 E5.76004
G1 X98.993 Y103.705 E5.76352
G1 X99.668 Y102.865 E5.78502
G1 X100.406 Y102.039 E5.80713
G1 X100.952 Y101.45 E5.82315
G1 X101.393 Y100.987 E5.83591
G0 F6000 X101.682 Y101.263
G1 F1200 X102.111 Y100.839 E5.84795
G1 X102.215 Y100.742 E5.85079
G1 X102.929 Y100.135 E5.86949
G1 X103.911 Y99.377 E5.89425
G1 X104.361 Y99.044 E5.90542
G1 X104.988 Y98.592 E5.92084
G1 X105.743 Y98.097 E5.93886
G1 X106.267 Y97.806 E5.95082
G1 X107.168 Y97.34 E5.97106
G1 X107.836 Y97.009 E5.98594
G1 X108.549 Y96.668 E6.00171
G1 X109.235 Y96.372 E6.01662
G1 X109.384 Y96.314 E6.01981
G1 X110.006 Y96.095 E6.03297
G1 X110.712 Y95.872 E6.04775
G1 X111.314 Y95.692 E6.06029
G1 X112 Y95.497 E6.07452
G1 X112.434 Y95.384 E6.08347
G1 X113.345 Y95.208 E6.10199
G1 X114.304 Y95.07 E6.12132
G1 X115.026 Y94.977 E6.13585
G1 X115.796 Y94.889 E6.15131
G1 X116.697 Y94.826 E6.16934
G1 X117.218 Y94.826 E6.17974
G1 X118.282 Y94.855 E6.20098
G1 X118.907 Y94.883 E6.21346
G1 X119.649 Y94.925 E6.22829
G1 X120.537 Y95.015 E6.24611
G1 X120.668 Y95.034 E6.24875
G1 X121.146 Y95.115 E6.25842
G1 X121.779 Y95.238 E6.27129
G1 X122.418 Y95.37 E6.28431
G1 X123.028 Y95.505 E6.29678
G1 X124.209 Y95.842 E6.32129
G1 X125.275 Y96.217 E6.34384
G1 X125.653 Y96.356 E6.35188
G1 X126.533 Y96.7 E6.37073
G1 X127.433 Y97.105 E6.39043
G1 X127.596 Y97.188 E6.39408
G1 X127.947 Y97.375 E6.40201
G1 X128.432 Y97.647 E6.41311
G1 X129.179 Y98.076 E6.4303
G1 X129.762 Y98.422 E6.44383
G1 X130.876 Y99.188 E6.47081
G1 X131.609 Y99.768 E6.48946
G1 X132.121 Y100.186 E6.50265
G1 X132.615 Y100.602 E6.51554
G1 X133.073 Y101.011 E6.5278
G1 X133.296 Y101.223 E6.53394
G1 X133.913 Y101.863 E6.55168
G1 X134.309 Y102.313 E6.56364
G1 X134.978 Y103.086 E6.58404
G1 X135.36 Y103.54 E6.59588
G1 X135.693 Y103.958 E6.60655
G1 X135.761 Y104.048 E6.6088
G1 X136.348 Y104.913 E6.62966
G1 X136.91 Y105.841 E6.65131
G1 X137.019 Y106.025 E6.65558
G1 X137.39 Y106.671 E6.67044
G1 X137.725 Y107.268 E6.6841
G1 X138.032 Y107.858 E6.69738
G1 X138.076 Y107.95 E6.69941
G1 X138.4 Y108.704 E6.71579
