;FLAVOR:Marlin
;TIME:7738
;Filament used: 8.19281m
;Layer height: 0.25
;Generated with Cura_SteamEngine 3.4.1
M190 S65
M104 S200
M109 S200
M82 ;absolute extrusion mode
; Pefix G-Code for most 200mm x 200mm 3D printers by www.DIY3DTech.com to clean nozzle
; Place as start G-Code in Slicer
; Use of this code is at your own risk (no warranties made or implied)
;
M117 Clean ; Indicate nozzle clean in progress on LCD
M107 ; Turn layer fan off
G21 ; Set to metric [change to G20 if you want Imperial]
G90                          ; Force coordinates to be absolute relative to the origin
G28                          ; Home X/Y/Z axis
G0 X1 Y0 Z0.15 F9000         ; Move in 1mm from edge and up [z] 0.15mm
G92 E0                       ; Set extruder to [0] zero
G1 Y190 E50 F500             ; Extrude 100mm filiment along Y axis 190mm long to prime and clean the nozzle
G92 E0                       ; Reset extruder to [0] zero end of cleaning run
G1 E-3 F500                  ; Retract filiment by 3 mm to reduce string effect
G1 X3 Y190 Z15 F9000      ; Move over and rise to safe Z height
G1 X3 Y0 Z15 F9000 ; Move back to front of bed at safe Z height to shear strings
;
; Ensure extruder is not reset by other code or it will be 3mm short [see next line also]
;G1 E3 F500 ; Uncomment if you believe exruder will be reset
; Recommend turning off SKIRT in the slicer to avoid strings pulled into first layer
M117 Printing ; Indicate printing on LCD
; Begin printing with sliced GCode after here
G92 E0
G1 F2400 E-5
;LAYER_COUNT:45
;LAYER:0
M107
M204 S5000
M205 X30 Y30
G0 F7200 X42.251 Y101.354 Z0.25
M204 S500
M205 X20 Y20
;TYPE:SKIRT
G1 F2400 E0
G1 F1800 X46.425 Y99.622 E0.18788
G1 X46.664 Y99.535 E0.19846
G1 X50.406 Y98.342 E0.36175
G1 X50.614 Y98.283 E0.37073
G1 X55.691 Y97.06 E0.58785
G1 X60.964 Y95.573 E0.81563
G1 X66.165 Y93.784 E1.04429
G1 X71.233 Y91.713 E1.27191
G1 X76.205 Y89.345 E1.50087
G1 X81.001 Y86.719 E1.72819
G1 X85.659 Y83.815 E1.9564
G1 X90.148 Y80.649 E2.18478
G1 X94.45 Y77.236 E2.41309
G1 X98.554 Y73.583 E2.64152
G1 X100.489 Y71.708 E2.75354
G1 X104.285 Y67.704 E2.98292
G1 X107.824 Y63.52 E3.21076
G1 X111.152 Y59.1 E3.44078
G1 X112.666 Y56.901 E3.55178
G1 X117.792 Y48.727 E3.95291
G1 X117.931 Y48.525 E3.96311
G1 X120.519 Y45.063 E4.14281
G1 X120.696 Y44.848 E4.15439
G1 X123.791 Y41.421 E4.34637
G1 X123.954 Y41.254 E4.35607
G1 X126.862 Y38.499 E4.52261
G1 X127.08 Y38.312 E4.53456
G1 X130.986 Y35.265 E4.74051
G1 X131.177 Y35.127 E4.75031
G1 X133.92 Y33.314 E4.88701
G1 X134.079 Y33.216 E4.89478
G1 X136.224 Y31.983 E4.99764
G1 X136.35 Y31.915 E5.00359
G1 X139.424 Y30.338 E5.14723
G1 X139.642 Y30.237 E5.15722
G1 X143.462 Y28.65 E5.3292
G1 X143.706 Y28.561 E5.33999
G1 X148.215 Y27.13 E5.53667
G1 X148.487 Y27.057 E5.54838
G1 X153.027 Y26.073 E5.74151
G1 X153.278 Y26.03 E5.7521
G1 X156.856 Y25.568 E5.90209
G1 X157.096 Y25.546 E5.91211
G1 X162.37 Y25.293 E6.13163
G1 X162.676 Y25.294 E6.14435
G1 X167.385 Y25.549 E6.34042
G1 X167.634 Y25.573 E6.35082
G1 X170.873 Y26.021 E6.48676
G1 X171.049 Y26.051 E6.49418
G1 X174.015 Y26.643 E6.61993
G1 X174.158 Y26.675 E6.62602
G1 X176.883 Y27.359 E6.74283
G1 X177.087 Y27.418 E6.75166
G1 X180.497 Y28.535 E6.90084
G1 X180.693 Y28.607 E6.90952
G1 X183.763 Y29.855 E7.0473
G1 X183.928 Y29.928 E7.0548
G1 X186.81 Y31.307 E7.18763
G1 X186.984 Y31.397 E7.19578
G1 X189.78 Y32.967 E7.32909
G1 X189.954 Y33.073 E7.33756
G1 X192.723 Y34.885 E7.47514
G1 X192.864 Y34.983 E7.48228
G1 X195.032 Y36.587 E7.5944
G1 X195.145 Y36.675 E7.60036
G1 X197.601 Y38.68 E7.73217
G1 X197.781 Y38.839 E7.74216
G1 X200.904 Y41.836 E7.92211
G1 X201.082 Y42.022 E7.93281
G1 X203.766 Y45.08 E8.10198
G1 X203.918 Y45.268 E8.11203
G1 X206.314 Y48.488 E8.27889
G1 X206.448 Y48.685 E8.2888
G1 X208.576 Y52.077 E8.45528
G1 X208.696 Y52.286 E8.4653
G1 X210.559 Y55.864 E8.63301
G1 X210.656 Y56.069 E8.64244
G1 X212.089 Y59.418 E8.79388
G1 X212.172 Y59.634 E8.80351
G1 X213.453 Y63.407 E8.96916
G1 X213.523 Y63.645 E8.97948
G1 X214.524 Y67.656 E9.15135
G1 X214.574 Y67.898 E9.16162
G1 X215.248 Y72.021 E9.33531
G1 X215.279 Y72.284 E9.34632
G1 X215.62 Y76.908 E9.53909
G1 X215.628 Y77.149 E9.54911
G1 X215.611 Y79.749 E9.65721
G1 X215.602 Y79.955 E9.66578
G1 X215.274 Y84.291 E9.84657
G1 X215.237 Y84.586 E9.85893
G1 X214.512 Y88.699 E10.03256
G1 X214.452 Y88.967 E10.04398
G1 X213.062 Y94.064 E10.26363
G1 X213.007 Y94.243 E10.27142
G1 X211.582 Y98.422 E10.45498
G1 X211.501 Y98.635 E10.46446
G1 X210.081 Y101.952 E10.61447
G1 X209.975 Y102.174 E10.62469
G1 X208.211 Y105.509 E10.78155
G1 X208.086 Y105.723 E10.79185
G1 X205.325 Y110.039 E11.00486
G1 X205.159 Y110.272 E11.01676
G1 X202.826 Y113.249 E11.17401
G1 X202.728 Y113.368 E11.18042
G1 X201.729 Y114.516 E11.24369
G1 X201.611 Y114.645 E11.25095
G1 X198.474 Y117.852 E11.43747
G1 X198.31 Y118.007 E11.44685
G1 X195.634 Y120.36 E11.595
G1 X195.441 Y120.516 E11.60531
G1 X192.342 Y122.816 E11.76576
G1 X192.136 Y122.956 E11.77612
G1 X187.866 Y125.605 E11.98503
G1 X187.617 Y125.744 E11.99689
G1 X184.187 Y127.445 E12.15606
G1 X183.961 Y127.545 E12.16634
G1 X179.244 Y129.418 E12.37734
G1 X178.953 Y129.517 E12.39012
G1 X170.444 Y131.924 E12.75776
G1 X165.226 Y133.656 E12.98634
G1 X160.139 Y135.67 E13.21381
G1 X155.142 Y137.983 E13.44274
G1 X150.312 Y140.559 E13.67032
G1 X145.621 Y143.415 E13.89865
G1 X141.092 Y146.534 E14.12728
G1 X136.764 Y149.891 E14.355
G1 X132.642 Y153.482 E14.58228
G1 X128.7 Y157.326 E14.81119
G1 X125 Y161.369 E15.03904
G1 X121.518 Y165.632 E15.26789
G1 X118.305 Y170.056 E15.49521
G1 X115.33 Y174.681 E15.72384
G1 X112.575 Y179.437 E15.95235
G1 X112.504 Y179.553 E15.958
G1 X110.514 Y182.656 E16.11126
G1 X110.375 Y182.854 E16.12132
G1 X108.028 Y185.935 E16.28234
G1 X107.873 Y186.123 E16.29247
G1 X104.403 Y189.981 E16.5082
G1 X104.207 Y190.18 E16.51981
G1 X101.421 Y192.751 E16.67743
G1 X101.316 Y192.843 E16.68323
G1 X100.153 Y193.82 E16.74638
G1 X100.043 Y193.908 E16.75224
G1 X97.068 Y196.179 E16.90784
G1 X96.869 Y196.319 E16.91796
G1 X93.61 Y198.411 E17.07896
G1 X93.4 Y198.533 E17.08906
G1 X88.785 Y200.993 E17.30649
G1 X88.524 Y201.117 E17.3185
G1 X84.357 Y202.846 E17.50607
G1 X84.118 Y202.933 E17.51664
G1 X80.381 Y204.124 E17.67971
G1 X80.147 Y204.189 E17.6898
G1 X75.135 Y205.35 E17.9037
G1 X74.851 Y205.401 E17.91569
G1 X70.338 Y205.997 E18.10495
G1 X70.085 Y206.02 E18.11551
G1 X66.23 Y206.2 E18.27596
G1 X65.989 Y206.201 E18.28598
G1 X60.779 Y206.025 E18.50271
G1 X60.497 Y206.002 E18.51447
G1 X56.626 Y205.504 E18.67674
G1 X56.386 Y205.464 E18.68685
G1 X51.347 Y204.395 E18.90101
G1 X51.078 Y204.324 E18.91258
G1 X47.383 Y203.173 E19.07348
G1 X47.154 Y203.092 E19.08358
G1 X42.32 Y201.144 E19.30026
G1 X42.065 Y201.027 E19.31192
G1 X38.658 Y199.268 E19.47133
G1 X38.448 Y199.149 E19.48137
G1 X34.016 Y196.389 E19.69844
G1 X33.784 Y196.228 E19.71018
G1 X30.694 Y193.873 E19.8717
G1 X30.506 Y193.718 E19.88183
G1 X26.648 Y190.249 E20.09753
G1 X26.449 Y190.053 E20.10915
G1 X23.838 Y187.224 E20.2692
G1 X23.682 Y187.04 E20.27923
G1 X20.469 Y182.941 E20.49576
G1 X20.305 Y182.71 E20.50754
G1 X18.214 Y179.452 E20.66849
G1 X18.092 Y179.243 E20.67855
G1 X15.628 Y174.62 E20.89635
G1 X15.504 Y174.358 E20.9084
G1 X13.778 Y170.197 E21.09568
G1 X13.691 Y169.959 E21.10622
G1 X12.499 Y166.219 E21.26942
G1 X12.434 Y165.985 E21.27951
G1 X11.274 Y160.975 E21.49332
G1 X11.223 Y160.691 E21.50531
G1 X10.629 Y156.197 E21.69378
G1 X10.606 Y155.944 E21.70434
G1 X10.425 Y152.073 E21.86545
G1 X10.424 Y151.832 E21.87547
G1 X10.6 Y146.63 E22.09187
G1 X10.622 Y146.349 E22.10359
G1 X11.114 Y142.514 E22.26434
G1 X11.155 Y142.276 E22.27438
G1 X12.23 Y137.19 E22.4905
G1 X12.313 Y136.88 E22.50384
G1 X13.955 Y131.844 E22.72406
G1 X14.038 Y131.618 E22.73407
G1 X15.493 Y128.132 E22.89112
G1 X15.596 Y127.912 E22.90122
G1 X17.357 Y124.501 E23.06082
G1 X17.476 Y124.291 E23.07085
G1 X20.236 Y119.859 E23.28792
G1 X20.397 Y119.627 E23.29966
G1 X22.752 Y116.537 E23.46119
G1 X22.907 Y116.349 E23.47132
G1 X26.383 Y112.483 E23.68746
G1 X26.58 Y112.284 E23.6991
G1 X29.402 Y109.68 E23.85875
G1 X29.586 Y109.524 E23.86877
G1 X33.694 Y106.305 E24.08575
G1 X33.924 Y106.141 E24.0975
G1 X37.133 Y104.082 E24.25601
G1 X37.34 Y103.961 E24.26598
G1 X41.988 Y101.479 E24.48505
G1 X42.251 Y101.354 E24.49716
M204 S5000
M205 X30 Y30
G0 F7200 X42.405 Y101.724
M204 S500
M205 X20 Y20
G1 F1800 X46.579 Y99.992 E24.68504
G1 X46.785 Y99.916 E24.69417
G1 X50.527 Y98.723 E24.85746
G1 X50.708 Y98.672 E24.86527
G1 X55.784 Y97.449 E25.08235
G1 X61.087 Y95.954 E25.31142
G1 X66.299 Y94.162 E25.54056
G1 X71.414 Y92.071 E25.7703
G1 X76.377 Y89.708 E25.99883
G1 X81.205 Y87.063 E26.2277
G1 X85.883 Y84.146 E26.4569
G1 X90.382 Y80.974 E26.68576
G1 X94.711 Y77.539 E26.91552
G1 X98.828 Y73.875 E27.14465
G1 X100.763 Y72 E27.25667
G1 X104.59 Y67.963 E27.48794
G1 X108.141 Y63.765 E27.71654
G1 X111.465 Y59.351 E27.94627
G1 X113.009 Y57.108 E28.05948
G1 X118.131 Y48.94 E28.46031
G1 X118.252 Y48.764 E28.46919
G1 X120.84 Y45.302 E28.6489
G1 X120.992 Y45.116 E28.65888
G1 X124.087 Y41.689 E28.85087
G1 X124.229 Y41.545 E28.85927
G1 X127.137 Y38.79 E29.02582
G1 X127.326 Y38.627 E29.03619
G1 X131.232 Y35.58 E29.24215
G1 X131.397 Y35.461 E29.25061
G1 X134.14 Y33.648 E29.38731
G1 X134.278 Y33.563 E29.39405
G1 X136.423 Y32.33 E29.49691
G1 X136.532 Y32.271 E29.50206
G1 X139.606 Y30.694 E29.6457
G1 X139.795 Y30.606 E29.65437
G1 X143.615 Y29.019 E29.82635
G1 X143.827 Y28.942 E29.83572
G1 X148.336 Y27.511 E30.0324
G1 X148.571 Y27.448 E30.04251
G1 X153.111 Y26.464 E30.23565
G1 X153.329 Y26.426 E30.24485
G1 X156.907 Y25.964 E30.39484
G1 X157.115 Y25.946 E30.40352
G1 X162.389 Y25.693 E30.62304
G1 X162.655 Y25.694 E30.6341
G1 X167.364 Y25.949 E30.83016
G1 X167.579 Y25.97 E30.83914
G1 X170.818 Y26.418 E30.97509
G1 X170.971 Y26.443 E30.98153
G1 X173.937 Y27.035 E31.10728
G1 X174.061 Y27.063 E31.11256
G1 X176.786 Y27.747 E31.22937
G1 X176.962 Y27.798 E31.23699
G1 X180.372 Y28.915 E31.38617
G1 X180.542 Y28.977 E31.39369
G1 X183.612 Y30.225 E31.53147
G1 X183.755 Y30.289 E31.53799
G1 X186.637 Y31.668 E31.67082
G1 X186.788 Y31.746 E31.67788
G1 X189.584 Y33.316 E31.8112
G1 X189.735 Y33.407 E31.81853
G1 X192.504 Y35.219 E31.95611
G1 X192.626 Y35.305 E31.96231
G1 X194.794 Y36.909 E32.07444
G1 X194.892 Y36.985 E32.07959
G1 X197.348 Y38.99 E32.21141
G1 X197.504 Y39.128 E32.22006
G1 X200.627 Y42.125 E32.40002
G1 X200.781 Y42.286 E32.40928
G1 X203.465 Y45.344 E32.57844
G1 X203.597 Y45.507 E32.58716
G1 X205.993 Y48.727 E32.75403
G1 X206.109 Y48.897 E32.76259
G1 X208.237 Y52.289 E32.92906
G1 X208.341 Y52.47 E32.93774
G1 X210.204 Y56.048 E33.10546
G1 X210.288 Y56.226 E33.11364
G1 X211.721 Y59.575 E33.26509
G1 X211.793 Y59.762 E33.27342
G1 X213.074 Y63.535 E33.43907
G1 X213.135 Y63.741 E33.44801
G1 X214.136 Y67.752 E33.61988
G1 X214.179 Y67.963 E33.62883
G1 X214.853 Y72.086 E33.80252
G1 X214.88 Y72.314 E33.81207
G1 X215.221 Y76.938 E34.00483
G1 X215.228 Y77.146 E34.01348
G1 X215.211 Y79.746 E34.12158
G1 X215.204 Y79.925 E34.12903
G1 X214.876 Y84.261 E34.30981
G1 X214.844 Y84.516 E34.3205
G1 X214.119 Y88.629 E34.49413
G1 X214.066 Y88.862 E34.50407
G1 X212.676 Y93.959 E34.72372
G1 X212.629 Y94.114 E34.73045
G1 X211.204 Y98.293 E34.91402
G1 X211.133 Y98.477 E34.92222
G1 X209.713 Y101.794 E35.07223
G1 X209.621 Y101.987 E35.08111
G1 X207.857 Y105.322 E35.23797
G1 X207.749 Y105.507 E35.24687
G1 X204.988 Y109.823 E35.45989
G1 X204.844 Y110.026 E35.47024
G1 X202.511 Y113.003 E35.62748
G1 X202.426 Y113.106 E35.63304
G1 X201.427 Y114.254 E35.69631
G1 X201.325 Y114.365 E35.70257
G1 X198.188 Y117.572 E35.88909
G1 X198.046 Y117.707 E35.89723
G1 X195.37 Y120.06 E36.04538
G1 X195.203 Y120.195 E36.05431
G1 X192.104 Y122.495 E36.21476
G1 X191.925 Y122.616 E36.22374
G1 X187.655 Y125.265 E36.43265
G1 X187.439 Y125.385 E36.44292
G1 X184.009 Y127.086 E36.6021
G1 X183.814 Y127.173 E36.61098
G1 X179.097 Y129.046 E36.82198
G1 X178.845 Y129.132 E36.83305
G1 X170.336 Y131.539 E37.2007
G1 X165.079 Y133.284 E37.43098
G1 X159.981 Y135.303 E37.65895
G1 X154.964 Y137.624 E37.88877
G1 X150.108 Y140.214 E38.11758
G1 X145.399 Y143.081 E38.34679
G1 X140.865 Y146.204 E38.57568
G1 X136.521 Y149.574 E38.80426
G1 X132.346 Y153.211 E39.03446
G1 X128.425 Y157.034 E39.26214
G1 X124.695 Y161.11 E39.49185
G1 X121.208 Y165.378 E39.72098
G1 X117.975 Y169.831 E39.94976
G1 X114.981 Y174.486 E40.17987
G1 X112.229 Y179.236 E40.4081
G1 X112.168 Y179.337 E40.41301
G1 X110.178 Y182.44 E40.56627
G1 X110.057 Y182.612 E40.57501
G1 X107.71 Y185.693 E40.73603
G1 X107.575 Y185.856 E40.74483
G1 X104.105 Y189.714 E40.96056
G1 X103.935 Y189.886 E40.97062
G1 X101.149 Y192.457 E41.12823
G1 X101.058 Y192.537 E41.13327
G1 X99.895 Y193.514 E41.19642
G1 X99.801 Y193.59 E41.20144
G1 X96.826 Y195.861 E41.35705
G1 X96.653 Y195.982 E41.36582
G1 X93.394 Y198.074 E41.52683
G1 X93.212 Y198.18 E41.53559
G1 X88.597 Y200.64 E41.75301
G1 X88.37 Y200.747 E41.76345
G1 X84.203 Y202.476 E41.95101
G1 X83.997 Y202.552 E41.96014
G1 X80.26 Y203.743 E42.12321
G1 X80.057 Y203.799 E42.13196
G1 X75.045 Y204.96 E42.34585
G1 X74.798 Y205.005 E42.35629
G1 X70.285 Y205.601 E42.54555
G1 X70.066 Y205.62 E42.55469
G1 X66.211 Y205.8 E42.71514
G1 X66.002 Y205.802 E42.72383
G1 X60.792 Y205.626 E42.94056
G1 X60.548 Y205.606 E42.95073
G1 X56.677 Y205.108 E43.113
G1 X56.469 Y205.072 E43.12177
G1 X51.43 Y204.003 E43.33593
G1 X51.197 Y203.942 E43.34595
G1 X47.502 Y202.791 E43.50685
G1 X47.303 Y202.721 E43.51562
G1 X42.469 Y200.773 E43.7323
G1 X42.248 Y200.671 E43.74242
G1 X38.841 Y198.912 E43.90183
G1 X38.66 Y198.809 E43.91049
G1 X34.228 Y196.049 E44.12756
G1 X34.026 Y195.91 E44.13775
G1 X30.936 Y193.555 E44.29927
G1 X30.774 Y193.42 E44.30804
G1 X26.916 Y189.951 E44.52375
G1 X26.743 Y189.781 E44.53383
G1 X24.132 Y186.952 E44.69388
G1 X23.997 Y186.793 E44.70255
G1 X20.784 Y182.694 E44.91909
G1 X20.642 Y182.494 E44.92928
G1 X18.551 Y179.236 E45.09023
G1 X18.445 Y179.055 E45.09895
G1 X15.981 Y174.432 E45.31675
G1 X15.873 Y174.205 E45.3272
G1 X14.147 Y170.044 E45.51449
G1 X14.072 Y169.838 E45.5236
G1 X12.88 Y166.098 E45.6868
G1 X12.824 Y165.894 E45.6956
G1 X11.664 Y160.884 E45.9094
G1 X11.619 Y160.639 E45.91975
G1 X11.025 Y156.145 E46.10822
G1 X11.006 Y155.925 E46.1174
G1 X10.825 Y152.054 E46.27851
G1 X10.823 Y151.845 E46.2872
G1 X10.999 Y146.643 E46.5036
G1 X11.019 Y146.4 E46.51374
G1 X11.511 Y142.565 E46.67448
G1 X11.546 Y142.358 E46.68321
G1 X12.621 Y137.272 E46.89934
G1 X12.693 Y137.004 E46.91087
G1 X14.335 Y131.968 E47.13109
G1 X14.408 Y131.773 E47.13975
G1 X15.863 Y128.287 E47.2968
G1 X15.952 Y128.095 E47.3056
G1 X17.713 Y124.684 E47.46519
G1 X17.816 Y124.503 E47.47385
G1 X20.576 Y120.071 E47.69092
G1 X20.715 Y119.869 E47.70112
G1 X23.07 Y116.779 E47.86264
G1 X23.205 Y116.617 E47.87141
G1 X26.681 Y112.751 E48.08755
G1 X26.851 Y112.578 E48.09764
G1 X29.673 Y109.974 E48.25728
G1 X29.832 Y109.838 E48.26598
G1 X33.94 Y106.619 E48.48296
G1 X34.14 Y106.478 E48.49313
G1 X37.349 Y104.419 E48.65165
G1 X37.528 Y104.314 E48.66028
G1 X42.176 Y101.832 E48.87934
G1 X42.405 Y101.724 E48.88987
M204 S5000
M205 X30 Y30
G0 F7200 X42.558 Y102.093
M204 S500
M205 X20 Y20
G1 F1800 X46.732 Y100.361 E49.07775
G1 X46.907 Y100.297 E49.0855
G1 X50.649 Y99.104 E49.24879
G1 X50.802 Y99.061 E49.25539
G1 X55.884 Y97.837 E49.47272
G1 X61.215 Y96.333 E49.70301
G1 X66.444 Y94.535 E49.9329
G1 X71.558 Y92.445 E50.16258
G1 X76.548 Y90.069 E50.39236
G1 X81.416 Y87.403 E50.62311
G1 X86.104 Y84.48 E50.8528
G1 X90.636 Y81.284 E51.08336
G1 X94.952 Y77.86 E51.31241
G1 X99.1 Y74.167 E51.5433
G1 X101.049 Y72.28 E51.65609
G1 X104.886 Y68.232 E51.88798
G1 X108.466 Y64 E52.11843
G1 X111.789 Y59.587 E52.3481
G1 X113.334 Y57.341 E52.46144
G1 X118.47 Y49.152 E52.86332
G1 X118.572 Y49.004 E52.87079
G1 X121.16 Y45.542 E53.0505
G1 X121.289 Y45.384 E53.05898
G1 X124.384 Y41.957 E53.25096
G1 X124.504 Y41.835 E53.25808
G1 X127.412 Y39.08 E53.42462
G1 X127.572 Y38.942 E53.4334
G1 X131.478 Y35.895 E53.63936
G1 X131.618 Y35.795 E53.64651
G1 X134.361 Y33.982 E53.78321
G1 X134.478 Y33.91 E53.78892
G1 X136.623 Y32.677 E53.89179
G1 X136.715 Y32.627 E53.89614
