;FLAVOR:Marlin
;TIME:5594
;Filament used: 4.44535m
;Layer height: 0.25
;Generated with Cura_SteamEngine 3.4.1
M190 S65
M104 S200
M109 S200
M82 ;absolute extrusion mode
; Pefix G-Code for most 200mm x 200mm 3D printers by www.DIY3DTech.com to clean nozzle
; Place as start G-Code in Slicer
; Use of this code is at your own risk (no warranties made or implied)
;
M117 Clean ; Indicate nozzle clean in progress on LCD
M107 ; Turn layer fan off
G21 ; Set to metric [change to G20 if you want Imperial]
G90                          ; Force coordinates to be absolute relative to the origin
G28                          ; Home X/Y/Z axis
G0 X1 Y0 Z0.15 F9000         ; Move in 1mm from edge and up [z] 0.15mm
G92 E0                       ; Set extruder to [0] zero
G1 Y190 E50 F500             ; Extrude 100mm filiment along Y axis 190mm long to prime and clean the nozzle
G92 E0                       ; Reset extruder to [0] zero end of cleaning run
G1 E-3 F500                  ; Retract filiment by 3 mm to reduce string effect
G1 X3 Y190 Z15 F9000      ; Move over and rise to safe Z height
G1 X3 Y0 Z15 F9000 ; Move back to front of bed at safe Z height to shear strings
;
; Ensure extruder is not reset by other code or it will be 3mm short [see next line also]
;G1 E3 F500 ; Uncomment if you believe exruder will be reset
; Recommend turning off SKIRT in the slicer to avoid strings pulled into first layer
M117 Printing ; Indicate printing on LCD
; Begin printing with sliced GCode after here
G92 E0
G1 F2400 E-5
;LAYER_COUNT:53
;LAYER:0
M107
M204 S5000
M205 X30 Y30
G0 F7200 X73.367 Y79.636 Z0.25
M204 S500
M205 X20 Y20
;TYPE:SKIRT
G1 F2400 E0
G1 F1800 X77.301 Y75.96 E0.22385
G1 X77.479 Y75.806 E0.23363
G1 X80.595 Y73.322 E0.39931
G1 X80.818 Y73.161 E0.41074
G1 X85.332 Y70.196 E0.63528
G1 X85.534 Y70.074 E0.64509
G1 X89.006 Y68.165 E0.80982
G1 X89.253 Y68.043 E0.82127
G1 X94.19 Y65.893 E1.04515
G1 X94.41 Y65.808 E1.05495
G1 X98.19 Y64.504 E1.22119
G1 X98.432 Y64.432 E1.23169
G1 X106.726 Y62.334 E1.58738
G1 X113.378 Y60.284 E1.87677
G1 X113.658 Y60.213 E1.88878
G1 X114.29 Y60.083 E1.91561
G1 X114.775 Y60.023 E1.93592
G1 X115.096 Y60.028 E1.94927
G1 X115.57 Y60.06 E1.96902
G1 X116.26 Y60.189 E1.99821
G1 X122.187 Y62.034 E2.25628
G1 X131.575 Y64.432 E2.65912
G1 X131.818 Y64.505 E2.66967
G1 X136.238 Y66.042 E2.86423
G1 X136.501 Y66.148 E2.87602
G1 X141.402 Y68.39 E3.10009
G1 X141.612 Y68.496 E3.10987
G1 X145.084 Y70.427 E3.27504
G1 X145.32 Y70.573 E3.28657
G1 X149.822 Y73.654 E3.51338
G1 X150.035 Y73.814 E3.52446
G1 X153.632 Y76.777 E3.71821
G1 X153.822 Y76.947 E3.72881
G1 X157.17 Y80.219 E3.92343
G1 X157.346 Y80.407 E3.93414
G1 X160.411 Y83.965 E4.12938
G1 X160.551 Y84.14 E4.1387
G1 X162.896 Y87.313 E4.30274
G1 X163.034 Y87.517 E4.31297
G1 X165.5 Y91.5 E4.50774
G1 X165.625 Y91.724 E4.5184
G1 X167.752 Y95.925 E4.71417
G1 X167.868 Y96.183 E4.72593
G1 X169.827 Y101.167 E4.94857
G1 X169.913 Y101.418 E4.9596
G1 X171.234 Y105.912 E5.15435
G1 X171.296 Y106.161 E5.16502
G1 X172.236 Y110.794 E5.36156
G1 X172.272 Y111.016 E5.37091
G1 X172.766 Y114.939 E5.5353
G1 X172.788 Y115.215 E5.54681
G1 X172.967 Y120.624 E5.77181
G1 X172.966 Y120.857 E5.7815
G1 X172.789 Y124.804 E5.94576
G1 X172.768 Y125.052 E5.95611
G1 X172.17 Y129.712 E6.15144
G1 X172.126 Y129.965 E6.16211
G1 X171.134 Y134.545 E6.35694
G1 X171.07 Y134.791 E6.36751
G1 X169.696 Y139.262 E6.56197
G1 X169.61 Y139.504 E6.57265
G1 X167.858 Y143.844 E6.76723
G1 X167.74 Y144.1 E6.77895
G1 X165.253 Y148.903 E7.00382
G1 X165.119 Y149.136 E7.015
G1 X162.594 Y153.098 E7.21032
G1 X162.467 Y153.282 E7.21962
G1 X160.095 Y156.456 E7.38436
G1 X159.921 Y156.668 E7.39576
G1 X156.336 Y160.646 E7.6184
G1 X156.171 Y160.816 E7.62825
G1 X153.251 Y163.583 E7.79549
G1 X153.041 Y163.764 E7.80702
G1 X148.797 Y167.1 E8.03145
G1 X148.607 Y167.237 E8.04119
G1 X145.306 Y169.438 E8.20614
G1 X145.069 Y169.581 E8.21765
G1 X140.337 Y172.141 E8.44132
G1 X140.126 Y172.244 E8.45109
G1 X136.474 Y173.864 E8.61719
G1 X136.217 Y173.965 E8.62867
G1 X131.118 Y175.685 E8.8524
G1 X130.885 Y175.753 E8.86249
G1 X126.024 Y176.966 E9.07078
G1 X120.656 Y178.417 E9.30197
G1 X116.14 Y179.835 E9.49876
G1 X115.662 Y179.943 E9.51913
G1 X115.097 Y179.97 E9.54265
G1 X114.451 Y179.939 E9.56954
G1 X113.966 Y179.875 E9.58987
G1 X113.68 Y179.799 E9.60218
G1 X109.604 Y178.494 E9.78011
G1 X103.961 Y176.962 E10.02321
G1 X98.419 Y175.565 E10.26083
G1 X98.139 Y175.48 E10.273
G1 X93.059 Y173.658 E10.49737
G1 X92.842 Y173.57 E10.50711
G1 X89.229 Y171.946 E10.67179
G1 X89.014 Y171.839 E10.68178
G1 X85.525 Y169.921 E10.84731
G1 X85.322 Y169.799 E10.85715
G1 X80.818 Y166.839 E11.08123
G1 X80.59 Y166.673 E11.09295
G1 X76.932 Y163.741 E11.28786
G1 X76.739 Y163.573 E11.2985
G1 X73.344 Y160.34 E11.4934
G1 X73.167 Y160.156 E11.50402
G1 X70.066 Y156.654 E11.69849
G1 X69.888 Y156.432 E11.71032
G1 X66.708 Y152.07 E11.93475
G1 X66.561 Y151.849 E11.94578
G1 X64.147 Y147.834 E12.14056
G1 X64.024 Y147.608 E12.15125
G1 X61.957 Y143.389 E12.34658
G1 X61.855 Y143.157 E12.35712
G1 X60.169 Y138.824 E12.55042
G1 X60.095 Y138.611 E12.55979
G1 X58.929 Y134.785 E12.72608
G1 X58.867 Y134.545 E12.73639
G1 X57.878 Y129.98 E12.93058
G1 X57.831 Y129.7 E12.94239
G1 X57.191 Y124.326 E13.16739
G1 X57.172 Y124.092 E13.17715
G1 X57.012 Y120.122 E13.34234
G1 X57.014 Y119.845 E13.35385
G1 X57.295 Y114.442 E13.57879
G1 X57.316 Y114.208 E13.58856
G1 X57.831 Y110.279 E13.7533
G1 X57.874 Y110.033 E13.76368
G1 X58.869 Y105.445 E13.95887
G1 X58.934 Y105.199 E13.96944
G1 X60.31 Y100.725 E14.16405
G1 X60.406 Y100.457 E14.17589
G1 X62.477 Y95.465 E14.40058
G1 X62.574 Y95.255 E14.4102
G1 X64.364 Y91.737 E14.5743
G1 X64.487 Y91.518 E14.58475
G1 X66.964 Y87.517 E14.78039
G1 X67.124 Y87.284 E14.79214
G1 X70.369 Y83.002 E15.01551
G1 X70.518 Y82.821 E15.02525
G1 X73.173 Y79.835 E15.19137
G1 X73.367 Y79.636 E15.20293
M204 S5000
M205 X30 Y30
G0 F7200 X73.64 Y79.928
M204 S500
M205 X20 Y20
G1 F1800 X77.574 Y76.252 E15.42678
G1 X77.728 Y76.119 E15.43524
G1 X80.844 Y73.635 E15.60091
G1 X81.038 Y73.495 E15.61086
G1 X85.552 Y70.53 E15.83539
G1 X85.726 Y70.425 E15.84384
G1 X89.198 Y68.516 E16.00857
G1 X89.413 Y68.41 E16.01854
G1 X94.35 Y66.26 E16.24241
G1 X94.54 Y66.186 E16.25089
G1 X98.32 Y64.882 E16.41713
G1 X98.53 Y64.819 E16.42625
G1 X106.845 Y62.716 E16.78283
G1 X113.496 Y60.666 E17.07218
G1 X113.738 Y60.604 E17.08257
G1 X114.37 Y60.474 E17.10939
G1 X114.823 Y60.422 E17.12835
G1 X115.069 Y60.427 E17.13858
G1 X115.543 Y60.459 E17.15833
G1 X116.141 Y60.57 E17.18362
G1 X122.102 Y62.425 E17.44317
G1 X131.476 Y64.82 E17.84542
G1 X131.687 Y64.883 E17.85457
G1 X136.107 Y66.42 E18.04913
G1 X136.335 Y66.512 E18.05935
G1 X141.236 Y68.754 E18.28342
G1 X141.418 Y68.846 E18.29189
G1 X144.89 Y70.777 E18.45707
G1 X145.094 Y70.903 E18.46703
G1 X149.596 Y73.984 E18.69384
G1 X149.781 Y74.123 E18.70346
G1 X153.378 Y77.086 E18.89721
G1 X153.542 Y77.234 E18.9064
G1 X156.89 Y80.506 E19.10102
G1 X157.043 Y80.668 E19.11029
G1 X160.108 Y84.226 E19.30553
G1 X160.229 Y84.378 E19.31361
G1 X162.574 Y87.551 E19.47764
G1 X162.694 Y87.727 E19.4865
G1 X165.16 Y91.71 E19.68126
G1 X165.269 Y91.905 E19.69055
G1 X167.396 Y96.106 E19.88632
G1 X167.496 Y96.329 E19.89648
G1 X169.455 Y101.313 E20.11912
G1 X169.529 Y101.531 E20.12869
G1 X170.85 Y106.025 E20.32343
G1 X170.904 Y106.241 E20.33269
G1 X171.844 Y110.874 E20.52923
G1 X171.876 Y111.066 E20.53733
G1 X172.37 Y114.989 E20.70171
G1 X172.389 Y115.228 E20.71168
G1 X172.568 Y120.637 E20.93668
G1 X172.566 Y120.839 E20.94508
G1 X172.389 Y124.786 E21.10935
G1 X172.371 Y125.001 E21.11832
G1 X171.773 Y129.661 E21.31364
G1 X171.735 Y129.88 E21.32289
G1 X170.743 Y134.46 E21.51772
G1 X170.687 Y134.674 E21.52691
G1 X169.313 Y139.145 E21.72137
G1 X169.239 Y139.354 E21.73059
G1 X167.487 Y143.694 E21.92518
G1 X167.385 Y143.917 E21.93537
G1 X164.898 Y148.72 E22.16024
G1 X164.782 Y148.921 E22.16989
G1 X162.257 Y152.883 E22.36521
G1 X162.147 Y153.042 E22.37325
G1 X159.775 Y156.216 E22.53799
G1 X159.623 Y156.401 E22.54795
G1 X156.038 Y160.379 E22.77058
G1 X155.895 Y160.525 E22.77908
G1 X152.975 Y163.292 E22.94633
G1 X152.794 Y163.449 E22.95629
G1 X148.55 Y166.785 E23.18072
G1 X148.385 Y166.904 E23.18918
G1 X145.084 Y169.105 E23.35413
G1 X144.879 Y169.229 E23.36409
G1 X140.147 Y171.789 E23.58777
G1 X139.964 Y171.879 E23.59624
G1 X136.312 Y173.499 E23.76234
G1 X136.089 Y173.586 E23.7723
G1 X130.99 Y175.306 E23.99602
G1 X130.788 Y175.365 E24.00477
G1 X125.932 Y176.577 E24.21286
G1 X120.552 Y178.031 E24.44455
G1 X116.02 Y179.454 E24.64204
G1 X115.575 Y179.551 E24.66098
G1 X115.116 Y179.57 E24.68008
G1 X114.47 Y179.539 E24.70697
G1 X113.802 Y179.418 E24.73519
G1 X109.718 Y178.11 E24.91348
G1 X104.054 Y176.573 E25.15748
G1 X98.517 Y175.177 E25.39488
G1 X98.274 Y175.103 E25.40544
G1 X93.194 Y173.281 E25.62982
G1 X93.006 Y173.205 E25.63825
G1 X89.393 Y171.581 E25.80294
G1 X89.206 Y171.488 E25.81162
G1 X85.717 Y169.57 E25.97715
G1 X85.542 Y169.465 E25.98563
G1 X81.038 Y166.505 E26.20971
G1 X80.84 Y166.361 E26.21988
G1 X77.182 Y163.429 E26.41479
G1 X77.015 Y163.283 E26.42401
G1 X73.62 Y160.05 E26.61892
G1 X73.466 Y159.891 E26.62812
G1 X70.365 Y156.389 E26.8226
G1 X70.211 Y156.197 E26.83283
G1 X67.031 Y151.835 E27.05726
G1 X66.904 Y151.643 E27.06683
G1 X64.49 Y147.628 E27.2616
G1 X64.383 Y147.432 E27.27088
G1 X62.316 Y143.213 E27.46621
G1 X62.228 Y143.012 E27.47533
G1 X60.542 Y138.679 E27.66863
G1 X60.478 Y138.494 E27.67677
G1 X59.312 Y134.668 E27.84306
G1 X59.258 Y134.461 E27.85196
G1 X58.269 Y129.896 E28.04615
G1 X58.228 Y129.652 E28.05644
G1 X57.588 Y124.278 E28.28144
G1 X57.572 Y124.076 E28.28986
G1 X57.412 Y120.106 E28.45505
G1 X57.414 Y119.866 E28.46503
G1 X57.695 Y114.463 E28.68996
G1 X57.713 Y114.26 E28.69844
G1 X58.228 Y110.331 E28.86318
G1 X58.265 Y110.118 E28.87217
G1 X59.26 Y105.53 E29.06735
G1 X59.316 Y105.317 E29.07651
G1 X60.692 Y100.843 E29.27112
G1 X60.775 Y100.611 E29.28136
G1 X62.846 Y95.619 E29.50605
G1 X62.931 Y95.436 E29.51444
G1 X64.721 Y91.918 E29.67855
G1 X64.827 Y91.728 E29.68759
G1 X67.304 Y87.727 E29.88323
G1 X67.443 Y87.526 E29.89339
G1 X70.688 Y83.244 E30.11676
G1 X70.817 Y83.086 E30.12524
G1 X73.472 Y80.1 E30.29136
G1 X73.64 Y79.928 E30.30136
M204 S5000
M205 X30 Y30
G0 F7200 X73.913 Y80.221
M204 S500
M205 X20 Y20
G1 F1800 X77.847 Y76.545 E30.52521
G1 X77.978 Y76.432 E30.5324
G1 X81.094 Y73.948 E30.69808
G1 X81.257 Y73.829 E30.70647
G1 X85.771 Y70.864 E30.931
G1 X85.919 Y70.775 E30.93818
G1 X89.391 Y68.866 E31.10291
G1 X89.573 Y68.777 E31.11133
G1 X94.51 Y66.627 E31.33521
G1 X94.671 Y66.564 E31.3424
G1 X98.451 Y65.26 E31.50864
G1 X98.628 Y65.207 E31.51632
G1 X106.964 Y63.098 E31.87381
G1 X113.614 Y61.049 E32.16311
G1 X113.819 Y60.996 E32.17191
G1 X114.451 Y60.866 E32.19874
G1 X115.042 Y60.826 E32.22337
G1 X115.516 Y60.858 E32.24312
G1 X116.022 Y60.952 E32.26452
G1 X121.981 Y62.807 E32.52399
G1 X131.377 Y65.207 E32.92717
G1 X131.556 Y65.261 E32.93494
G1 X135.976 Y66.798 E33.1295
G1 X136.168 Y66.875 E33.1381
G1 X141.069 Y69.117 E33.36217
G1 X141.223 Y69.195 E33.36935
G1 X144.695 Y71.126 E33.53452
G1 X144.868 Y71.233 E33.54297
G1 X149.37 Y74.314 E33.76978
G1 X149.527 Y74.432 E33.77795
G1 X153.124 Y77.395 E33.9717
G1 X153.263 Y77.52 E33.97947
G1 X156.611 Y80.792 E34.1741
G1 X156.74 Y80.929 E34.18192
G1 X159.805 Y84.487 E34.37716
G1 X159.907 Y84.615 E34.38397
G1 X162.252 Y87.788 E34.548
G1 X162.354 Y87.938 E34.55554
G1 X164.82 Y91.921 E34.75031
G1 X164.912 Y92.085 E34.75812
G1 X167.039 Y96.286 E34.95389
G1 X167.124 Y96.475 E34.96251
G1 X169.083 Y101.459 E35.18515
G1 X169.146 Y101.644 E35.19327
G1 X170.467 Y106.138 E35.38802
G1 X170.512 Y106.321 E35.39585
G1 X171.452 Y110.954 E35.5924
G1 X171.479 Y111.116 E35.59922
G1 X171.973 Y115.039 E35.76361
G1 X171.989 Y115.241 E35.77204
G1 X172.168 Y120.65 E35.99704
G1 X172.167 Y120.822 E36.00419
G1 X171.99 Y124.769 E36.16845
G1 X171.974 Y124.95 E36.17601
G1 X171.376 Y129.61 E36.37133
G1 X171.344 Y129.796 E36.37918
G1 X170.352 Y134.376 E36.57401
G1 X170.305 Y134.556 E36.58175
G1 X168.931 Y139.027 E36.77621
G1 X168.868 Y139.205 E36.78406
G1 X167.116 Y143.545 E36.97864
G1 X167.03 Y143.733 E36.98724
G1 X164.543 Y148.536 E37.2121
G1 X164.444 Y148.706 E37.22028
G1 X161.919 Y152.668 E37.41561
G1 X161.826 Y152.803 E37.42243
G1 X159.454 Y155.977 E37.58716
G1 X159.326 Y156.133 E37.59555
G1 X155.741 Y160.111 E37.81819
G1 X155.62 Y160.235 E37.82539
G1 X152.7 Y163.002 E37.99264
G1 X152.547 Y163.135 E38.00107
G1 X148.303 Y166.471 E38.2255
G1 X148.163 Y166.571 E38.23265
G1 X144.862 Y168.772 E38.3976
G1 X144.689 Y168.877 E38.40602
G1 X139.957 Y171.437 E38.6297
G1 X139.802 Y171.513 E38.63687
G1 X136.15 Y173.133 E38.80297
G1 X135.961 Y173.207 E38.81141
G1 X130.862 Y174.927 E39.03514
G1 X130.692 Y174.977 E39.04251
G1 X125.811 Y176.195 E39.25166
G1 X120.431 Y177.65 E39.48337
G1 X115.9 Y179.072 E39.6808
G1 X115.49 Y179.159 E39.69823
G1 X115.136 Y179.17 E39.71295
G1 X114.49 Y179.139 E39.73984
G1 X113.924 Y179.037 E39.76375
G1 X109.832 Y177.727 E39.94238
G1 X104.16 Y176.187 E40.18674
G1 X98.614 Y174.789 E40.42452
G1 X98.409 Y174.727 E40.43343
G1 X93.329 Y172.905 E40.6578
G1 X93.17 Y172.841 E40.66493
G1 X89.557 Y171.217 E40.82962
G1 X89.399 Y171.138 E40.83696
G1 X85.91 Y169.22 E41.00249
G1 X85.762 Y169.131 E41.00967
G1 X81.258 Y166.171 E41.23374
G1 X81.09 Y166.049 E41.24238
G1 X77.432 Y163.117 E41.43728
G1 X77.291 Y162.993 E41.44509
G1 X73.896 Y159.76 E41.64
G1 X73.766 Y159.625 E41.64779
G1 X70.665 Y156.123 E41.84226
G1 X70.534 Y155.961 E41.85092
G1 X67.354 Y151.599 E42.07535
G1 X67.247 Y151.437 E42.08342
G1 X64.833 Y147.422 E42.27819
G1 X64.742 Y147.256 E42.28606
G1 X62.675 Y143.037 E42.48139
G1 X62.601 Y142.867 E42.4891
G1 X60.915 Y138.534 E42.6824
G1 X60.861 Y138.377 E42.6893
G1 X59.695 Y134.551 E42.85559
G1 X59.649 Y134.376 E42.86311
G1 X58.66 Y129.811 E43.05731
G1 X58.625 Y129.605 E43.066
G1 X57.985 Y124.231 E43.291
G1 X57.972 Y124.06 E43.29813
G1 X57.812 Y120.09 E43.46332
G1 X57.813 Y119.887 E43.47176
G1 X58.094 Y114.484 E43.69669
G1 X58.11 Y114.312 E43.70387
G1 X58.625 Y110.383 E43.86862
G1 X58.656 Y110.203 E43.87621
G1 X59.651 Y105.615 E44.07139
G1 X59.698 Y105.434 E44.07917
G1 X61.074 Y100.96 E44.27377
G1 X61.145 Y100.764 E44.28244
G1 X63.216 Y95.772 E44.50714
G1 X63.287 Y95.617 E44.51422
G1 X65.077 Y92.099 E44.67833
G1 X65.167 Y91.939 E44.68596
G1 X67.644 Y87.938 E44.8816
G1 X67.762 Y87.767 E44.89024
G1 X71.007 Y83.485 E45.11361
G1 X71.116 Y83.352 E45.12076
G1 X73.771 Y80.366 E45.28688
G1 X73.913 Y80.221 E45.29532
M204 S5000
M205 X30 Y30
G1 F2400 E40.29532
G1 F300 Z1.25
G0 F7200 X164.932 Y129.04 Z1.25
M204 S500
M205 X20 Y20
;TYPE:WALL-INNER
G1 F300 Z0.25
G1 F2400 E45.29532
G1 F1800 X164.952 Y129.048 E45.29621
G1 X165.168 Y129.134 E45.30588
G1 X165.163 Y129.029
G1 X165.109 Y128.063 E45.3461
G1 X165.327 Y127.18 E45.38391
G1 X165.586 Y125.641 E45.4488
G1 X165.604 Y124.803 E45.48365
G1 X165.744 Y124.59 E45.49424
G1 X165.865 Y123.582 E45.53645
G1 X166.008 Y122.031 E45.60121
G1 X165.937 Y120.949 E45.64629
G1 X165.969 Y120.92 E45.64809
G1 X166.07 Y120.249 E45.6763
G1 X166.085 Y119.644 E45.70146
G1 X165.971 Y119.583 E45.70683
G1 X165.977 Y118.165 E45.76579
G1 X166.056 Y117.273 E45.80302
G1 X166.019 Y116.883 E45.8193
G1 X165.975 Y116.73 E45.82592
G1 X165.884 Y115.233 E45.88828
G1 X165.684 Y113.791 E45.9488
G1 X165.711 Y113.726 E45.95173
G1 X165.765 Y113.449 E45.96346
G1 X165.698 Y113.124 E45.97726
G1 X165.648 Y112.987 E45.98332
G1 X165.268 Y110.389 E46.09248
G1 X165.159 Y109.814 E46.11681
G1 X165.116 Y109.204 E46.14224
G1 X165.018 Y109.144 E46.14701
G1 X164.999 Y109.06 E46.15059
G1 X164.951 Y108.966 E46.15498
G1 X164.226 Y105.894 E46.28621
G1 X164.225 Y105.774 E46.2912
G1 X164.188 Y105.479 E46.30356
G1 X164.06 Y105.271 E46.31371
G1 X163.144 Y102.402 E46.43893
G1 X163.006 Y102.01 E46.4562
G1 X162.986 Y101.885 E46.46147
G1 X162.92 Y101.637 E46.47214
G1 X162.791 Y101.431 E46.48224
G1 X161.616 Y98.579 E46.61048
G1 X161.446 Y98.198 E46.62783
G1 X161.385 Y97.98 E46.63724
G1 X161.32 Y97.844 E46.64351
G1 X161.193 Y97.662 E46.65273
G1 X159.779 Y94.889 E46.78214
