;FLAVOR:Marlin
;TIME:1590
;Filament used: 0.961184m
;Layer height: 0.2
;MINX:88.512
;MINY:92.398
;MINZ:0.2
;MAXX:146.487
;MAXY:148.385
;MAXZ:6
;Generated with Cura_SteamEngine 4.5.0
M140 S60
M105
M190 S60
M104 S200
M105
M109 S200
M82 ;absolute extrusion mode
; Ender 3 Custom Start G-code
G92 E0 ; Reset Extruder
G28 ; Home all axes
G1 Z2.0 F3000 ; Move Z Axis up little to prevent scratching of Heat Bed
G1 X0.1 Y20 Z0.3 F5000.0 ; Move to start position
G1 X0.1 Y200.0 Z0.3 F1500.0 E15 ; Draw the first line
G1 X0.4 Y200.0 Z0.3 F5000.0 ; Move to side a little
G1 X0.4 Y20 Z0.3 F1500.0 E30 ; Draw the second line
G92 E0 ; Reset Extruder
G1 Z2.0 F3000 ; Move Z Axis up little to prevent scratching of Heat Bed
G1 X5 Y20 Z0.3 F5000.0 ; Move over to prevent blob squish
G92 E0
G92 E0
G1 F2700 E-5
;LAYER_COUNT:30
;LAYER:0
M107
G0 F6000 X100.56 Y96.629 Z0.2
;TYPE:SKIRT
G1 F2700 E0
G1 F1200 X100.994 Y96.214 E0.01997
G1 X101.914 Y95.426 E0.06026
G1 X102.084 Y95.296 E0.06738
G1 X102.676 Y94.874 E0.09156
G1 X102.855 Y94.755 E0.09871
G1 X103.468 Y94.376 E0.12268
G1 X103.677 Y94.256 E0.1307
G1 X104.463 Y93.845 E0.1602
G1 X104.743 Y93.713 E0.17049
G1 X105.54 Y93.375 E0.19929
G1 X105.754 Y93.294 E0.2069
G1 X106.416 Y93.067 E0.23017
G1 X106.647 Y92.996 E0.23821
G1 X107.414 Y92.791 E0.26462
G1 X107.701 Y92.725 E0.27441
G1 X108.617 Y92.555 E0.3054
G1 X108.863 Y92.52 E0.31366
G1 X110.102 Y92.414 E0.35502
G1 X110.669 Y92.398 E0.37389
G1 X111.932 Y92.435 E0.41591
G1 X112.162 Y92.455 E0.42359
G1 X112.935 Y92.55 E0.4495
G1 X113.193 Y92.591 E0.45818
G1 X114.525 Y92.889 E0.50358
G1 X115.102 Y93.056 E0.52356
G1 X116.372 Y93.509 E0.56841
G1 X116.601 Y93.607 E0.57669
G1 X117.343 Y93.958 E0.60399
G1 X117.576 Y94.079 E0.61273
G1 X118.233 Y94.45 E0.63782
G1 X118.456 Y94.586 E0.64651
G1 X119.31 Y95.163 E0.68079
G1 X120.171 Y95.807 E0.71655
G1 X121.664 Y96.954 E0.77917
G1 X123.696 Y98.427 E0.86264
G1 X125.779 Y99.847 E0.94649
G1 X127.88 Y101.194 E1.0295
G1 X130.086 Y102.522 E1.11514
G1 X132.224 Y103.729 E1.1968
G1 X135.043 Y105.205 E1.30263
G1 X135.973 Y105.672 E1.33725
G1 X136.793 Y106.128 E1.36845
G1 X137.564 Y106.648 E1.39939
G1 X138.208 Y107.124 E1.42602
G1 X139.237 Y107.905 E1.46899
G1 X141.849 Y109.769 E1.57572
G1 X142.589 Y110.346 E1.60693
G1 X143.276 Y110.984 E1.63811
G1 X143.907 Y111.678 E1.66931
G1 X144.477 Y112.423 E1.70051
G1 X144.98 Y113.214 E1.73168
G1 X145.415 Y114.046 E1.76291
G1 X145.777 Y114.911 E1.7941
G1 X146.064 Y115.803 E1.82526
G1 X146.275 Y116.717 E1.85646
G1 X146.406 Y117.646 E1.88767
G1 X146.452 Y118.328 E1.9104
G1 X146.484 Y119.218 E1.94002
G1 X146.487 Y119.897 E1.96261
G1 X146.476 Y120.323 E1.97678
G1 X146.412 Y121.259 E2.00798
G1 X146.251 Y122.271 E2.04207
G1 X146.03 Y123.331 E2.07808
G1 X145.828 Y124.233 E2.10882
G1 X145.331 Y126.78 E2.19514
G1 X145.194 Y127.554 E2.22128
G1 X144.991 Y128.47 E2.25248
G1 X144.77 Y129.196 E2.27772
G1 X144.668 Y129.494 E2.2882
G1 X144.537 Y129.858 E2.30107
G1 X144.422 Y130.159 E2.31178
G1 X144.214 Y130.665 E2.32998
G1 X143.938 Y131.292 E2.35277
G1 X143.524 Y132.133 E2.38394
G1 X142.971 Y133.038 E2.41922
G1 X142.206 Y134.162 E2.46444
G1 X141.893 Y134.606 E2.48251
G1 X140.477 Y136.738 E2.56763
G1 X139.979 Y137.51 E2.59819
G1 X139.438 Y138.276 E2.62938
G1 X138.993 Y138.815 E2.65263
G1 X138.57 Y139.296 E2.67393
G1 X138.064 Y139.834 E2.6985
G1 X137.742 Y140.154 E2.7136
G1 X137.46 Y140.425 E2.7266
G1 X137.218 Y140.649 E2.73757
G1 X136.503 Y141.256 E2.76877
G1 X135.75 Y141.793 E2.79953
G1 X134.824 Y142.395 E2.83626
G1 X134.266 Y142.746 E2.85819
G1 X132.183 Y144.143 E2.94161
G1 X131.469 Y144.645 E2.97064
G1 X130.413 Y145.301 E3.01199
G1 X130.063 Y145.492 E3.02525
G1 X129.191 Y145.919 E3.05754
G1 X128.338 Y146.286 E3.08843
G1 X128.089 Y146.386 E3.09735
G1 X127.569 Y146.582 E3.11583
G1 X126.675 Y146.866 E3.14703
G1 X125.839 Y147.058 E3.17556
G1 X124.577 Y147.295 E3.21827
G1 X124.241 Y147.352 E3.22961
G1 X121.234 Y147.958 E3.33163
G1 X120.519 Y148.114 E3.35597
G1 X119.596 Y148.275 E3.38713
G1 X118.418 Y148.365 E3.42643
G1 X117.53 Y148.385 E3.45597
G1 X116.999 Y148.384 E3.47363
G1 X116.571 Y148.373 E3.48787
G1 X115.636 Y148.309 E3.51904
G1 X114.62 Y148.148 E3.55326
G1 X113.59 Y147.933 E3.58825
G1 X112.673 Y147.728 E3.6195
G1 X110.069 Y147.237 E3.70764
G1 X109.148 Y147.056 E3.73886
G1 X108.236 Y146.836 E3.77006
G1 X107.765 Y146.689 E3.78647
G1 X107.515 Y146.605 E3.79524
G1 X107.102 Y146.457 E3.80984
G1 X106.69 Y146.3 E3.8245
G1 X106.264 Y146.128 E3.83978
G1 X105.747 Y145.901 E3.85856
G1 X105.415 Y145.748 E3.87072
G1 X104.581 Y145.32 E3.9019
G1 X103.835 Y144.855 E3.93114
G1 X102.976 Y144.27 E3.9657
G1 X102.228 Y143.744 E3.99612
G1 X100.086 Y142.325 E4.08157
G1 X99.336 Y141.844 E4.11121
G1 X98.569 Y141.304 E4.14241
G1 X97.65 Y140.513 E4.18274
G1 X96.922 Y139.813 E4.21633
G1 X96.496 Y139.381 E4.23651
G1 X96.279 Y139.148 E4.2471
G1 X95.67 Y138.435 E4.27828
G1 X95.106 Y137.646 E4.31054
G1 X94.119 Y136.115 E4.37113
G1 X92.688 Y133.984 E4.4565
G1 X92.236 Y133.342 E4.48262
G1 X91.73 Y132.552 E4.51382
G1 X91.255 Y131.642 E4.54796
G1 X90.788 Y130.635 E4.58488
G1 X90.478 Y129.898 E4.61147
G1 X90.36 Y129.586 E4.62257
G1 X90.066 Y128.696 E4.65374
G1 X89.838 Y127.727 E4.68685
G1 X89.508 Y125.945 E4.74713
G1 X88.971 Y123.279 E4.83758
G1 X88.781 Y122.405 E4.86733
G1 X88.621 Y121.481 E4.89852
G1 X88.534 Y120.338 E4.93665
G1 X88.512 Y119.421 E4.96716
G1 X88.514 Y118.834 E4.98668
G1 X88.526 Y118.425 E5.00029
G1 X88.593 Y117.49 E5.03147
G1 X88.749 Y116.518 E5.06421
G1 X88.962 Y115.499 E5.09883
G1 X89.164 Y114.604 E5.12935
G1 X89.65 Y112.119 E5.21357
G1 X89.846 Y111.036 E5.25017
G1 X90.066 Y110.125 E5.28134
G1 X90.381 Y109.187 E5.31425
G1 X90.762 Y108.203 E5.34935
G1 X91.019 Y107.594 E5.37133
G1 X91.139 Y107.332 E5.38092
G1 X91.566 Y106.497 E5.41211
G1 X92.062 Y105.701 E5.44331
G1 X92.624 Y104.951 E5.47448
G1 X93.465 Y104.033 E5.51589
G1 X94.678 Y102.859 E5.57203
G1 X96.457 Y101.075 E5.65583
G1 X98.2 Y99.224 E5.74039
G1 X99.315 Y97.98 E5.79596
G1 X99.909 Y97.306 E5.82584
G1 X100.56 Y96.629 E5.85707
G0 F6000 X100.836 Y96.918
G1 F1200 X101.27 Y96.503 E5.87705
G1 X102.157 Y95.744 E5.91588
G1 X102.327 Y95.614 E5.92299
G1 X102.898 Y95.207 E5.94632
G1 X103.077 Y95.088 E5.95346
G1 X103.667 Y94.722 E5.97656
G1 X103.876 Y94.602 E5.98457
G1 X104.634 Y94.207 E6.013
G1 X104.914 Y94.075 E6.0233
G1 X105.682 Y93.749 E6.05105
G1 X105.896 Y93.668 E6.05866
G1 X106.534 Y93.45 E6.08108
G1 X106.765 Y93.379 E6.08912
G1 X107.503 Y93.181 E6.11453
G1 X107.79 Y93.115 E6.12433
G1 X108.673 Y92.951 E6.1542
G1 X108.919 Y92.916 E6.16246
G1 X110.113 Y92.814 E6.20232
G1 X110.68 Y92.798 E6.22119
G1 X111.897 Y92.834 E6.26168
G1 X112.127 Y92.854 E6.26936
G1 X112.873 Y92.945 E6.29436
G1 X113.131 Y92.986 E6.30305
G1 X114.414 Y93.273 E6.34677
G1 X114.991 Y93.44 E6.36675
G1 X116.214 Y93.877 E6.40995
G1 X116.443 Y93.975 E6.41823
G1 X117.158 Y94.313 E6.44454
G1 X117.391 Y94.434 E6.45327
G1 X118.025 Y94.791 E6.47747
G1 X118.248 Y94.927 E6.48616
G1 X119.071 Y95.483 E6.51919
G1 X119.927 Y96.124 E6.55476
G1 X121.431 Y97.279 E6.61783
G1 X123.465 Y98.754 E6.7014
G1 X125.56 Y100.182 E6.78573
G1 X127.679 Y101.541 E6.86945
G1 X129.847 Y102.846 E6.95362
G1 X132.034 Y104.08 E7.03714
G1 X134.903 Y105.583 E7.14486
G1 X135.794 Y106.03 E7.17802
G1 X136.598 Y106.478 E7.20863
G1 X137.327 Y106.97 E7.23788
G1 X137.966 Y107.443 E7.26432
G1 X138.992 Y108.221 E7.30715
G1 X141.617 Y110.095 E7.41442
G1 X142.342 Y110.662 E7.44504
G1 X143.016 Y111.29 E7.47568
G1 X143.632 Y111.973 E7.50627
G1 X144.187 Y112.708 E7.5369
G1 X144.676 Y113.488 E7.56752
G1 X145.096 Y114.308 E7.59816
G1 X145.442 Y115.16 E7.62875
G1 X145.714 Y116.04 E7.65938
G1 X145.908 Y116.94 E7.69
G1 X146.023 Y117.854 E7.72064
G1 X146.052 Y118.342 E7.7369
G1 X146.084 Y119.232 E7.76652
G1 X146.087 Y119.887 E7.78831
G1 X146.076 Y120.313 E7.80248
G1 X146.013 Y121.231 E7.83309
G1 X145.859 Y122.19 E7.86539
G1 X145.64 Y123.243 E7.90117
G1 X145.433 Y124.167 E7.93266
G1 X144.939 Y126.7 E8.01849
G1 X144.8 Y127.484 E8.04498
G1 X144.6 Y128.383 E8.07561
G1 X144.392 Y129.067 E8.09939
G1 X144.29 Y129.365 E8.10986
G1 X144.163 Y129.715 E8.12225
G1 X144.048 Y130.016 E8.13296
G1 X143.848 Y130.504 E8.15051
G1 X143.572 Y131.131 E8.17329
G1 X143.164 Y131.956 E8.2039
G1 X142.64 Y132.813 E8.23731
G1 X141.879 Y133.931 E8.28229
G1 X141.577 Y134.359 E8.29972
G1 X140.134 Y136.531 E8.38645
G1 X139.643 Y137.293 E8.4166
G1 X139.111 Y138.045 E8.44724
G1 X138.693 Y138.551 E8.46906
G1 X138.27 Y139.032 E8.49037
G1 X137.782 Y139.551 E8.51406
G1 X137.46 Y139.871 E8.52916
G1 X137.188 Y140.131 E8.54168
G1 X136.946 Y140.355 E8.55265
G1 X136.244 Y140.951 E8.58327
G1 X135.532 Y141.458 E8.61235
G1 X134.61 Y142.057 E8.64891
G1 X134.052 Y142.409 E8.67086
G1 X131.963 Y143.809 E8.7545
G1 X131.239 Y144.318 E8.78393
G1 X130.222 Y144.95 E8.82376
G1 X129.872 Y145.141 E8.83702
G1 X129.031 Y145.552 E8.86815
G1 X128.189 Y145.914 E8.89864
G1 X127.629 Y146.134 E8.91865
G1 X127.432 Y146.206 E8.92563
G1 X126.554 Y146.484 E8.95626
G1 X125.764 Y146.665 E8.98321
G1 X124.51 Y146.9 E9.02565
G1 X124.192 Y146.954 E9.03638
G1 X121.137 Y147.569 E9.14002
G1 X120.434 Y147.723 E9.16396
G1 X119.527 Y147.881 E9.19458
G1 X118.409 Y147.965 E9.23187
G1 X117.521 Y147.985 E9.26141
G1 X117.01 Y147.985 E9.27841
G1 X116.582 Y147.974 E9.29265
G1 X115.663 Y147.91 E9.32329
G1 X114.701 Y147.756 E9.35569
G1 X113.678 Y147.542 E9.39045
G1 X112.779 Y147.34 E9.4211
G1 X110.146 Y146.844 E9.51022
G1 X109.225 Y146.663 E9.54143
G1 X107.893 Y146.31 E9.58727
G1 X107.643 Y146.226 E9.59604
G1 X107.244 Y146.083 E9.61013
G1 X106.832 Y145.926 E9.6248
G1 X106.422 Y145.76 E9.63951
G1 X105.915 Y145.538 E9.65792
G1 X105.583 Y145.385 E9.67008
G1 X104.764 Y144.964 E9.70071
G1 X104.06 Y144.525 E9.7283
G1 X103.206 Y143.943 E9.76267
G1 X102.457 Y143.416 E9.79313
G1 X100.27 Y141.967 E9.88039
G1 X99.552 Y141.507 E9.90875
G1 X98.8 Y140.977 E9.93935
G1 X97.927 Y140.225 E9.97768
G1 X97.199 Y139.525 E10.01127
G1 X96.789 Y139.108 E10.03072
G1 X96.572 Y138.875 E10.04131
G1 X95.974 Y138.175 E10.07193
G1 X95.441 Y137.428 E10.10245
G1 X94.446 Y135.885 E10.16351
G1 X93.021 Y133.764 E10.2485
G1 X92.563 Y133.112 E10.275
G1 X92.067 Y132.336 E10.30564
G1 X91.618 Y131.474 E10.33796
G1 X91.151 Y130.467 E10.37488
G1 X90.852 Y129.757 E10.4005
G1 X90.734 Y129.445 E10.4116
G1 X90.446 Y128.57 E10.44224
G1 X90.231 Y127.653 E10.47356
G1 X89.906 Y125.896 E10.53299
G1 X89.359 Y123.181 E10.62511
G1 X89.172 Y122.32 E10.65441
G1 X89.016 Y121.413 E10.68502
G1 X88.934 Y120.328 E10.72121
G1 X88.912 Y119.411 E10.75172
G1 X88.914 Y118.846 E10.77051
G1 X88.926 Y118.437 E10.78412
G1 X88.992 Y117.519 E10.81474
G1 X89.141 Y116.6 E10.8457
G1 X89.352 Y115.587 E10.88012
G1 X89.552 Y114.698 E10.91042
G1 X90.046 Y112.177 E10.99587
G1 X90.238 Y111.114 E11.03179
G1 X90.455 Y110.219 E11.06242
G1 X90.754 Y109.332 E11.09356
G1 X91.135 Y108.348 E11.12865
G1 X91.383 Y107.761 E11.14985
G1 X91.503 Y107.499 E11.15943
G1 X91.922 Y106.679 E11.19006
G1 X92.411 Y105.899 E11.22068
G1 X92.966 Y105.165 E11.25129
G1 X93.745 Y104.319 E11.28954
G1 X94.953 Y103.149 E11.34547
G1 X96.748 Y101.348 E11.43004
G1 X98.485 Y99.504 E11.5143
G1 X99.677 Y98.175 E11.57368
G1 X100.21 Y97.57 E11.60049
G1 X100.836 Y96.918 E11.63056
G0 F6000 X101.113 Y97.207
G1 F1200 X101.547 Y96.792 E11.65053
G1 X102.4 Y96.062 E11.68787
G1 X102.57 Y95.932 E11.69499
G1 X103.119 Y95.54 E11.71743
G1 X103.298 Y95.421 E11.72458
G1 X103.866 Y95.069 E11.7468
G1 X104.075 Y94.949 E11.75482
G1 X104.805 Y94.569 E11.78219
G1 X105.085 Y94.437 E11.79248
G1 X105.823 Y94.123 E11.81916
G1 X106.037 Y94.042 E11.82677
G1 X106.651 Y93.832 E11.84835
G1 X106.882 Y93.761 E11.85639
G1 X107.593 Y93.57 E11.88088
G1 X107.88 Y93.504 E11.89067
G1 X108.729 Y93.347 E11.91939
G1 X108.975 Y93.312 E11.92765
G1 X110.124 Y93.214 E11.96601
G1 X110.691 Y93.198 E11.98487
G1 X111.863 Y93.232 E12.02387
G1 X112.093 Y93.252 E12.03155
G1 X112.81 Y93.34 E12.05558
G1 X113.068 Y93.381 E12.06427
G1 X114.303 Y93.657 E12.10636
G1 X114.88 Y93.824 E12.12633
G1 X116.057 Y94.245 E12.16791
G1 X116.286 Y94.343 E12.17619
G1 X116.974 Y94.668 E12.2015
G1 X117.207 Y94.789 E12.21023
G1 X117.817 Y95.133 E12.23353
G1 X118.04 Y95.269 E12.24221
G1 X118.831 Y95.804 E12.27398
G1 X119.684 Y96.441 E12.30938
G1 X121.216 Y97.618 E12.37364
G1 X123.211 Y99.064 E12.45559
G1 X125.341 Y100.516 E12.54133
G1 X127.487 Y101.893 E12.62614
G1 X129.639 Y103.188 E12.70967
G1 X131.868 Y104.445 E12.79479
G1 X134.671 Y105.914 E12.90004
G1 X135.614 Y106.387 E12.93513
G1 X136.403 Y106.828 E12.96519
G1 X137.09 Y107.292 E12.99277
G1 X137.725 Y107.761 E13.01902
G1 X138.801 Y108.578 E13.06396
G1 X141.384 Y110.421 E13.1695
G1 X142.096 Y110.977 E13.19954
G1 X142.755 Y111.595 E13.22959
G1 X143.357 Y112.268 E13.25962
G1 X143.897 Y112.992 E13.28966
G1 X144.371 Y113.761 E13.31971
G1 X144.775 Y114.568 E13.34973
G1 X145.105 Y115.409 E13.37977
G1 X145.361 Y116.275 E13.40981
G1 X145.539 Y117.16 E13.43983
G1 X145.652 Y118.356 E13.47979
G1 X145.684 Y119.246 E13.50941
G1 X145.688 Y119.876 E13.53036
G1 X145.677 Y120.302 E13.54454
G1 X145.613 Y121.203 E13.57458
G1 X145.468 Y122.109 E13.6051
G1 X145.249 Y123.156 E13.64068
G1 X145.049 Y124.048 E13.67108
G1 X144.539 Y126.666 E13.75979
G1 X144.406 Y127.414 E13.78506
G1 X144.21 Y128.296 E13.81511
G1 X144.013 Y128.937 E13.83742
G1 X143.911 Y129.235 E13.84789
G1 X143.789 Y129.572 E13.85981
G1 X143.674 Y129.873 E13.87053
G1 X143.482 Y130.342 E13.88739
G1 X143.206 Y130.969 E13.91017
G1 X142.805 Y131.779 E13.94023
G1 X142.309 Y132.589 E13.97182
G1 X141.552 Y133.701 E14.01656
G1 X141.232 Y134.154 E14.03501
G1 X139.849 Y136.236 E14.11814
G1 X139.307 Y137.077 E14.15142
G1 X138.784 Y137.813 E14.18145
G1 X138.392 Y138.287 E14.20191
G1 X137.969 Y138.768 E14.22321
G1 X137.5 Y139.267 E14.24599
G1 X137.178 Y139.587 E14.26109
G1 X136.917 Y139.838 E14.27313
G1 X136.675 Y140.062 E14.2841
G1 X135.985 Y140.645 E14.31415
G1 X135.313 Y141.123 E14.34157
G1 X134.397 Y141.718 E14.3779
G1 X133.846 Y142.065 E14.39956
G1 X131.711 Y143.496 E14.48505
G1 X131.009 Y143.99 E14.5136
G1 X130.03 Y144.599 E14.55195
G1 X129.68 Y144.79 E14.56521
G1 X128.871 Y145.186 E14.59516
G1 X128.04 Y145.543 E14.62525
G1 X127.791 Y145.643 E14.63417
G1 X127.294 Y145.83 E14.65183
G1 X126.433 Y146.102 E14.68187
G1 X125.69 Y146.272 E14.70722
G1 X124.444 Y146.506 E14.74938
G1 X124.107 Y146.563 E14.76075
G1 X121.098 Y147.169 E14.86284
G1 X120.349 Y147.333 E14.88834
G1 X119.459 Y147.486 E14.91838
G1 X118.4 Y147.565 E14.9537
G1 X117.512 Y147.585 E14.98324
G1 X117.02 Y147.585 E14.9996
G1 X116.592 Y147.574 E15.01384
G1 X115.691 Y147.51 E15.04389
G1 X114.782 Y147.364 E15.07451
G1 X113.765 Y147.152 E15.10906
G1 X112.851 Y146.947 E15.14022
G1 X110.223 Y146.452 E15.22916
G1 X109.302 Y146.271 E15.26038
G1 X108.02 Y145.931 E15.30449
G1 X107.77 Y145.847 E15.31326
G1 X107.387 Y145.709 E15.3268
G1 X106.975 Y145.552 E15.34147
G1 X106.58 Y145.392 E15.35564
G1 X106.082 Y145.175 E15.37371
G1 X105.75 Y145.022 E15.38587
G1 X104.947 Y144.608 E15.41592
G1 X104.285 Y144.194 E15.44189
G1 X103.436 Y143.615 E15.47607
G1 X102.686 Y143.087 E15.50657
G1 X100.493 Y141.635 E15.59405
G1 X99.768 Y141.17 E15.6227
G1 X99.03 Y140.65 E15.65273
G1 X98.204 Y139.936 E15.68904
G1 X97.476 Y139.236 E15.72263
G1 X97.082 Y138.836 E15.74131
G1 X96.865 Y138.603 E15.7519
G1 X96.279 Y137.915 E15.78195
G1 X95.777 Y137.21 E15.81074
G1 X94.986 Y135.991 E15.85907
G1 X94.774 Y135.655 E15.87229
G1 X93.356 Y133.543 E15.95689
G1 X92.891 Y132.882 E15.98377
G1 X92.404 Y132.121 E16.01383
G1 X91.981 Y131.305 E16.0444
G1 X91.514 Y130.298 E16.08131
G1 X91.227 Y129.615 E16.10596
G1 X91.109 Y129.303 E16.11705
G1 X90.827 Y128.445 E16.14709
G1 X90.625 Y127.579 E16.17667
G1 X90.298 Y125.816 E16.2363
G1 X89.75 Y123.096 E16.32859
G1 X89.563 Y122.236 E16.35786
G1 X89.411 Y121.345 E16.38792
G1 X89.334 Y120.319 E16.42214
G1 X89.312 Y119.402 E16.45265
G1 X89.313 Y118.858 E16.47075
G1 X89.325 Y118.449 E16.48436
G1 X89.392 Y117.548 E16.51441
G1 X89.533 Y116.681 E16.54362
G1 X89.743 Y115.675 E16.5778
G1 X89.942 Y114.791 E16.60794
G1 X90.436 Y112.268 E16.69345
G1 X90.631 Y111.191 E16.72985
