;FLAVOR:Marlin
;TIME:5782
;Filament used: 3.80112m
;Layer height: 0.2
;MINX:31.326
;MINY:78.123
;MINZ:0.2
;MAXX:203.674
;MAXY:149.876
;MAXZ:7
;Generated with Cura_SteamEngine 4.5.0
M140 S60
M105
M190 S60
M104 S200
M105
M109 S200
M82 ;absolute extrusion mode
; Ender 3 Custom Start G-code
G92 E0 ; Reset Extruder
G28 ; Home all axes
G1 Z2.0 F3000 ; Move Z Axis up little to prevent scratching of Heat Bed
G1 X0.1 Y20 Z0.3 F5000.0 ; Move to start position
G1 X0.1 Y200.0 Z0.3 F1500.0 E15 ; Draw the first line
G1 X0.4 Y200.0 Z0.3 F5000.0 ; Move to side a little
G1 X0.4 Y20 Z0.3 F1500.0 E30 ; Draw the second line
G92 E0 ; Reset Extruder
G1 Z2.0 F3000 ; Move Z Axis up little to prevent scratching of Heat Bed
G1 X5 Y20 Z0.3 F5000.0 ; Move over to prevent blob squish
G92 E0
G92 E0
G1 F2700 E-5
;LAYER_COUNT:35
;LAYER:0
M107
G0 F6000 X41.653 Y80.235 Z0.2
;TYPE:SKIRT
G1 F2700 E0
G1 F1200 X41.924 Y80.098 E0.0101
G1 X42.45 Y79.85 E0.02944
G1 X43.162 Y79.541 E0.05526
G1 X43.402 Y79.444 E0.06387
G1 X44.009 Y79.22 E0.08539
G1 X44.75 Y78.975 E0.11134
G1 X44.96 Y78.911 E0.11865
G1 X45.588 Y78.74 E0.14029
G1 X46.541 Y78.518 E0.17284
G1 X47.258 Y78.387 E0.19708
G1 X47.945 Y78.289 E0.22016
G1 X48.262 Y78.251 E0.23078
G1 X48.862 Y78.196 E0.25082
G1 X49.28 Y78.169 E0.26475
G1 X49.606 Y78.153 E0.27561
G1 X50.419 Y78.128 E0.30266
G1 X50.747 Y78.126 E0.31357
G1 X53.673 Y78.123 E0.41089
G1 X183.614 Y78.123 E4.73275
G1 X183.844 Y78.125 E4.7404
G1 X185.517 Y78.16 E4.79605
G1 X186.431 Y78.218 E4.82651
G1 X186.823 Y78.259 E4.83962
G1 X187.235 Y78.31 E4.85343
G1 X187.536 Y78.353 E4.86354
G1 X188.147 Y78.458 E4.88416
G1 X188.585 Y78.546 E4.89902
G1 X189.186 Y78.681 E4.91951
G1 X189.745 Y78.828 E4.93873
G1 X190.181 Y78.955 E4.95384
G1 X190.812 Y79.156 E4.97586
G1 X191.387 Y79.363 E4.99619
G1 X192.024 Y79.618 E5.01901
G1 X192.303 Y79.737 E5.0291
G1 X192.864 Y79.995 E5.04964
G1 X193.499 Y80.314 E5.07327
G1 X193.762 Y80.453 E5.08317
G1 X194.349 Y80.787 E5.10563
G1 X195.128 Y81.273 E5.13617
G1 X195.679 Y81.653 E5.15843
G1 X196.362 Y82.161 E5.18674
G1 X196.551 Y82.309 E5.19473
G1 X197.053 Y82.727 E5.21645
G1 X197.603 Y83.219 E5.241
G1 X197.79 Y83.394 E5.24952
G1 X198.231 Y83.831 E5.27017
G1 X198.524 Y84.138 E5.28428
G1 X198.934 Y84.587 E5.3045
G1 X199.341 Y85.066 E5.32541
G1 X199.783 Y85.625 E5.34911
G1 X199.95 Y85.846 E5.35832
G1 X200.338 Y86.394 E5.38066
G1 X200.763 Y87.043 E5.40646
G1 X200.907 Y87.275 E5.41554
G1 X201.199 Y87.774 E5.43477
G1 X201.391 Y88.123 E5.44802
G1 X201.57 Y88.462 E5.46077
G1 X201.707 Y88.733 E5.47087
G1 X201.966 Y89.283 E5.49109
G1 X202.246 Y89.933 E5.51463
G1 X202.346 Y90.179 E5.52346
G1 X202.579 Y90.805 E5.54568
G1 X202.818 Y91.527 E5.57097
G1 X202.887 Y91.753 E5.57883
G1 X203.061 Y92.391 E5.60083
G1 X203.281 Y93.34 E5.63323
G1 X203.412 Y94.057 E5.65747
G1 X203.508 Y94.728 E5.68002
G1 X203.545 Y95.033 E5.69023
G1 X203.602 Y95.647 E5.71074
G1 X203.629 Y96.064 E5.72464
G1 X203.646 Y96.405 E5.736
G1 X203.668 Y97.156 E5.76099
G1 X203.673 Y97.63 E5.77675
G1 X203.674 Y103.79 E5.98164
G1 X203.662 Y104.701 E6.01194
G1 X203.645 Y105.181 E6.02791
G1 X203.619 Y105.638 E6.04314
G1 X203.572 Y106.204 E6.06203
G1 X203.539 Y106.507 E6.07217
G1 X203.497 Y106.844 E6.08346
G1 X203.451 Y107.172 E6.09448
G1 X203.345 Y107.797 E6.11556
G1 X203.249 Y108.278 E6.13187
G1 X203.104 Y108.919 E6.15373
G1 X202.961 Y109.458 E6.17228
G1 X202.852 Y109.831 E6.18521
G1 X202.747 Y110.171 E6.19704
G1 X202.651 Y110.464 E6.2073
G1 X202.44 Y111.052 E6.22807
G1 X202.297 Y111.417 E6.24111
G1 X202.049 Y112.009 E6.26246
G1 X201.808 Y112.531 E6.28158
G1 X201.616 Y112.92 E6.29601
G1 X201.33 Y113.467 E6.31654
G1 X200.994 Y114.056 E6.33909
G1 X200.52 Y114.812 E6.36877
G1 X200.121 Y115.39 E6.39213
G1 X199.652 Y116.018 E6.4182
G1 X199.49 Y116.225 E6.42695
G1 X199.078 Y116.721 E6.44839
G1 X198.586 Y117.272 E6.47296
G1 X198.399 Y117.472 E6.48207
G1 X197.94 Y117.934 E6.50373
G1 X197.418 Y118.424 E6.52754
G1 X197.21 Y118.611 E6.53684
G1 X196.731 Y119.018 E6.55775
G1 X196.4 Y119.283 E6.57185
G1 X195.893 Y119.669 E6.59305
G1 X195.412 Y120.008 E6.61262
G1 X195.021 Y120.268 E6.62824
G1 X194.451 Y120.626 E6.65062
G1 X193.971 Y120.904 E6.66907
G1 X193.355 Y121.235 E6.69233
G1 X193.103 Y121.363 E6.70173
G1 X192.524 Y121.636 E6.72302
G1 X191.77 Y121.96 E6.75032
G1 X191.536 Y122.054 E6.7587
G1 X190.924 Y122.28 E6.7804
G1 X190.293 Y122.486 E6.80248
G1 X190.027 Y122.567 E6.81173
G1 X189.42 Y122.733 E6.83266
G1 X188.605 Y122.926 E6.86052
G1 X187.871 Y123.077 E6.88544
G1 X187.487 Y123.147 E6.89842
G1 X179.756 Y124.498 E7.15945
G1 X177.271 Y124.969 E7.24358
G1 X174.811 Y125.507 E7.32733
G1 X172.351 Y126.119 E7.41164
G1 X169.931 Y126.794 E7.49521
G1 X167.548 Y127.532 E7.57818
G1 X165.136 Y128.355 E7.66294
G1 X162.781 Y129.233 E7.74654
G1 X160.454 Y130.176 E7.83005
G1 X158.145 Y131.189 E7.91391
G1 X155.856 Y132.273 E7.99815
G1 X153.63 Y133.403 E8.08118
G1 X151.416 Y134.608 E8.16502
G1 X149.259 Y135.862 E8.248
G1 X147.098 Y137.201 E8.33256
G1 X145.008 Y138.581 E8.41586
G1 X142.913 Y140.05 E8.50096
G1 X140.953 Y141.508 E8.58221
G1 X139.451 Y142.704 E8.64607
G1 X138.239 Y143.645 E8.6971
G1 X137.907 Y143.889 E8.71081
G1 X137.228 Y144.372 E8.73852
G1 X136.127 Y145.125 E8.78289
G1 X135.43 Y145.574 E8.81046
G1 X134.762 Y145.976 E8.83639
G1 X134.113 Y146.344 E8.86121
G1 X133.325 Y146.762 E8.89088
G1 X132.622 Y147.107 E8.91692
G1 X131.917 Y147.43 E8.94271
G1 X131.223 Y147.726 E8.96781
G1 X130.739 Y147.921 E8.98516
G1 X130.376 Y148.06 E8.99809
G1 X129.61 Y148.334 E9.02515
G1 X128.954 Y148.549 E9.04811
G1 X128.174 Y148.782 E9.07519
G1 X127.366 Y148.999 E9.10301
G1 X126.602 Y149.181 E9.12913
G1 X125.769 Y149.355 E9.15744
G1 X125.036 Y149.485 E9.1822
G1 X124.245 Y149.604 E9.2088
G1 X123.754 Y149.667 E9.22527
G1 X123.423 Y149.704 E9.23634
G1 X122.624 Y149.778 E9.26303
G1 X121.851 Y149.828 E9.2888
G1 X121.044 Y149.858 E9.31566
G1 X119.753 Y149.875 E9.3586
G1 X115.185 Y149.876 E9.51053
G1 X113.638 Y149.849 E9.56199
G1 X112.836 Y149.811 E9.5887
G1 X112.369 Y149.778 E9.60427
G1 X112.06 Y149.751 E9.61459
G1 X111.263 Y149.668 E9.64124
G1 X110.45 Y149.561 E9.66851
G1 X109.654 Y149.432 E9.69533
G1 X108.875 Y149.284 E9.7217
G1 X108.113 Y149.115 E9.74766
G1 X107.341 Y148.923 E9.77412
G1 X106.909 Y148.806 E9.78901
G1 X106.579 Y148.711 E9.80043
G1 X105.775 Y148.462 E9.82842
G1 X104.999 Y148.197 E9.8557
G1 X104.295 Y147.933 E9.88071
G1 X103.552 Y147.633 E9.90736
G1 X102.788 Y147.298 E9.9351
G1 X102.072 Y146.961 E9.96142
G1 X101.669 Y146.76 E9.9764
G1 X101.374 Y146.606 E9.98747
G1 X100.69 Y146.234 E10.01337
G1 X99.94 Y145.799 E10.0422
G1 X99.275 Y145.389 E10.06819
G1 X98.92 Y145.159 E10.08226
G1 X98.643 Y144.973 E10.09335
G1 X97.319 Y144.054 E10.14696
G1 X96.824 Y143.693 E10.16734
G1 X96.462 Y143.416 E10.1825
G1 X94.394 Y141.772 E10.27036
G1 X92.395 Y140.271 E10.35351
G1 X90.312 Y138.798 E10.43836
G1 X88.225 Y137.408 E10.52176
G1 X86.11 Y136.083 E10.60477
G1 X83.904 Y134.789 E10.68983
G1 X81.71 Y133.582 E10.77312
G1 X79.478 Y132.437 E10.85656
G1 X77.202 Y131.348 E10.94048
G1 X74.896 Y130.325 E11.02438
G1 X72.577 Y129.372 E11.10777
G1 X70.232 Y128.486 E11.19115
G1 X67.849 Y127.662 E11.27501
G1 X65.444 Y126.905 E11.35887
G1 X63.019 Y126.218 E11.4427
G1 X60.543 Y125.59 E11.52766
G1 X58.147 Y125.055 E11.60931
G1 X55.169 Y124.485 E11.71016
G1 X47.628 Y123.168 E11.96477
G1 X46.678 Y122.988 E11.99693
G1 X46.202 Y122.887 E12.01311
G1 X45.782 Y122.788 E12.02747
G1 X45.202 Y122.634 E12.04743
G1 X44.569 Y122.443 E12.06942
G1 X44.226 Y122.331 E12.08142
G1 X43.656 Y122.127 E12.10155
G1 X43.306 Y121.991 E12.11404
G1 X42.725 Y121.75 E12.13496
G1 X42.172 Y121.496 E12.1552
G1 X41.465 Y121.143 E12.18149
G1 X41.233 Y121.02 E12.19022
G1 X40.67 Y120.699 E12.21178
G1 X40.081 Y120.336 E12.23479
G1 X39.822 Y120.168 E12.24506
G1 X39.296 Y119.804 E12.26633
G1 X38.515 Y119.219 E12.29879
G1 X37.965 Y118.764 E12.32253
G1 X37.428 Y118.284 E12.34648
G1 X37.22 Y118.09 E12.35594
G1 X36.762 Y117.636 E12.37739
G1 X36.286 Y117.131 E12.40047
G1 X36.067 Y116.888 E12.41135
G1 X35.64 Y116.385 E12.4333
G1 X35.203 Y115.83 E12.45679
G1 X35.039 Y115.612 E12.46587
G1 X34.669 Y115.09 E12.48715
G1 X34.407 Y114.696 E12.50289
G1 X34.086 Y114.188 E12.52287
G1 X33.788 Y113.678 E12.54252
G1 X33.459 Y113.068 E12.56557
G1 X33.315 Y112.785 E12.57613
G1 X33.051 Y112.226 E12.59669
G1 X32.747 Y111.523 E12.62217
G1 X32.645 Y111.271 E12.63121
G1 X32.416 Y110.653 E12.65313
G1 X32.176 Y109.926 E12.67859
G1 X32.103 Y109.685 E12.68697
G1 X31.94 Y109.087 E12.70758
G1 X31.718 Y108.13 E12.74026
G1 X31.594 Y107.448 E12.76332
G1 X31.483 Y106.676 E12.78926
G1 X31.449 Y106.389 E12.79887
G1 X31.395 Y105.795 E12.81871
G1 X31.37 Y105.403 E12.83177
G1 X31.355 Y105.086 E12.84233
G1 X31.332 Y104.331 E12.86745
G1 X31.327 Y103.839 E12.88381
G1 X31.326 Y97.637 E13.09009
G1 X31.338 Y96.774 E13.1188
G1 X31.355 Y96.303 E13.13448
G1 X31.383 Y95.81 E13.1509
G1 X31.434 Y95.206 E13.17106
G1 X31.502 Y94.634 E13.19022
G1 X31.55 Y94.293 E13.20167
G1 X31.657 Y93.669 E13.22273
G1 X31.752 Y93.194 E13.23884
G1 X31.882 Y92.611 E13.25871
G1 X32.029 Y92.054 E13.27787
G1 X32.156 Y91.618 E13.29297
G1 X32.349 Y91.009 E13.31422
G1 X32.564 Y90.413 E13.33529
G1 X32.813 Y89.79 E13.35761
G1 X32.928 Y89.519 E13.3674
G1 X33.195 Y88.937 E13.3887
G1 X33.518 Y88.292 E13.41269
G1 X33.644 Y88.053 E13.42168
G1 X33.991 Y87.443 E13.44502
G1 X34.491 Y86.644 E13.47637
G1 X34.875 Y86.088 E13.49884
G1 X35.151 Y85.714 E13.5143
G1 X35.508 Y85.252 E13.53372
G1 X35.928 Y84.746 E13.55559
G1 X36.209 Y84.428 E13.56971
G1 X36.607 Y83.997 E13.58922
G1 X37.041 Y83.559 E13.60973
G1 X37.569 Y83.061 E13.63387
G1 X37.782 Y82.869 E13.6434
G1 X38.302 Y82.429 E13.66606
G1 X38.839 Y82.007 E13.68878
G1 X39.046 Y81.851 E13.6974
G1 X39.564 Y81.483 E13.71853
G1 X39.963 Y81.217 E13.73448
G1 X40.535 Y80.857 E13.75696
G1 X40.995 Y80.59 E13.77465
G1 X41.315 Y80.414 E13.7868
G1 X41.653 Y80.235 E13.79952
G0 F6000 X41.834 Y80.592
G1 F1200 X42.105 Y80.455 E13.80962
G1 X42.611 Y80.216 E13.82823
G1 X43.312 Y79.912 E13.85364
G1 X43.552 Y79.815 E13.86225
G1 X44.137 Y79.599 E13.88299
G1 X44.867 Y79.357 E13.90857
G1 X45.077 Y79.293 E13.91588
G1 X45.682 Y79.128 E13.93673
G1 X46.626 Y78.909 E13.96896
G1 X47.317 Y78.783 E13.99233
G1 X47.992 Y78.686 E14.01501
G1 X48.309 Y78.648 E14.02563
G1 X48.888 Y78.595 E14.04496
G1 X49.62 Y78.552 E14.06935
G1 X50.422 Y78.528 E14.09604
G1 X50.747 Y78.526 E14.10685
G1 X53.673 Y78.523 E14.20417
G1 X183.614 Y78.523 E18.52602
G1 X183.836 Y78.525 E18.53341
G1 X185.509 Y78.56 E18.58906
G1 X186.39 Y78.616 E18.61843
G1 X186.782 Y78.657 E18.63153
G1 X187.178 Y78.706 E18.64481
G1 X187.479 Y78.749 E18.65492
G1 X188.068 Y78.85 E18.6748
G1 X188.844 Y79.011 E18.70115
G1 X189.095 Y79.07 E18.70973
G1 X189.633 Y79.212 E18.72824
G1 X190.069 Y79.339 E18.74334
G1 X190.687 Y79.536 E18.76492
G1 X191.24 Y79.735 E18.78446
G1 X191.867 Y79.986 E18.80693
G1 X192.146 Y80.105 E18.81701
G1 X192.687 Y80.354 E18.83682
G1 X193.312 Y80.667 E18.86007
G1 X193.575 Y80.806 E18.86996
G1 X194.141 Y81.128 E18.89162
G1 X194.911 Y81.609 E18.92182
G1 X195.442 Y81.975 E18.94327
G1 X196.115 Y82.476 E18.97118
G1 X196.304 Y82.624 E18.97916
G1 X196.788 Y83.027 E19.00011
G1 X197.33 Y83.511 E19.02428
G1 X197.517 Y83.686 E19.03279
G1 X197.942 Y84.108 E19.05271
G1 X198.45 Y84.646 E19.07732
G1 X198.637 Y84.854 E19.08663
G1 X199.029 Y85.316 E19.10678
G1 X199.464 Y85.866 E19.1301
G1 X199.631 Y86.087 E19.13932
G1 X200.005 Y86.615 E19.16084
G1 X200.248 Y86.981 E19.17545
G1 X200.567 Y87.486 E19.19532
G1 X200.848 Y87.967 E19.21384
G1 X201.04 Y88.316 E19.22709
G1 X201.213 Y88.643 E19.2394
G1 X201.35 Y88.914 E19.2495
G1 X201.6 Y89.443 E19.26896
G1 X201.876 Y90.083 E19.29214
G1 X201.976 Y90.329 E19.30097
G1 X202.2 Y90.933 E19.3224
G1 X202.435 Y91.644 E19.3473
G1 X202.504 Y91.87 E19.35516
G1 X202.672 Y92.485 E19.37637
G1 X202.89 Y93.425 E19.40846
G1 X203.016 Y94.116 E19.43182
G1 X203.111 Y94.776 E19.454
G1 X203.148 Y95.081 E19.46422
G1 X203.203 Y95.673 E19.48399
G1 X203.23 Y96.09 E19.49789
G1 X203.246 Y96.418 E19.50881
G1 X203.268 Y97.16 E19.5335
G1 X203.273 Y97.63 E19.54914
G1 X203.274 Y103.785 E19.75385
G1 X203.262 Y104.696 E19.78416
G1 X203.246 Y105.158 E19.79953
G1 X203.22 Y105.615 E19.81476
G1 X203.175 Y106.161 E19.83298
G1 X203.142 Y106.464 E19.84311
G1 X203.055 Y107.116 E19.86499
G1 X202.953 Y107.719 E19.88533
G1 X202.857 Y108.2 E19.90165
G1 X202.715 Y108.826 E19.923
G1 X202.577 Y109.346 E19.94089
G1 X202.468 Y109.719 E19.95382
G1 X202.367 Y110.046 E19.9652
G1 X202.271 Y110.339 E19.97545
G1 X202.068 Y110.906 E19.99548
G1 X201.925 Y111.271 E20.00852
G1 X201.681 Y111.851 E20.02945
G1 X201.449 Y112.354 E20.04787
G1 X201.111 Y113.028 E20.07295
G1 X200.977 Y113.28 E20.08245
G1 X200.653 Y113.847 E20.10417
G1 X200.184 Y114.595 E20.13353
G1 X199.8 Y115.152 E20.15603
G1 X199.337 Y115.772 E20.18177
G1 X199.175 Y115.979 E20.19051
G1 X198.778 Y116.457 E20.21118
G1 X198.502 Y116.77 E20.22506
G1 X198.107 Y117.198 E20.24443
G1 X197.665 Y117.644 E20.26531
G1 X197.151 Y118.127 E20.28877
G1 X196.943 Y118.314 E20.29808
G1 X196.481 Y118.706 E20.31823
G1 X196.15 Y118.971 E20.33233
G1 X195.654 Y119.348 E20.35305
G1 X195.19 Y119.675 E20.37193
G1 X194.799 Y119.935 E20.38755
G1 X194.242 Y120.285 E20.40943
G1 X193.779 Y120.553 E20.42722
G1 X193.173 Y120.879 E20.45011
G1 X192.921 Y121.007 E20.45951
G1 X192.364 Y121.27 E20.48
G1 X191.913 Y121.467 E20.49637
G1 X191.387 Y121.683 E20.51528
G1 X190.797 Y121.9 E20.53619
G1 X190.177 Y122.103 E20.55789
G1 X189.911 Y122.184 E20.56713
G1 X189.325 Y122.344 E20.58734
G1 X188.522 Y122.535 E20.61479
G1 X187.799 Y122.683 E20.63934
G1 X187.418 Y122.753 E20.65222
G1 X179.69 Y124.104 E20.91315
G1 X177.183 Y124.579 E20.99802
G1 X174.735 Y125.114 E21.08136
G1 X172.253 Y125.732 E21.16644
G1 X169.811 Y126.413 E21.25076
G1 X167.406 Y127.158 E21.3345
G1 X165.016 Y127.973 E21.41848
G1 X162.628 Y128.863 E21.50325
G1 X160.309 Y129.803 E21.58647
G1 X157.978 Y130.826 E21.67114
G1 X155.696 Y131.906 E21.75511
G1 X153.437 Y133.054 E21.83939
G1 X151.23 Y134.254 E21.92294
G1 X149.027 Y135.535 E22.0077
G1 X146.872 Y136.871 E22.09203
G1 X144.78 Y138.251 E22.17539
G1 X142.708 Y139.705 E22.25958
G1 X140.685 Y141.209 E22.34342
G1 X139.205 Y142.389 E22.40638
G1 X138.002 Y143.323 E22.45703
G1 X137.674 Y143.564 E22.47057
G1 X137.001 Y144.042 E22.49803
G1 X135.909 Y144.79 E22.54205
G1 X135.221 Y145.232 E22.56925
G1 X134.563 Y145.629 E22.59481
G1 X133.923 Y145.992 E22.61928
G1 X133.146 Y146.404 E22.64853
G1 X132.454 Y146.744 E22.67418
G1 X131.758 Y147.063 E22.69964
G1 X131.073 Y147.355 E22.72441
G1 X130.589 Y147.55 E22.74176
G1 X130.239 Y147.684 E22.75423
G1 X129.483 Y147.954 E22.78093
G1 X128.837 Y148.166 E22.80354
G1 X128.068 Y148.397 E22.83025
G1 X127.272 Y148.611 E22.85766
G1 X126.518 Y148.79 E22.88344
G1 X126.025 Y148.896 E22.90021
G1 X125.697 Y148.961 E22.91133
G1 X124.974 Y149.089 E22.93575
G1 X124.194 Y149.207 E22.96199
G1 X123.384 Y149.306 E22.98913
G1 X122.596 Y149.379 E23.01545
G1 X121.834 Y149.428 E23.04085
G1 X121.038 Y149.458 E23.06734
G1 X119.753 Y149.475 E23.11009
G1 X115.191 Y149.476 E23.26182
G1 X113.655 Y149.449 E23.31291
G1 X112.864 Y149.412 E23.33925
G1 X112.397 Y149.379 E23.35482
G1 X112.1 Y149.353 E23.36474
G1 X111.314 Y149.272 E23.39102
G1 X110.511 Y149.165 E23.41796
G1 X109.726 Y149.039 E23.44441
G1 X108.96 Y148.893 E23.47034
G1 X108.208 Y148.727 E23.49596
G1 X107.446 Y148.537 E23.52208
G1 X106.696 Y148.329 E23.54796
G1 X105.902 Y148.083 E23.57561
G1 X105.431 Y147.925 E23.59213
G1 X105.138 Y147.821 E23.60248
G1 X104.443 Y147.562 E23.62714
G1 X103.991 Y147.382 E23.64333
G1 X103.711 Y147.265 E23.65342
G1 X102.957 Y146.935 E23.68079
G1 X102.251 Y146.603 E23.70674
G1 X101.848 Y146.402 E23.72172
G1 X101.563 Y146.254 E23.7324
G1 X100.889 Y145.887 E23.75793
G1 X100.148 Y145.458 E23.78641
G1 X99.492 Y145.053 E23.81205
G1 X99.137 Y144.823 E23.82612
G1 X98.87 Y144.644 E23.83681
G1 X97.555 Y143.73 E23.89007
G1 X97.06 Y143.369 E23.91045
G1 X96.711 Y143.103 E23.92504
G1 X94.66 Y141.473 E24.01218
G1 X92.598 Y139.924 E24.09796
G1 X90.543 Y138.471 E24.18167
G1 X88.454 Y137.079 E24.26516
