;FLAVOR:Marlin
;TIME:556
;Filament used: 0.189181m
;Layer height: 0.16
;MINX:100.439
;MINY:97.175
;MINZ:0.16
;MAXX:134.561
;MAXY:132.825
;MAXZ:4.96
;Generated with Cura_SteamEngine 4.5.0
M140 S60
M105
M190 S60
M104 S205
M105
M109 S205
M82 ;absolute extrusion mode
; Ender 3 Custom Start G-code
G92 E0 ; Reset Extruder
G28 ; Home all axes
G1 Z2.0 F3000 ; Move Z Axis up little to prevent scratching of Heat Bed
G1 X0.1 Y20 Z0.3 F5000.0 ; Move to start position
G1 X0.1 Y200.0 Z0.3 F1500.0 E15 ; Draw the first line
G1 X0.4 Y200.0 Z0.3 F5000.0 ; Move to side a little
G1 X0.4 Y20 Z0.3 F1500.0 E30 ; Draw the second line
G92 E0 ; Reset Extruder
G1 Z2.0 F3000 ; Move Z Axis up little to prevent scratching of Heat Bed
G1 X5 Y20 Z0.3 F5000.0 ; Move over to prevent blob squish
G92 E0
G92 E0
G1 F1500 E-6
;LAYER_COUNT:31
;LAYER:0
M107
M205 X20 Y20
G0 F7500 X104.298 Y103.286 Z0.16
;TYPE:SKIRT
G1 F1500 E0
G1 X104.489 Y103.113 E0.00686
G1 X105.211 Y102.514 E0.03182
G1 X105.998 Y101.967 E0.05732
G1 X106.305 Y101.773 E0.06698
G1 X106.684 Y101.544 E0.07877
G1 X111.13 Y98.981 E0.21531
G1 X111.718 Y98.654 E0.23322
G1 X112.556 Y98.233 E0.25817
G1 X113.274 Y97.939 E0.27881
G1 X114.163 Y97.639 E0.30378
G1 X115.074 Y97.415 E0.32874
G1 X115.679 Y97.312 E0.34507
G1 X115.896 Y97.281 E0.3509
G1 X116.83 Y97.188 E0.37588
G1 X117.767 Y97.175 E0.40081
G1 X118.866 Y97.261 E0.43014
G1 X119.221 Y97.307 E0.43967
G1 X120.145 Y97.467 E0.46462
G1 X121.052 Y97.705 E0.48957
G1 X121.935 Y98.02 E0.51452
G1 X122.694 Y98.361 E0.53666
G1 X122.938 Y98.482 E0.5439
G1 X123.378 Y98.713 E0.55713
G1 X124.295 Y99.222 E0.58503
G1 X128.161 Y101.459 E0.70388
G1 X128.767 Y101.821 E0.72266
G1 X129.551 Y102.335 E0.74761
G1 X130.602 Y103.195 E0.78374
G1 X130.806 Y103.384 E0.79114
G1 X131.466 Y104.05 E0.81609
G1 X132.067 Y104.77 E0.84104
G1 X132.605 Y105.538 E0.86599
G1 X132.911 Y106.049 E0.88184
G1 X133.074 Y106.338 E0.89067
G1 X133.5 Y107.174 E0.91564
G1 X133.852 Y108.043 E0.94058
G1 X134.13 Y108.939 E0.96555
G1 X134.267 Y109.524 E0.98153
G1 X134.316 Y109.762 E0.988
G1 X134.466 Y110.688 E1.01296
G1 X134.54 Y111.779 E1.04206
G1 X134.561 Y113.026 E1.07524
G1 X134.557 Y117.482 E1.19381
G1 X134.55 Y118.012 E1.20791
G1 X134.489 Y119.037 E1.23523
G1 X134.46 Y119.308 E1.24248
G1 X134.32 Y120.236 E1.26745
G1 X134.089 Y121.192 E1.29362
G1 X134.039 Y121.365 E1.29842
G1 X133.741 Y122.254 E1.32336
G1 X133.368 Y123.115 E1.34833
G1 X132.844 Y124.07 E1.37732
G1 X132.691 Y124.319 E1.38509
G1 X132.166 Y125.096 E1.41004
G1 X131.578 Y125.826 E1.43498
G1 X130.685 Y126.73 E1.4688
G1 X130.492 Y126.904 E1.47571
G1 X129.769 Y127.502 E1.50067
G1 X129.002 Y128.033 E1.5255
G1 X128.695 Y128.227 E1.53516
G1 X128.316 Y128.456 E1.54694
G1 X123.87 Y131.019 E1.68349
G1 X123.282 Y131.346 E1.70139
G1 X122.444 Y131.767 E1.72635
G1 X121.726 Y132.061 E1.74699
G1 X120.837 Y132.361 E1.77196
G1 X119.926 Y132.585 E1.79692
G1 X119.321 Y132.688 E1.81325
G1 X119.104 Y132.719 E1.81908
G1 X118.17 Y132.812 E1.84405
G1 X117.233 Y132.825 E1.86899
G1 X116.138 Y132.739 E1.89821
G1 X115.782 Y132.693 E1.90777
G1 X114.858 Y132.534 E1.93271
G1 X113.951 Y132.296 E1.95766
G1 X113.067 Y131.981 E1.98263
G1 X112.289 Y131.631 E2.00533
G1 X112.046 Y131.51 E2.01256
G1 X111.622 Y131.287 E2.0253
G1 X110.705 Y130.778 E2.05321
G1 X106.839 Y128.541 E2.17206
G1 X106.233 Y128.179 E2.19084
G1 X105.449 Y127.665 E2.21578
G1 X104.398 Y126.805 E2.25192
G1 X104.194 Y126.616 E2.25932
G1 X103.534 Y125.95 E2.28427
G1 X102.933 Y125.23 E2.30922
G1 X102.395 Y124.462 E2.33417
G1 X102.089 Y123.951 E2.35002
G1 X101.926 Y123.662 E2.35885
G1 X101.5 Y122.826 E2.38381
G1 X101.148 Y121.957 E2.40876
G1 X100.87 Y121.061 E2.43372
G1 X100.733 Y120.476 E2.44971
G1 X100.684 Y120.238 E2.45618
G1 X100.534 Y119.312 E2.48114
G1 X100.46 Y118.213 E2.51044
G1 X100.439 Y116.931 E2.54456
G1 X100.443 Y112.451 E2.66376
G1 X100.45 Y111.972 E2.67651
G1 X100.511 Y110.963 E2.70341
G1 X100.54 Y110.692 E2.71066
G1 X100.68 Y109.764 E2.73563
G1 X100.915 Y108.791 E2.76227
G1 X100.965 Y108.619 E2.76703
G1 X101.265 Y107.731 E2.79197
G1 X101.64 Y106.871 E2.81694
G1 X102.169 Y105.91 E2.84612
G1 X102.324 Y105.659 E2.85397
G1 X102.85 Y104.883 E2.87892
G1 X103.441 Y104.155 E2.90387
G1 X103.596 Y103.998 E2.90974
G0 F1350 X104.298 Y103.286
G0 F7500 X104.567 Y103.583
G1 F1500 X104.758 Y103.41 E2.9166
G1 X105.467 Y102.822 E2.9411
G1 X106.211 Y102.305 E2.96521
G1 X106.518 Y102.111 E2.97487
G1 X106.884 Y101.891 E2.98624
G1 X111.324 Y99.33 E3.12262
G1 X111.912 Y99.003 E3.14052
G1 X112.735 Y98.591 E3.16501
G1 X113.418 Y98.312 E3.18464
G1 X114.291 Y98.018 E3.20915
G1 X115.185 Y97.801 E3.23363
G1 X115.736 Y97.708 E3.2485
G1 X115.953 Y97.677 E3.25433
G1 X116.869 Y97.586 E3.27883
G1 X117.79 Y97.575 E3.30333
G1 X118.814 Y97.658 E3.33067
G1 X119.169 Y97.704 E3.34019
G1 X120.076 Y97.862 E3.36469
G1 X120.966 Y98.098 E3.38919
G1 X121.832 Y98.41 E3.41368
G1 X122.516 Y98.72 E3.43367
G1 X122.76 Y98.841 E3.44091
G1 X123.184 Y99.063 E3.45365
G1 X124.095 Y99.569 E3.48138
G1 X127.956 Y101.802 E3.60005
G1 X128.562 Y102.164 E3.61884
G1 X129.331 Y102.67 E3.64333
G1 X130.33 Y103.488 E3.67769
G1 X130.534 Y103.677 E3.68508
G1 X131.182 Y104.332 E3.7096
G1 X131.77 Y105.04 E3.73409
G1 X132.295 Y105.796 E3.75858
G1 X132.563 Y106.246 E3.77252
G1 X132.726 Y106.535 E3.78134
G1 X133.143 Y107.355 E3.80582
G1 X133.487 Y108.209 E3.83032
G1 X133.756 Y109.09 E3.85483
G1 X133.875 Y109.604 E3.86887
G1 X133.924 Y109.842 E3.87533
G1 X134.071 Y110.751 E3.89983
G1 X134.14 Y111.786 E3.92744
G1 X134.161 Y113.025 E3.96041
G1 X134.157 Y117.477 E4.07887
G1 X134.15 Y118.007 E4.09297
G1 X134.091 Y118.995 E4.11931
G1 X134.062 Y119.266 E4.12656
G1 X133.924 Y120.176 E4.15105
G1 X133.705 Y121.081 E4.17582
G1 X133.655 Y121.254 E4.18062
G1 X133.361 Y122.127 E4.20513
G1 X132.993 Y122.97 E4.2296
G1 X132.503 Y123.86 E4.25663
G1 X132.35 Y124.109 E4.26441
G1 X131.835 Y124.872 E4.2889
G1 X131.255 Y125.587 E4.3134
G1 X130.417 Y126.433 E4.34509
G1 X130.224 Y126.607 E4.352
G1 X129.514 Y127.193 E4.37649
G1 X128.789 Y127.695 E4.39996
G1 X128.482 Y127.889 E4.40962
G1 X128.116 Y128.109 E4.42098
G1 X123.676 Y130.67 E4.55737
G1 X123.088 Y130.997 E4.57527
G1 X122.265 Y131.409 E4.59976
G1 X121.582 Y131.688 E4.61939
G1 X120.709 Y131.982 E4.6439
G1 X119.815 Y132.199 E4.66838
G1 X119.264 Y132.292 E4.68325
G1 X119.047 Y132.323 E4.68908
G1 X118.131 Y132.414 E4.71357
G1 X117.21 Y132.425 E4.73808
G1 X116.19 Y132.343 E4.76531
G1 X115.834 Y132.297 E4.77486
G1 X114.927 Y132.139 E4.79936
G1 X114.037 Y131.903 E4.82386
G1 X113.17 Y131.591 E4.84837
G1 X112.467 Y131.273 E4.86891
G1 X112.224 Y131.152 E4.87613
G1 X111.816 Y130.937 E4.8884
G1 X110.905 Y130.431 E4.91613
G1 X107.044 Y128.198 E5.03481
G1 X106.438 Y127.836 E5.05359
G1 X105.669 Y127.33 E5.07808
G1 X104.67 Y126.512 E5.11244
G1 X104.466 Y126.323 E5.11984
G1 X103.818 Y125.668 E5.14435
G1 X103.23 Y124.96 E5.16884
G1 X102.705 Y124.204 E5.19333
G1 X102.437 Y123.754 E5.20727
G1 X102.274 Y123.465 E5.2161
G1 X101.857 Y122.645 E5.24057
G1 X101.513 Y121.791 E5.26507
G1 X101.244 Y120.91 E5.28958
G1 X101.125 Y120.396 E5.30362
G1 X101.076 Y120.158 E5.31009
G1 X100.929 Y119.249 E5.33459
G1 X100.86 Y118.206 E5.3624
G1 X100.839 Y116.932 E5.3963
G1 X100.843 Y112.457 E5.51537
G1 X100.85 Y111.978 E5.52812
G1 X100.909 Y111.005 E5.55406
G1 X100.938 Y110.734 E5.56131
G1 X101.076 Y109.824 E5.5858
G1 X101.299 Y108.903 E5.61101
G1 X101.349 Y108.731 E5.61578
G1 X101.644 Y107.859 E5.64027
G1 X102.014 Y107.016 E5.66477
G1 X102.509 Y106.121 E5.69198
G1 X102.664 Y105.87 E5.69983
G1 X103.181 Y105.108 E5.72434
G1 X103.763 Y104.394 E5.74885
G1 X103.863 Y104.293 E5.75263
G0 F1350 X104.567 Y103.583
G0 F7500 X104.836 Y103.879
G1 F1500 X105.027 Y103.706 E5.75948
G1 X105.722 Y103.13 E5.7835
G1 X106.425 Y102.643 E5.80626
G1 X106.732 Y102.449 E5.81592
G1 X107.084 Y102.237 E5.82685
G1 X111.519 Y99.68 E5.96307
G1 X112.107 Y99.353 E5.98097
G1 X112.915 Y98.949 E6.00501
G1 X113.562 Y98.685 E6.0236
G1 X114.418 Y98.398 E6.04763
G1 X115.297 Y98.187 E6.07168
G1 X115.793 Y98.104 E6.08506
G1 X116.01 Y98.073 E6.09089
G1 X116.908 Y97.985 E6.1149
G1 X117.811 Y97.976 E6.13893
G1 X118.763 Y98.055 E6.16435
G1 X119.118 Y98.101 E6.17387
G1 X120.007 Y98.256 E6.19788
G1 X120.88 Y98.49 E6.22193
G1 X121.728 Y98.8 E6.24596
G1 X122.339 Y99.078 E6.26382
G1 X122.583 Y99.199 E6.27106
G1 X122.99 Y99.413 E6.2833
G1 X123.894 Y99.915 E6.31081
G1 X127.751 Y102.145 E6.42936
G1 X128.357 Y102.507 E6.44814
G1 X129.111 Y103.004 E6.47217
G1 X130.058 Y103.782 E6.50478
G1 X130.262 Y103.971 E6.51218
G1 X130.897 Y104.613 E6.53621
G1 X131.472 Y105.309 E6.56023
G1 X131.984 Y106.054 E6.58428
G1 X132.214 Y106.442 E6.59628
G1 X132.377 Y106.731 E6.60511
G1 X132.786 Y107.537 E6.62916
G1 X133.121 Y108.375 E6.65318
G1 X133.381 Y109.24 E6.67721
G1 X133.483 Y109.685 E6.68936
G1 X133.532 Y109.923 E6.69582
G1 X133.675 Y110.815 E6.71986
G1 X133.74 Y111.793 E6.74594
G1 X133.761 Y113.025 E6.77873
G1 X133.757 Y117.472 E6.89705
G1 X133.75 Y118.002 E6.91116
G1 X133.693 Y118.952 E6.93648
G1 X133.664 Y119.223 E6.94373
G1 X133.528 Y120.116 E6.96777
G1 X133.321 Y120.97 E6.99115
G1 X133.271 Y121.143 E6.99594
G1 X132.982 Y121.999 E7.01998
G1 X132.619 Y122.825 E7.04399
G1 X132.163 Y123.651 E7.06909
G1 X132.01 Y123.9 E7.07687
G1 X131.503 Y124.648 E7.10091
G1 X130.933 Y125.348 E7.12493
G1 X130.149 Y126.136 E7.15451
G1 X129.956 Y126.31 E7.16142
G1 X129.259 Y126.884 E7.18545
G1 X128.575 Y127.357 E7.20757
G1 X128.268 Y127.551 E7.21724
G1 X127.916 Y127.763 E7.22817
G1 X123.481 Y130.32 E7.36439
G1 X122.893 Y130.647 E7.38229
G1 X122.085 Y131.051 E7.40633
G1 X121.438 Y131.315 E7.42492
G1 X120.582 Y131.602 E7.44894
G1 X119.703 Y131.813 E7.47299
G1 X119.207 Y131.896 E7.48638
G1 X118.99 Y131.927 E7.49221
G1 X118.092 Y132.015 E7.51622
G1 X117.189 Y132.024 E7.54024
G1 X116.241 Y131.946 E7.56555
G1 X115.885 Y131.9 E7.57511
G1 X114.995 Y131.745 E7.59914
G1 X114.123 Y131.511 E7.62317
G1 X113.274 Y131.202 E7.64721
G1 X112.645 Y130.915 E7.6656
G1 X112.402 Y130.794 E7.67283
G1 X112.01 Y130.587 E7.68462
G1 X111.106 Y130.085 E7.71213
G1 X107.249 Y127.855 E7.83068
G1 X106.643 Y127.493 E7.84946
G1 X105.889 Y126.996 E7.87349
G1 X104.942 Y126.218 E7.9061
G1 X104.738 Y126.029 E7.9135
G1 X104.103 Y125.387 E7.93753
G1 X103.528 Y124.691 E7.96155
G1 X103.016 Y123.946 E7.9856
G1 X102.786 Y123.558 E7.99761
G1 X102.623 Y123.269 E8.00643
G1 X102.214 Y122.463 E8.03048
G1 X101.879 Y121.625 E8.0545
G1 X101.619 Y120.76 E8.07853
G1 X101.517 Y120.315 E8.09068
G1 X101.468 Y120.077 E8.09714
G1 X101.325 Y119.185 E8.12118
G1 X101.26 Y118.199 E8.14747
G1 X101.239 Y116.932 E8.18119
G1 X101.243 Y112.463 E8.3001
G1 X101.25 Y111.984 E8.31285
G1 X101.307 Y111.048 E8.3378
G1 X101.336 Y110.777 E8.34505
G1 X101.472 Y109.884 E8.36909
G1 X101.683 Y109.015 E8.39288
G1 X101.733 Y108.843 E8.39765
G1 X102.024 Y107.988 E8.42168
G1 X102.388 Y107.161 E8.44572
G1 X102.849 Y106.331 E8.47098
G1 X103.004 Y106.08 E8.47883
G1 X103.512 Y105.333 E8.50287
G1 X104.085 Y104.634 E8.52692
G1 X104.131 Y104.588 E8.52865
G0 F1350 X104.836 Y103.879
G1 F1500 E2.52865
;MESH:Nut_Stand.stl
G0 F7500 X112.449 Y112.073
;TYPE:WALL-INNER
G1 F1500 E8.52865
G1 X112.46 Y112.065 E8.52901
G1 X117.503 Y109.159 E8.68388
G1 X117.519 Y109.165 E8.68434
G1 X122.56 Y112.082 E8.83931
G1 X122.561 Y112.102 E8.83984
G1 X122.551 Y117.927 E8.99483
G1 X117.499 Y120.84 E9.15
G1 X117.468 Y120.828 E9.15088
G1 X112.44 Y117.918 E9.30546
G1 X112.448 Y113.073 E9.43438
G0 F1350 X112.449 Y112.073
G0 F7500 X112.255 Y111.721
G1 F1500 X117.356 Y108.782 E9.59102
G1 X117.462 Y108.757 E9.59392
G1 X117.529 Y108.757 E9.5957
G1 X117.601 Y108.769 E9.59764
G1 X117.678 Y108.797 E9.59983
G1 X117.702 Y108.809 E9.60054
G1 X122.811 Y111.765 E9.75759
G1 X122.862 Y111.816 E9.75951
G1 X122.909 Y111.881 E9.76165
G1 X122.939 Y111.945 E9.76353
G1 X122.959 Y112.029 E9.76583
G1 X122.961 Y112.088 E9.7674
G1 X122.951 Y118.017 E9.92516
G1 X122.898 Y118.138 E9.92867
G1 X122.822 Y118.226 E9.93176
G1 X122.759 Y118.27 E9.93381
G1 X117.651 Y121.215 E10.0907
G1 X117.538 Y121.243 E10.09379
G1 X117.512 Y121.244 E10.09449
G1 X117.405 Y121.233 E10.09735
G1 X117.296 Y121.19 E10.10047
G1 X112.189 Y118.235 E10.25746
G1 X112.138 Y118.184 E10.25938
G1 X112.091 Y118.119 E10.26151
G1 X112.061 Y118.055 E10.26339
G1 X112.041 Y117.971 E10.26569
G1 X112.039 Y117.911 E10.26729
G1 X112.048 Y112.642 E10.40749
G0 F1350 X112.049 Y111.983
G0 X112.102 Y111.862
G0 X112.178 Y111.774
G0 X112.255 Y111.721
G0 F7500 X111.923 Y111.465
;TYPE:WALL-OUTER
G1 F1500 X111.978 Y111.423 E10.40924
G1 X112.041 Y111.383 E10.41112
G1 X117.166 Y108.427 E10.56068
G1 X117.218 Y108.406 E10.56209
G1 X117.296 Y108.381 E10.56416
G1 X117.364 Y108.366 E10.56592
G1 X117.422 Y108.359 E10.5674
G1 X117.5 Y108.355 E10.56938
G1 X117.578 Y108.359 E10.57135
G1 X117.704 Y108.381 E10.57458
G1 X117.836 Y108.428 E10.57812
G1 X117.902 Y108.463 E10.58001
G1 X123.021 Y111.422 E10.72947
G1 X123.077 Y111.465 E10.73126
G1 X123.169 Y111.557 E10.73455
G1 X123.254 Y111.675 E10.73822
G1 X123.314 Y111.803 E10.7418
G1 X123.335 Y111.87 E10.74357
G1 X123.351 Y111.942 E10.74543
G1 X123.358 Y111.997 E10.74684
G1 X123.361 Y112.072 E10.74873
G1 X123.358 Y118.001 E10.8986
G1 X123.351 Y118.058 E10.90006
G1 X123.335 Y118.13 E10.90192
G1 X123.314 Y118.197 E10.9037
G1 X123.29 Y118.254 E10.90526
G1 X123.254 Y118.325 E10.90727
G1 X123.222 Y118.374 E10.90875
G1 X123.133 Y118.483 E10.91231
G1 X123.077 Y118.535 E10.91424
G1 X123.022 Y118.577 E10.91599
G1 X122.959 Y118.617 E10.91788
G1 X117.829 Y121.575 E11.06756
G1 X117.782 Y121.594 E11.06884
G1 X117.704 Y121.619 E11.07091
G1 X117.636 Y121.634 E11.07267
G1 X117.578 Y121.641 E11.07415
G1 X117.5 Y121.645 E11.07613
G1 X117.364 Y121.634 E11.07957
G1 X117.296 Y121.619 E11.08133
G1 X117.164 Y121.572 E11.08488
G1 X117.098 Y121.537 E11.08677
G1 X111.979 Y118.578 E11.23622
G1 X111.923 Y118.535 E11.23801
G1 X111.831 Y118.443 E11.2413
G1 X111.746 Y118.325 E11.24497
G1 X111.686 Y118.197 E11.24855
G1 X111.665 Y118.13 E11.25032
G1 X111.649 Y118.058 E11.25219
G1 X111.642 Y118 E11.25366
G1 X111.639 Y117.928 E11.25548
G1 X111.642 Y112.385 E11.3956
G0 F1350 X111.642 Y111.997
G0 X111.649 Y111.942
G0 X111.665 Y111.87
G0 X111.686 Y111.803
G0 X111.71 Y111.746
G0 X111.746 Y111.675
G0 X111.778 Y111.626
G0 X111.867 Y111.517
G0 X111.923 Y111.465
G0 F7500 X111.978 Y111.423
G0 X112.041 Y111.383
G0 X112.263 Y111.255
G0 X112.481 Y111.637
G0 X112.839 Y112.297
;TYPE:SKIN
G1 F1500 X117.507 Y109.607 E11.53895
G1 X122.171 Y112.307 E11.68235
G1 X122.161 Y117.702 E11.8259
G1 X117.493 Y120.393 E11.96927
G1 X112.83 Y117.694 E12.11262
G1 X112.838 Y113.297 E12.22962
G0 F1350 X112.839 Y112.297
G1 F1500 E6.22962
G0 F7500 X117.806 Y115.175
G1 F1500 E12.22962
G1 X117.489 Y115.357 E12.23935
G1 X117.194 Y115.187 E12.24841
G1 X117.195 Y114.825 E12.25804
G1 X117.511 Y114.643 E12.26774
G1 X117.806 Y114.814 E12.27681
G1 X117.806 Y115.045 E12.28296
G0 F1350 X117.806 Y115.175
G0 F7500 X118.205 Y115.406
G1 F1500 X117.489 Y115.819 E12.30495
G1 X116.794 Y115.417 E12.32632
G1 X116.795 Y114.593 E12.34824
G1 X117.51 Y114.181 E12.3702
G1 X118.207 Y114.584 E12.39162
G1 X118.205 Y115.104 E12.40546
G0 F1350 X118.205 Y115.406
G0 F7500 X118.605 Y115.638
G1 F1500 X117.489 Y116.281 E12.43973
G1 X116.393 Y115.647 E12.47342
G1 X116.396 Y114.361 E12.50764
G1 X117.51 Y113.719 E12.54185
G1 X118.607 Y114.354 E12.57558
G1 X118.605 Y115.165 E12.59716
G0 F1350 X118.605 Y115.638
G0 F7500 X119.004 Y115.87
G1 F1500 X117.49 Y116.743 E12.64366
G1 X115.993 Y115.877 E12.68967
G1 X115.996 Y114.129 E12.73619
G1 X117.509 Y113.257 E12.78265
G1 X119.008 Y114.124 E12.82873
G1 X119.005 Y115.226 E12.85805
G0 F1350 X119.004 Y115.87
G0 F7500 X119.404 Y116.102
G1 F1500 X117.49 Y117.205 E12.91683
G1 X115.592 Y116.107 E12.97517
G1 X115.597 Y113.897 E13.03398
G1 X117.509 Y112.795 E13.0927
G1 X119.408 Y113.894 E13.15108
G1 X119.405 Y115.287 E13.18814
G0 F1350 X119.404 Y116.102
G0 F7500 X119.803 Y116.334
G1 F1500 X117.491 Y117.667 E13.25915
G1 X115.192 Y116.337 E13.32982
G1 X115.197 Y113.665 E13.40092
G1 X117.508 Y112.333 E13.4719
G1 X119.809 Y113.664 E13.54263
G1 X119.805 Y115.348 E13.58743
