;FLAVOR:Marlin
;TIME:1583
;Filament used: 0.963675m
;Layer height: 0.2
;MINX:88.511
;MINY:89.51
;MINZ:0.2
;MAXX:146.488
;MAXY:145.498
;MAXZ:6
;Generated with Cura_SteamEngine 4.5.0
M140 S60
M105
M190 S60
M104 S200
M105
M109 S200
M82 ;absolute extrusion mode
; Ender 3 Custom Start G-code
G92 E0 ; Reset Extruder
G28 ; Home all axes
G1 Z2.0 F3000 ; Move Z Axis up little to prevent scratching of Heat Bed
G1 X0.1 Y20 Z0.3 F5000.0 ; Move to start position
G1 X0.1 Y200.0 Z0.3 F1500.0 E15 ; Draw the first line
G1 X0.4 Y200.0 Z0.3 F5000.0 ; Move to side a little
G1 X0.4 Y20 Z0.3 F1500.0 E30 ; Draw the second line
G92 E0 ; Reset Extruder
G1 Z2.0 F3000 ; Move Z Axis up little to prevent scratching of Heat Bed
G1 X5 Y20 Z0.3 F5000.0 ; Move over to prevent blob squish
G92 E0
G92 E0
G1 F2700 E-5
;LAYER_COUNT:30
;LAYER:0
M107
G0 F6000 X92.523 Y107.371 Z0.2
;TYPE:SKIRT
G1 F2700 E0
G1 F1200 X93.041 Y106.969 E0.02181
G1 X93.446 Y106.676 E0.03843
G1 X95.028 Y105.561 E0.10281
G1 X96.758 Y104.273 E0.17454
G1 X97.273 Y103.88 E0.19609
G1 X98.042 Y103.343 E0.22729
G1 X98.99 Y102.803 E0.26357
G1 X101.305 Y101.633 E0.34985
G1 X103.54 Y100.427 E0.43431
G1 X105.677 Y99.192 E0.51641
G1 X107.835 Y97.864 E0.60068
G1 X109.974 Y96.462 E0.68575
G1 X112.007 Y95.046 E0.76815
G1 X114.059 Y93.528 E0.85304
G1 X115.321 Y92.55 E0.90615
G1 X115.688 Y92.278 E0.92134
G1 X115.954 Y92.089 E0.93219
G1 X116.755 Y91.571 E0.96392
G1 X116.99 Y91.433 E0.97299
G1 X117.641 Y91.079 E0.99763
G1 X117.823 Y90.988 E1.0044
G1 X118.467 Y90.692 E1.02797
G1 X118.742 Y90.576 E1.0379
G1 X119.663 Y90.235 E1.07057
G1 X119.891 Y90.162 E1.07853
G1 X120.621 Y89.956 E1.10376
G1 X120.91 Y89.885 E1.11365
G1 X121.83 Y89.7 E1.14487
G1 X122.066 Y89.663 E1.15281
G1 X122.786 Y89.574 E1.17694
G1 X123.042 Y89.551 E1.18549
G1 X124.29 Y89.51 E1.22702
G1 X124.832 Y89.523 E1.24505
G1 X125.768 Y89.586 E1.27625
G1 X126.562 Y89.702 E1.30294
G1 X127.137 Y89.808 E1.32239
G1 X128.385 Y90.115 E1.36514
G1 X128.586 Y90.177 E1.37213
G1 X129.775 Y90.62 E1.41433
G1 X130.293 Y90.848 E1.43316
G1 X131.135 Y91.262 E1.46437
G1 X131.738 Y91.617 E1.48764
G1 X132.17 Y91.89 E1.50464
G1 X133.171 Y92.604 E1.54553
G1 X133.367 Y92.761 E1.55388
G1 X134.278 Y93.578 E1.59458
G1 X134.66 Y93.961 E1.61257
G1 X135.132 Y94.465 E1.63554
G1 X135.566 Y94.959 E1.65741
G1 X137.368 Y96.949 E1.7467
G1 X139.097 Y98.754 E1.82984
G1 X140.804 Y100.442 E1.90968
G1 X141.476 Y101.09 E1.94073
G1 X142.123 Y101.769 E1.97193
G1 X142.71 Y102.5 E2.00311
G1 X143.232 Y103.279 E2.0343
G1 X143.686 Y104.1 E2.0655
G1 X143.912 Y104.581 E2.08318
G1 X144.292 Y105.445 E2.11457
G1 X144.515 Y105.992 E2.13422
G1 X144.644 Y106.334 E2.14638
G1 X144.937 Y107.225 E2.17757
G1 X145.162 Y108.182 E2.21027
G1 X145.465 Y109.822 E2.26574
G1 X146.079 Y112.862 E2.36889
G1 X146.213 Y113.47 E2.3896
G1 X146.375 Y114.394 E2.4208
G1 X146.467 Y115.567 E2.45993
G1 X146.488 Y116.433 E2.48875
G1 X146.488 Y116.971 E2.50664
G1 X146.477 Y117.417 E2.52148
G1 X146.414 Y118.353 E2.55268
G1 X146.256 Y119.356 E2.58645
G1 X146.041 Y120.392 E2.62164
G1 X145.838 Y121.293 E2.65236
G1 X145.355 Y123.762 E2.73604
G1 X145.16 Y124.848 E2.77274
G1 X144.941 Y125.761 E2.80396
G1 X144.619 Y126.72 E2.83761
G1 X144.236 Y127.708 E2.87285
G1 X143.981 Y128.313 E2.89469
G1 X143.861 Y128.575 E2.90428
G1 X143.434 Y129.41 E2.93547
G1 X142.935 Y130.21 E2.96683
G1 X142.286 Y131.156 E3.00498
G1 X141.898 Y131.707 E3.0274
G1 X140.497 Y133.816 E3.11161
G1 X139.976 Y134.624 E3.14359
G1 X139.435 Y135.39 E3.17478
G1 X139.001 Y135.917 E3.19749
G1 X138.581 Y136.396 E3.21867
G1 X138.062 Y136.948 E3.24387
G1 X137.758 Y137.25 E3.25813
G1 X137.484 Y137.513 E3.27076
G1 X137.224 Y137.754 E3.28255
G1 X136.509 Y138.362 E3.31377
G1 X135.744 Y138.908 E3.34503
G1 X134.759 Y139.547 E3.38408
G1 X134.239 Y139.876 E3.40454
G1 X132.205 Y141.264 E3.48645
G1 X131.149 Y141.974 E3.52877
G1 X130.349 Y142.463 E3.55995
G1 X129.467 Y142.902 E3.59272
G1 X128.65 Y143.264 E3.62244
G1 X128.117 Y143.486 E3.64165
G1 X127.568 Y143.694 E3.66117
G1 X126.674 Y143.978 E3.69237
G1 X125.794 Y144.178 E3.72239
G1 X124.054 Y144.5 E3.78124
G1 X120.516 Y145.227 E3.90138
G1 X119.591 Y145.381 E3.93257
G1 X118.909 Y145.443 E3.95534
G1 X118.476 Y145.469 E3.96977
G1 X118.043 Y145.487 E3.98418
G1 X117.508 Y145.498 E4.00198
G1 X116.999 Y145.496 E4.01891
G1 X116.571 Y145.485 E4.03315
G1 X115.636 Y145.421 E4.06432
G1 X114.623 Y145.26 E4.09844
G1 X113.624 Y145.052 E4.13238
G1 X112.727 Y144.85 E4.16296
G1 X110.267 Y144.369 E4.24633
G1 X109.185 Y144.174 E4.2829
G1 X108.272 Y143.957 E4.31411
G1 X107.688 Y143.774 E4.33446
G1 X107.351 Y143.658 E4.34632
G1 X106.989 Y143.526 E4.35913
G1 X106.679 Y143.407 E4.37018
G1 X106.268 Y143.24 E4.38493
G1 X105.698 Y142.99 E4.40563
G1 X105.423 Y142.863 E4.41571
G1 X104.589 Y142.434 E4.4469
G1 X103.864 Y141.983 E4.4753
G1 X102.866 Y141.304 E4.51545
G1 X102.335 Y140.928 E4.53709
G1 X100.218 Y139.518 E4.62169
G1 X99.503 Y139.065 E4.64984
G1 X98.733 Y138.53 E4.68103
G1 X97.954 Y137.879 E4.71479
G1 X97.144 Y137.136 E4.75135
G1 X96.578 Y136.578 E4.77779
G1 X96.329 Y136.314 E4.78986
G1 X95.715 Y135.604 E4.82108
G1 X95.109 Y134.762 E4.85558
G1 X94.298 Y133.506 E4.90531
G1 X92.666 Y131.07 E5.00283
G1 X92.11 Y130.267 E5.03532
G1 X91.609 Y129.475 E5.06649
G1 X91.068 Y128.398 E5.10657
G1 X90.69 Y127.531 E5.13803
G1 X90.471 Y126.991 E5.15741
G1 X90.34 Y126.641 E5.16984
G1 X90.049 Y125.749 E5.20105
G1 X89.828 Y124.8 E5.23346
G1 X89.562 Y123.348 E5.28255
G1 X89.075 Y120.887 E5.36599
G1 X88.929 Y120.233 E5.38828
G1 X88.774 Y119.489 E5.41356
G1 X88.622 Y118.564 E5.44474
G1 X88.562 Y117.889 E5.46728
G1 X88.539 Y117.496 E5.48037
G1 X88.522 Y117.064 E5.49475
G1 X88.511 Y116.491 E5.51381
G1 X88.513 Y115.967 E5.53124
G1 X88.525 Y115.545 E5.54528
G1 X88.592 Y114.61 E5.57646
G1 X88.738 Y113.683 E5.60767
G1 X88.963 Y112.773 E5.63885
G1 X89.264 Y111.885 E5.67003
G1 X89.639 Y111.025 E5.70124
G1 X90.087 Y110.201 E5.73243
G1 X90.603 Y109.418 E5.76362
G1 X91.184 Y108.682 E5.79481
G1 X91.826 Y107.998 E5.82601
G1 X92.523 Y107.371 E5.85719
G0 F6000 X92.909 Y107.573
G1 F1200 X93.277 Y107.292 E5.87259
G1 X93.677 Y107.003 E5.88901
G1 X95.258 Y105.889 E5.95333
G1 X97 Y104.592 E6.02557
G1 X97.516 Y104.198 E6.04716
G1 X98.271 Y103.671 E6.07779
G1 X99.17 Y103.16 E6.11218
G1 X101.497 Y101.984 E6.1989
G1 X103.725 Y100.782 E6.2831
G1 X105.908 Y99.52 E6.36697
G1 X108.059 Y98.196 E6.45097
G1 X110.159 Y96.82 E6.53448
G1 X112.267 Y95.351 E6.61994
G1 X114.283 Y93.86 E6.70333
G1 X115.566 Y92.866 E6.75732
G1 X115.919 Y92.604 E6.77194
G1 X116.185 Y92.415 E6.78279
G1 X116.957 Y91.916 E6.81336
G1 X117.192 Y91.778 E6.82243
G1 X117.82 Y91.437 E6.8462
G1 X118.002 Y91.346 E6.85296
G1 X118.622 Y91.06 E6.87567
G1 X118.897 Y90.944 E6.8856
G1 X119.785 Y90.616 E6.91709
G1 X120.013 Y90.543 E6.92505
G1 X120.716 Y90.344 E6.94935
G1 X121.005 Y90.273 E6.95925
G1 X121.892 Y90.095 E6.98934
G1 X122.128 Y90.058 E6.99728
G1 X122.821 Y89.973 E7.0205
G1 X123.077 Y89.95 E7.02905
G1 X124.28 Y89.91 E7.06909
G1 X124.822 Y89.923 E7.08712
G1 X125.741 Y89.985 E7.11775
G1 X126.49 Y90.096 E7.14294
G1 X127.065 Y90.202 E7.16239
G1 X128.267 Y90.497 E7.20355
G1 X128.468 Y90.559 E7.21055
G1 X129.614 Y90.986 E7.25122
G1 X130.132 Y91.214 E7.27005
G1 X130.958 Y91.621 E7.30067
G1 X131.525 Y91.955 E7.32256
G1 X131.957 Y92.228 E7.33956
G1 X132.921 Y92.916 E7.37895
G1 X133.117 Y93.073 E7.3873
G1 X133.995 Y93.86 E7.42652
G1 X134.377 Y94.243 E7.44451
G1 X134.832 Y94.729 E7.46665
G1 X135.334 Y95.299 E7.49191
G1 X137.048 Y97.193 E7.57687
G1 X138.845 Y99.069 E7.66328
G1 X140.463 Y100.669 E7.73896
G1 X141.199 Y101.378 E7.77295
G1 X141.833 Y102.045 E7.80356
G1 X142.407 Y102.764 E7.83416
G1 X142.917 Y103.531 E7.86479
G1 X143.546 Y104.742 E7.91018
G1 X143.926 Y105.606 E7.94158
G1 X144.141 Y106.133 E7.96051
G1 X144.27 Y106.475 E7.97266
G1 X144.557 Y107.35 E8.00329
G1 X144.769 Y108.256 E8.03424
G1 X145.072 Y109.898 E8.08977
G1 X145.693 Y112.971 E8.19405
G1 X145.822 Y113.556 E8.21397
G1 X145.981 Y114.463 E8.2446
G1 X146.067 Y115.577 E8.28176
G1 X146.088 Y116.443 E8.31057
G1 X146.088 Y116.961 E8.3278
G1 X146.077 Y117.407 E8.34264
G1 X146.014 Y118.326 E8.37328
G1 X145.864 Y119.275 E8.40523
G1 X145.651 Y120.304 E8.44018
G1 X145.449 Y121.2 E8.47073
G1 X144.952 Y123.74 E8.55682
G1 X144.767 Y124.772 E8.59169
G1 X144.552 Y125.667 E8.6223
G1 X144.246 Y126.575 E8.65417
G1 X143.863 Y127.563 E8.68942
G1 X143.617 Y128.146 E8.71046
G1 X143.497 Y128.408 E8.72005
G1 X143.078 Y129.228 E8.75067
G1 X142.605 Y129.984 E8.78033
G1 X141.959 Y130.926 E8.81833
G1 X141.57 Y131.477 E8.84076
G1 X140.138 Y133.635 E8.9269
G1 X139.64 Y134.407 E8.95745
G1 X139.108 Y135.159 E8.98809
G1 X138.7 Y135.653 E9.0094
G1 X138.28 Y136.132 E9.03059
G1 X137.781 Y136.664 E9.05485
G1 X137.477 Y136.966 E9.0691
G1 X137.212 Y137.22 E9.08131
G1 X136.952 Y137.461 E9.0931
G1 X136.25 Y138.057 E9.12373
G1 X135.526 Y138.572 E9.15328
G1 X134.546 Y139.209 E9.19216
G1 X134.002 Y139.553 E9.21357
G1 X131.981 Y140.932 E9.29494
G1 X130.925 Y141.642 E9.33726
G1 X130.14 Y142.122 E9.36787
G1 X129.305 Y142.536 E9.39887
G1 X128.488 Y142.898 E9.42859
G1 X127.967 Y143.115 E9.44736
G1 X127.431 Y143.318 E9.46642
G1 X126.553 Y143.596 E9.49705
G1 X125.721 Y143.785 E9.52543
G1 X123.968 Y144.109 E9.58472
G1 X120.434 Y144.836 E9.70473
G1 X119.525 Y144.986 E9.73537
G1 X118.885 Y145.044 E9.75674
G1 X118.452 Y145.07 E9.77117
G1 X118.035 Y145.087 E9.78505
G1 X117.5 Y145.098 E9.80285
G1 X117.01 Y145.097 E9.81915
G1 X116.582 Y145.086 E9.83339
G1 X115.663 Y145.022 E9.86403
G1 X114.704 Y144.869 E9.89633
G1 X113.712 Y144.661 E9.93004
G1 X112.854 Y144.468 E9.95929
G1 X110.325 Y143.973 E10.045
G1 X109.261 Y143.781 E10.08096
G1 X108.365 Y143.568 E10.11159
G1 X107.818 Y143.396 E10.13066
G1 X107.481 Y143.28 E10.14252
G1 X107.132 Y143.153 E10.15487
G1 X106.822 Y143.034 E10.16591
G1 X106.427 Y142.873 E10.1801
G1 X105.866 Y142.627 E10.20047
G1 X105.591 Y142.5 E10.21055
G1 X104.772 Y142.078 E10.24119
G1 X104.088 Y141.652 E10.26799
G1 X103.097 Y140.977 E10.30788
G1 X102.566 Y140.601 E10.32952
G1 X100.442 Y139.186 E10.4144
G1 X99.717 Y138.727 E10.44294
G1 X98.962 Y138.201 E10.47355
G1 X98.225 Y137.584 E10.50551
G1 X97.415 Y136.841 E10.54207
G1 X96.869 Y136.303 E10.56757
G1 X96.62 Y136.039 E10.57964
G1 X96.018 Y135.343 E10.61024
G1 X95.444 Y134.544 E10.64297
G1 X94.636 Y133.293 E10.6925
G1 X93.015 Y130.871 E10.78943
G1 X92.439 Y130.04 E10.82306
G1 X91.948 Y129.261 E10.85369
G1 X91.434 Y128.238 E10.89177
G1 X91.056 Y127.371 E10.92323
G1 X90.846 Y126.851 E10.94188
G1 X90.715 Y126.501 E10.95431
G1 X90.43 Y125.625 E10.98495
G1 X90.221 Y124.727 E11.01561
G1 X89.956 Y123.275 E11.0647
G1 X89.467 Y120.8 E11.14861
G1 X89.321 Y120.152 E11.17071
G1 X89.166 Y119.408 E11.19598
G1 X89.017 Y118.499 E11.22662
G1 X88.961 Y117.865 E11.24779
G1 X88.938 Y117.472 E11.26088
G1 X88.922 Y117.056 E11.27473
G1 X88.911 Y116.483 E11.29379
G1 X88.913 Y115.979 E11.31055
G1 X88.925 Y115.557 E11.3246
G1 X88.991 Y114.638 E11.35524
G1 X89.137 Y113.729 E11.38586
G1 X89.361 Y112.836 E11.41648
G1 X89.661 Y111.966 E11.44709
G1 X90.036 Y111.125 E11.47772
G1 X90.483 Y110.32 E11.50834
G1 X90.997 Y109.557 E11.53894
G1 X91.576 Y108.841 E11.56957
G1 X92.215 Y108.178 E11.60019
G1 X92.909 Y107.573 E11.63082
G0 F6000 X92.604 Y108.362
G1 F1200 X93.512 Y107.616 E11.6699
G1 X93.907 Y107.329 E11.68614
G1 X95.531 Y106.184 E11.75223
G1 X97.251 Y104.904 E11.82354
G1 X97.759 Y104.516 E11.8448
G1 X98.5 Y104 E11.87483
G1 X99.351 Y103.517 E11.90738
G1 X101.674 Y102.343 E11.99395
G1 X103.909 Y101.137 E12.07842
G1 X106.112 Y99.864 E12.16304
G1 X108.292 Y98.522 E12.24819
G1 X110.377 Y97.155 E12.33111
G1 X112.494 Y95.681 E12.41691
G1 X114.524 Y94.18 E12.50088
G1 X115.811 Y93.182 E12.55505
G1 X116.151 Y92.93 E12.56912
G1 X116.417 Y92.741 E12.57998
G1 X117.16 Y92.26 E12.60942
G1 X117.395 Y92.122 E12.61848
G1 X117.998 Y91.795 E12.64129
G1 X118.18 Y91.704 E12.64806
G1 X118.778 Y91.429 E12.66995
G1 X119.053 Y91.313 E12.67988
G1 X119.907 Y90.997 E12.71017
G1 X120.135 Y90.924 E12.71813
G1 X120.811 Y90.733 E12.74149
G1 X121.1 Y90.662 E12.75139
G1 X121.954 Y90.49 E12.78037
G1 X122.19 Y90.453 E12.78831
G1 X122.857 Y90.371 E12.81066
G1 X123.113 Y90.348 E12.81921
G1 X124.271 Y90.31 E12.85775
G1 X124.813 Y90.323 E12.87578
G1 X125.714 Y90.385 E12.90582
G1 X126.417 Y90.489 E12.92946
G1 X126.992 Y90.595 E12.9489
G1 X128.149 Y90.879 E12.98853
G1 X128.35 Y90.941 E12.99552
G1 X129.453 Y91.352 E13.03467
G1 X129.971 Y91.58 E13.0535
G1 X130.781 Y91.98 E13.08354
G1 X131.311 Y92.293 E13.10402
G1 X131.743 Y92.566 E13.12101
G1 X132.671 Y93.228 E13.15893
G1 X132.867 Y93.385 E13.16728
G1 X133.712 Y94.143 E13.20503
G1 X134.094 Y94.526 E13.22303
G1 X134.531 Y94.993 E13.2443
G1 X134.973 Y95.496 E13.26657
G1 X136.781 Y97.492 E13.35614
G1 X138.539 Y99.329 E13.44071
G1 X140.227 Y100.997 E13.51964
G1 X140.921 Y101.666 E13.5517
G1 X141.543 Y102.32 E13.58172
G1 X142.104 Y103.028 E13.61177
G1 X142.601 Y103.782 E13.6418
G1 X143.18 Y104.904 E13.6838
G1 X143.56 Y105.768 E13.71519
G1 X143.767 Y106.274 E13.73337
G1 X143.896 Y106.616 E13.74553
G1 X144.177 Y107.474 E13.77556
G1 X144.376 Y108.33 E13.80479
G1 X144.675 Y109.953 E13.85968
G1 X145.294 Y113.013 E13.96352
G1 X145.432 Y113.642 E13.98493
G1 X145.587 Y114.532 E14.01498
G1 X145.667 Y115.587 E14.05017
G1 X145.688 Y116.453 E14.07898
G1 X145.688 Y116.951 E14.09555
G1 X145.677 Y117.397 E14.11039
G1 X145.615 Y118.298 E14.14042
G1 X145.472 Y119.195 E14.17063
G1 X145.261 Y120.216 E14.20531
G1 X145.053 Y121.141 E14.23684
G1 X144.564 Y123.639 E14.32151
G1 X144.375 Y124.695 E14.35719
G1 X144.163 Y125.573 E14.38723
G1 X143.873 Y126.431 E14.41735
G1 X143.49 Y127.419 E14.45259
G1 X143.254 Y127.979 E14.47281
G1 X143.134 Y128.241 E14.48239
G1 X142.722 Y129.045 E14.51244
G1 X142.275 Y129.758 E14.54043
G1 X141.632 Y130.695 E14.57823
G1 X141.254 Y131.231 E14.60004
G1 X139.827 Y133.38 E14.68584
G1 X139.304 Y134.191 E14.71794
G1 X138.781 Y134.927 E14.74797
G1 X138.399 Y135.39 E14.76793
G1 X137.979 Y135.869 E14.78912
G1 X137.499 Y136.38 E14.81244
G1 X137.195 Y136.682 E14.82669
G1 X136.94 Y136.927 E14.83845
G1 X136.68 Y137.168 E14.85024
G1 X135.991 Y137.752 E14.88028
G1 X135.308 Y138.237 E14.90814
G1 X134.332 Y138.871 E14.94685
G1 X133.798 Y139.209 E14.96787
G1 X131.758 Y140.6 E15.05
G1 X130.702 Y141.31 E15.09232
G1 X129.931 Y141.78 E15.12235
G1 X129.143 Y142.171 E15.15161
G1 X128.326 Y142.533 E15.18133
G1 X127.817 Y142.744 E15.19966
G1 X127.293 Y142.942 E15.21829
G1 X126.432 Y143.214 E15.24832
G1 X125.648 Y143.392 E15.27506
G1 X123.883 Y143.719 E15.33476
G1 X120.351 Y144.444 E15.45469
G1 X119.46 Y144.591 E15.48472
G1 X118.861 Y144.645 E15.50473
G1 X118.428 Y144.671 E15.51916
G1 X118.027 Y144.687 E15.5325
G1 X117.492 Y144.698 E15.5503
G1 X117.02 Y144.697 E15.566
G1 X116.592 Y144.686 E15.58024
G1 X115.691 Y144.622 E15.61028
G1 X114.785 Y144.477 E15.6408
G1 X113.8 Y144.271 E15.67427
G1 X112.913 Y144.071 E15.70451
G1 X110.426 Y143.584 E15.7888
G1 X109.336 Y143.388 E15.82564
G1 X108.458 Y143.178 E15.85566
G1 X107.948 Y143.018 E15.87344
G1 X107.611 Y142.902 E15.88529
G1 X106.966 Y142.66 E15.90821
G1 X106.585 Y142.505 E15.92189
G1 X106.033 Y142.264 E15.94192
G1 X105.758 Y142.137 E15.952
G1 X104.956 Y141.723 E15.98201
G1 X104.313 Y141.321 E16.00724
G1 X103.328 Y140.651 E16.04686
G1 X102.789 Y140.269 E16.06883
G1 X100.677 Y138.862 E16.15324
G1 X99.931 Y138.39 E16.1826
G1 X99.191 Y137.873 E16.21262
G1 X98.495 Y137.29 E16.24282
G1 X97.685 Y136.547 E16.27938
G1 X97.16 Y136.029 E16.30391
G1 X96.911 Y135.765 E16.31598
G1 X96.321 Y135.081 E16.34602
G1 X95.779 Y134.326 E16.37694
G1 X94.97 Y133.072 E16.42657
G1 X93.362 Y130.67 E16.52271
G1 X92.767 Y129.812 E16.55744
G1 X92.286 Y129.047 E16.58749
G1 X91.801 Y128.078 E16.62353
G1 X91.423 Y127.211 E16.65499
G1 X91.22 Y126.71 E16.67297
G1 X91.089 Y126.36 E16.6854
G1 X90.81 Y125.501 E16.71544
G1 X90.615 Y124.654 E16.74435
G1 X90.349 Y123.203 E16.79341
G1 X89.854 Y120.698 E16.87834
G1 X89.712 Y120.07 E16.89976
G1 X89.557 Y119.326 E16.92503
G1 X89.413 Y118.435 E16.95505
G1 X89.36 Y117.842 E16.97485
G1 X89.337 Y117.449 E16.98795
G1 X89.322 Y117.049 E17.00126
