;FLAVOR:Marlin
;TIME:645
;Filament used: 0.276718m
;Layer height: 0.16
;MINX:99.512
;MINY:95.513
;MINZ:0.2
;MAXX:135.483
;MAXY:131.487
;MAXZ:8
;Generated with Cura_SteamEngine 4.5.0
M140 S60
M105
M190 S60
M104 S200
M105
M109 S200
M82 ;absolute extrusion mode
; Ender 3 Custom Start G-code
G92 E0 ; Reset Extruder
G28 ; Home all axes
G1 Z2.0 F3000 ; Move Z Axis up little to prevent scratching of Heat Bed
G1 X0.1 Y20 Z0.3 F5000.0 ; Move to start position
G1 X0.1 Y200.0 Z0.3 F1500.0 E15 ; Draw the first line
G1 X0.4 Y200.0 Z0.3 F5000.0 ; Move to side a little
G1 X0.4 Y20 Z0.3 F1500.0 E30 ; Draw the second line
G92 E0 ; Reset Extruder
G1 Z2.0 F3000 ; Move Z Axis up little to prevent scratching of Heat Bed
G1 X5 Y20 Z0.3 F5000.0 ; Move over to prevent blob squish
G92 E0
G92 E0
G1 F2700 E-5
;LAYER_COUNT:41
;LAYER:0
M107
G0 F6000 X104.612 Y100.952 Z0.2
;TYPE:SKIRT
G1 F2700 E0
G1 F1200 X104.938 Y100.626 E0.01533
G1 X105.441 Y100.153 E0.0383
G1 X105.754 Y99.877 E0.05218
G1 X106.252 Y99.463 E0.07372
G1 X106.587 Y99.201 E0.08786
G1 X107.106 Y98.82 E0.10928
G1 X107.437 Y98.591 E0.12266
G1 X108.059 Y98.191 E0.14726
G1 X108.473 Y97.944 E0.16329
G1 X109.031 Y97.632 E0.18456
G1 X109.398 Y97.441 E0.19832
G1 X110.014 Y97.145 E0.22105
G1 X110.379 Y96.983 E0.23433
G1 X111.015 Y96.724 E0.25717
G1 X111.449 Y96.563 E0.27257
G1 X112.091 Y96.347 E0.2951
G1 X112.501 Y96.223 E0.30934
G1 X113.105 Y96.059 E0.33016
G1 X113.478 Y95.969 E0.34292
G1 X114.182 Y95.823 E0.36684
G1 X114.673 Y95.738 E0.38341
G1 X115.364 Y95.641 E0.40662
G1 X115.761 Y95.598 E0.4199
G1 X116.389 Y95.548 E0.44085
G1 X116.823 Y95.526 E0.45531
G1 X117.495 Y95.513 E0.47766
G1 X117.876 Y95.517 E0.49033
G1 X118.593 Y95.548 E0.5142
G1 X119.094 Y95.586 E0.53091
G1 X119.766 Y95.657 E0.55339
G1 X120.208 Y95.718 E0.56823
G1 X120.886 Y95.834 E0.59111
G1 X121.227 Y95.903 E0.60268
G1 X121.823 Y96.04 E0.62302
G1 X122.279 Y96.159 E0.63869
G1 X122.964 Y96.362 E0.66246
G1 X123.377 Y96.499 E0.67693
G1 X124.073 Y96.757 E0.70162
G1 X124.477 Y96.922 E0.71613
G1 X125.033 Y97.167 E0.73634
G1 X125.385 Y97.334 E0.7493
G1 X126.008 Y97.654 E0.77259
G1 X126.444 Y97.896 E0.78918
G1 X127.023 Y98.241 E0.8116
G1 X127.349 Y98.449 E0.82446
G1 X127.919 Y98.838 E0.84741
G1 X128.26 Y99.087 E0.86145
G1 X128.797 Y99.506 E0.88411
G1 X129.167 Y99.813 E0.9001
G1 X129.655 Y100.243 E0.92173
G1 X129.916 Y100.487 E0.93362
G1 X130.402 Y100.97 E0.95641
G1 X130.724 Y101.311 E0.972
G1 X131.17 Y101.813 E0.99434
G1 X131.448 Y102.146 E1.00877
G1 X131.887 Y102.708 E1.03249
G1 X132.12 Y103.027 E1.04562
G1 X132.476 Y103.545 E1.06653
G1 X132.759 Y103.983 E1.08387
G1 X133.124 Y104.589 E1.1074
G1 X133.291 Y104.888 E1.11879
G1 X133.592 Y105.468 E1.14053
G1 X133.791 Y105.88 E1.15575
G1 X134.081 Y106.534 E1.17954
G1 X134.239 Y106.924 E1.19354
G1 X134.456 Y107.507 E1.21423
G1 X134.595 Y107.915 E1.22856
G1 X134.801 Y108.589 E1.252
G1 X134.916 Y109.014 E1.26665
G1 X135.07 Y109.657 E1.28864
G1 X135.147 Y110.029 E1.30127
G1 X135.264 Y110.703 E1.32403
G1 X135.337 Y111.214 E1.34119
G1 X135.41 Y111.854 E1.36262
G1 X135.437 Y112.177 E1.3734
G1 X135.471 Y112.802 E1.39422
G1 X135.483 Y113.256 E1.40932
G1 X135.478 Y113.985 E1.43357
G1 X135.459 Y114.462 E1.44945
G1 X135.412 Y115.131 E1.47175
G1 X135.376 Y115.487 E1.48366
G1 X135.28 Y116.201 E1.50762
G1 X135.186 Y116.761 E1.5265
G1 X135.06 Y117.397 E1.54807
G1 X135.005 Y117.637 E1.55626
G1 X134.836 Y118.283 E1.57847
G1 X134.674 Y118.834 E1.59757
G1 X134.458 Y119.493 E1.62063
G1 X134.331 Y119.842 E1.63299
G1 X134.099 Y120.426 E1.65389
G1 X133.936 Y120.805 E1.66761
G1 X133.625 Y121.466 E1.69191
G1 X133.42 Y121.867 E1.70688
G1 X133.076 Y122.49 E1.73055
G1 X132.821 Y122.918 E1.74712
G1 X132.458 Y123.486 E1.76955
G1 X132.237 Y123.81 E1.78259
G1 X131.856 Y124.335 E1.80416
G1 X131.622 Y124.638 E1.8169
G1 X131.19 Y125.163 E1.83951
G1 X130.844 Y125.558 E1.85698
G1 X130.366 Y126.07 E1.88027
G1 X130.15 Y126.287 E1.89046
G1 X129.635 Y126.773 E1.91401
G1 X129.182 Y127.173 E1.93411
G1 X128.692 Y127.581 E1.95532
G1 X128.469 Y127.756 E1.96474
G1 X127.944 Y128.143 E1.98644
G1 X127.566 Y128.405 E2.00173
G1 X126.946 Y128.804 E2.02626
G1 X126.533 Y129.051 E2.04226
G1 X125.938 Y129.383 E2.06492
G1 X125.553 Y129.582 E2.07934
G1 X124.97 Y129.862 E2.10085
G1 X124.637 Y130.01 E2.11297
G1 X124.067 Y130.244 E2.13346
G1 X123.687 Y130.388 E2.14698
G1 X122.98 Y130.629 E2.17182
G1 X122.472 Y130.783 E2.18948
G1 X121.864 Y130.948 E2.21043
G1 X121.479 Y131.041 E2.22361
G1 X120.73 Y131.195 E2.24904
G1 X120.322 Y131.264 E2.2628
G1 X119.708 Y131.35 E2.28342
G1 X119.287 Y131.397 E2.29751
G1 X118.573 Y131.453 E2.32133
G1 X118.095 Y131.475 E2.33725
G1 X117.589 Y131.487 E2.35408
G1 X117.318 Y131.487 E2.3631
G1 X116.514 Y131.458 E2.38985
G1 X115.873 Y131.411 E2.41123
G1 X115.171 Y131.336 E2.43471
G1 X114.831 Y131.289 E2.44613
G1 X114.135 Y131.17 E2.46961
G1 X113.714 Y131.084 E2.48391
G1 X113.11 Y130.943 E2.50454
G1 X112.712 Y130.838 E2.51823
G1 X112.02 Y130.631 E2.54225
G1 X111.543 Y130.471 E2.55898
G1 X111.008 Y130.276 E2.57792
G1 X110.739 Y130.17 E2.58754
G1 X110.065 Y129.878 E2.61197
G1 X109.594 Y129.655 E2.6293
G1 X108.963 Y129.331 E2.65289
G1 X108.545 Y129.099 E2.66879
G1 X107.999 Y128.775 E2.68991
G1 X107.751 Y128.618 E2.69967
G1 X107.176 Y128.228 E2.72278
G1 X106.739 Y127.911 E2.74074
G1 X106.177 Y127.475 E2.7644
G1 X105.826 Y127.184 E2.77956
G1 X105.335 Y126.752 E2.80131
G1 X105.105 Y126.537 E2.81178
G1 X104.644 Y126.079 E2.8334
G1 X104.299 Y125.716 E2.85005
G1 X103.878 Y125.247 E2.87102
G1 X103.64 Y124.966 E2.88326
G1 X103.166 Y124.366 E2.9087
G1 X102.857 Y123.945 E2.92607
G1 X102.483 Y123.402 E2.948
G1 X102.279 Y123.086 E2.96051
G1 X101.929 Y122.505 E2.98307
G1 X101.714 Y122.122 E2.99767
G1 X101.403 Y121.526 E3.02003
G1 X101.212 Y121.131 E3.03463
G1 X100.939 Y120.518 E3.05695
G1 X100.781 Y120.133 E3.07079
G1 X100.546 Y119.509 E3.09296
G1 X100.415 Y119.125 E3.10646
G1 X100.219 Y118.488 E3.12863
G1 X100.1 Y118.055 E3.14356
G1 X99.932 Y117.354 E3.16754
G1 X99.834 Y116.877 E3.18373
G1 X99.727 Y116.269 E3.20427
G1 X99.687 Y115.998 E3.21338
G1 X99.605 Y115.278 E3.23748
G1 X99.551 Y114.61 E3.25977
G1 X99.517 Y113.933 E3.28232
G1 X99.512 Y113.67 E3.29106
G1 X99.521 Y112.97 E3.31435
G1 X99.546 Y112.41 E3.33299
G1 X99.593 Y111.776 E3.35414
G1 X99.622 Y111.494 E3.36357
G1 X99.717 Y110.79 E3.38719
G1 X99.804 Y110.274 E3.4046
G1 X99.943 Y109.585 E3.42798
G1 X100.042 Y109.164 E3.44236
G1 X100.212 Y108.526 E3.46432
G1 X100.321 Y108.162 E3.47696
G1 X100.53 Y107.534 E3.49897
G1 X100.678 Y107.13 E3.51328
G1 X100.939 Y106.482 E3.53652
G1 X101.145 Y106.014 E3.55352
G1 X101.411 Y105.454 E3.57414
G1 X101.549 Y105.183 E3.58426
G1 X101.873 Y104.591 E3.60671
G1 X102.144 Y104.131 E3.62446
G1 X102.557 Y103.484 E3.64999
G1 X102.779 Y103.161 E3.66303
G1 X103.161 Y102.639 E3.68454
G1 X103.427 Y102.297 E3.69895
G1 X103.832 Y101.806 E3.72012
G1 X104.112 Y101.486 E3.73427
G1 X104.612 Y100.952 E3.7586
G0 F6000 X104.895 Y101.235
G1 F1200 X105.221 Y100.909 E3.77393
G1 X105.705 Y100.453 E3.79605
G1 X106.018 Y100.177 E3.80993
G1 X106.499 Y99.778 E3.83071
G1 X106.834 Y99.516 E3.84486
G1 X107.333 Y99.149 E3.86546
G1 X107.664 Y98.92 E3.87885
G1 X108.264 Y98.534 E3.90258
G1 X108.678 Y98.287 E3.91861
G1 X109.215 Y97.987 E3.93907
G1 X109.582 Y97.796 E3.95283
G1 X110.176 Y97.51 E3.97476
G1 X110.541 Y97.348 E3.98804
G1 X111.154 Y97.099 E4.01005
G1 X111.588 Y96.938 E4.02544
G1 X112.206 Y96.73 E4.04713
G1 X112.616 Y96.606 E4.06138
G1 X113.199 Y96.448 E4.08147
G1 X113.572 Y96.358 E4.09423
G1 X114.25 Y96.217 E4.11726
G1 X114.741 Y96.132 E4.13384
G1 X115.408 Y96.039 E4.15623
G1 X115.805 Y95.996 E4.16952
G1 X116.409 Y95.948 E4.18967
G1 X116.843 Y95.926 E4.20412
G1 X117.491 Y95.913 E4.22568
G1 X117.872 Y95.917 E4.23835
G1 X118.563 Y95.946 E4.26135
G1 X119.064 Y95.984 E4.27807
G1 X119.711 Y96.054 E4.29971
G1 X120.153 Y96.115 E4.31455
G1 X120.806 Y96.226 E4.33658
G1 X121.147 Y96.295 E4.34815
G1 X121.722 Y96.427 E4.36777
G1 X122.178 Y96.546 E4.38345
G1 X122.838 Y96.742 E4.40635
G1 X123.251 Y96.879 E4.42082
G1 X123.922 Y97.127 E4.44461
G1 X124.326 Y97.292 E4.45913
G1 X124.862 Y97.528 E4.47861
G1 X125.214 Y97.695 E4.49157
G1 X125.814 Y98.004 E4.51401
G1 X126.25 Y98.246 E4.5306
G1 X126.808 Y98.578 E4.55219
G1 X127.134 Y98.786 E4.56506
G1 X127.683 Y99.161 E4.58717
G1 X128.024 Y99.41 E4.60121
G1 X128.542 Y99.813 E4.62304
G1 X128.912 Y100.12 E4.63903
G1 X129.382 Y100.535 E4.65989
G1 X129.643 Y100.779 E4.67177
G1 X130.111 Y101.244 E4.69371
G1 X130.433 Y101.585 E4.70931
G1 X130.863 Y102.07 E4.73087
G1 X131.141 Y102.403 E4.7453
G1 X131.564 Y102.944 E4.76814
G1 X131.797 Y103.263 E4.78128
G1 X132.14 Y103.762 E4.80142
G1 X132.423 Y104.2 E4.81876
G1 X132.774 Y104.784 E4.84142
G1 X132.941 Y105.083 E4.85281
G1 X133.232 Y105.642 E4.87378
G1 X133.431 Y106.054 E4.88899
G1 X133.71 Y106.684 E4.91191
G1 X133.868 Y107.074 E4.92591
G1 X134.078 Y107.636 E4.94586
G1 X134.217 Y108.044 E4.9602
G1 X134.415 Y108.693 E4.98276
G1 X134.53 Y109.118 E4.99741
G1 X134.678 Y109.738 E5.01861
G1 X134.755 Y110.11 E5.03124
G1 X134.868 Y110.76 E5.05319
G1 X134.941 Y111.271 E5.07036
G1 X135.011 Y111.887 E5.09098
G1 X135.038 Y112.21 E5.10176
G1 X135.071 Y112.813 E5.12184
G1 X135.083 Y113.267 E5.13695
G1 X135.079 Y113.969 E5.1603
G1 X135.06 Y114.446 E5.17617
G1 X135.014 Y115.09 E5.19765
G1 X134.978 Y115.446 E5.20955
G1 X134.886 Y116.135 E5.23267
G1 X134.792 Y116.695 E5.25156
G1 X134.67 Y117.308 E5.27234
G1 X134.615 Y117.548 E5.28053
G1 X134.453 Y118.17 E5.30191
G1 X134.291 Y118.721 E5.32101
G1 X134.082 Y119.356 E5.34325
G1 X133.955 Y119.705 E5.3556
G1 X133.732 Y120.268 E5.37574
G1 X133.569 Y120.647 E5.38946
G1 X133.269 Y121.284 E5.41288
G1 X133.064 Y121.685 E5.42786
G1 X132.732 Y122.285 E5.45067
G1 X132.477 Y122.713 E5.46724
G1 X132.128 Y123.261 E5.48885
G1 X131.907 Y123.585 E5.50189
G1 X131.539 Y124.091 E5.5227
G1 X131.305 Y124.394 E5.53543
G1 X130.89 Y124.899 E5.55718
G1 X130.544 Y125.294 E5.57464
G1 X130.083 Y125.788 E5.59711
G1 X129.867 Y126.005 E5.6073
G1 X129.37 Y126.473 E5.63
G1 X128.917 Y126.873 E5.6501
G1 X128.445 Y127.266 E5.67053
G1 X128.222 Y127.441 E5.67996
G1 X127.716 Y127.814 E5.70087
G1 X127.338 Y128.076 E5.71616
G1 X126.741 Y128.461 E5.73979
G1 X126.328 Y128.708 E5.7558
G1 X125.754 Y129.027 E5.77764
G1 X125.369 Y129.226 E5.79205
G1 X124.807 Y129.496 E5.81279
G1 X124.474 Y129.644 E5.82491
G1 X123.925 Y129.87 E5.84466
G1 X123.545 Y130.014 E5.85817
G1 X122.864 Y130.246 E5.8821
G1 X122.356 Y130.4 E5.89976
G1 X121.77 Y130.56 E5.91996
G1 X121.385 Y130.653 E5.93313
G1 X120.664 Y130.801 E5.95762
G1 X120.256 Y130.87 E5.97138
G1 X119.664 Y130.953 E5.99126
G1 X119.243 Y131 E6.00535
G1 X118.554 Y131.054 E6.02834
G1 X118.076 Y131.076 E6.04425
G1 X117.589 Y131.087 E6.06045
G1 X117.318 Y131.087 E6.06947
G1 X116.543 Y131.059 E6.09526
G1 X115.902 Y131.012 E6.11664
G1 X115.226 Y130.94 E6.13925
G1 X114.886 Y130.893 E6.15066
G1 X114.215 Y130.779 E6.1733
G1 X113.794 Y130.693 E6.18759
G1 X113.212 Y130.556 E6.20748
G1 X112.814 Y130.451 E6.22117
G1 X112.147 Y130.252 E6.24432
G1 X111.67 Y130.092 E6.26106
G1 X111.155 Y129.904 E6.27929
G1 X110.886 Y129.798 E6.28891
G1 X110.236 Y129.516 E6.31247
G1 X109.765 Y129.293 E6.3298
G1 X109.157 Y128.981 E6.35253
G1 X108.739 Y128.749 E6.36843
G1 X108.213 Y128.437 E6.38878
G1 X107.965 Y128.28 E6.39854
G1 X107.411 Y127.904 E6.42081
G1 X106.974 Y127.587 E6.43876
G1 X106.433 Y127.167 E6.46154
G1 X106.082 Y126.876 E6.47671
G1 X105.608 Y126.46 E6.49768
G1 X105.378 Y126.245 E6.50816
G1 X104.934 Y125.803 E6.52899
G1 X104.589 Y125.44 E6.54565
G1 X104.183 Y124.989 E6.56583
G1 X103.945 Y124.708 E6.57808
G1 X103.489 Y124.129 E6.60259
G1 X103.18 Y123.708 E6.61996
G1 X102.82 Y123.185 E6.64108
G1 X102.616 Y122.869 E6.65359
G1 X102.278 Y122.309 E6.67535
G1 X102.063 Y121.926 E6.68995
G1 X101.763 Y121.351 E6.71153
G1 X101.572 Y120.956 E6.72612
G1 X101.309 Y120.366 E6.7476
G1 X101.151 Y119.981 E6.76144
G1 X100.925 Y119.379 E6.78283
G1 X100.794 Y118.995 E6.79633
G1 X100.605 Y118.382 E6.81766
G1 X100.486 Y117.949 E6.8326
G1 X100.324 Y117.273 E6.85572
G1 X100.226 Y116.796 E6.87191
G1 X100.123 Y116.211 E6.89167
G1 X100.083 Y115.94 E6.90078
G1 X100.003 Y115.246 E6.92402
G1 X99.949 Y114.578 E6.94631
G1 X99.917 Y113.925 E6.96805
G1 X99.912 Y113.662 E6.9768
G1 X99.921 Y112.988 E6.99922
G1 X99.946 Y112.428 E7.01787
G1 X99.991 Y111.817 E7.03824
G1 X100.02 Y111.535 E7.04767
G1 X100.112 Y110.857 E7.07043
G1 X100.199 Y110.341 E7.08783
G1 X100.332 Y109.677 E7.11036
G1 X100.431 Y109.256 E7.12474
G1 X100.596 Y108.641 E7.14592
G1 X100.705 Y108.277 E7.15856
G1 X100.906 Y107.672 E7.17976
G1 X101.054 Y107.268 E7.19407
G1 X101.305 Y106.644 E7.21644
G1 X101.511 Y106.176 E7.23345
G1 X101.767 Y105.636 E7.25332
G1 X101.905 Y105.365 E7.26344
G1 X102.218 Y104.795 E7.28507
G1 X102.489 Y104.335 E7.30283
G1 X102.886 Y103.711 E7.32742
G1 X103.108 Y103.388 E7.34046
G1 X103.477 Y102.884 E7.36124
G1 X103.743 Y102.542 E7.37565
G1 X104.133 Y102.07 E7.39601
G1 X104.413 Y101.75 E7.41015
G1 X104.895 Y101.235 E7.43361
G0 F6000 X105.178 Y101.518
G1 F1200 X105.504 Y101.192 E7.44895
G1 X105.97 Y100.754 E7.47022
G1 X106.283 Y100.478 E7.4841
G1 X106.745 Y100.093 E7.5041
G1 X107.08 Y99.831 E7.51825
G1 X107.561 Y99.478 E7.53809
G1 X107.892 Y99.249 E7.55148
G1 X108.469 Y98.878 E7.57429
G1 X108.883 Y98.631 E7.59033
G1 X109.4 Y98.342 E7.61003
G1 X109.767 Y98.151 E7.62379
G1 X110.338 Y97.876 E7.64487
G1 X110.703 Y97.714 E7.65815
G1 X111.293 Y97.474 E7.67933
G1 X111.727 Y97.313 E7.69473
G1 X112.322 Y97.113 E7.71561
G1 X112.732 Y96.989 E7.72985
G1 X113.293 Y96.837 E7.74919
G1 X113.666 Y96.747 E7.76195
G1 X114.318 Y96.611 E7.7841
G1 X114.809 Y96.526 E7.80067
G1 X115.451 Y96.436 E7.82224
G1 X115.848 Y96.393 E7.83552
G1 X116.43 Y96.347 E7.85493
G1 X116.864 Y96.325 E7.86939
G1 X117.487 Y96.313 E7.89011
G1 X117.868 Y96.317 E7.90279
G1 X118.532 Y96.345 E7.92489
G1 X119.033 Y96.383 E7.9416
G1 X119.656 Y96.45 E7.96244
G1 X120.098 Y96.511 E7.97728
G1 X120.727 Y96.618 E7.9985
G1 X121.068 Y96.687 E8.01007
G1 X121.621 Y96.815 E8.02895
G1 X122.077 Y96.934 E8.04463
G1 X122.712 Y97.122 E8.06666
G1 X123.125 Y97.259 E8.08113
G1 X123.771 Y97.497 E8.10403
G1 X124.175 Y97.662 E8.11854
G1 X124.69 Y97.89 E8.13727
G1 X125.042 Y98.057 E8.15023
G1 X125.62 Y98.354 E8.17184
G1 X126.056 Y98.596 E8.18843
G1 X126.592 Y98.915 E8.20918
G1 X126.918 Y99.123 E8.22204
G1 X127.447 Y99.484 E8.24334
G1 X127.788 Y99.733 E8.25738
G1 X128.286 Y100.121 E8.27838
G1 X128.656 Y100.428 E8.29437
G1 X129.109 Y100.827 E8.31445
G1 X129.37 Y101.071 E8.32633
G1 X129.82 Y101.519 E8.34745
G1 X130.142 Y101.86 E8.36305
G1 X130.556 Y102.326 E8.38378
G1 X130.834 Y102.659 E8.39821
G1 X131.241 Y103.18 E8.4202
G1 X131.474 Y103.499 E8.43334
G1 X131.804 Y103.98 E8.45274
G1 X132.087 Y104.418 E8.47008
G1 X132.425 Y104.979 E8.49187
G1 X132.592 Y105.278 E8.50326
G1 X132.872 Y105.816 E8.52343
G1 X133.071 Y106.228 E8.53865
G1 X133.34 Y106.834 E8.5607
G1 X133.498 Y107.224 E8.5747
G1 X133.699 Y107.765 E8.59389
G1 X133.838 Y108.173 E8.60823
G1 X134.029 Y108.798 E8.62997
G1 X134.144 Y109.223 E8.64461
G1 X134.286 Y109.82 E8.66502
G1 X134.363 Y110.192 E8.67765
G1 X134.472 Y110.817 E8.69876
G1 X134.545 Y111.328 E8.71592
G1 X134.613 Y111.92 E8.73574
G1 X134.64 Y112.243 E8.74652
G1 X134.671 Y112.823 E8.76584
G1 X134.683 Y113.277 E8.78095
G1 X134.679 Y113.953 E8.80343
G1 X134.66 Y114.43 E8.81931
G1 X134.616 Y115.05 E8.83998
G1 X134.58 Y115.406 E8.85188
G1 X134.491 Y116.069 E8.87413
G1 X134.397 Y116.629 E8.89302
G1 X134.28 Y117.218 E8.91299
G1 X134.225 Y117.458 E8.92118
G1 X134.069 Y118.057 E8.94177
G1 X133.907 Y118.608 E8.96087
G1 X133.706 Y119.219 E8.98226
G1 X133.579 Y119.568 E8.99462
G1 X133.364 Y120.11 E9.01401
G1 X133.201 Y120.489 E9.02773
G1 X132.913 Y121.102 E9.05026
G1 X132.708 Y121.503 E9.06524
G1 X132.389 Y122.081 E9.0872
G1 X132.134 Y122.509 E9.10377
G1 X131.797 Y123.036 E9.12457
G1 X131.576 Y123.36 E9.13762
G1 X131.223 Y123.846 E9.15759
G1 X130.989 Y124.149 E9.17033
G1 X130.589 Y124.636 E9.19129
G1 X130.243 Y125.031 E9.20875
G1 X129.799 Y125.506 E9.23038
G1 X129.583 Y125.723 E9.24056
G1 X129.105 Y126.173 E9.2624
