;FLAVOR:Marlin
;TIME:1735
;Filament used: 0.559732m
;Layer height: 0.16
;MINX:101.4
;MINY:87.537
;MINZ:0.16
;MAXX:133.6
;MAXY:126.849
;MAXZ:20.48
;Generated with Cura_SteamEngine 4.5.0
M140 S60
M105
M190 S60
M104 S205
M105
M109 S205
M82 ;absolute extrusion mode
; Ender 3 Custom Start G-code
G92 E0 ; Reset Extruder
G28 ; Home all axes
G1 Z2.0 F3000 ; Move Z Axis up little to prevent scratching of Heat Bed
G1 X0.1 Y20 Z0.3 F5000.0 ; Move to start position
G1 X0.1 Y200.0 Z0.3 F1500.0 E15 ; Draw the first line
G1 X0.4 Y200.0 Z0.3 F5000.0 ; Move to side a little
G1 X0.4 Y20 Z0.3 F1500.0 E30 ; Draw the second line
G92 E0 ; Reset Extruder
G1 Z2.0 F3000 ; Move Z Axis up little to prevent scratching of Heat Bed
G1 X5 Y20 Z0.3 F5000.0 ; Move over to prevent blob squish
G92 E0
G92 E0
G1 F1500 E-6
;LAYER_COUNT:128
;LAYER:0
M107
M205 X20 Y20
G0 F7500 X103.966 Y91.495 Z0.16
;TYPE:SKIRT
G1 F1500 E0
G1 X104.598 Y90.801 E0.02498
G1 X105.286 Y90.164 E0.04992
G1 X106.026 Y89.588 E0.07488
G1 X106.812 Y89.076 E0.09984
G1 X107.639 Y88.634 E0.12479
G1 X108.501 Y88.264 E0.14975
G1 X109.391 Y87.968 E0.1747
G1 X110.303 Y87.75 E0.19965
G1 X111.23 Y87.609 E0.2246
G1 X112.101 Y87.55 E0.24783
G1 X112.73 Y87.537 E0.26457
G1 X122.051 Y87.538 E0.51258
G1 X122.749 Y87.548 E0.53116
G1 X123.685 Y87.602 E0.55611
G1 X124.613 Y87.734 E0.58105
G1 X125.527 Y87.946 E0.60601
G1 X126.419 Y88.235 E0.63096
G1 X127.284 Y88.598 E0.65592
G1 X128.114 Y89.034 E0.68087
G1 X128.905 Y89.539 E0.70584
G1 X129.649 Y90.11 E0.73079
G1 X130.342 Y90.742 E0.75575
G1 X130.979 Y91.43 E0.7807
G1 X131.554 Y92.171 E0.80565
G1 X132.065 Y92.957 E0.8306
G1 X132.507 Y93.785 E0.85557
G1 X132.876 Y94.647 E0.88052
G1 X133.171 Y95.537 E0.90547
G1 X133.389 Y96.449 E0.93042
G1 X133.529 Y97.377 E0.95539
G1 X133.587 Y98.238 E0.97835
G1 X133.6 Y98.867 E0.99509
G1 X133.599 Y115.249 E1.43099
G1 X133.59 Y115.976 E1.45033
G1 X133.539 Y116.913 E1.4753
G1 X133.407 Y117.841 E1.50024
G1 X133.198 Y118.755 E1.52519
G1 X132.911 Y119.648 E1.55015
G1 X132.549 Y120.514 E1.57512
G1 X132.115 Y121.345 E1.60007
G1 X131.611 Y122.136 E1.62503
G1 X131.042 Y122.881 E1.64997
G1 X130.411 Y123.576 E1.67495
G1 X129.724 Y124.214 E1.69989
G1 X128.985 Y124.791 E1.72484
G1 X128.199 Y125.303 E1.7498
G1 X127.373 Y125.746 E1.77474
G1 X126.511 Y126.118 E1.79972
G1 X125.622 Y126.414 E1.82465
G1 X124.71 Y126.634 E1.84961
G1 X123.783 Y126.775 E1.87456
G1 X122.899 Y126.836 E1.89814
G1 X122.27 Y126.849 E1.91488
G1 X112.965 Y126.848 E2.16247
G1 X112.267 Y126.839 E2.18104
G1 X111.331 Y126.787 E2.20599
G1 X110.402 Y126.655 E2.23095
G1 X109.488 Y126.445 E2.25591
G1 X108.595 Y126.158 E2.28087
G1 X107.73 Y125.795 E2.30583
G1 X106.899 Y125.361 E2.33077
G1 X106.108 Y124.857 E2.35573
G1 X105.363 Y124.287 E2.38069
G1 X104.669 Y123.656 E2.40565
G1 X104.032 Y122.969 E2.43057
G1 X103.455 Y122.229 E2.45554
G1 X102.943 Y121.443 E2.4805
G1 X102.5 Y120.616 E2.50546
G1 X102.129 Y119.755 E2.53041
G1 X101.833 Y118.865 E2.55537
G1 X101.614 Y117.953 E2.58032
G1 X101.473 Y117.026 E2.60527
G1 X101.413 Y116.137 E2.62898
G1 X101.4 Y115.507 E2.64575
G1 X101.401 Y99.062 E3.08332
G1 X101.41 Y98.397 E3.10101
G1 X101.463 Y97.461 E3.12596
G1 X101.595 Y96.532 E3.15093
G1 X101.806 Y95.618 E3.17589
G1 X102.094 Y94.726 E3.20083
G1 X102.457 Y93.861 E3.22579
G1 X102.892 Y93.03 E3.25075
G1 X103.363 Y92.292 E3.27404
G0 F1350 X103.396 Y92.24
G0 X103.966 Y91.495
G0 F7500 X104.361 Y91.648
G1 F1500 X104.989 Y90.976 E3.29851
G1 X105.674 Y90.36 E3.32303
G1 X106.41 Y89.807 E3.34752
G1 X107.191 Y89.319 E3.37203
G1 X108.011 Y88.901 E3.39652
G1 X108.865 Y88.556 E3.42102
G1 X109.745 Y88.286 E3.44552
G1 X110.645 Y88.094 E3.47
G1 X111.559 Y87.98 E3.49451
G1 X112.112 Y87.95 E3.50925
G1 X112.73 Y87.937 E3.52569
G1 X122.045 Y87.938 E3.77355
G1 X122.743 Y87.948 E3.79212
G1 X123.662 Y88.001 E3.81662
G1 X124.573 Y88.134 E3.84111
G1 X125.469 Y88.345 E3.86561
G1 X126.343 Y88.633 E3.89009
G1 X127.19 Y88.996 E3.91461
G1 X128.001 Y89.431 E3.9391
G1 X128.771 Y89.935 E3.96359
G1 X129.495 Y90.504 E3.98809
G1 X130.167 Y91.134 E4.0126
G1 X130.782 Y91.819 E4.03709
G1 X131.335 Y92.555 E4.06159
G1 X131.822 Y93.336 E4.08608
G1 X132.239 Y94.157 E4.11058
G1 X132.584 Y95.011 E4.13509
G1 X132.853 Y95.891 E4.15957
G1 X133.045 Y96.792 E4.18408
G1 X133.158 Y97.705 E4.20856
G1 X133.187 Y98.249 E4.22306
G1 X133.2 Y98.867 E4.2395
G1 X133.199 Y115.244 E4.67526
G1 X133.19 Y115.971 E4.69461
G1 X133.139 Y116.89 E4.7191
G1 X133.008 Y117.802 E4.74362
G1 X132.798 Y118.698 E4.7681
G1 X132.512 Y119.573 E4.7926
G1 X132.151 Y120.42 E4.8171
G1 X131.717 Y121.232 E4.84159
G1 X131.215 Y122.004 E4.8661
G1 X130.647 Y122.729 E4.8906
G1 X130.019 Y123.402 E4.9151
G1 X129.335 Y124.018 E4.93959
G1 X128.6 Y124.572 E4.96408
G1 X127.82 Y125.061 E4.98857
G1 X127 Y125.48 E5.01308
G1 X126.147 Y125.826 E5.03757
G1 X125.267 Y126.097 E5.06207
G1 X124.367 Y126.29 E5.08656
G1 X123.453 Y126.405 E5.11107
G1 X122.888 Y126.436 E5.12613
G1 X122.27 Y126.449 E5.14258
G1 X112.97 Y126.448 E5.39003
G1 X112.272 Y126.439 E5.40861
G1 X111.353 Y126.387 E5.4331
G1 X110.442 Y126.256 E5.45759
G1 X109.546 Y126.046 E5.48207
G1 X108.671 Y125.759 E5.50658
G1 X107.824 Y125.397 E5.53109
G1 X107.012 Y124.963 E5.55558
G1 X106.241 Y124.461 E5.58006
G1 X105.516 Y123.893 E5.60457
G1 X104.843 Y123.264 E5.62908
G1 X104.228 Y122.58 E5.65356
G1 X103.674 Y121.845 E5.67805
G1 X103.186 Y121.064 E5.70255
G1 X102.767 Y120.244 E5.72705
G1 X102.421 Y119.391 E5.75155
G1 X102.151 Y118.511 E5.77604
G1 X101.958 Y117.61 E5.80056
G1 X101.844 Y116.697 E5.82504
G1 X101.813 Y116.126 E5.84025
G1 X101.8 Y115.507 E5.85673
G1 X101.801 Y99.068 E6.29414
G1 X101.81 Y98.403 E6.31183
G1 X101.862 Y97.483 E6.33635
G1 X101.994 Y96.572 E6.36085
G1 X102.205 Y95.676 E6.38534
G1 X102.492 Y94.801 E6.40984
G1 X102.855 Y93.955 E6.43434
G1 X103.289 Y93.143 E6.45883
G1 X103.749 Y92.439 E6.48121
G0 F1350 X103.792 Y92.372
G0 X104.361 Y91.648
G0 F7500 X104.755 Y91.804
G1 F1500 X105.381 Y91.154 E6.50522
G1 X106.062 Y90.561 E6.52925
G1 X106.794 Y90.031 E6.5533
G1 X107.569 Y89.568 E6.57732
G1 X108.382 Y89.175 E6.60134
G1 X109.227 Y88.855 E6.62539
G1 X110.096 Y88.612 E6.6494
G1 X110.984 Y88.446 E6.67343
G1 X112.123 Y88.35 E6.70385
G1 X112.73 Y88.337 E6.72
G1 X122.039 Y88.338 E6.9677
G1 X122.737 Y88.348 E6.98627
G1 X123.639 Y88.401 E7.01031
G1 X124.532 Y88.533 E7.03433
G1 X125.41 Y88.744 E7.05836
G1 X126.266 Y89.032 E7.08239
G1 X127.093 Y89.394 E7.10641
G1 X127.885 Y89.829 E7.13045
G1 X128.636 Y90.331 E7.15449
G1 X129.339 Y90.898 E7.17852
G1 X129.989 Y91.525 E7.20255
G1 X130.581 Y92.207 E7.22658
G1 X131.111 Y92.938 E7.25061
G1 X131.573 Y93.714 E7.27464
G1 X131.966 Y94.527 E7.29866
G1 X132.284 Y95.372 E7.32269
G1 X132.527 Y96.242 E7.34672
G1 X132.692 Y97.13 E7.37075
G1 X132.787 Y98.26 E7.40093
G1 X132.8 Y98.867 E7.41708
G1 X132.799 Y115.239 E7.85271
G1 X132.79 Y115.966 E7.87206
G1 X132.739 Y116.868 E7.8961
G1 X132.608 Y117.762 E7.92014
G1 X132.399 Y118.64 E7.94415
G1 X132.113 Y119.497 E7.96819
G1 X131.752 Y120.325 E7.99223
G1 X131.32 Y121.117 E8.01623
G1 X130.819 Y121.869 E8.04027
G1 X130.253 Y122.573 E8.06431
G1 X129.628 Y123.224 E8.08832
G1 X128.947 Y123.818 E8.11237
G1 X128.216 Y124.349 E8.13641
G1 X127.442 Y124.813 E8.16042
G1 X126.629 Y125.207 E8.18446
G1 X125.785 Y125.527 E8.20847
G1 X124.915 Y125.772 E8.23252
G1 X124.028 Y125.938 E8.25654
G1 X122.877 Y126.036 E8.28727
G1 X122.27 Y126.049 E8.30343
G1 X112.975 Y126.048 E8.55075
G1 X112.277 Y126.039 E8.56932
G1 X111.376 Y125.988 E8.59334
G1 X110.482 Y125.856 E8.61738
G1 X109.604 Y125.647 E8.6414
G1 X108.747 Y125.36 E8.66544
G1 X107.92 Y124.999 E8.68945
G1 X107.127 Y124.566 E8.71349
G1 X106.376 Y124.065 E8.73752
G1 X105.672 Y123.499 E8.76155
G1 X105.021 Y122.873 E8.78558
G1 X104.428 Y122.192 E8.80961
G1 X103.898 Y121.461 E8.83363
G1 X103.434 Y120.686 E8.85767
G1 X103.04 Y119.873 E8.88171
G1 X102.72 Y119.029 E8.90572
G1 X102.476 Y118.159 E8.92977
G1 X102.31 Y117.271 E8.9538
G1 X102.213 Y116.116 E8.98464
G1 X102.2 Y115.507 E9.00085
G1 X102.201 Y99.073 E9.43813
G1 X102.21 Y98.408 E9.45583
G1 X102.262 Y97.506 E9.47987
G1 X102.394 Y96.613 E9.50389
G1 X102.604 Y95.735 E9.52791
G1 X102.891 Y94.878 E9.55195
G1 X103.253 Y94.051 E9.57598
G1 X103.686 Y93.259 E9.59999
G1 X104.135 Y92.588 E9.62148
G0 F1350 X104.188 Y92.508
G0 X104.755 Y91.804
G1 F1500 E3.62148
;MESH:3_Finger_Mount.stl
G0 F7500 X113.4 Y99.537
;TYPE:WALL-INNER
G1 F1500 E9.62148
G1 X121.6 Y99.537 E9.83966
G1 X121.6 Y114.849 E10.24709
G1 X113.4 Y114.849 E10.46527
G1 X113.4 Y100.537 E10.84609
G0 F1350 X113.4 Y99.537
G0 F7500 X113 Y99.137
G1 F1500 X122 Y99.137 E11.08556
G1 X122 Y115.249 E11.51427
G1 X113 Y115.249 E11.75374
G1 X113 Y100.137 E12.15584
G0 F1350 X113 Y99.137
G0 F7500 X112.6 Y98.737
;TYPE:WALL-OUTER
G1 F1500 X122.4 Y98.737 E12.40357
G1 X122.4 Y115.649 E12.83106
G1 X112.6 Y115.649 E13.07878
G1 X112.6 Y99.737 E13.481
G0 F1350 X112.6 Y98.737
G0 F7500 X113 Y98.737
G0 X113.04 Y99.177
G0 X113.79 Y99.927
;TYPE:SKIN
G1 F1500 X121.21 Y99.927 E13.67844
G1 X121.21 Y114.459 E14.0651
G1 X113.79 Y114.459 E14.26254
G1 X113.79 Y100.927 E14.6226
G0 F1350 X113.79 Y99.927
G1 F1500 E8.6226
G0 F7500 X117.35 Y110.899
G1 F1500 E14.6226
G1 X117.35 Y103.487 E14.81982
G1 X117.65 Y103.487 E14.8278
G1 X117.65 Y110.606 E15.01722
G0 F1350 X117.65 Y110.899
G0 X117.35 Y110.899
G0 F7500 X116.95 Y111.299
G1 F1500 X116.95 Y103.087 E15.23573
G1 X118.05 Y103.087 E15.265
G1 X118.05 Y111.299 E15.4835
G1 X117.721 Y111.299 E15.49226
G0 F1350 X116.95 Y111.299
G0 F7500 X116.55 Y111.699
G1 F1500 X116.55 Y102.687 E15.73205
G1 X118.45 Y102.687 E15.7826
G1 X118.45 Y111.699 E16.0224
G1 X117.499 Y111.699 E16.0477
G0 F1350 X116.55 Y111.699
G0 F7500 X116.15 Y112.099
G1 F1500 X116.15 Y102.287 E16.30878
G1 X118.85 Y102.287 E16.38062
G1 X118.85 Y112.099 E16.6417
G1 X117.15 Y112.099 E16.68693
G0 F1350 X116.15 Y112.099
G0 F7500 X115.75 Y112.499
G1 F1500 X115.75 Y101.887 E16.9693
G1 X119.25 Y101.887 E17.06243
G1 X119.25 Y112.499 E17.34479
G1 X116.75 Y112.499 E17.41131
G0 F1350 X115.75 Y112.499
G0 F7500 X115.35 Y112.899
G1 F1500 X115.35 Y101.487 E17.71496
G1 X119.65 Y101.487 E17.82938
G1 X119.65 Y112.899 E18.13303
G1 X116.35 Y112.899 E18.22084
G0 F1350 X115.35 Y112.899
G0 F7500 X114.95 Y113.299
G1 F1500 X114.95 Y101.087 E18.54578
G1 X120.05 Y101.087 E18.68148
G1 X120.05 Y113.299 E19.00642
G1 X115.95 Y113.299 E19.11551
G0 F1350 X114.95 Y113.299
G0 F7500 X114.55 Y113.699
G1 F1500 X114.55 Y100.687 E19.46173
G1 X120.45 Y100.687 E19.61872
G1 X120.45 Y113.699 E19.96495
G1 X115.55 Y113.699 E20.09533
G0 F1350 X114.55 Y113.699
G0 F7500 X114.15 Y114.099
G1 F1500 X114.15 Y100.287 E20.46284
G1 X120.85 Y100.287 E20.64111
G1 X120.85 Y114.099 E21.00862
G1 X115.15 Y114.099 E21.16029
G0 F1350 X114.15 Y114.099
G1 F1500 E15.16029
;MESH:NONMESH
G0 F300 X114.15 Y114.099 Z0.32
G0 F7500 X113.4 Y99.537
;TIME_ELAPSED:40.414603
;LAYER:1
M140 S60
M106 S127.5
;TYPE:WALL-INNER
;MESH:3_Finger_Mount.stl
G1 F1500 E21.16029
G1 X121.6 Y99.537 E21.37848
G1 X121.6 Y114.849 E21.7859
G1 X113.4 Y114.849 E22.00409
G1 X113.4 Y100.537 E22.3849
G0 F1350 X113.4 Y99.537
G0 F8250 X113 Y99.137
G1 F1500 X122 Y99.137 E22.62437
G1 X122 Y115.249 E23.05308
G1 X113 Y115.249 E23.29256
G1 X113 Y100.137 E23.69466
G0 F1350 X113 Y99.137
G0 F8250 X112.6 Y98.737
;TYPE:WALL-OUTER
G1 F1500 X122.4 Y98.737 E23.94238
G1 X122.4 Y115.649 E24.36988
G1 X112.6 Y115.649 E24.6176
G1 X112.6 Y99.737 E25.01982
G0 F1350 X112.6 Y98.737
G0 F8250 X113 Y98.737
G0 X113.04 Y99.177
G0 X113.79 Y99.927
;TYPE:SKIN
G1 F1500 X121.21 Y99.927 E25.21725
G1 X121.21 Y114.459 E25.60392
G1 X113.79 Y114.459 E25.80135
G1 X113.79 Y100.927 E26.16141
G0 F1350 X113.79 Y99.927
G0 F8250 X113.95 Y100.444
G1 F1500 X114.308 Y100.086 E26.17488
G0 F8250 X114.873 Y100.086
G1 F1500 X113.95 Y101.01 E26.20963
G0 F8250 X113.95 Y101.575
G1 F1500 X115.439 Y100.086 E26.26566
G0 F8250 X116.005 Y100.086
G1 F1500 X113.95 Y102.141 E26.34299
G0 F8250 X113.95 Y102.707
G1 F1500 X116.57 Y100.086 E26.4416
G0 F8250 X117.136 Y100.086
G1 F1500 X113.95 Y103.272 E26.56149
G0 F8250 X113.95 Y103.838
G1 F1500 X117.702 Y100.086 E26.70267
G0 F8250 X118.267 Y100.086
G1 F1500 X113.95 Y104.404 E26.86514
G0 F8250 X113.95 Y104.97
G1 F1500 X118.833 Y100.086 E27.0489
G0 F8250 X119.399 Y100.086
G1 F1500 X113.95 Y105.535 E27.25395
G0 F8250 X113.95 Y106.101
G1 F1500 X119.964 Y100.086 E27.48027
G0 F8250 X120.53 Y100.086
G1 F1500 X113.95 Y106.667 E27.72789
G0 F8250 X113.95 Y107.232
G1 F1500 X121.048 Y100.134 E27.99499
G0 F8250 X121.048 Y100.699
G1 F1500 X113.95 Y107.798 E28.2621
G0 F8250 X113.95 Y108.364
G1 F1500 X121.048 Y101.265 E28.52921
G0 F8250 X121.048 Y101.831
G1 F1500 X113.95 Y108.929 E28.79631
G0 F8250 X113.95 Y109.495
G1 F1500 X121.048 Y102.396 E29.06342
G0 F8250 X121.048 Y102.962
G1 F1500 X113.95 Y110.061 E29.33053
G0 F8250 X113.95 Y110.626
G1 F1500 X121.048 Y103.528 E29.59763
G0 F8250 X121.048 Y104.093
G1 F1500 X113.95 Y111.192 E29.86474
G0 F8250 X113.95 Y111.758
G1 F1500 X121.048 Y104.659 E30.13185
G0 F8250 X121.048 Y105.225
G1 F1500 X113.95 Y112.323 E30.39895
G0 F8250 X113.95 Y112.889
G1 F1500 X121.048 Y105.79 E30.66606
G0 F8250 X121.048 Y106.356
G1 F1500 X113.95 Y113.455 E30.93318
G0 F8250 X113.95 Y114.02
G1 F1500 X121.048 Y106.922 E31.20027
G0 F8250 X121.048 Y107.488
G1 F1500 X114.238 Y114.298 E31.45653
G0 F8250 X114.803 Y114.298
G1 F1500 X121.048 Y108.053 E31.69152
G0 F8250 X121.048 Y108.619
G1 F1500 X115.369 Y114.298 E31.90522
G0 F8250 X115.935 Y114.298
G1 F1500 X121.048 Y109.185 E32.09762
G0 F8250 X121.048 Y109.75
G1 F1500 X116.5 Y114.298 E32.26876
G0 F8250 X117.066 Y114.298
G1 F1500 X121.048 Y110.316 E32.4186
G0 F8250 X121.048 Y110.882
G1 F1500 X117.632 Y114.298 E32.54714
G0 F8250 X118.197 Y114.298
G1 F1500 X121.048 Y111.447 E32.65443
G0 F8250 X121.048 Y112.013
G1 F1500 X118.763 Y114.298 E32.74041
G0 F8250 X119.329 Y114.298
G1 F1500 X121.048 Y112.579 E32.8051
G0 F8250 X121.048 Y113.144
G1 F1500 X119.894 Y114.298 E32.84852
G0 F8250 X120.46 Y114.298
G1 F1500 X121.048 Y113.71 E32.87065
G1 F1500 E26.87065
;MESH:NONMESH
G0 F300 X121.048 Y113.71 Z0.48
G0 F8250 X113.4 Y99.537
;TIME_ELAPSED:61.821976
;LAYER:2
M106 S255
;TYPE:WALL-INNER
;MESH:3_Finger_Mount.stl
G1 F1500 E32.87065
G1 X121.6 Y99.537 E33.08883
G1 X121.6 Y114.849 E33.49626
G1 X113.4 Y114.849 E33.71444
G1 X113.4 Y100.537 E34.09526
G0 F1350 X113.4 Y99.537
G0 F9000 X113 Y99.137
G1 F1500 X122 Y99.137 E34.33473
G1 X122 Y115.249 E34.76344
G1 X113 Y115.249 E35.00291
G1 X113 Y100.137 E35.40502
G0 F1350 X113 Y99.137
G0 F9000 X112.6 Y98.737
;TYPE:WALL-OUTER
G1 F1500 X122.4 Y98.737 E35.65274
G1 X122.4 Y115.649 E36.08023
G1 X112.6 Y115.649 E36.32795
G1 X112.6 Y99.737 E36.73017
G0 F1350 X112.6 Y98.737
G0 F9000 X113 Y98.737
G0 X113.04 Y99.177
G0 X113.79 Y99.927
;TYPE:SKIN
G1 F1500 X121.21 Y99.927 E36.92761
G1 X121.21 Y114.459 E37.31427
G1 X113.79 Y114.459 E37.51171
G1 X113.79 Y100.927 E37.87177
G0 F1350 X113.79 Y99.927
G1 F1500 E31.87177
G0 F9000 X121.049 Y100.684
G1 F1500 E37.87177
G1 X120.452 Y100.087 E37.89423
G0 F9000 X119.886 Y100.087
G1 F1500 X121.049 Y101.25 E37.938
G0 F9000 X121.049 Y101.816
G1 F1500 X119.32 Y100.087 E38.00306
G0 F9000 X118.755 Y100.087
G1 F1500 X121.049 Y102.381 E38.08938
G0 F9000 X121.049 Y102.947
G1 F1500 X118.189 Y100.087 E38.197
G0 F9000 X117.623 Y100.087
G1 F1500 X121.049 Y103.513 E38.32592
G0 F9000 X121.049 Y104.079
G1 F1500 X117.057 Y100.087 E38.47614
G0 F9000 X116.492 Y100.087
G1 F1500 X121.049 Y104.644 E38.64761
G0 F9000 X121.049 Y105.21
G1 F1500 X115.926 Y100.087 E38.84039
G0 F9000 X115.36 Y100.087
G1 F1500 X121.049 Y105.776 E39.05446
G0 F9000 X121.049 Y106.341
G1 F1500 X114.795 Y100.087 E39.2898
G0 F9000 X114.229 Y100.087
G1 F1500 X121.049 Y106.907 E39.54643
G0 F9000 X121.049 Y107.473
G1 F1500 X113.949 Y100.373 E39.8136
G0 F9000 X113.949 Y100.938
G1 F1500 X121.049 Y108.038 E40.08077
G0 F9000 X121.049 Y108.604
G1 F1500 X113.949 Y101.504 E40.34794
G0 F9000 X113.949 Y102.07
G1 F1500 X121.049 Y109.17 E40.61511
G0 F9000 X121.049 Y109.735
G1 F1500 X113.949 Y102.635 E40.88228
G0 F9000 X113.949 Y103.201
G1 F1500 X121.049 Y110.301 E41.14945
G0 F9000 X121.049 Y110.867
