;FLAVOR:Marlin
;TIME:645
;Filament used: 0.149536m
;Layer height: 0.16
;MINX:101.262
;MINY:101.252
;MINZ:0.16
;MAXX:133.743
;MAXY:133.746
;MAXZ:11.04
;Generated with Cura_SteamEngine 4.5.0
M140 S60
M105
M190 S60
M104 S205
M105
M109 S205
M82 ;absolute extrusion mode
; Ender 3 Custom Start G-code
G92 E0 ; Reset Extruder
G28 ; Home all axes
G1 Z2.0 F3000 ; Move Z Axis up little to prevent scratching of Heat Bed
G1 X0.1 Y20 Z0.3 F5000.0 ; Move to start position
G1 X0.1 Y200.0 Z0.3 F1500.0 E15 ; Draw the first line
G1 X0.4 Y200.0 Z0.3 F5000.0 ; Move to side a little
G1 X0.4 Y20 Z0.3 F1500.0 E30 ; Draw the second line
G92 E0 ; Reset Extruder
G1 Z2.0 F3000 ; Move Z Axis up little to prevent scratching of Heat Bed
G1 X5 Y20 Z0.3 F5000.0 ; Move over to prevent blob squish
G92 E0
G92 E0
G1 F1500 E-6
;LAYER_COUNT:69
;LAYER:0
M107
M205 X20 Y20
G0 F7500 X105.762 Y106.266 Z0.16
;TYPE:SKIRT
G1 F1500 E0
G1 X106.365 Y105.668 E0.0226
G1 X106.686 Y105.374 E0.03418
G1 X107.343 Y104.819 E0.05706
G1 X107.645 Y104.583 E0.06726
G1 X108.283 Y104.119 E0.08825
G1 X108.603 Y103.904 E0.09851
G1 X109.293 Y103.477 E0.1201
G1 X109.616 Y103.293 E0.12999
G1 X110.321 Y102.925 E0.15115
G1 X110.7 Y102.744 E0.16233
G1 X111.518 Y102.393 E0.18601
G1 X111.856 Y102.264 E0.19564
G1 X112.882 Y101.929 E0.22436
G1 X113.461 Y101.771 E0.24033
G1 X114.391 Y101.56 E0.2657
G1 X114.848 Y101.477 E0.27806
G1 X116 Y101.33 E0.30896
G1 X116.674 Y101.28 E0.32694
G1 X117.698 Y101.252 E0.3542
G1 X117.96 Y101.257 E0.36117
G1 X118.671 Y101.294 E0.38012
G1 X119.04 Y101.325 E0.38997
G1 X119.835 Y101.421 E0.41128
G1 X120.234 Y101.484 E0.42203
G1 X121.07 Y101.649 E0.4447
G1 X121.46 Y101.742 E0.45537
G1 X122.281 Y101.972 E0.47805
G1 X122.669 Y102.097 E0.4889
G1 X123.42 Y102.369 E0.51015
G1 X123.781 Y102.515 E0.52051
G1 X124.554 Y102.863 E0.54307
G1 X124.912 Y103.041 E0.55371
G1 X125.614 Y103.423 E0.57497
G1 X125.937 Y103.614 E0.58496
G1 X126.66 Y104.08 E0.60785
G1 X127.006 Y104.323 E0.6191
G1 X127.653 Y104.814 E0.64071
G1 X127.94 Y105.049 E0.65058
G1 X128.524 Y105.563 E0.67128
G1 X128.794 Y105.818 E0.68116
G1 X129.4 Y106.437 E0.70421
G1 X129.693 Y106.761 E0.71583
G1 X130.255 Y107.435 E0.73918
G1 X130.511 Y107.768 E0.75036
G1 X130.992 Y108.446 E0.77248
G1 X131.195 Y108.756 E0.78234
G1 X131.603 Y109.43 E0.8033
G1 X131.789 Y109.764 E0.81347
G1 X132.171 Y110.516 E0.83592
G1 X132.345 Y110.894 E0.84699
G1 X132.673 Y111.686 E0.8698
G1 X132.818 Y112.079 E0.88094
G1 X133.094 Y112.933 E0.90483
G1 X133.191 Y113.281 E0.91444
G1 X133.326 Y113.817 E0.92915
G1 X133.399 Y114.141 E0.93798
G1 X133.545 Y114.918 E0.95902
G1 X133.58 Y115.15 E0.96526
G1 X133.654 Y115.735 E0.98095
G1 X133.708 Y116.351 E0.9974
G1 X133.725 Y116.636 E1.005
G1 X133.743 Y117.49 E1.02773
G1 X133.733 Y118.043 E1.04245
G1 X133.669 Y119.048 E1.06924
G1 X133.607 Y119.611 E1.08431
G1 X133.426 Y120.724 E1.11432
G1 X133.351 Y121.072 E1.12379
G1 X133.175 Y121.777 E1.14312
G1 X133.061 Y122.176 E1.15416
G1 X132.781 Y123.022 E1.17788
G1 X132.642 Y123.392 E1.18839
G1 X132.343 Y124.111 E1.20911
G1 X132.187 Y124.451 E1.21907
G1 X131.81 Y125.197 E1.24131
G1 X131.616 Y125.547 E1.25195
G1 X131.176 Y126.272 E1.27452
G1 X130.951 Y126.613 E1.28539
G1 X130.48 Y127.273 E1.30696
G1 X130.254 Y127.566 E1.31681
G1 X129.718 Y128.209 E1.33908
G1 X129.401 Y128.561 E1.35169
G1 X128.699 Y129.273 E1.37829
G1 X128.417 Y129.534 E1.38852
G1 X127.916 Y129.973 E1.40624
G1 X127.27 Y130.482 E1.42813
G1 X126.94 Y130.723 E1.439
G1 X126.512 Y131.021 E1.45288
G1 X126.312 Y131.153 E1.45925
G1 X125.739 Y131.506 E1.47716
G1 X125.487 Y131.651 E1.48489
G1 X124.873 Y131.979 E1.50342
G1 X124.541 Y132.143 E1.51327
G1 X123.884 Y132.441 E1.53247
G1 X123.561 Y132.575 E1.54177
G1 X122.701 Y132.891 E1.56615
G1 X122.395 Y132.989 E1.5747
G1 X121.712 Y133.184 E1.5936
G1 X121.073 Y133.344 E1.61113
G1 X120.154 Y133.532 E1.63608
G1 X119.471 Y133.621 E1.65441
G1 X118.714 Y133.695 E1.67465
G1 X117.496 Y133.746 E1.70709
G1 X117.124 Y133.741 E1.71699
G1 X116.325 Y133.701 E1.73827
G1 X115.839 Y133.659 E1.75125
G1 X114.89 Y133.535 E1.77672
G1 X114.467 Y133.461 E1.78814
G1 X113.564 Y133.264 E1.81274
G1 X113.203 Y133.169 E1.82267
G1 X112.454 Y132.943 E1.84349
G1 X112.052 Y132.806 E1.85479
G1 X111.257 Y132.501 E1.87744
G1 X110.873 Y132.336 E1.88856
G1 X110.062 Y131.947 E1.9125
G1 X109.766 Y131.79 E1.92141
G1 X109.126 Y131.422 E1.94106
G1 X108.771 Y131.202 E1.95217
G1 X108.105 Y130.756 E1.9735
G1 X107.799 Y130.534 E1.98356
G1 X107.143 Y130.018 E2.00576
G1 X106.833 Y129.755 E2.01658
G1 X106.228 Y129.202 E2.03839
G1 X105.952 Y128.93 E2.0487
G1 X105.352 Y128.289 E2.07206
G1 X105.052 Y127.942 E2.08427
G1 X104.449 Y127.179 E2.11014
G1 X104.24 Y126.889 E2.11966
G1 X103.937 Y126.446 E2.13394
G1 X103.778 Y126.201 E2.14171
G1 X103.425 Y125.619 E2.15982
G1 X103.289 Y125.378 E2.16718
G1 X102.971 Y124.77 E2.18544
G1 X102.78 Y124.376 E2.19709
G1 X102.402 Y123.504 E2.22238
G1 X102.266 Y123.148 E2.23252
G1 X102.034 Y122.484 E2.25123
G1 X101.775 Y121.587 E2.27608
G1 X101.675 Y121.175 E2.28736
G1 X101.541 Y120.554 E2.30426
G1 X101.424 Y119.865 E2.32286
G1 X101.386 Y119.59 E2.33024
G1 X101.289 Y118.463 E2.36034
G1 X101.262 Y117.679 E2.38122
G1 X101.269 Y116.741 E2.40617
G1 X101.327 Y116.046 E2.42473
G1 X101.419 Y115.244 E2.44621
G1 X101.627 Y114.031 E2.47896
G1 X101.714 Y113.653 E2.48928
G1 X101.947 Y112.8 E2.51281
G1 X102.067 Y112.421 E2.52338
G1 X102.322 Y111.702 E2.54368
G1 X102.457 Y111.36 E2.55347
G1 X102.791 Y110.601 E2.57553
G1 X102.982 Y110.207 E2.58718
G1 X103.403 Y109.42 E2.61093
G1 X103.591 Y109.101 E2.62078
G1 X103.996 Y108.466 E2.64082
G1 X104.201 Y108.167 E2.65047
G1 X104.693 Y107.503 E2.67246
G1 X104.969 Y107.159 E2.68419
G1 X105.097 Y107.012 E2.68938
G0 F1350 X105.516 Y106.529
G0 X105.762 Y106.266
G0 F7500 X106.054 Y106.539
G1 F1500 X106.636 Y105.963 E2.71117
G1 X106.957 Y105.669 E2.72275
G1 X107.589 Y105.134 E2.74478
G1 X107.891 Y104.898 E2.75498
G1 X108.506 Y104.451 E2.77521
G1 X108.826 Y104.236 E2.78547
G1 X109.491 Y103.825 E2.80627
G1 X109.814 Y103.641 E2.81616
G1 X110.493 Y103.286 E2.83655
G1 X110.872 Y103.105 E2.84772
G1 X111.66 Y102.767 E2.87054
G1 X111.998 Y102.638 E2.88016
G1 X112.987 Y102.315 E2.90785
G1 X113.566 Y102.157 E2.92382
G1 X114.463 Y101.954 E2.94829
G1 X114.92 Y101.871 E2.96065
G1 X116.03 Y101.729 E2.99042
G1 X116.704 Y101.679 E3.00841
G1 X117.69 Y101.652 E3.03465
G1 X117.952 Y101.657 E3.04162
G1 X118.637 Y101.692 E3.05987
G1 X119.006 Y101.723 E3.06973
G1 X119.772 Y101.816 E3.09026
G1 X120.171 Y101.879 E3.10101
G1 X120.977 Y102.038 E3.12287
G1 X121.367 Y102.131 E3.13353
G1 X122.158 Y102.353 E3.15539
G1 X122.546 Y102.478 E3.16624
G1 X123.27 Y102.74 E3.18673
G1 X123.631 Y102.886 E3.19709
G1 X124.376 Y103.221 E3.21882
G1 X124.734 Y103.399 E3.22946
G1 X125.41 Y103.767 E3.24994
G1 X125.733 Y103.958 E3.25993
G1 X126.43 Y104.408 E3.282
G1 X126.776 Y104.651 E3.29325
G1 X127.399 Y105.124 E3.31406
G1 X127.686 Y105.359 E3.32393
G1 X128.249 Y105.854 E3.34388
G1 X128.519 Y106.109 E3.35376
G1 X129.103 Y106.705 E3.37597
G1 X129.396 Y107.029 E3.38759
G1 X129.938 Y107.679 E3.41011
G1 X130.194 Y108.012 E3.42128
G1 X130.658 Y108.665 E3.4426
G1 X130.861 Y108.975 E3.45246
G1 X131.254 Y109.625 E3.47267
G1 X131.44 Y109.959 E3.48284
G1 X131.808 Y110.684 E3.50448
G1 X131.982 Y111.062 E3.51555
G1 X132.298 Y111.825 E3.53752
G1 X132.443 Y112.218 E3.54867
G1 X132.709 Y113.041 E3.57168
G1 X132.806 Y113.389 E3.5813
G1 X132.936 Y113.905 E3.59545
G1 X133.009 Y114.229 E3.60429
G1 X133.149 Y114.978 E3.62457
G1 X133.184 Y115.21 E3.63081
G1 X133.257 Y115.782 E3.64615
G1 X133.309 Y116.375 E3.66199
G1 X133.326 Y116.66 E3.66959
G1 X133.343 Y117.483 E3.69149
G1 X133.333 Y118.036 E3.70621
G1 X133.271 Y119.004 E3.73202
G1 X133.209 Y119.567 E3.74709
G1 X133.035 Y120.64 E3.77601
G1 X132.96 Y120.988 E3.78548
G1 X132.79 Y121.667 E3.80411
G1 X132.676 Y122.066 E3.81515
G1 X132.407 Y122.882 E3.83801
G1 X132.268 Y123.252 E3.84853
G1 X131.979 Y123.944 E3.86848
G1 X131.823 Y124.284 E3.87844
G1 X131.46 Y125.003 E3.89987
G1 X131.266 Y125.353 E3.91051
G1 X130.843 Y126.052 E3.93225
G1 X130.618 Y126.393 E3.94312
G1 X130.163 Y127.029 E3.96393
G1 X129.937 Y127.322 E3.97378
G1 X129.421 Y127.941 E3.99522
G1 X129.104 Y128.293 E4.00782
G1 X128.427 Y128.979 E4.03347
G1 X128.145 Y129.24 E4.04369
G1 X127.657 Y129.668 E4.06097
G1 X127.035 Y130.159 E4.08205
G1 X126.705 Y130.4 E4.09292
G1 X126.292 Y130.687 E4.10631
G1 X126.092 Y130.819 E4.11268
G1 X125.54 Y131.16 E4.12995
G1 X125.288 Y131.305 E4.13768
G1 X124.696 Y131.621 E4.15554
G1 X124.364 Y131.785 E4.16539
G1 X123.731 Y132.072 E4.18388
G1 X123.408 Y132.206 E4.19319
G1 X122.579 Y132.51 E4.21668
G1 X122.273 Y132.608 E4.22523
G1 X121.615 Y132.796 E4.24344
G1 X120.976 Y132.956 E4.26097
G1 X120.074 Y133.14 E4.28546
G1 X119.432 Y133.223 E4.30269
G1 X118.675 Y133.297 E4.32293
G1 X117.502 Y133.346 E4.35416
G1 X117.13 Y133.341 E4.36406
G1 X116.359 Y133.303 E4.3846
G1 X115.873 Y133.261 E4.39758
G1 X114.959 Y133.141 E4.42211
G1 X114.536 Y133.067 E4.43354
G1 X113.665 Y132.877 E4.45726
G1 X113.304 Y132.782 E4.46719
G1 X112.583 Y132.564 E4.48723
G1 X112.181 Y132.427 E4.49853
G1 X111.415 Y132.133 E4.52037
G1 X111.031 Y131.968 E4.53149
G1 X110.249 Y131.593 E4.55456
G1 X109.953 Y131.436 E4.56348
G1 X109.336 Y131.082 E4.58241
G1 X108.981 Y130.862 E4.59352
G1 X108.34 Y130.432 E4.61406
G1 X108.034 Y130.21 E4.62412
G1 X107.401 Y129.713 E4.64553
G1 X107.091 Y129.45 E4.65635
G1 X106.509 Y128.917 E4.67735
G1 X106.233 Y128.645 E4.68766
G1 X105.654 Y128.028 E4.71017
G1 X105.354 Y127.681 E4.72237
G1 X104.774 Y126.946 E4.74729
G1 X104.565 Y126.656 E4.7568
G1 X104.272 Y126.228 E4.7706
G1 X104.113 Y125.983 E4.77837
G1 X103.773 Y125.422 E4.79583
G1 X103.637 Y125.181 E4.80319
G1 X103.331 Y124.596 E4.82076
G1 X103.14 Y124.202 E4.83241
G1 X102.776 Y123.361 E4.85679
G1 X102.64 Y123.005 E4.86693
G1 X102.49 Y122.587 E4.87875
G1 X102.413 Y122.357 E4.8852
G1 X102.164 Y121.492 E4.90915
G1 X102.064 Y121.08 E4.92043
G1 X101.933 Y120.474 E4.93693
G1 X101.82 Y119.81 E4.95485
G1 X101.782 Y119.535 E4.96224
G1 X101.688 Y118.449 E4.99124
G1 X101.661 Y117.665 E5.01212
G1 X101.67 Y116.744 E5.03662
G1 X101.724 Y116.092 E5.05403
G1 X101.816 Y115.29 E5.07551
G1 X102.017 Y114.12 E5.1071
G1 X102.104 Y113.742 E5.11742
G1 X102.328 Y112.92 E5.14009
G1 X102.448 Y112.541 E5.15067
G1 X102.694 Y111.849 E5.17021
G1 X102.829 Y111.507 E5.17999
G1 X103.151 Y110.775 E5.20127
G1 X103.342 Y110.381 E5.21292
G1 X103.748 Y109.623 E5.2358
G1 X103.936 Y109.304 E5.24565
G1 X104.325 Y108.692 E5.26495
G1 X104.53 Y108.393 E5.27459
G1 X105.005 Y107.754 E5.29578
G1 X105.281 Y107.41 E5.30751
G1 X105.389 Y107.285 E5.31191
G0 F1350 X105.808 Y106.802
G0 X106.054 Y106.539
G0 F7500 X106.346 Y106.812
G1 F1500 X106.906 Y106.258 E5.33287
G1 X107.227 Y105.964 E5.34445
G1 X107.835 Y105.449 E5.36565
G1 X108.137 Y105.213 E5.37585
G1 X108.73 Y104.783 E5.39534
G1 X109.05 Y104.568 E5.4056
G1 X109.689 Y104.172 E5.4256
G1 X110.012 Y103.988 E5.43549
G1 X110.665 Y103.647 E5.45509
G1 X111.044 Y103.466 E5.46627
G1 X111.803 Y103.14 E5.48825
G1 X112.141 Y103.011 E5.49788
G1 X113.093 Y102.701 E5.52452
G1 X113.672 Y102.543 E5.54049
G1 X114.534 Y102.347 E5.56401
G1 X114.991 Y102.264 E5.57637
G1 X116.059 Y102.128 E5.60501
G1 X116.733 Y102.078 E5.623
G1 X117.683 Y102.052 E5.64828
G1 X117.945 Y102.057 E5.65526
G1 X118.604 Y102.091 E5.67281
G1 X118.973 Y102.122 E5.68267
G1 X119.71 Y102.211 E5.70242
G1 X120.109 Y102.274 E5.71317
G1 X120.884 Y102.427 E5.73419
G1 X121.274 Y102.52 E5.74486
G1 X122.036 Y102.733 E5.76591
G1 X122.424 Y102.858 E5.77675
G1 X123.12 Y103.111 E5.79646
G1 X123.481 Y103.257 E5.80682
G1 X124.198 Y103.58 E5.82774
G1 X124.556 Y103.758 E5.83838
G1 X125.207 Y104.111 E5.85809
G1 X125.53 Y104.302 E5.86807
G1 X126.2 Y104.735 E5.8893
G1 X126.546 Y104.978 E5.90055
G1 X127.146 Y105.433 E5.92058
G1 X127.433 Y105.668 E5.93045
G1 X127.975 Y106.144 E5.94965
G1 X128.245 Y106.399 E5.95953
G1 X128.806 Y106.974 E5.98091
G1 X129.099 Y107.298 E5.99253
G1 X129.621 Y107.922 E6.01418
G1 X129.877 Y108.255 E6.02535
G1 X130.323 Y108.884 E6.04587
G1 X130.526 Y109.194 E6.05573
G1 X130.904 Y109.819 E6.07516
G1 X131.09 Y110.153 E6.08534
G1 X131.444 Y110.851 E6.10616
G1 X131.618 Y111.229 E6.11723
G1 X131.922 Y111.963 E6.13837
G1 X132.067 Y112.356 E6.14952
G1 X132.323 Y113.148 E6.17166
G1 X132.42 Y113.496 E6.18128
G1 X132.546 Y113.993 E6.19492
G1 X132.619 Y114.317 E6.20376
G1 X132.754 Y115.037 E6.22325
G1 X132.789 Y115.269 E6.22949
G1 X132.86 Y115.828 E6.24449
G1 X132.91 Y116.399 E6.25974
G1 X132.927 Y116.684 E6.26733
G1 X132.943 Y117.475 E6.28838
G1 X132.933 Y118.028 E6.3031
G1 X132.874 Y118.961 E6.32798
G1 X132.812 Y119.524 E6.34305
G1 X132.644 Y120.556 E6.37087
G1 X132.569 Y120.904 E6.38034
G1 X132.406 Y121.557 E6.39825
G1 X132.292 Y121.956 E6.40929
G1 X132.032 Y122.741 E6.43129
G1 X131.893 Y123.111 E6.44181
G1 X131.616 Y123.778 E6.46103
G1 X131.46 Y124.118 E6.47098
G1 X131.11 Y124.809 E6.49159
G1 X130.916 Y125.159 E6.50224
G1 X130.509 Y125.832 E6.52317
G1 X130.284 Y126.173 E6.53404
G1 X129.847 Y126.785 E6.55405
G1 X129.621 Y127.078 E6.56389
G1 X129.123 Y127.674 E6.58456
G1 X128.806 Y128.026 E6.59716
G1 X128.155 Y128.686 E6.62183
G1 X127.873 Y128.947 E6.63205
G1 X127.397 Y129.364 E6.64889
G1 X126.799 Y129.836 E6.66916
G1 X126.469 Y130.077 E6.68004
G1 X126.072 Y130.353 E6.6929
G1 X125.872 Y130.485 E6.69928
G1 X125.34 Y130.813 E6.71591
G1 X125.088 Y130.958 E6.72364
G1 X124.518 Y131.262 E6.74083
G1 X124.186 Y131.426 E6.75068
G1 X123.578 Y131.702 E6.76845
G1 X123.255 Y131.836 E6.77776
G1 X122.457 Y132.129 E6.80037
G1 X122.151 Y132.227 E6.80892
G1 X121.518 Y132.408 E6.82644
G1 X120.879 Y132.568 E6.84397
G1 X119.994 Y132.748 E6.868
G1 X119.393 Y132.825 E6.88412
G1 X118.636 Y132.899 E6.90436
G1 X117.507 Y132.946 E6.93443
G1 X117.135 Y132.941 E6.94433
G1 X116.394 Y132.904 E6.96407
G1 X115.908 Y132.862 E6.97705
G1 X115.028 Y132.747 E7.00066
G1 X114.605 Y132.673 E7.01209
G1 X113.767 Y132.49 E7.03491
G1 X113.406 Y132.395 E7.04484
G1 X112.712 Y132.186 E7.06413
G1 X112.31 Y132.049 E7.07543
G1 X111.573 Y131.765 E7.09644
G1 X111.189 Y131.6 E7.10757
G1 X110.437 Y131.24 E7.12975
G1 X110.141 Y131.083 E7.13866
G1 X109.547 Y130.742 E7.15689
G1 X109.192 Y130.522 E7.168
G1 X108.575 Y130.108 E7.18777
G1 X108.269 Y129.886 E7.19783
G1 X107.66 Y129.408 E7.21843
G1 X107.35 Y129.145 E7.22925
G1 X106.789 Y128.632 E7.24948
G1 X106.513 Y128.36 E7.25979
G1 X105.957 Y127.766 E7.28143
G1 X105.657 Y127.419 E7.29364
G1 X105.098 Y126.712 E7.31762
G1 X104.889 Y126.422 E7.32713
G1 X104.608 Y126.011 E7.34038
G1 X104.449 Y125.766 E7.34815
G1 X104.122 Y125.226 E7.36495
G1 X103.986 Y124.985 E7.37231
G1 X103.691 Y124.421 E7.38925
G1 X103.5 Y124.027 E7.4009
G1 X103.15 Y123.218 E7.42435
G1 X103.014 Y122.862 E7.43449
G1 X102.87 Y122.46 E7.44586
G1 X102.793 Y122.23 E7.45231
G1 X102.553 Y121.398 E7.47535
G1 X102.453 Y120.986 E7.48663
G1 X102.325 Y120.394 E7.50275
G1 X102.216 Y119.755 E7.51999
G1 X102.178 Y119.48 E7.52738
G1 X102.088 Y118.435 E7.55529
G1 X102.061 Y117.651 E7.57616
G1 X102.07 Y116.748 E7.60019
G1 X102.121 Y116.138 E7.61648
G1 X102.213 Y115.336 E7.63796
G1 X102.407 Y114.21 E7.66836
G1 X102.494 Y113.832 E7.67868
G1 X102.71 Y113.041 E7.7005
G1 X102.83 Y112.662 E7.71108
G1 X103.066 Y111.996 E7.72988
G1 X103.201 Y111.654 E7.73966
G1 X103.511 Y110.95 E7.76013
G1 X103.702 Y110.556 E7.77178
G1 X104.093 Y109.826 E7.79381
G1 X104.281 Y109.507 E7.80367
G1 X104.655 Y108.918 E7.82223
G1 X104.86 Y108.619 E7.83188
G1 X105.317 Y108.004 E7.85226
G1 X105.593 Y107.66 E7.864
G1 X105.681 Y107.558 E7.86758
G0 F1350 X106.1 Y107.075
G0 X106.346 Y106.812
G1 F1500 E1.86758
;MESH:BoltLong.stl
G0 F7500 X116.323 Y112.99
;TYPE:WALL-INNER
G1 F1500 E7.86758
G1 X116.503 Y112.947 E7.87251
G1 X116.662 Y112.915 E7.87682
G1 X116.837 Y112.888 E7.88154
G1 X117.181 Y112.85 E7.89074
G1 X117.374 Y112.842 E7.89588
G1 X117.729 Y112.845 E7.90533
G1 X118.064 Y112.874 E7.91428
G1 X118.409 Y112.93 E7.92358
G1 X118.763 Y113.014 E7.93326
G1 X118.953 Y113.075 E7.93857
G1 X116.164 Y113.076 E8.01278
G0 F1350 X116.039 Y113.076
G0 X116.323 Y112.99
G0 F7500 X115.95 Y113.108
