;FLAVOR:Marlin
;TIME:2026
;Filament used: 0.816573m
;Layer height: 0.16
;MINX:75.992
;MINY:97.001
;MINZ:0.16
;MAXX:160.234
;MAXY:138
;MAXZ:12.48
;Generated with Cura_SteamEngine 4.5.0
M140 S60
M105
M190 S60
M104 S205
M105
M109 S205
M82 ;absolute extrusion mode
; Ender 3 Custom Start G-code
G92 E0 ; Reset Extruder
G28 ; Home all axes
G1 Z2.0 F3000 ; Move Z Axis up little to prevent scratching of Heat Bed
G1 X0.1 Y20 Z0.3 F5000.0 ; Move to start position
G1 X0.1 Y200.0 Z0.3 F1500.0 E15 ; Draw the first line
G1 X0.4 Y200.0 Z0.3 F5000.0 ; Move to side a little
G1 X0.4 Y20 Z0.3 F1500.0 E30 ; Draw the second line
G92 E0 ; Reset Extruder
G1 Z2.0 F3000 ; Move Z Axis up little to prevent scratching of Heat Bed
G1 X5 Y20 Z0.3 F5000.0 ; Move over to prevent blob squish
G92 E0
G92 E0
G1 F1500 E-6
;LAYER_COUNT:78
;LAYER:0
M107
M205 X20 Y20
G0 F7500 X83.976 Y112.264 Z0.16
;TYPE:SKIRT
G1 F1500 E0
G1 X84.745 Y111.727 E0.02496
G1 X85.557 Y111.258 E0.04991
G1 X86.406 Y110.86 E0.07486
G1 X87.286 Y110.536 E0.09981
G1 X88.191 Y110.288 E0.12478
G1 X89.113 Y110.117 E0.14973
G1 X90.326 Y110.015 E0.18212
G1 X90.99 Y110 E0.19979
G1 X93.008 Y110 E0.25348
G1 X95.616 Y109.963 E0.32289
G1 X98.138 Y109.856 E0.39005
G1 X100.633 Y109.679 E0.45661
G1 X103.131 Y109.431 E0.5234
G1 X105.62 Y109.113 E0.59017
G1 X108.129 Y108.719 E0.65774
G1 X110.595 Y108.26 E0.72449
G1 X113.046 Y107.733 E0.79119
G1 X115.506 Y107.13 E0.85859
G1 X117.94 Y106.46 E0.92576
G1 X120.319 Y105.732 E0.99196
G1 X122.722 Y104.921 E1.05944
G1 X125.092 Y104.047 E1.12665
G1 X127.425 Y103.111 E1.19354
G1 X129.717 Y102.114 E1.26005
G1 X132.031 Y101.028 E1.32806
G1 X134.213 Y99.93 E1.39306
G1 X135.668 Y99.133 E1.4372
G1 X136.8 Y98.538 E1.47123
G1 X137.288 Y98.297 E1.48571
G1 X137.635 Y98.136 E1.49589
G1 X138.502 Y97.778 E1.52084
G1 X139.396 Y97.495 E1.5458
G1 X139.893 Y97.373 E1.55941
G1 X140.296 Y97.284 E1.57039
G1 X141.219 Y97.121 E1.59533
G1 X142.41 Y97.028 E1.62712
G1 X143.678 Y97.001 E1.66087
G1 X144.913 Y97.002 E1.69373
G1 X146.122 Y97.024 E1.7259
G1 X147.157 Y97.092 E1.7535
G1 X147.52 Y97.133 E1.76322
G1 X148.615 Y97.313 E1.79275
G1 X148.901 Y97.375 E1.80053
G1 X149.804 Y97.611 E1.82537
G1 X150.126 Y97.71 E1.83433
G1 X151.019 Y98.027 E1.85955
G1 X151.276 Y98.131 E1.86692
G1 X152.024 Y98.467 E1.88874
G1 X152.283 Y98.595 E1.89643
G1 X153.107 Y99.047 E1.92144
G1 X153.32 Y99.176 E1.92806
G1 X153.996 Y99.62 E1.94958
G1 X154.259 Y99.807 E1.95817
G1 X155.101 Y100.469 E1.98667
G1 X155.376 Y100.708 E1.99636
G1 X156.139 Y101.439 E2.02448
G1 X156.362 Y101.674 E2.0331
G1 X156.968 Y102.369 E2.05763
G1 X157.121 Y102.56 E2.06414
G1 X157.673 Y103.312 E2.08897
G1 X157.858 Y103.588 E2.09781
G1 X158.337 Y104.371 E2.12223
G1 X158.477 Y104.623 E2.1299
G1 X158.907 Y105.484 E2.15551
G1 X159.035 Y105.771 E2.16387
G1 X159.366 Y106.603 E2.1877
G1 X159.443 Y106.822 E2.19387
G1 X159.749 Y107.85 E2.22241
G1 X159.854 Y108.278 E2.23414
G1 X160.069 Y109.401 E2.26456
G1 X160.109 Y109.692 E2.27238
G1 X160.209 Y110.982 E2.3068
G1 X160.234 Y112.407 E2.34473
G1 X160.233 Y121.254 E2.58013
G1 X160.209 Y122.555 E2.61475
G1 X160.149 Y123.52 E2.64048
G1 X160.111 Y123.876 E2.65
G1 X159.995 Y124.678 E2.67157
G1 X159.932 Y125.024 E2.68092
G1 X159.764 Y125.791 E2.70182
G1 X159.68 Y126.118 E2.7108
G1 X159.447 Y126.902 E2.73256
G1 X159.324 Y127.266 E2.74279
G1 X159.04 Y128.015 E2.7641
G1 X158.901 Y128.345 E2.77363
G1 X158.551 Y129.096 E2.79567
G1 X158.393 Y129.404 E2.80488
G1 X157.794 Y130.431 E2.83652
G1 X157.378 Y131.063 E2.85665
G1 X156.83 Y131.824 E2.8816
G1 X156.407 Y132.328 E2.89911
G1 X155.93 Y132.864 E2.9182
G1 X155.277 Y133.537 E2.94315
G1 X154.773 Y133.986 E2.96112
G1 X154.227 Y134.443 E2.98006
G1 X153.324 Y135.124 E3.01015
G1 X153.056 Y135.305 E3.01876
G1 X152.423 Y135.701 E3.03863
G1 X152.039 Y135.924 E3.05044
G1 X151.196 Y136.366 E3.07577
G1 X150.877 Y136.516 E3.08515
G1 X150.313 Y136.763 E3.10153
G1 X150.033 Y136.876 E3.10957
G1 X148.936 Y137.252 E3.14042
G1 X148.211 Y137.459 E3.16048
G1 X147.058 Y137.722 E3.19195
G1 X146.727 Y137.779 E3.20089
G1 X145.562 Y137.917 E3.2321
G1 X144.796 Y137.966 E3.25253
G1 X144.267 Y137.987 E3.26661
G1 X143.404 Y137.999 E3.28958
G1 X142.24 Y138 E3.32055
G1 X87.541 Y137.999 E4.77599
G1 X86.843 Y137.989 E4.79456
G1 X85.907 Y137.935 E4.81951
G1 X84.979 Y137.803 E4.84445
G1 X84.065 Y137.591 E4.86941
G1 X83.173 Y137.302 E4.89436
G1 X82.308 Y136.939 E4.91932
G1 X81.478 Y136.503 E4.94427
G1 X80.687 Y135.998 E4.96924
G1 X79.943 Y135.427 E4.9942
G1 X79.25 Y134.795 E5.01915
G1 X78.613 Y134.107 E5.0441
G1 X78.038 Y133.366 E5.06906
G1 X77.527 Y132.58 E5.094
G1 X77.085 Y131.752 E5.11898
G1 X76.716 Y130.89 E5.14392
G1 X76.421 Y130 E5.16887
G1 X76.203 Y129.088 E5.19382
G1 X76.063 Y128.16 E5.21879
G1 X76.005 Y127.288 E5.24205
G1 X75.992 Y126.658 E5.25881
G1 X75.993 Y124.749 E5.30961
G1 X76.003 Y124.051 E5.32818
G1 X76.057 Y123.115 E5.35313
G1 X76.189 Y122.187 E5.37807
G1 X76.401 Y121.273 E5.40304
G1 X76.69 Y120.381 E5.42799
G1 X77.053 Y119.516 E5.45295
G1 X77.489 Y118.686 E5.47789
G1 X77.994 Y117.895 E5.50286
G1 X78.565 Y117.151 E5.52782
G1 X79.197 Y116.458 E5.55277
G1 X79.834 Y115.865 E5.57593
G1 X80.886 Y114.961 E5.61284
G1 X82.865 Y113.218 E5.68301
G1 X83.209 Y112.906 E5.69536
G0 F1350 X83.255 Y112.864
G0 X83.976 Y112.264
G0 F7500 X84.232 Y112.572
G1 F1500 X84.988 Y112.047 E5.71985
G1 X85.787 Y111.59 E5.74435
G1 X86.623 Y111.204 E5.76885
G1 X87.489 Y110.891 E5.79335
G1 X88.379 Y110.655 E5.81785
G1 X89.286 Y110.498 E5.84234
G1 X90.338 Y110.415 E5.87042
G1 X90.99 Y110.4 E5.88777
G1 X93.014 Y110.4 E5.94163
G1 X95.639 Y110.363 E6.01148
G1 X98.147 Y110.256 E6.07827
G1 X100.664 Y110.078 E6.14541
G1 X103.188 Y109.828 E6.2129
G1 X105.696 Y109.507 E6.28018
G1 X108.158 Y109.12 E6.34649
G1 X110.68 Y108.651 E6.41475
G1 X113.154 Y108.119 E6.48208
G1 X115.602 Y107.519 E6.54915
G1 X118.025 Y106.852 E6.61602
G1 X120.459 Y106.107 E6.68375
G1 X122.884 Y105.289 E6.75184
G1 X125.201 Y104.434 E6.81756
G1 X127.598 Y103.472 E6.88628
G1 X129.897 Y102.472 E6.95299
G1 X132.173 Y101.404 E7.01989
G1 X134.406 Y100.28 E7.08641
G1 X135.854 Y99.487 E7.13033
G1 X136.986 Y98.892 E7.16436
G1 X137.457 Y98.66 E7.17833
G1 X137.804 Y98.499 E7.18851
G1 X138.655 Y98.148 E7.213
G1 X139.979 Y97.763 E7.24969
G1 X140.382 Y97.674 E7.26067
G1 X141.289 Y97.515 E7.28518
G1 X142.419 Y97.428 E7.31533
G1 X143.679 Y97.401 E7.34887
G1 X144.906 Y97.402 E7.38151
G1 X146.115 Y97.424 E7.41369
G1 X147.112 Y97.489 E7.44027
G1 X147.475 Y97.53 E7.44999
G1 X148.531 Y97.704 E7.47847
G1 X148.817 Y97.766 E7.48626
G1 X149.686 Y97.993 E7.51015
G1 X150.008 Y98.092 E7.51912
G1 X150.869 Y98.398 E7.54343
G1 X151.126 Y98.502 E7.55081
G1 X151.846 Y98.825 E7.57181
G1 X152.105 Y98.953 E7.57949
G1 X152.9 Y99.389 E7.60362
G1 X153.113 Y99.518 E7.61024
G1 X153.764 Y99.946 E7.63097
G1 X154.027 Y100.133 E7.63956
G1 X154.838 Y100.771 E7.66702
G1 X155.113 Y101.01 E7.67671
G1 X155.849 Y101.715 E7.70383
G1 X156.072 Y101.95 E7.71245
G1 X156.656 Y102.619 E7.73608
G1 X156.809 Y102.81 E7.74259
G1 X157.341 Y103.535 E7.76652
G1 X157.526 Y103.811 E7.77536
G1 X157.987 Y104.565 E7.79887
G1 X158.127 Y104.817 E7.80655
G1 X158.542 Y105.647 E7.83124
G1 X158.67 Y105.934 E7.8396
G1 X158.989 Y106.736 E7.86256
G1 X159.066 Y106.955 E7.86874
G1 X159.361 Y107.945 E7.89623
G1 X159.466 Y108.373 E7.90795
G1 X159.672 Y109.456 E7.93729
G1 X159.712 Y109.747 E7.9451
G1 X159.809 Y110.99 E7.97828
G1 X159.834 Y112.407 E8.01599
G1 X159.833 Y121.247 E8.2512
G1 X159.809 Y122.548 E8.28583
G1 X159.751 Y123.477 E8.31059
G1 X159.713 Y123.833 E8.32012
G1 X159.602 Y124.607 E8.34092
G1 X159.539 Y124.953 E8.35028
G1 X159.377 Y125.691 E8.37039
G1 X159.293 Y126.018 E8.37937
G1 X159.068 Y126.774 E8.40036
G1 X158.945 Y127.138 E8.41058
G1 X158.672 Y127.86 E8.43112
G1 X158.533 Y128.19 E8.44065
G1 X158.195 Y128.913 E8.46188
G1 X158.037 Y129.221 E8.47109
G1 X157.46 Y130.211 E8.50158
G1 X157.044 Y130.843 E8.52172
G1 X156.505 Y131.589 E8.5462
G1 X156.108 Y132.062 E8.56264
G1 X155.631 Y132.598 E8.58173
G1 X154.99 Y133.258 E8.60621
G1 X154.517 Y133.679 E8.62306
G1 X153.971 Y134.136 E8.642
G1 X153.1 Y134.792 E8.67102
G1 X152.832 Y134.973 E8.67962
G1 X152.222 Y135.355 E8.69877
G1 X151.838 Y135.578 E8.71059
G1 X151.026 Y136.004 E8.73499
G1 X150.707 Y136.154 E8.74437
G1 X150.163 Y136.392 E8.76016
G1 X149.883 Y136.505 E8.7682
G1 X148.826 Y136.868 E8.79794
G1 X148.101 Y137.075 E8.818
G1 X146.99 Y137.328 E8.84832
G1 X146.659 Y137.385 E8.85725
G1 X145.537 Y137.517 E8.88731
G1 X144.771 Y137.566 E8.90774
G1 X144.261 Y137.587 E8.92132
G1 X143.404 Y137.599 E8.94412
G1 X142.24 Y137.6 E8.9751
G1 X87.547 Y137.599 E10.43037
G1 X86.849 Y137.589 E10.44895
G1 X85.93 Y137.536 E10.47344
G1 X85.019 Y137.403 E10.49794
G1 X84.123 Y137.192 E10.52243
G1 X83.249 Y136.904 E10.54692
G1 X82.402 Y136.541 E10.57144
G1 X81.591 Y136.106 E10.59592
G1 X80.821 Y135.602 E10.62041
G1 X80.097 Y135.033 E10.64491
G1 X79.425 Y134.403 E10.66942
G1 X78.81 Y133.718 E10.69392
G1 X78.257 Y132.982 E10.71841
G1 X77.77 Y132.201 E10.7429
G1 X77.353 Y131.38 E10.7674
G1 X77.008 Y130.526 E10.79191
G1 X76.739 Y129.646 E10.8164
G1 X76.547 Y128.745 E10.84091
G1 X76.434 Y127.832 E10.86539
G1 X76.405 Y127.277 E10.88017
G1 X76.392 Y126.658 E10.89665
G1 X76.393 Y124.755 E10.94728
G1 X76.403 Y124.057 E10.96586
G1 X76.456 Y123.138 E10.99035
G1 X76.589 Y122.227 E11.01485
G1 X76.8 Y121.331 E11.03934
G1 X77.088 Y120.457 E11.06383
G1 X77.451 Y119.61 E11.08835
G1 X77.886 Y118.799 E11.11283
G1 X78.39 Y118.029 E11.13732
G1 X78.959 Y117.305 E11.16182
G1 X79.589 Y116.633 E11.18633
G1 X80.094 Y116.169 E11.20458
G1 X81.124 Y115.284 E11.24071
G1 X83.149 Y113.5 E11.31252
G1 X83.465 Y113.213 E11.32388
G0 F1350 X83.524 Y113.16
G0 X84.232 Y112.572
G0 F7500 X84.488 Y112.88
G1 F1500 X85.231 Y112.367 E11.3479
G1 X86.017 Y111.922 E11.37194
G1 X86.839 Y111.548 E11.39597
G1 X87.691 Y111.248 E11.42
G1 X88.566 Y111.025 E11.44403
G1 X89.457 Y110.88 E11.46805
G1 X90.35 Y110.814 E11.49187
G1 X90.99 Y110.8 E11.50891
G1 X93.02 Y110.8 E11.56292
G1 X95.626 Y110.763 E11.63227
G1 X98.194 Y110.654 E11.70066
G1 X100.696 Y110.477 E11.7674
G1 X103.208 Y110.228 E11.83457
G1 X105.771 Y109.9 E11.90332
G1 X108.256 Y109.509 E11.97025
G1 X110.739 Y109.048 E12.03745
G1 X113.22 Y108.514 E12.10498
G1 X115.698 Y107.907 E12.17286
G1 X118.185 Y107.222 E12.2415
G1 X120.557 Y106.496 E12.3075
G1 X123.002 Y105.671 E12.37617
G1 X125.382 Y104.793 E12.44366
G1 X127.727 Y103.852 E12.5109
G1 X130.061 Y102.837 E12.57862
G1 X132.344 Y101.766 E12.64572
G1 X134.611 Y100.625 E12.71325
G1 X136.04 Y99.841 E12.75662
G1 X137.172 Y99.246 E12.79064
G1 X137.625 Y99.022 E12.80409
G1 X137.972 Y98.861 E12.81427
G1 X138.807 Y98.518 E12.83829
G1 X140.065 Y98.154 E12.87313
G1 X140.468 Y98.065 E12.88412
G1 X141.358 Y97.909 E12.90816
G1 X142.428 Y97.828 E12.93671
G1 X143.679 Y97.801 E12.97
G1 X144.899 Y97.802 E13.00247
G1 X146.108 Y97.824 E13.03464
G1 X147.067 Y97.886 E13.06021
G1 X147.43 Y97.927 E13.06993
G1 X148.446 Y98.095 E13.09733
G1 X148.732 Y98.157 E13.10512
G1 X149.569 Y98.375 E13.12813
G1 X149.891 Y98.474 E13.1371
G1 X150.719 Y98.769 E13.16048
G1 X150.976 Y98.873 E13.16786
G1 X151.669 Y99.184 E13.18807
G1 X151.928 Y99.312 E13.19576
G1 X152.693 Y99.731 E13.21897
G1 X152.906 Y99.86 E13.22559
G1 X153.533 Y100.272 E13.24556
G1 X153.796 Y100.459 E13.25414
G1 X154.576 Y101.073 E13.28056
G1 X154.851 Y101.312 E13.29025
G1 X155.559 Y101.99 E13.31633
G1 X155.782 Y102.225 E13.32495
G1 X156.344 Y102.869 E13.3477
G1 X156.497 Y103.06 E13.35421
G1 X157.009 Y103.758 E13.37724
G1 X157.194 Y104.034 E13.38608
G1 X157.637 Y104.759 E13.40869
G1 X157.777 Y105.011 E13.41636
G1 X158.177 Y105.81 E13.44014
G1 X158.305 Y106.097 E13.4485
G1 X158.612 Y106.869 E13.4706
G1 X158.689 Y107.088 E13.47678
G1 X158.972 Y108.041 E13.50323
G1 X159.077 Y108.469 E13.51496
G1 X159.276 Y109.51 E13.54316
G1 X159.316 Y109.801 E13.55098
G1 X159.409 Y110.997 E13.58289
G1 X159.434 Y112.407 E13.62042
G1 X159.433 Y121.239 E13.85542
G1 X159.409 Y122.54 E13.89004
G1 X159.353 Y123.435 E13.9139
G1 X159.315 Y123.791 E13.92343
G1 X159.208 Y124.535 E13.94343
G1 X159.145 Y124.881 E13.95279
G1 X158.989 Y125.592 E13.97216
G1 X158.905 Y125.919 E13.98114
G1 X158.689 Y126.646 E14.00132
G1 X158.566 Y127.01 E14.01154
G1 X158.303 Y127.704 E14.03129
G1 X158.164 Y128.034 E14.04082
G1 X157.84 Y128.731 E14.06127
G1 X157.682 Y129.039 E14.07048
G1 X157.126 Y129.991 E14.09982
G1 X156.71 Y130.623 E14.11995
G1 X156.181 Y131.355 E14.14398
G1 X155.81 Y131.796 E14.15931
G1 X155.333 Y132.332 E14.17841
G1 X154.703 Y132.979 E14.20243
G1 X154.26 Y133.373 E14.21821
G1 X153.714 Y133.83 E14.23715
G1 X152.876 Y134.461 E14.26507
G1 X152.608 Y134.642 E14.27367
G1 X152.021 Y135.01 E14.29211
G1 X151.637 Y135.233 E14.30392
G1 X150.855 Y135.642 E14.3274
G1 X150.536 Y135.792 E14.33678
G1 X150.013 Y136.021 E14.35197
G1 X149.733 Y136.134 E14.36001
G1 X148.716 Y136.483 E14.38862
G1 X147.991 Y136.69 E14.40868
G1 X146.922 Y136.934 E14.43785
G1 X146.591 Y136.991 E14.44679
G1 X145.511 Y137.118 E14.47573
G1 X144.745 Y137.167 E14.49615
G1 X144.254 Y137.187 E14.50923
G1 X143.404 Y137.199 E14.53184
G1 X142.24 Y137.2 E14.56282
G1 X87.553 Y137.199 E16.01793
G1 X86.855 Y137.189 E16.03651
G1 X85.953 Y137.136 E16.06055
G1 X85.06 Y137.004 E16.08457
G1 X84.182 Y136.793 E16.1086
G1 X83.326 Y136.505 E16.13263
G1 X82.499 Y136.143 E16.15665
G1 X81.707 Y135.708 E16.18069
G1 X80.956 Y135.206 E16.20473
G1 X80.253 Y134.639 E16.22876
G1 X79.603 Y134.012 E16.25279
G1 X79.011 Y133.33 E16.27682
G1 X78.481 Y132.599 E16.30084
G1 X78.019 Y131.823 E16.32487
G1 X77.626 Y131.01 E16.3489
G1 X77.308 Y130.165 E16.37292
G1 X77.065 Y129.295 E16.39696
G1 X76.9 Y128.407 E16.42099
G1 X76.805 Y127.266 E16.45146
G1 X76.792 Y126.658 E16.46764
G1 X76.793 Y124.761 E16.51811
G1 X76.803 Y124.063 E16.53669
G1 X76.856 Y123.161 E16.56073
G1 X76.988 Y122.268 E16.58475
G1 X77.199 Y121.39 E16.60878
G1 X77.487 Y120.534 E16.63281
G1 X77.849 Y119.707 E16.65683
G1 X78.284 Y118.915 E16.68087
G1 X78.786 Y118.164 E16.70491
G1 X79.353 Y117.461 E16.72894
G1 X79.98 Y116.811 E16.75297
G1 X80.355 Y116.472 E16.76642
G1 X81.41 Y115.566 E16.80342
G1 X83.4 Y113.812 E16.874
G1 X83.721 Y113.521 E16.88553
G0 F1350 X83.793 Y113.456
G0 X84.488 Y112.88
G1 F1500 E10.88553
;MESH:Arm_L.stl
G0 F7500 X91.644 Y122
;TYPE:WALL-INNER
G1 F1500 E16.88553
G1 X96.469 Y122 E17.01392
G1 X96.468 Y125 E17.09374
G1 X141.462 Y125 E18.29095
G1 X141.462 Y122 E18.37077
G1 X143.144 Y122 E18.41553
G1 X143.447 Y121.983 E18.4236
G1 X143.783 Y121.93 E18.43265
G1 X144.112 Y121.837 E18.44175
G1 X144.425 Y121.711 E18.45073
G1 X144.723 Y121.551 E18.45973
G1 X145.002 Y121.357 E18.46877
G1 X145.26 Y121.132 E18.47788
G1 X145.487 Y120.881 E18.48688
G1 X145.683 Y120.609 E18.4958
G1 X145.852 Y120.316 E18.5048
G1 X145.985 Y120.002 E18.51388
G1 X146.081 Y119.673 E18.52299
G1 X146.139 Y119.341 E18.53196
G1 X146.157 Y119.032 E18.5402
G1 X146.156 Y113.975 E18.67476
G1 X146.139 Y113.647 E18.68349
G1 X146.085 Y113.295 E18.69297
G1 X145.997 Y112.962 E18.70214
G1 X145.875 Y112.63 E18.71155
G1 X145.715 Y112.308 E18.72111
G1 X145.527 Y112.009 E18.73051
G1 X145.308 Y111.728 E18.73999
G1 X145.062 Y111.472 E18.74944
G1 X144.792 Y111.241 E18.75889
G1 X144.501 Y111.039 E18.76832
G1 X144.189 Y110.866 E18.77781
G1 X143.859 Y110.723 E18.78738
G1 X143.52 Y110.618 E18.79682
G1 X143.175 Y110.545 E18.80621
G1 X142.714 Y110.492 E18.81855
G1 X142.619 Y110.468 E18.82116
G1 X142.524 Y110.432 E18.82386
G1 X142.447 Y110.39 E18.8262
G1 X142.356 Y110.326 E18.82916
G1 X142.285 Y110.261 E18.83172
G1 X142.227 Y110.192 E18.83412
G1 X142.172 Y110.107 E18.83681
G1 X142.137 Y110.033 E18.83899
G1 X142.101 Y109.928 E18.84194
G1 X142.087 Y109.855 E18.84392
G1 X142.081 Y109.752 E18.84667
G1 X142.085 Y109.67 E18.84885
G1 X142.103 Y109.57 E18.85155
G1 X142.127 Y109.496 E18.85362
G1 X142.165 Y109.414 E18.85603
G1 X142.214 Y109.333 E18.85855
G1 X142.271 Y109.261 E18.86099
G1 X142.335 Y109.199 E18.86336
G1 X142.413 Y109.139 E18.86598
G1 X142.491 Y109.092 E18.8684
G1 X142.578 Y109.054 E18.87093
G1 X142.664 Y109.027 E18.87333
G1 X142.773 Y109.007 E18.87628
G1 X142.885 Y109.001 E18.87926
