;FLAVOR:Marlin
;TIME:4356
;Filament used: 2.40911m
;Layer height: 0.2
;MINX:31.326
;MINY:79.373
;MINZ:0.2
;MAXX:203.674
;MAXY:151.127
;MAXZ:4.4
;Generated with Cura_SteamEngine 4.5.0
M140 S60
M105
M190 S60
M104 S200
M105
M109 S200
M82 ;absolute extrusion mode
; Ender 3 Custom Start G-code
G92 E0 ; Reset Extruder
G28 ; Home all axes
G1 Z2.0 F3000 ; Move Z Axis up little to prevent scratching of Heat Bed
G1 X0.1 Y20 Z0.3 F5000.0 ; Move to start position
G1 X0.1 Y200.0 Z0.3 F1500.0 E15 ; Draw the first line
G1 X0.4 Y200.0 Z0.3 F5000.0 ; Move to side a little
G1 X0.4 Y20 Z0.3 F1500.0 E30 ; Draw the second line
G92 E0 ; Reset Extruder
G1 Z2.0 F3000 ; Move Z Axis up little to prevent scratching of Heat Bed
G1 X5 Y20 Z0.3 F5000.0 ; Move over to prevent blob squish
G92 E0
G92 E0
G1 F2700 E-5
;LAYER_COUNT:22
;LAYER:0
M107
G0 F6000 X43.463 Y107.196 Z0.2
;TYPE:SKIRT
G1 F2700 E0
G1 F1200 X44.076 Y106.97 E0.02173
G1 X44.693 Y106.768 E0.04332
G1 X44.961 Y106.686 E0.05264
G1 X45.593 Y106.513 E0.07444
G1 X46.395 Y106.324 E0.10184
G1 X47.136 Y106.172 E0.127
G1 X47.57 Y106.093 E0.14167
G1 X55.19 Y104.762 E0.39895
G1 X57.73 Y104.281 E0.48494
G1 X60.181 Y103.745 E0.56838
G1 X62.617 Y103.14 E0.65187
G1 X65.049 Y102.461 E0.73585
G1 X67.454 Y101.717 E0.81958
G1 X69.868 Y100.893 E0.90442
G1 X72.192 Y100.027 E0.98691
G1 X74.515 Y99.086 E1.07027
G1 X76.861 Y98.056 E1.15549
G1 X79.109 Y96.993 E1.23819
G1 X81.37 Y95.846 E1.32252
G1 X83.553 Y94.658 E1.40518
G1 X85.742 Y93.385 E1.4894
G1 X87.889 Y92.054 E1.57342
G1 X90.007 Y90.657 E1.65781
G1 X92.018 Y89.247 E1.7395
G1 X94.058 Y87.729 E1.82407
G1 X95.4 Y86.661 E1.88112
G1 X96.494 Y85.804 E1.92734
G1 X96.88 Y85.514 E1.9434
G1 X97.741 Y84.901 E1.97855
G1 X98.873 Y84.125 E2.0242
G1 X99.57 Y83.676 E2.05177
G1 X100.238 Y83.274 E2.0777
G1 X100.887 Y82.906 E2.10252
G1 X101.675 Y82.488 E2.13219
G1 X102.384 Y82.14 E2.15846
G1 X103.083 Y81.82 E2.18403
G1 X103.777 Y81.524 E2.20912
G1 X104.261 Y81.329 E2.22648
G1 X104.624 Y81.19 E2.2394
G1 X105.39 Y80.916 E2.26646
G1 X106.046 Y80.701 E2.28942
G1 X106.826 Y80.468 E2.3165
G1 X107.634 Y80.251 E2.34432
G1 X108.398 Y80.069 E2.37045
G1 X108.891 Y79.963 E2.38722
G1 X109.229 Y79.896 E2.39868
G1 X109.974 Y79.764 E2.42384
G1 X110.755 Y79.646 E2.45011
G1 X111.246 Y79.583 E2.46658
G1 X111.577 Y79.546 E2.47766
G1 X112.376 Y79.472 E2.50435
G1 X113.156 Y79.421 E2.53034
G1 X113.937 Y79.392 E2.55634
G1 X115.353 Y79.373 E2.60344
G1 X119.804 Y79.374 E2.75148
G1 X121.372 Y79.401 E2.80364
G1 X122.163 Y79.439 E2.82998
G1 X122.945 Y79.499 E2.85606
G1 X123.733 Y79.581 E2.88241
G1 X124.554 Y79.69 E2.90996
G1 X125.341 Y79.817 E2.93647
G1 X126.125 Y79.966 E2.96302
G1 X126.872 Y80.131 E2.98846
G1 X127.683 Y80.332 E3.01625
G1 X128.111 Y80.449 E3.03101
G1 X128.406 Y80.535 E3.04123
G1 X129.232 Y80.79 E3.06998
G1 X129.992 Y81.05 E3.0967
G1 X130.705 Y81.317 E3.12202
G1 X131.438 Y81.613 E3.14831
G1 X132.229 Y81.959 E3.17703
G1 X132.917 Y82.285 E3.20235
G1 X133.321 Y82.486 E3.21736
G1 X133.626 Y82.644 E3.22878
G1 X134.302 Y83.011 E3.25437
G1 X135.058 Y83.449 E3.28343
G1 X135.724 Y83.861 E3.30947
G1 X136.079 Y84.091 E3.32354
G1 X136.356 Y84.277 E3.33464
G1 X137.756 Y85.249 E3.39133
G1 X138.209 Y85.579 E3.40997
G1 X138.786 Y86.022 E3.43416
G1 X140.483 Y87.378 E3.50641
G1 X142.519 Y88.913 E3.59122
G1 X144.573 Y90.371 E3.675
G1 X146.624 Y91.742 E3.75705
G1 X148.79 Y93.103 E3.84213
G1 X150.954 Y94.377 E3.92565
G1 X153.155 Y95.594 E4.00931
G1 X155.391 Y96.746 E4.09296
G1 X157.672 Y97.842 E4.17713
G1 X159.967 Y98.865 E4.26071
G1 X162.286 Y99.823 E4.34416
G1 X164.663 Y100.727 E4.42874
G1 X167.018 Y101.544 E4.51165
G1 X169.381 Y102.291 E4.59408
G1 X171.858 Y102.998 E4.67975
G1 X174.296 Y103.622 E4.76346
G1 X176.706 Y104.163 E4.84561
G1 X179.86 Y104.769 E4.95243
G1 X187.369 Y106.082 E5.20597
G1 X188.32 Y106.262 E5.23816
G1 X188.798 Y106.363 E5.25441
G1 X189.218 Y106.462 E5.26876
G1 X189.798 Y106.616 E5.28872
G1 X190.431 Y106.807 E5.31071
G1 X190.774 Y106.919 E5.32271
G1 X191.344 Y107.123 E5.34285
G1 X191.694 Y107.259 E5.35534
G1 X192.268 Y107.497 E5.376
G1 X192.827 Y107.753 E5.39645
G1 X193.535 Y108.107 E5.42278
G1 X193.767 Y108.23 E5.43152
G1 X194.33 Y108.551 E5.45307
G1 X194.894 Y108.898 E5.4751
G1 X195.153 Y109.065 E5.48535
G1 X195.72 Y109.456 E5.50825
G1 X196.477 Y110.025 E5.53975
G1 X197.036 Y110.487 E5.56387
G1 X197.57 Y110.965 E5.58771
G1 X197.777 Y111.158 E5.59712
G1 X198.237 Y111.612 E5.61862
G1 X198.706 Y112.109 E5.64135
G1 X198.921 Y112.347 E5.65201
G1 X199.35 Y112.853 E5.67408
G1 X199.783 Y113.401 E5.69731
G1 X199.951 Y113.624 E5.70659
G1 X200.321 Y114.147 E5.7279
G1 X200.588 Y114.548 E5.74393
G1 X200.913 Y115.061 E5.76412
G1 X201.205 Y115.56 E5.78335
G1 X201.376 Y115.871 E5.79516
G1 X201.541 Y116.182 E5.80687
G1 X201.684 Y116.463 E5.81735
G1 X201.947 Y117.019 E5.83781
G1 X202.124 Y117.421 E5.85242
G1 X202.357 Y117.984 E5.87269
G1 X202.581 Y118.587 E5.89408
G1 X202.812 Y119.285 E5.91853
G1 X202.882 Y119.513 E5.92647
G1 X203.075 Y120.228 E5.9511
G1 X203.236 Y120.914 E5.97454
G1 X203.406 Y121.798 E6.00448
G1 X203.514 Y122.552 E6.02981
G1 X203.549 Y122.844 E6.03959
G1 X203.605 Y123.456 E6.06003
G1 X203.645 Y124.164 E6.08362
G1 X203.668 Y124.919 E6.10874
G1 X203.673 Y125.411 E6.12511
G1 X203.674 Y131.587 E6.33052
G1 X203.662 Y132.472 E6.35996
G1 X203.646 Y132.93 E6.3752
G1 X203.621 Y133.382 E6.39026
G1 X203.575 Y133.947 E6.40911
G1 X203.542 Y134.255 E6.41941
G1 X203.498 Y134.616 E6.43151
G1 X203.45 Y134.957 E6.44296
G1 X203.343 Y135.581 E6.46402
G1 X203.248 Y136.056 E6.48013
G1 X203.118 Y136.639 E6.5
G1 X202.971 Y137.196 E6.51916
G1 X202.844 Y137.632 E6.53426
G1 X202.651 Y138.241 E6.55551
G1 X202.436 Y138.837 E6.57659
G1 X202.187 Y139.46 E6.5989
G1 X202.072 Y139.731 E6.60869
G1 X201.805 Y140.313 E6.62999
G1 X201.482 Y140.958 E6.65398
G1 X201.356 Y141.197 E6.66297
G1 X201.009 Y141.807 E6.68631
G1 X200.509 Y142.606 E6.71766
G1 X200.125 Y143.162 E6.74013
G1 X199.849 Y143.536 E6.75559
G1 X199.492 Y143.998 E6.77501
G1 X199.072 Y144.504 E6.79688
G1 X198.585 Y145.048 E6.82117
G1 X198.414 Y145.231 E6.8295
G1 X197.974 Y145.676 E6.85031
G1 X197.431 Y146.189 E6.87516
G1 X197.218 Y146.381 E6.8847
G1 X196.698 Y146.821 E6.90735
G1 X196.161 Y147.243 E6.93007
G1 X195.954 Y147.399 E6.93869
G1 X195.436 Y147.767 E6.95982
G1 X195.037 Y148.033 E6.97577
G1 X194.465 Y148.393 E6.99825
G1 X194.005 Y148.66 E7.01594
G1 X193.685 Y148.836 E7.02809
G1 X193.347 Y149.015 E7.04081
G1 X193.076 Y149.152 E7.05091
G1 X192.55 Y149.4 E7.07025
G1 X191.838 Y149.709 E7.09607
G1 X191.598 Y149.806 E7.10468
G1 X190.991 Y150.03 E7.1262
G1 X190.25 Y150.275 E7.15215
G1 X190.04 Y150.339 E7.15946
G1 X189.412 Y150.51 E7.1811
G1 X188.459 Y150.732 E7.21365
G1 X187.742 Y150.863 E7.23789
G1 X187.055 Y150.961 E7.26097
G1 X186.738 Y150.999 E7.27159
G1 X186.138 Y151.054 E7.29163
G1 X185.384 Y151.098 E7.31675
G1 X184.657 Y151.119 E7.34094
G1 X184.166 Y151.124 E7.35727
G1 X55.91 Y151.127 E11.62309
G1 X51.156 Y151.125 E11.7812
G1 X49.483 Y151.09 E11.83686
G1 X48.566 Y151.032 E11.86742
G1 X48.175 Y150.991 E11.8805
G1 X47.771 Y150.941 E11.89404
G1 X47.469 Y150.898 E11.90418
G1 X46.853 Y150.792 E11.92497
G1 X46.415 Y150.704 E11.93983
G1 X45.814 Y150.569 E11.96032
G1 X45.245 Y150.419 E11.97989
G1 X44.807 Y150.291 E11.99507
G1 X44.2 Y150.098 E12.01625
G1 X43.613 Y149.887 E12.037
G1 X43.274 Y149.754 E12.04911
G1 X42.691 Y149.51 E12.07013
G1 X42.134 Y149.254 E12.09052
G1 X41.506 Y148.939 E12.11389
G1 X41.237 Y148.797 E12.124
G1 X40.632 Y148.452 E12.14717
G1 X40.039 Y148.085 E12.17036
G1 X39.842 Y147.957 E12.17818
G1 X39.321 Y147.597 E12.19924
G1 X38.906 Y147.292 E12.21637
G1 X38.435 Y146.929 E12.23615
G1 X37.949 Y146.524 E12.25719
G1 X37.395 Y146.029 E12.2819
G1 X37.207 Y145.853 E12.29046
G1 X36.767 Y145.417 E12.31107
G1 X36.262 Y144.882 E12.33554
G1 X36.07 Y144.669 E12.34507
G1 X35.63 Y144.149 E12.36773
G1 X35.222 Y143.63 E12.38969
G1 X35.054 Y143.408 E12.39895
G1 X34.665 Y142.86 E12.4213
G1 X34.423 Y142.496 E12.43584
G1 X34.089 Y141.968 E12.45662
G1 X33.789 Y141.455 E12.47638
G1 X33.602 Y141.114 E12.48932
G1 X33.43 Y140.788 E12.50158
G1 X33.293 Y140.517 E12.51168
G1 X33.034 Y139.967 E12.5319
G1 X32.759 Y139.33 E12.55497
G1 X32.657 Y139.08 E12.56395
G1 X32.414 Y138.426 E12.58716
G1 X32.178 Y137.71 E12.61223
G1 X32.109 Y137.483 E12.62013
G1 X31.941 Y136.863 E12.64149
G1 X31.754 Y136.071 E12.66856
G1 X31.703 Y135.829 E12.67678
G1 X31.59 Y135.2 E12.69804
G1 X31.492 Y134.518 E12.72095
G1 X31.454 Y134.204 E12.73147
G1 X31.396 Y133.583 E12.75222
G1 X31.37 Y133.176 E12.76578
G1 X31.354 Y132.845 E12.77681
G1 X31.332 Y132.095 E12.80176
G1 X31.327 Y131.621 E12.81753
G1 X31.326 Y125.406 E13.02424
G1 X31.338 Y124.541 E13.05301
G1 X31.355 Y124.058 E13.06909
G1 X31.382 Y123.592 E13.08461
G1 X31.429 Y123.038 E13.1031
G1 X31.461 Y122.744 E13.11294
G1 X31.505 Y122.392 E13.12474
G1 X31.552 Y122.06 E13.13589
G1 X31.655 Y121.453 E13.15637
G1 X31.75 Y120.976 E13.17255
G1 X31.896 Y120.331 E13.19454
G1 X32.039 Y119.792 E13.21309
G1 X32.148 Y119.419 E13.22601
G1 X32.253 Y119.079 E13.23785
G1 X32.349 Y118.786 E13.2481
G1 X32.56 Y118.198 E13.26888
G1 X32.703 Y117.833 E13.28192
G1 X32.951 Y117.241 E13.30327
G1 X33.192 Y116.719 E13.32239
G1 X33.384 Y116.33 E13.33682
G1 X33.67 Y115.783 E13.35735
G1 X34.006 Y115.194 E13.3799
G1 X34.48 Y114.438 E13.40958
G1 X34.883 Y113.855 E13.43315
G1 X35.362 Y113.214 E13.45977
G1 X35.514 Y113.02 E13.46797
G1 X35.922 Y112.529 E13.4892
G1 X36.414 Y111.978 E13.51377
G1 X36.601 Y111.778 E13.52287
G1 X37.06 Y111.316 E13.54453
G1 X37.582 Y110.826 E13.56835
G1 X37.79 Y110.639 E13.57765
G1 X38.269 Y110.232 E13.59856
G1 X38.6 Y109.967 E13.61266
G1 X39.107 Y109.581 E13.63385
G1 X39.588 Y109.242 E13.65343
G1 X39.979 Y108.982 E13.66904
G1 X40.549 Y108.624 E13.69143
G1 X41.029 Y108.346 E13.70988
G1 X41.645 Y108.015 E13.73314
G1 X41.897 Y107.887 E13.74254
G1 X42.479 Y107.612 E13.76395
G1 X42.935 Y107.413 E13.7805
G1 X43.463 Y107.196 E13.79948
G0 F6000 X43.612 Y107.567
G1 F1200 X44.203 Y107.35 E13.82042
G1 X44.81 Y107.151 E13.84167
G1 X45.078 Y107.069 E13.85099
G1 X45.687 Y106.902 E13.87199
G1 X46.478 Y106.715 E13.89903
G1 X47.207 Y106.565 E13.92378
G1 X47.638 Y106.487 E13.93835
G1 X55.28 Y105.152 E14.19637
G1 X57.811 Y104.673 E14.28205
G1 X60.257 Y104.138 E14.36533
G1 X62.715 Y103.527 E14.44957
G1 X65.169 Y102.842 E14.53431
G1 X67.596 Y102.092 E14.6188
G1 X69.957 Y101.286 E14.70177
G1 X72.357 Y100.391 E14.78697
G1 X74.706 Y99.44 E14.87126
G1 X76.984 Y98.44 E14.954
G1 X79.311 Y97.34 E15.03961
G1 X81.535 Y96.21 E15.12258
G1 X83.766 Y94.997 E15.20704
G1 X85.948 Y93.728 E15.291
G1 X88.098 Y92.395 E15.37514
G1 X90.211 Y91.002 E15.45931
G1 X92.28 Y89.551 E15.54336
G1 X94.297 Y88.05 E15.62699
G1 X95.646 Y86.976 E15.68434
G1 X96.74 Y86.119 E15.73056
G1 X97.112 Y85.84 E15.74603
G1 X97.968 Y85.23 E15.78099
G1 X99.091 Y84.46 E15.82627
G1 X99.779 Y84.018 E15.85347
G1 X100.437 Y83.621 E15.87903
G1 X101.077 Y83.258 E15.9035
G1 X101.561 Y82.998 E15.92178
G1 X101.854 Y82.847 E15.93274
G1 X102.553 Y82.503 E15.95865
G1 X103.242 Y82.187 E15.98386
G1 X103.927 Y81.895 E16.00863
G1 X104.411 Y81.7 E16.02599
G1 X104.761 Y81.566 E16.03845
G1 X105.517 Y81.296 E16.06515
G1 X106.163 Y81.084 E16.08776
G1 X106.932 Y80.853 E16.11447
G1 X107.728 Y80.639 E16.14189
G1 X108.482 Y80.46 E16.16766
G1 X109.301 Y80.289 E16.19549
G1 X110.035 Y80.159 E16.22028
G1 X110.806 Y80.043 E16.24621
G1 X111.616 Y79.944 E16.27336
G1 X112.404 Y79.871 E16.29968
G1 X113.174 Y79.821 E16.32534
G1 X113.942 Y79.792 E16.3509
G1 X115.353 Y79.773 E16.39784
G1 X119.798 Y79.774 E16.54568
G1 X121.355 Y79.801 E16.59747
G1 X122.135 Y79.838 E16.62344
G1 X122.905 Y79.897 E16.64913
G1 X123.683 Y79.978 E16.67515
G1 X124.492 Y80.085 E16.70229
G1 X125.268 Y80.21 E16.72843
G1 X125.72 Y80.293 E16.74371
G1 X126.04 Y80.357 E16.75457
G1 X126.778 Y80.52 E16.77971
G1 X127.577 Y80.718 E16.80709
G1 X128.29 Y80.917 E16.83171
G1 X128.807 Y81.074 E16.84968
G1 X129.105 Y81.17 E16.86009
G1 X129.854 Y81.426 E16.88642
G1 X130.557 Y81.688 E16.91137
G1 X131.28 Y81.98 E16.9373
G1 X131.763 Y82.188 E16.95479
G1 X132.06 Y82.322 E16.96563
G1 X132.739 Y82.643 E16.99061
G1 X133.143 Y82.844 E17.00562
G1 X133.437 Y82.996 E17.01663
G1 X134.103 Y83.358 E17.04184
G1 X134.849 Y83.79 E17.07051
G1 X135.507 Y84.197 E17.09625
G1 X135.862 Y84.427 E17.11031
G1 X136.129 Y84.606 E17.12101
G1 X137.52 Y85.572 E17.17733
G1 X138.234 Y86.098 E17.20683
G1 X138.537 Y86.335 E17.21962
G1 X140.255 Y87.708 E17.29277
G1 X142.253 Y89.214 E17.37599
G1 X144.342 Y90.697 E17.4612
G1 X146.435 Y92.096 E17.54493
G1 X148.58 Y93.444 E17.62919
G1 X150.751 Y94.723 E17.713
G1 X152.943 Y95.934 E17.79629
G1 X155.243 Y97.119 E17.88234
G1 X157.486 Y98.197 E17.96512
G1 X159.788 Y99.223 E18.04894
G1 X162.17 Y100.207 E18.13466
G1 X164.527 Y101.103 E18.21853
G1 X166.882 Y101.92 E18.30143
G1 X169.287 Y102.681 E18.38533
G1 X171.721 Y103.375 E18.46952
G1 X174.207 Y104.011 E18.55486
G1 X176.646 Y104.559 E18.63801
G1 X179.761 Y105.158 E18.74351
G1 X187.294 Y106.475 E18.99786
G1 X188.245 Y106.655 E19.03005
G1 X188.706 Y106.753 E19.04573
G1 X189.126 Y106.852 E19.06008
G1 X189.685 Y107 E19.07931
G1 X190.307 Y107.188 E19.10092
G1 X190.65 Y107.3 E19.11293
G1 X191.199 Y107.496 E19.13231
G1 X191.858 Y107.757 E19.15589
G1 X192.112 Y107.865 E19.16507
G1 X192.65 Y108.112 E19.18476
G1 X193.347 Y108.461 E19.21069
G1 X193.579 Y108.584 E19.21942
G1 X194.122 Y108.892 E19.24018
G1 X194.677 Y109.234 E19.26186
G1 X194.936 Y109.401 E19.27211
G1 X195.482 Y109.778 E19.29418
G1 X196.233 Y110.341 E19.3254
G1 X196.771 Y110.786 E19.34862
G1 X197.298 Y111.257 E19.37213
G1 X197.505 Y111.45 E19.38154
G1 X197.947 Y111.888 E19.40224
G1 X198.409 Y112.377 E19.42462
G1 X198.624 Y112.615 E19.43528
G1 X199.038 Y113.103 E19.45657
G1 X199.463 Y113.642 E19.4794
G1 X199.631 Y113.865 E19.48868
G1 X199.988 Y114.368 E19.5092
G1 X200.255 Y114.769 E19.52522
G1 X200.573 Y115.272 E19.54502
G1 X200.855 Y115.753 E19.56356
G1 X201.026 Y116.064 E19.57537
G1 X201.327 Y116.644 E19.5971
G1 X201.581 Y117.181 E19.61686
G1 X201.885 Y117.883 E19.6423
G1 X201.986 Y118.133 E19.65127
G1 X202.202 Y118.715 E19.67192
G1 X202.429 Y119.402 E19.69598
G1 X202.499 Y119.63 E19.70391
G1 X202.686 Y120.319 E19.72766
G1 X202.847 Y121.005 E19.7511
G1 X203.01 Y121.857 E19.77995
G1 X203.117 Y122.599 E19.80488
G1 X203.152 Y122.891 E19.81466
G1 X203.206 Y123.482 E19.8344
G1 X203.246 Y124.178 E19.85759
G1 X203.268 Y124.923 E19.88238
G1 X203.273 Y125.411 E19.89861
G1 X203.274 Y131.582 E20.10386
G1 X203.262 Y132.467 E20.1333
G1 X203.247 Y132.908 E20.14797
G1 X203.222 Y133.36 E20.16303
G1 X203.178 Y133.904 E20.18118
G1 X203.145 Y134.212 E20.19148
G1 X203.102 Y134.561 E20.20318
G1 X203.054 Y134.902 E20.21463
G1 X202.951 Y135.503 E20.23491
G1 X202.856 Y135.978 E20.25103
G1 X202.728 Y136.548 E20.27046
G1 X202.587 Y137.084 E20.28889
G1 X202.46 Y137.52 E20.30399
G1 X202.271 Y138.117 E20.32482
G1 X202.064 Y138.691 E20.34512
G1 X201.819 Y139.304 E20.36707
G1 X201.704 Y139.575 E20.37686
G1 X201.446 Y140.136 E20.3974
G1 X201.128 Y140.771 E20.42102
G1 X201.002 Y141.01 E20.43001
G1 X200.667 Y141.598 E20.45252
G1 X200.173 Y142.388 E20.48351
G1 X199.803 Y142.924 E20.50517
G1 X199.346 Y143.536 E20.53057
G1 X199.177 Y143.752 E20.5397
G1 X198.772 Y144.239 E20.56076
G1 X198.293 Y144.775 E20.58467
G1 X198.122 Y144.958 E20.593
G1 X197.698 Y145.387 E20.61306
G1 X197.387 Y145.684 E20.62737
G1 X196.95 Y146.083 E20.64705
G1 X196.449 Y146.508 E20.6689
G1 X195.921 Y146.923 E20.69124
G1 X195.714 Y147.079 E20.69986
G1 X195.214 Y147.434 E20.72025
G1 X194.815 Y147.7 E20.7362
G1 X194.255 Y148.052 E20.7582
G1 X193.812 Y148.31 E20.77525
G1 X193.492 Y148.486 E20.7874
G1 X193.166 Y148.658 E20.79966
G1 X192.895 Y148.795 E20.80976
G1 X192.389 Y149.034 E20.82837
G1 X191.688 Y149.338 E20.85378
G1 X191.448 Y149.435 E20.86239
G1 X190.863 Y149.651 E20.88313
G1 X190.133 Y149.893 E20.90871
G1 X189.923 Y149.957 E20.91602
G1 X189.318 Y150.122 E20.93687
G1 X188.374 Y150.341 E20.9691
G1 X187.683 Y150.467 E20.99247
G1 X187.008 Y150.564 E21.01515
G1 X186.691 Y150.602 E21.02577
G1 X186.112 Y150.655 E21.0451
