;FLAVOR:Marlin
;TIME:1537
;Filament used: 0.6454m
;Layer height: 0.16
;MINX:96.698
;MINY:83.324
;MINZ:0.16
;MAXX:138.301
;MAXY:156.676
;MAXZ:4.96
;Generated with Cura_SteamEngine 4.5.0
M140 S60
M105
M190 S60
M104 S205
M105
M109 S205
M82 ;absolute extrusion mode
; Ender 3 Custom Start G-code
G92 E0 ; Reset Extruder
G28 ; Home all axes
G1 Z2.0 F3000 ; Move Z Axis up little to prevent scratching of Heat Bed
G1 X0.1 Y20 Z0.3 F5000.0 ; Move to start position
G1 X0.1 Y200.0 Z0.3 F1500.0 E15 ; Draw the first line
G1 X0.4 Y200.0 Z0.3 F5000.0 ; Move to side a little
G1 X0.4 Y20 Z0.3 F1500.0 E30 ; Draw the second line
G92 E0 ; Reset Extruder
G1 Z2.0 F3000 ; Move Z Axis up little to prevent scratching of Heat Bed
G1 X5 Y20 Z0.3 F5000.0 ; Move over to prevent blob squish
G92 E0
G92 E0
G1 F1500 E-6
;LAYER_COUNT:31
;LAYER:0
M107
M205 X20 Y20
G0 F7500 X102.011 Y88.559 Z0.16
;TYPE:SKIRT
G1 F1500 E0
G1 X102.294 Y88.234 E0.01147
G1 X102.695 Y87.799 E0.02721
G1 X103.02 Y87.464 E0.03963
G1 X103.368 Y87.121 E0.05263
G1 X103.702 Y86.806 E0.06485
G1 X104.092 Y86.454 E0.07882
G1 X104.413 Y86.179 E0.09007
G1 X104.805 Y85.859 E0.10354
G1 X105.055 Y85.664 E0.11197
G1 X105.818 Y85.12 E0.13691
G1 X106.625 Y84.642 E0.16186
G1 X107.47 Y84.235 E0.18682
G1 X108.346 Y83.901 E0.21176
G1 X109.248 Y83.643 E0.23673
G1 X110.169 Y83.463 E0.2617
G1 X111.101 Y83.362 E0.28664
G1 X111.64 Y83.339 E0.301
G1 X112.425 Y83.328 E0.32188
G1 X122.664 Y83.324 E0.59433
G1 X123.328 Y83.333 E0.61199
G1 X124.264 Y83.386 E0.63694
G1 X125.193 Y83.518 E0.66191
G1 X126.107 Y83.729 E0.68687
G1 X126.999 Y84.017 E0.71181
G1 X127.864 Y84.38 E0.73677
G1 X128.695 Y84.815 E0.76173
G1 X129.486 Y85.319 E0.78668
G1 X129.999 Y85.701 E0.8037
G1 X130.447 Y86.055 E0.81889
G1 X131.022 Y86.542 E0.83894
G1 X131.37 Y86.858 E0.85145
G1 X131.74 Y87.211 E0.86506
G1 X132.044 Y87.514 E0.87648
G1 X132.403 Y87.889 E0.89029
G1 X132.717 Y88.233 E0.90268
G1 X133.079 Y88.65 E0.91738
G1 X133.352 Y88.981 E0.92879
G1 X133.655 Y89.365 E0.94181
G1 X133.932 Y89.733 E0.95406
G1 X134.223 Y90.139 E0.96736
G1 X134.45 Y90.471 E0.97806
G1 X134.777 Y90.978 E0.99411
G1 X135.034 Y91.402 E1.0073
G1 X135.263 Y91.798 E1.01947
G1 X135.475 Y92.183 E1.03117
G1 X135.727 Y92.67 E1.04576
G1 X135.919 Y93.064 E1.05742
G1 X136.134 Y93.532 E1.07112
G1 X136.311 Y93.943 E1.08303
G1 X136.512 Y94.444 E1.0974
G1 X136.685 Y94.907 E1.11055
G1 X136.863 Y95.422 E1.12505
G1 X136.982 Y95.796 E1.13549
G1 X137.13 Y96.303 E1.14954
G1 X137.25 Y96.754 E1.16196
G1 X137.369 Y97.246 E1.17543
G1 X137.467 Y97.697 E1.18771
G1 X137.564 Y98.201 E1.20137
G1 X137.639 Y98.645 E1.21335
G1 X137.715 Y99.165 E1.22733
G1 X137.764 Y99.573 E1.23826
G1 X137.816 Y100.131 E1.25318
G1 X137.849 Y100.611 E1.26598
G1 X137.872 Y101.094 E1.27884
G1 X137.883 Y101.541 E1.29074
G1 X137.883 Y102.062 E1.3046
G1 X137.873 Y102.502 E1.31631
G1 X137.846 Y103.065 E1.33131
G1 X137.812 Y103.524 E1.34356
G1 X137.763 Y104.029 E1.35706
G1 X137.675 Y104.725 E1.37573
G1 X137.531 Y105.713 E1.40229
G1 X137.301 Y107.359 E1.44651
G1 X137.014 Y109.844 E1.51308
G1 X136.792 Y112.391 E1.5811
G1 X136.648 Y114.871 E1.6472
G1 X136.572 Y117.395 E1.71439
G1 X136.567 Y119.925 E1.78171
G1 X136.633 Y122.438 E1.8486
G1 X136.77 Y124.937 E1.91519
G1 X136.977 Y127.427 E1.98168
G1 X137.263 Y129.98 E2.05003
G1 X137.612 Y132.47 E2.11693
G1 X137.875 Y134.071 E2.1601
G1 X138.021 Y134.917 E2.18295
G1 X138.094 Y135.38 E2.19542
G1 X138.179 Y136.06 E2.21365
G1 X138.244 Y136.749 E2.23207
G1 X138.291 Y137.583 E2.25429
G1 X138.301 Y138.135 E2.26898
G1 X138.296 Y138.721 E2.28458
G1 X138.28 Y139.176 E2.29669
G1 X138.249 Y139.697 E2.31058
G1 X138.211 Y140.156 E2.32283
G1 X138.154 Y140.687 E2.33704
G1 X138.095 Y141.134 E2.34904
G1 X138.02 Y141.619 E2.3621
G1 X137.939 Y142.075 E2.37442
G1 X137.837 Y142.581 E2.38816
G1 X137.736 Y143.027 E2.40032
G1 X137.61 Y143.53 E2.41412
G1 X137.483 Y143.989 E2.42679
G1 X137.343 Y144.453 E2.43969
G1 X137.268 Y144.684 E2.44615
G1 X137.045 Y145.308 E2.46378
G1 X136.659 Y146.291 E2.49188
G1 X136.304 Y147.097 E2.51532
G1 X136.074 Y147.568 E2.52926
G1 X135.831 Y148.038 E2.54334
G1 X135.603 Y148.453 E2.55594
G1 X135.317 Y148.943 E2.57104
G1 X135.085 Y149.318 E2.58277
G1 X134.822 Y149.723 E2.59562
G1 X134.57 Y150.093 E2.60753
G1 X134.262 Y150.522 E2.62158
G1 X133.965 Y150.916 E2.63471
G1 X133.646 Y151.32 E2.64841
G1 X133.363 Y151.661 E2.6602
G1 X133.025 Y152.049 E2.67389
G1 X132.724 Y152.379 E2.68578
G1 X132.392 Y152.727 E2.69857
G1 X132.164 Y152.956 E2.70717
G1 X131.475 Y153.592 E2.73212
G1 X130.734 Y154.167 E2.75708
G1 X129.946 Y154.676 E2.78204
G1 X129.118 Y155.117 E2.807
G1 X128.256 Y155.485 E2.83194
G1 X127.014 Y155.872 E2.86655
G1 X126.295 Y156.046 E2.88624
G1 X126.008 Y156.109 E2.89406
G1 X125.423 Y156.221 E2.90991
G1 X124.548 Y156.359 E2.93348
G1 X123.747 Y156.465 E2.95497
G1 X123.388 Y156.506 E2.96459
G1 X122.974 Y156.547 E2.97566
G1 X122.608 Y156.578 E2.98543
G1 X121.905 Y156.624 E3.00418
G1 X121.555 Y156.641 E3.0135
G1 X120.614 Y156.669 E3.03855
G1 X119.92 Y156.676 E3.05702
G1 X114.602 Y156.674 E3.19852
G1 X114.251 Y156.668 E3.20786
G1 X113.132 Y156.627 E3.23765
G1 X112.488 Y156.586 E3.25482
G1 X112.107 Y156.555 E3.265
G1 X111.529 Y156.498 E3.28045
G1 X111.179 Y156.458 E3.28982
G1 X110.569 Y156.378 E3.30619
G1 X110.208 Y156.324 E3.31591
G1 X109.467 Y156.197 E3.33591
G1 X108.68 Y156.042 E3.35725
G1 X107.585 Y155.767 E3.38729
G1 X107.425 Y155.718 E3.39175
G1 X106.541 Y155.405 E3.4167
G1 X105.686 Y155.018 E3.44167
G1 X104.868 Y154.56 E3.46661
G1 X104.092 Y154.034 E3.49156
G1 X103.363 Y153.444 E3.51651
G1 X102.824 Y152.937 E3.5362
G1 X102.416 Y152.519 E3.55174
G1 X101.979 Y152.046 E3.56888
G1 X101.51 Y151.503 E3.58797
G1 X101.11 Y151.009 E3.60488
G1 X100.723 Y150.501 E3.62188
G1 X100.456 Y150.129 E3.63406
G1 X100.155 Y149.688 E3.64827
G1 X99.908 Y149.306 E3.66037
G1 X99.625 Y148.844 E3.67479
G1 X99.405 Y148.464 E3.68647
G1 X99.18 Y148.055 E3.69889
G1 X98.946 Y147.608 E3.71232
G1 X98.703 Y147.114 E3.72697
G1 X98.53 Y146.739 E3.73795
G1 X98.337 Y146.297 E3.75079
G1 X98.159 Y145.862 E3.76329
G1 X97.971 Y145.367 E3.77738
G1 X97.823 Y144.949 E3.78918
G1 X97.658 Y144.447 E3.80324
G1 X97.513 Y143.965 E3.81663
G1 X97.382 Y143.489 E3.82977
G1 X97.282 Y143.093 E3.84064
G1 X97.17 Y142.601 E3.85406
G1 X97.074 Y142.131 E3.86683
G1 X96.98 Y141.608 E3.88097
G1 X96.907 Y141.135 E3.8937
G1 X96.843 Y140.652 E3.90667
G1 X96.797 Y140.231 E3.91793
G1 X96.752 Y139.701 E3.93209
G1 X96.723 Y139.222 E3.94486
G1 X96.704 Y138.701 E3.95873
G1 X96.698 Y138.244 E3.97089
G1 X96.703 Y137.746 E3.98414
G1 X96.717 Y137.311 E3.99572
G1 X96.745 Y136.806 E4.00918
G1 X96.771 Y136.474 E4.01804
G1 X96.88 Y135.564 E4.04243
G1 X96.987 Y134.913 E4.05998
G1 X97.296 Y133.176 E4.10692
G1 X97.661 Y130.723 E4.17291
G1 X97.963 Y128.212 E4.24021
G1 X98.193 Y125.707 E4.30714
G1 X98.351 Y123.192 E4.37419
G1 X98.439 Y120.696 E4.44065
G1 X98.455 Y118.143 E4.50858
G1 X98.4 Y115.646 E4.57504
G1 X98.275 Y113.129 E4.64209
G1 X98.079 Y110.633 E4.70871
G1 X97.812 Y108.149 E4.77518
G1 X97.291 Y104.356 E4.87706
G1 X97.235 Y103.859 E4.89036
G1 X97.197 Y103.443 E4.90148
G1 X97.163 Y102.949 E4.91465
G1 X97.142 Y102.494 E4.92677
G1 X97.13 Y101.987 E4.94027
G1 X97.13 Y101.557 E4.95171
G1 X97.144 Y101.003 E4.96646
G1 X97.167 Y100.547 E4.9786
G1 X97.206 Y100.026 E4.99251
G1 X97.25 Y99.578 E5.00448
G1 X97.314 Y99.054 E5.01853
G1 X97.381 Y98.598 E5.03079
G1 X97.47 Y98.079 E5.0448
G1 X97.554 Y97.651 E5.05641
G1 X97.668 Y97.137 E5.07042
G1 X97.773 Y96.711 E5.08209
G1 X97.905 Y96.224 E5.09552
G1 X98.036 Y95.781 E5.10781
G1 X98.218 Y95.219 E5.12353
G1 X98.365 Y94.805 E5.13522
G1 X98.524 Y94.384 E5.14719
G1 X98.698 Y93.951 E5.15961
G1 X98.93 Y93.415 E5.17515
G1 X99.109 Y93.03 E5.18645
G1 X99.316 Y92.61 E5.19891
G1 X99.52 Y92.216 E5.21071
G1 X99.796 Y91.716 E5.22591
G1 X100.039 Y91.301 E5.2387
G1 X100.298 Y90.88 E5.25186
G1 X100.524 Y90.531 E5.26292
G1 X100.841 Y90.068 E5.27785
G1 X101.117 Y89.686 E5.29039
G1 X101.381 Y89.337 E5.30203
G0 F1350 X101.419 Y89.287
G0 X101.693 Y88.942
G0 X102.011 Y88.559
G0 F7500 X102.313 Y88.822
G1 F1500 X102.596 Y88.497 E5.3135
G1 X102.982 Y88.077 E5.32868
G1 X103.307 Y87.742 E5.3411
G1 X103.642 Y87.412 E5.35361
G1 X103.976 Y87.097 E5.36583
G1 X104.353 Y86.758 E5.37932
G1 X104.674 Y86.483 E5.39056
G1 X105.051 Y86.175 E5.40352
G1 X105.301 Y85.98 E5.41195
G1 X106.051 Y85.446 E5.43645
G1 X106.844 Y84.979 E5.46094
G1 X107.675 Y84.582 E5.48544
G1 X108.537 Y84.259 E5.50994
G1 X109.424 Y84.012 E5.53444
G1 X110.329 Y83.843 E5.55893
G1 X111.646 Y83.739 E5.59408
G1 X112.425 Y83.728 E5.61481
G1 X122.659 Y83.724 E5.88712
G1 X123.323 Y83.733 E5.90479
G1 X124.242 Y83.785 E5.92928
G1 X125.153 Y83.917 E5.95378
G1 X126.049 Y84.128 E5.97827
G1 X126.924 Y84.416 E6.00278
G1 X127.77 Y84.778 E6.02726
G1 X128.582 Y85.212 E6.05176
G1 X129.353 Y85.716 E6.07627
G1 X129.751 Y86.015 E6.08952
G1 X130.199 Y86.369 E6.10471
G1 X130.753 Y86.839 E6.12404
G1 X131.101 Y87.155 E6.13655
G1 X131.458 Y87.494 E6.14965
G1 X131.762 Y87.797 E6.16107
G1 X132.108 Y88.159 E6.17439
G1 X132.422 Y88.503 E6.18679
G1 X132.77 Y88.904 E6.20091
G1 X133.043 Y89.235 E6.21233
G1 X133.335 Y89.605 E6.22487
G1 X133.612 Y89.973 E6.23713
G1 X133.893 Y90.365 E6.24996
G1 X134.12 Y90.697 E6.26066
G1 X134.435 Y91.186 E6.27614
G1 X134.692 Y91.61 E6.28933
G1 X134.912 Y91.991 E6.30104
G1 X135.124 Y92.376 E6.31273
G1 X135.368 Y92.846 E6.32682
G1 X135.56 Y93.24 E6.33849
G1 X135.767 Y93.69 E6.35167
G1 X135.944 Y94.101 E6.36357
G1 X136.137 Y94.584 E6.37741
G1 X136.31 Y95.047 E6.39056
G1 X136.482 Y95.543 E6.40453
G1 X136.601 Y95.917 E6.41498
G1 X136.744 Y96.405 E6.42851
G1 X136.864 Y96.856 E6.44092
G1 X136.978 Y97.331 E6.45392
G1 X137.076 Y97.782 E6.4662
G1 X137.17 Y98.267 E6.47935
G1 X137.245 Y98.711 E6.49133
G1 X137.317 Y99.213 E6.50482
G1 X137.366 Y99.621 E6.51576
G1 X137.417 Y100.158 E6.53011
G1 X137.45 Y100.638 E6.54291
G1 X137.472 Y101.104 E6.55532
G1 X137.483 Y101.551 E6.56722
G1 X137.483 Y102.053 E6.58058
G1 X137.473 Y102.493 E6.59229
G1 X137.447 Y103.035 E6.60673
G1 X137.413 Y103.494 E6.61897
G1 X137.366 Y103.981 E6.63199
G1 X137.28 Y104.668 E6.65042
G1 X137.128 Y105.713 E6.67851
G1 X136.91 Y107.261 E6.72011
G1 X136.613 Y109.835 E6.78905
G1 X136.396 Y112.331 E6.85572
G1 X136.247 Y114.872 E6.92344
G1 X136.172 Y117.382 E6.99026
G1 X136.167 Y119.935 E7.05819
G1 X136.233 Y122.436 E7.12476
G1 X136.371 Y124.956 E7.19191
G1 X136.582 Y127.502 E7.25989
G1 X136.864 Y130.013 E7.32712
G1 X137.218 Y132.539 E7.39499
G1 X137.47 Y134.078 E7.43649
G1 X137.626 Y134.979 E7.46082
G1 X137.699 Y135.442 E7.47329
G1 X137.781 Y136.097 E7.49085
G1 X137.846 Y136.786 E7.50927
G1 X137.891 Y137.59 E7.5307
G1 X137.901 Y138.142 E7.54539
G1 X137.896 Y138.707 E7.56042
G1 X137.88 Y139.162 E7.57253
G1 X137.851 Y139.664 E7.58591
G1 X137.813 Y140.123 E7.59817
G1 X137.758 Y140.635 E7.61187
G1 X137.699 Y141.082 E7.62387
G1 X137.627 Y141.549 E7.63644
G1 X137.546 Y142.005 E7.64876
G1 X137.447 Y142.492 E7.66199
G1 X137.346 Y142.938 E7.67415
G1 X137.224 Y143.424 E7.68749
G1 X137.097 Y143.883 E7.70016
G1 X136.963 Y144.329 E7.71255
G1 X136.888 Y144.56 E7.71901
G1 X136.673 Y145.161 E7.736
G1 X136.287 Y146.144 E7.7641
G1 X135.945 Y146.921 E7.78668
G1 X135.715 Y147.392 E7.80063
G1 X135.48 Y147.845 E7.81421
G1 X135.252 Y148.26 E7.82681
G1 X134.976 Y148.733 E7.84138
G1 X134.744 Y149.108 E7.85311
G1 X134.491 Y149.498 E7.86548
G1 X134.239 Y149.868 E7.8774
G1 X133.943 Y150.282 E7.89094
G1 X133.646 Y150.676 E7.90407
G1 X133.338 Y151.064 E7.91725
G1 X133.055 Y151.405 E7.92904
G1 X132.73 Y151.779 E7.94222
G1 X132.429 Y152.109 E7.95411
G1 X132.109 Y152.445 E7.96645
G1 X131.881 Y152.674 E7.97505
G1 X131.203 Y153.298 E7.99957
G1 X130.475 Y153.86 E8.02404
G1 X129.7 Y154.357 E8.04854
G1 X128.885 Y154.785 E8.07303
G1 X128.035 Y155.141 E8.09755
G1 X126.917 Y155.484 E8.12867
G1 X126.21 Y155.655 E8.14802
G1 X125.923 Y155.718 E8.15584
G1 X125.358 Y155.826 E8.17115
G1 X124.496 Y155.962 E8.19437
G1 X123.695 Y156.068 E8.21587
G1 X123.349 Y156.108 E8.22513
G1 X122.935 Y156.149 E8.2362
G1 X122.582 Y156.178 E8.24563
G1 X121.879 Y156.224 E8.26437
G1 X121.541 Y156.241 E8.27338
G1 X120.61 Y156.269 E8.29816
G1 X119.92 Y156.276 E8.31652
G1 X114.602 Y156.274 E8.45802
G1 X114.264 Y156.268 E8.46702
G1 X113.158 Y156.228 E8.49647
G1 X112.514 Y156.187 E8.51364
G1 X112.147 Y156.157 E8.52343
G1 X111.569 Y156.1 E8.53889
G1 X111.231 Y156.061 E8.54794
G1 X110.621 Y155.981 E8.56431
G1 X110.273 Y155.93 E8.57367
G1 X109.867 Y155.863 E8.58462
G1 X109.545 Y155.804 E8.59333
G1 X108.758 Y155.649 E8.61467
G1 X107.702 Y155.384 E8.64364
G1 X107.542 Y155.335 E8.64809
G1 X106.674 Y155.028 E8.67259
G1 X105.836 Y154.646 E8.6971
G1 X105.035 Y154.193 E8.72158
G1 X104.276 Y153.672 E8.74608
G1 X103.253 Y152.796 E8.78191
G1 X103.103 Y152.65 E8.78748
G1 X102.71 Y152.247 E8.80246
G1 X102.273 Y151.774 E8.8196
G1 X101.821 Y151.251 E8.83799
G1 X101.421 Y150.757 E8.8549
G1 X101.048 Y150.268 E8.87127
G1 X100.781 Y149.896 E8.88345
G1 X100.491 Y149.471 E8.89714
G1 X100.244 Y149.089 E8.90925
G1 X99.971 Y148.644 E8.92314
G1 X99.751 Y148.264 E8.93482
G1 X99.534 Y147.869 E8.94681
G1 X99.3 Y147.422 E8.96024
G1 X99.066 Y146.946 E8.97435
G1 X98.893 Y146.571 E8.98534
G1 X98.708 Y146.145 E8.9977
G1 X98.53 Y145.71 E9.0102
G1 X98.348 Y145.234 E9.02376
G1 X98.2 Y144.816 E9.03556
G1 X98.041 Y144.332 E9.04912
G1 X97.896 Y143.85 E9.06251
G1 X97.77 Y143.391 E9.07517
G1 X97.67 Y142.995 E9.08604
G1 X97.561 Y142.521 E9.09898
G1 X97.465 Y142.051 E9.11175
G1 X97.375 Y141.547 E9.12537
G1 X97.302 Y141.074 E9.1381
G1 X97.241 Y140.608 E9.15061
G1 X97.195 Y140.187 E9.16188
G1 X97.151 Y139.677 E9.1755
G1 X97.122 Y139.198 E9.18827
G1 X97.104 Y138.696 E9.20163
G1 X97.098 Y138.239 E9.21379
G1 X97.102 Y137.759 E9.22657
G1 X97.116 Y137.324 E9.23815
G1 X97.143 Y136.837 E9.25112
G1 X97.169 Y136.505 E9.25999
G1 X97.275 Y135.628 E9.28349
G1 X97.381 Y134.983 E9.30088
G1 X97.686 Y133.268 E9.34723
G1 X98.06 Y130.758 E9.41476
G1 X98.36 Y128.263 E9.48162
G1 X98.592 Y125.732 E9.54925
G1 X98.75 Y123.231 E9.61593
G1 X98.839 Y120.678 E9.6839
G1 X98.855 Y118.137 E9.75151
G1 X98.801 Y115.654 E9.8176
G1 X98.674 Y113.112 E9.88532
G1 X98.474 Y110.56 E9.95343
G1 X98.208 Y108.084 E10.01969
G1 X97.688 Y104.301 E10.1213
G1 X97.633 Y103.822 E10.13413
G1 X97.595 Y103.406 E10.14524
G1 X97.562 Y102.931 E10.15791
G1 X97.541 Y102.476 E10.17003
G1 X97.53 Y101.987 E10.18304
G1 X97.53 Y101.557 E10.19449
G1 X97.543 Y101.023 E10.2087
G1 X97.566 Y100.567 E10.22085
G1 X97.604 Y100.065 E10.23424
G1 X97.648 Y99.617 E10.24622
G1 X97.71 Y99.112 E10.25976
G1 X97.777 Y98.656 E10.27202
G1 X97.862 Y98.156 E10.28552
G1 X97.946 Y97.728 E10.29712
G1 X98.056 Y97.232 E10.31064
G1 X98.161 Y96.806 E10.32231
G1 X98.288 Y96.337 E10.33524
G1 X98.419 Y95.894 E10.34754
G1 X98.595 Y95.353 E10.36267
G1 X98.742 Y94.939 E10.37436
G1 X98.895 Y94.534 E10.38588
G1 X99.069 Y94.101 E10.3983
G1 X99.293 Y93.584 E10.41329
G1 X99.472 Y93.199 E10.42459
G1 X99.671 Y92.794 E10.4366
G1 X99.875 Y92.4 E10.4484
G1 X100.141 Y91.918 E10.46305
G1 X100.384 Y91.503 E10.47585
G1 X100.634 Y91.097 E10.48853
G1 X100.86 Y90.748 E10.4996
G1 X101.165 Y90.302 E10.51397
G1 X101.441 Y89.92 E10.52651
G1 X101.684 Y89.599 E10.53722
G0 F1350 X101.732 Y89.536
G0 X102.006 Y89.191
G0 X102.313 Y88.822
G0 F7500 X102.615 Y89.085
G1 F1500 X102.898 Y88.76 E10.54869
G1 X103.269 Y88.356 E10.56329
G1 X103.594 Y88.021 E10.5757
G1 X103.917 Y87.703 E10.58777
G1 X104.251 Y87.388 E10.59998
G1 X104.613 Y87.062 E10.61294
G1 X104.934 Y86.787 E10.62419
G1 X105.297 Y86.49 E10.63667
G1 X105.547 Y86.295 E10.64511
G1 X106.283 Y85.772 E10.66913
G1 X107.062 Y85.316 E10.69315
G1 X107.879 Y84.93 E10.71719
G1 X108.726 Y84.618 E10.74121
G1 X109.598 Y84.383 E10.76524
G1 X110.487 Y84.225 E10.78926
G1 X111.653 Y84.139 E10.82037
G1 X112.425 Y84.128 E10.84092
G1 X122.653 Y84.124 E11.11307
G1 X123.317 Y84.133 E11.13073
G1 X124.219 Y84.185 E11.15477
G1 X125.112 Y84.317 E11.17879
G1 X125.991 Y84.527 E11.20284
G1 X126.847 Y84.814 E11.22686
G1 X127.674 Y85.176 E11.25088
G1 X128.467 Y85.61 E11.27494
G1 X129.503 Y86.329 E11.30849
