;FLAVOR:Marlin
;TIME:2016
;Filament used: 0.816633m
;Layer height: 0.16
;MINX:72.333
;MINY:102.072
;MINZ:0.16
;MAXX:156.574
;MAXY:143.071
;MAXZ:12.48
;Generated with Cura_SteamEngine 4.5.0
M140 S60
M105
M190 S60
M104 S205
M105
M109 S205
M82 ;absolute extrusion mode
; Ender 3 Custom Start G-code
G92 E0 ; Reset Extruder
G28 ; Home all axes
G1 Z2.0 F3000 ; Move Z Axis up little to prevent scratching of Heat Bed
G1 X0.1 Y20 Z0.3 F5000.0 ; Move to start position
G1 X0.1 Y200.0 Z0.3 F1500.0 E15 ; Draw the first line
G1 X0.4 Y200.0 Z0.3 F5000.0 ; Move to side a little
G1 X0.4 Y20 Z0.3 F1500.0 E30 ; Draw the second line
G92 E0 ; Reset Extruder
G1 Z2.0 F3000 ; Move Z Axis up little to prevent scratching of Heat Bed
G1 X5 Y20 Z0.3 F5000.0 ; Move over to prevent blob squish
G92 E0
G92 E0
G1 F1500 E-6
;LAYER_COUNT:78
;LAYER:0
M107
M205 X20 Y20
G0 F7500 X78.265 Y104.909 Z0.16
;TYPE:SKIRT
G1 F1500 E0
G1 X78.879 Y104.483 E0.01988
G1 X79.085 Y104.35 E0.02641
G1 X79.858 Y103.894 E0.05029
G1 X80.168 Y103.728 E0.05965
G1 X81.039 Y103.309 E0.08536
G1 X81.252 Y103.218 E0.09153
G1 X82.035 Y102.919 E0.11383
G1 X82.344 Y102.814 E0.12251
G1 X83.224 Y102.555 E0.14692
G1 X83.501 Y102.486 E0.15452
G1 X84.188 Y102.338 E0.17321
G1 X84.413 Y102.297 E0.1793
G1 X85.342 Y102.169 E0.20425
G1 X86.054 Y102.124 E0.22324
G1 X87.934 Y102.072 E0.27328
G1 X89.184 Y102.072 E0.30654
G1 X89.909 Y102.082 E0.32583
G1 X91.186 Y102.174 E0.3599
G1 X91.499 Y102.215 E0.3683
G1 X92.423 Y102.377 E0.39326
G1 X93.046 Y102.532 E0.41034
G1 X93.32 Y102.609 E0.41791
G1 X94.211 Y102.901 E0.44286
G1 X94.939 Y103.205 E0.46385
G1 X95.2 Y103.325 E0.4715
G1 X95.905 Y103.68 E0.4925
G1 X97.688 Y104.661 E0.54665
G1 X99.903 Y105.798 E0.6129
G1 X102.201 Y106.897 E0.68067
G1 X104.494 Y107.914 E0.74742
G1 X106.816 Y108.868 E0.81421
G1 X109.189 Y109.765 E0.88172
G1 X111.548 Y110.581 E0.94813
G1 X113.951 Y111.337 E1.01516
G1 X116.383 Y112.027 E1.08243
G1 X118.852 Y112.653 E1.1502
G1 X121.278 Y113.194 E1.21634
G1 X123.717 Y113.667 E1.28244
G1 X126.254 Y114.085 E1.35086
G1 X128.722 Y114.42 E1.41713
G1 X131.234 Y114.69 E1.48436
G1 X133.729 Y114.885 E1.55094
G1 X136.232 Y115.011 E1.61763
G1 X139.544 Y115.071 E1.70577
G1 X141.373 Y115.072 E1.75444
G1 X142.074 Y115.082 E1.77309
G1 X143.01 Y115.135 E1.79804
G1 X143.939 Y115.268 E1.82301
G1 X144.852 Y115.48 E1.84795
G1 X145.745 Y115.768 E1.87291
G1 X146.609 Y116.132 E1.89786
G1 X147.44 Y116.568 E1.92283
G1 X148.23 Y117.073 E1.94778
G1 X149.154 Y117.797 E1.97901
G1 X149.678 Y118.257 E1.99756
G1 X150.876 Y119.341 E2.04055
G1 X152.713 Y120.915 E2.10492
G1 X153.398 Y121.555 E2.12986
G1 X154.027 Y122.251 E2.15483
G1 X154.594 Y122.998 E2.17978
G1 X155.095 Y123.791 E2.20474
G1 X155.527 Y124.623 E2.22968
G1 X155.887 Y125.489 E2.25464
G1 X156.171 Y126.383 E2.2796
G1 X156.378 Y127.298 E2.30456
G1 X156.54 Y128.681 E2.34161
G1 X156.558 Y129.018 E2.35059
G1 X156.574 Y129.599 E2.36605
G1 X156.574 Y131.515 E2.41703
G1 X156.565 Y132.199 E2.43523
G1 X156.513 Y133.135 E2.46018
G1 X156.381 Y134.064 E2.48515
G1 X156.17 Y134.978 E2.51011
G1 X155.883 Y135.87 E2.53504
G1 X155.52 Y136.735 E2.56
G1 X155.085 Y137.566 E2.58496
G1 X154.581 Y138.357 E2.60991
G1 X154.011 Y139.102 E2.63487
G1 X153.38 Y139.796 E2.65983
G1 X152.692 Y140.433 E2.68478
G1 X151.953 Y141.01 E2.70972
G1 X151.167 Y141.521 E2.73467
G1 X150.34 Y141.964 E2.75963
G1 X149.478 Y142.335 E2.7846
G1 X148.588 Y142.631 E2.80956
G1 X147.676 Y142.85 E2.83452
G1 X146.749 Y142.99 E2.85946
G1 X146.155 Y143.038 E2.87532
G1 X145.838 Y143.055 E2.88377
G1 X145.249 Y143.071 E2.89944
G1 X89.493 Y143.071 E4.38301
G1 X89.263 Y143.069 E4.38913
G1 X87.732 Y143.037 E4.42987
G1 X86.792 Y142.977 E4.45493
G1 X86.577 Y142.954 E4.46069
G1 X85.541 Y142.793 E4.48858
G1 X84.989 Y142.68 E4.50358
G1 X84.094 Y142.457 E4.52812
G1 X83.512 Y142.286 E4.54426
G1 X82.38 Y141.885 E4.57621
G1 X82.073 Y141.757 E4.58506
G1 X81.134 Y141.313 E4.6127
G1 X80.522 Y140.987 E4.63115
G1 X79.714 Y140.511 E4.6561
G1 X79.151 Y140.12 E4.67434
G1 X78.501 Y139.639 E4.69586
G1 X77.771 Y139.05 E4.72082
G1 X77.266 Y138.575 E4.73926
G1 X76.784 Y138.093 E4.7574
G1 X76.012 Y137.236 E4.78809
G1 X75.808 Y136.984 E4.79672
G1 X75.366 Y136.399 E4.81623
G1 X75.137 Y136.074 E4.82681
G1 X74.703 Y135.408 E4.84796
G1 X74.543 Y135.142 E4.85622
G1 X74.171 Y134.472 E4.87661
G1 X73.998 Y134.133 E4.88674
G1 X73.658 Y133.402 E4.90819
G1 X73.522 Y133.079 E4.91751
G1 X73.237 Y132.325 E4.93896
G1 X73.12 Y131.978 E4.9487
G1 X72.89 Y131.204 E4.97019
G1 X72.802 Y130.862 E4.97959
G1 X72.563 Y129.655 E5.01232
G1 X72.462 Y128.938 E5.03159
G1 X72.362 Y127.829 E5.06122
G1 X72.346 Y127.328 E5.07456
G1 X72.333 Y126.331 E5.10109
G1 X72.333 Y117.12 E5.34617
G1 X72.345 Y116.308 E5.36778
G1 X72.366 Y115.771 E5.38208
G1 X72.379 Y115.567 E5.38752
G1 X72.531 Y114.318 E5.421
G1 X72.641 Y113.707 E5.43752
G1 X72.846 Y112.792 E5.46247
G1 X72.996 Y112.287 E5.47649
G1 X73.07 Y112.057 E5.48291
G1 X73.339 Y111.313 E5.50397
G1 X73.441 Y111.06 E5.51122
G1 X73.838 Y110.187 E5.53674
G1 X74.016 Y109.837 E5.54719
G1 X74.541 Y108.917 E5.57537
G1 X74.653 Y108.741 E5.58093
G1 X75.169 Y107.999 E5.60497
G1 X75.389 Y107.709 E5.61466
G1 X75.939 Y107.04 E5.6377
G1 X76.094 Y106.866 E5.6439
G1 X76.825 Y106.12 E5.67169
G1 X77.145 Y105.823 E5.68331
G1 X77.487 Y105.538 E5.69516
G0 F1350 X78.048 Y105.071
G0 X78.265 Y104.909
G0 F7500 X78.504 Y105.23
G1 F1500 X79.096 Y104.819 E5.71433
G1 X79.302 Y104.686 E5.72086
G1 X80.047 Y104.246 E5.74388
G1 X80.357 Y104.08 E5.75324
G1 X81.197 Y103.677 E5.77803
G1 X81.41 Y103.586 E5.78419
G1 X82.164 Y103.298 E5.80567
G1 X82.473 Y103.193 E5.81435
G1 X83.321 Y102.943 E5.83787
G1 X83.598 Y102.874 E5.84547
G1 X84.26 Y102.732 E5.86348
G1 X84.485 Y102.691 E5.86957
G1 X85.397 Y102.565 E5.89407
G1 X86.066 Y102.524 E5.9119
G1 X87.934 Y102.472 E5.96162
G1 X89.178 Y102.472 E5.99472
G1 X89.903 Y102.482 E6.01402
G1 X91.134 Y102.571 E6.04686
G1 X91.447 Y102.612 E6.05526
G1 X92.354 Y102.771 E6.07976
G1 X92.938 Y102.917 E6.09578
G1 X93.212 Y102.994 E6.10335
G1 X94.086 Y103.282 E6.12783
G1 X94.772 Y103.568 E6.14761
G1 X95.033 Y103.688 E6.15525
G1 X95.712 Y104.031 E6.17549
G1 X97.492 Y105.01 E6.22955
G1 X99.726 Y106.157 E6.29637
G1 X102.032 Y107.26 E6.36438
G1 X104.329 Y108.279 E6.43125
G1 X106.671 Y109.241 E6.49862
G1 X109.053 Y110.141 E6.56637
G1 X111.434 Y110.965 E6.63341
G1 X113.836 Y111.721 E6.70041
G1 X116.272 Y112.412 E6.76779
G1 X118.739 Y113.037 E6.8355
G1 X121.186 Y113.583 E6.90221
G1 X123.681 Y114.067 E6.96984
G1 X126.168 Y114.477 E7.03691
G1 X128.698 Y114.82 E7.10484
G1 X131.165 Y115.085 E7.17086
G1 X133.711 Y115.285 E7.23881
G1 X136.237 Y115.411 E7.30611
G1 X139.536 Y115.471 E7.3939
G1 X141.367 Y115.472 E7.44262
G1 X142.068 Y115.482 E7.46128
G1 X142.987 Y115.535 E7.48577
G1 X143.898 Y115.668 E7.51027
G1 X144.794 Y115.879 E7.53476
G1 X145.669 Y116.167 E7.55927
G1 X146.515 Y116.53 E7.58377
G1 X147.326 Y116.965 E7.60825
G1 X148.097 Y117.469 E7.63276
G1 X148.891 Y118.098 E7.65972
G1 X149.409 Y118.553 E7.67806
G1 X150.593 Y119.624 E7.72054
G1 X152.453 Y121.218 E7.78572
G1 X153.125 Y121.847 E7.81021
G1 X153.741 Y122.532 E7.83473
G1 X154.294 Y123.268 E7.85922
G1 X154.782 Y124.048 E7.8837
G1 X155.2 Y124.869 E7.90822
G1 X155.545 Y125.722 E7.9327
G1 X155.815 Y126.602 E7.95719
G1 X156.008 Y127.503 E7.98171
G1 X156.141 Y128.703 E8.01383
G1 X156.159 Y129.04 E8.02281
G1 X156.174 Y129.599 E8.03769
G1 X156.174 Y131.509 E8.08851
G1 X156.165 Y132.193 E8.10672
G1 X156.113 Y133.113 E8.13123
G1 X155.981 Y134.024 E8.15573
G1 X155.771 Y134.92 E8.18021
G1 X155.484 Y135.795 E8.20472
G1 X155.122 Y136.641 E8.2292
G1 X154.688 Y137.453 E8.2537
G1 X154.185 Y138.224 E8.27819
G1 X153.617 Y138.949 E8.3027
G1 X152.988 Y139.622 E8.32721
G1 X152.304 Y140.237 E8.35169
G1 X151.568 Y140.791 E8.3762
G1 X150.787 Y141.279 E8.4007
G1 X149.967 Y141.697 E8.42519
G1 X149.114 Y142.043 E8.44968
G1 X148.234 Y142.313 E8.47418
G1 X147.334 Y142.506 E8.49867
G1 X146.134 Y142.639 E8.53079
G1 X145.817 Y142.656 E8.53924
G1 X145.249 Y142.671 E8.55436
G1 X89.493 Y142.671 E10.03792
G1 X89.271 Y142.669 E10.04383
G1 X87.74 Y142.637 E10.08457
G1 X86.834 Y142.579 E10.10873
G1 X86.619 Y142.556 E10.11448
G1 X85.621 Y142.401 E10.14136
G1 X85.069 Y142.288 E10.15635
G1 X84.207 Y142.073 E10.17999
G1 X83.625 Y141.902 E10.19613
G1 X82.534 Y141.516 E10.22692
G1 X82.227 Y141.388 E10.23577
G1 X81.323 Y140.959 E10.2624
G1 X80.711 Y140.633 E10.28085
G1 X79.918 Y140.166 E10.30533
G1 X79.389 Y139.799 E10.32247
G1 X78.739 Y139.318 E10.34398
G1 X78.023 Y138.738 E10.3685
G1 X77.549 Y138.292 E10.38582
G1 X77.067 Y137.81 E10.40395
G1 X76.323 Y136.985 E10.43351
G1 X76.119 Y136.733 E10.44214
G1 X75.693 Y136.169 E10.46095
G1 X75.464 Y135.844 E10.47153
G1 X75.046 Y135.202 E10.49191
G1 X74.886 Y134.936 E10.50017
G1 X74.527 Y134.29 E10.51984
G1 X74.354 Y133.951 E10.52996
G1 X74.027 Y133.246 E10.55064
G1 X73.891 Y132.923 E10.55997
G1 X73.616 Y132.197 E10.58062
G1 X73.499 Y131.85 E10.59037
G1 X73.277 Y131.104 E10.61108
G1 X73.189 Y130.762 E10.62047
G1 X72.959 Y129.6 E10.65199
G1 X72.858 Y128.883 E10.67126
G1 X72.762 Y127.813 E10.69984
G1 X72.746 Y127.322 E10.71291
G1 X72.733 Y126.331 E10.73928
G1 X72.733 Y117.126 E10.98421
G1 X72.745 Y116.314 E11.00582
G1 X72.765 Y115.797 E11.01959
G1 X72.778 Y115.593 E11.02503
G1 X72.925 Y114.389 E11.0573
G1 X73.035 Y113.778 E11.07382
G1 X73.237 Y112.88 E11.09831
G1 X73.376 Y112.409 E11.11138
G1 X73.45 Y112.179 E11.11781
G1 X73.71 Y111.462 E11.1381
G1 X73.812 Y111.209 E11.14536
G1 X74.195 Y110.368 E11.16995
G1 X74.373 Y110.018 E11.18039
G1 X74.878 Y109.132 E11.20753
G1 X74.99 Y108.956 E11.21308
G1 X75.488 Y108.241 E11.23627
G1 X75.708 Y107.951 E11.24595
G1 X76.238 Y107.306 E11.26816
G1 X76.393 Y107.132 E11.27436
G1 X77.097 Y106.414 E11.30112
G1 X77.417 Y106.117 E11.31274
G1 X77.726 Y105.859 E11.32345
G0 F1350 X78.287 Y105.392
G0 X78.504 Y105.23
G0 F7500 X78.743 Y105.55
G1 F1500 X79.312 Y105.155 E11.34188
G1 X79.518 Y105.022 E11.3484
G1 X80.236 Y104.599 E11.37058
G1 X80.546 Y104.433 E11.37993
G1 X81.354 Y104.045 E11.40378
G1 X81.567 Y103.954 E11.40995
G1 X82.292 Y103.676 E11.43061
G1 X82.601 Y103.571 E11.43929
G1 X83.418 Y103.331 E11.46195
G1 X83.695 Y103.262 E11.46954
G1 X84.331 Y103.125 E11.48685
G1 X84.556 Y103.084 E11.49294
G1 X85.451 Y102.962 E11.51697
G1 X86.078 Y102.924 E11.53369
G1 X87.935 Y102.872 E11.58312
G1 X89.173 Y102.872 E11.61606
G1 X89.898 Y102.882 E11.63535
G1 X91.082 Y102.967 E11.66694
G1 X91.395 Y103.008 E11.67534
G1 X92.284 Y103.165 E11.69936
G1 X92.83 Y103.302 E11.71434
G1 X93.104 Y103.379 E11.72191
G1 X93.961 Y103.662 E11.74592
G1 X94.605 Y103.932 E11.7645
G1 X94.866 Y104.052 E11.77215
G1 X95.52 Y104.381 E11.79163
G1 X97.31 Y105.365 E11.84598
G1 X99.564 Y106.523 E11.9134
G1 X101.876 Y107.629 E11.9816
G1 X104.164 Y108.644 E12.0482
G1 X106.544 Y109.621 E12.11665
G1 X108.887 Y110.507 E12.18331
G1 X111.3 Y111.341 E12.25124
G1 X113.745 Y112.111 E12.31945
G1 X116.17 Y112.799 E12.38652
G1 X118.626 Y113.421 E12.45393
G1 X121.136 Y113.981 E12.52236
G1 X123.605 Y114.46 E12.58928
G1 X126.12 Y114.875 E12.6571
G1 X128.602 Y115.211 E12.72375
G1 X131.158 Y115.486 E12.79215
G1 X133.696 Y115.685 E12.85989
G1 X136.209 Y115.811 E12.92684
G1 X139.529 Y115.871 E13.01519
G1 X141.361 Y115.872 E13.06394
G1 X142.062 Y115.882 E13.08259
G1 X142.964 Y115.935 E13.10663
G1 X143.857 Y116.067 E13.13065
G1 X144.736 Y116.278 E13.15471
G1 X145.592 Y116.566 E13.17874
G1 X146.419 Y116.928 E13.20276
G1 X147.211 Y117.362 E13.22679
G1 X147.961 Y117.865 E13.25082
G1 X148.628 Y118.4 E13.27357
G1 X149.141 Y118.85 E13.29172
G1 X150.345 Y119.94 E13.33494
G1 X152.192 Y121.522 E13.39965
G1 X152.852 Y122.14 E13.42371
G1 X153.454 Y122.813 E13.44773
G1 X153.994 Y123.537 E13.47176
G1 X154.467 Y124.305 E13.49576
G1 X154.871 Y125.113 E13.5198
G1 X155.202 Y125.953 E13.54382
G1 X155.458 Y126.82 E13.56788
G1 X155.636 Y127.705 E13.5919
G1 X155.741 Y128.724 E13.61915
G1 X155.759 Y129.061 E13.62813
G1 X155.774 Y129.599 E13.64246
G1 X155.774 Y131.504 E13.69314
G1 X155.765 Y132.188 E13.71135
G1 X155.713 Y133.09 E13.73539
G1 X155.582 Y133.983 E13.7594
G1 X155.372 Y134.862 E13.78345
G1 X155.085 Y135.718 E13.80747
G1 X154.724 Y136.546 E13.8315
G1 X154.291 Y137.338 E13.85552
G1 X153.789 Y138.089 E13.87956
G1 X153.223 Y138.793 E13.90359
G1 X152.597 Y139.444 E13.92762
G1 X151.916 Y140.037 E13.95165
G1 X151.185 Y140.567 E13.97568
G1 X150.41 Y141.031 E13.99971
G1 X149.597 Y141.424 E14.02374
G1 X148.752 Y141.744 E14.04778
G1 X147.883 Y141.987 E14.07179
G1 X146.995 Y142.153 E14.09583
G1 X146.112 Y142.239 E14.11943
G1 X145.795 Y142.256 E14.12788
G1 X145.249 Y142.271 E14.14241
G1 X89.493 Y142.271 E15.62598
G1 X89.28 Y142.269 E15.63164
G1 X87.749 Y142.237 E15.67239
G1 X86.877 Y142.181 E15.69564
G1 X86.662 Y142.158 E15.70139
G1 X85.701 Y142.009 E15.72727
G1 X85.149 Y141.896 E15.74226
G1 X84.32 Y141.689 E15.765
G1 X83.738 Y141.518 E15.78114
G1 X82.688 Y141.146 E15.81078
G1 X82.381 Y141.018 E15.81963
G1 X81.511 Y140.606 E15.84524
G1 X80.899 Y140.28 E15.86369
G1 X80.121 Y139.821 E15.88773
G1 X79.627 Y139.477 E15.90374
G1 X78.977 Y138.996 E15.92526
G1 X78.275 Y138.427 E15.9493
G1 X77.832 Y138.009 E15.96551
G1 X77.35 Y137.527 E15.98365
G1 X76.634 Y136.733 E16.0121
G1 X76.43 Y136.481 E16.02072
G1 X76.02 Y135.938 E16.03883
G1 X75.791 Y135.613 E16.04941
G1 X75.388 Y134.996 E16.06901
G1 X75.228 Y134.73 E16.07727
G1 X74.884 Y134.108 E16.09619
G1 X74.711 Y133.769 E16.10631
G1 X74.395 Y133.091 E16.12622
G1 X74.259 Y132.768 E16.13554
G1 X73.995 Y132.069 E16.15542
G1 X73.878 Y131.722 E16.16517
G1 X73.665 Y131.005 E16.18507
G1 X73.577 Y130.663 E16.19447
G1 X73.355 Y129.544 E16.22482
G1 X73.254 Y128.827 E16.24409
G1 X73.162 Y127.798 E16.27158
G1 X73.146 Y127.317 E16.28438
G1 X73.133 Y126.331 E16.31062
G1 X73.133 Y117.132 E16.55539
G1 X73.145 Y116.32 E16.577
G1 X73.178 Y115.618 E16.59569
G1 X73.318 Y114.46 E16.62673
G1 X73.428 Y113.849 E16.64325
G1 X73.628 Y112.968 E16.66729
G1 X73.757 Y112.532 E16.67939
G1 X73.831 Y112.302 E16.68582
G1 X74.081 Y111.612 E16.70534
G1 X74.183 Y111.359 E16.7126
G1 X74.551 Y110.549 E16.73627
G1 X74.729 Y110.199 E16.74672
G1 X75.216 Y109.347 E16.77283
G1 X75.328 Y109.171 E16.77839
G1 X75.807 Y108.482 E16.80071
G1 X76.027 Y108.192 E16.8104
G1 X76.537 Y107.572 E16.83176
G1 X76.692 Y107.398 E16.83796
G1 X77.369 Y106.707 E16.8637
G1 X77.689 Y106.41 E16.87532
G1 X77.965 Y106.179 E16.88489
G0 F1350 X78.526 Y105.712
G0 X78.743 Y105.55
G1 F1500 E10.88489
;MESH:Arm_R.stl
G0 F7500 X85.43 Y114.522
;TYPE:WALL-INNER
G1 F1500 E16.88489
G1 X85.598 Y114.416 E16.89018
G1 X85.8 Y114.313 E16.89621
G1 X86.021 Y114.223 E16.90256
G1 X86.225 Y114.16 E16.90824
G1 X86.441 Y114.113 E16.91412
G1 X86.668 Y114.083 E16.92022
G1 X86.94 Y114.072 E16.92746
G1 X89.654 Y114.071 E16.99967
G1 X89.815 Y114.079 E17.00396
G1 X89.895 Y114.093 E17.00613
G1 X89.985 Y114.121 E17.00863
G1 X90.075 Y114.16 E17.01124
G1 X90.164 Y114.213 E17.014
G1 X90.224 Y114.258 E17.01599
G1 X90.291 Y114.324 E17.0185
G1 X90.358 Y114.408 E17.02136
G1 X90.392 Y114.464 E17.0231
G1 X90.441 Y114.569 E17.02618
G1 X90.464 Y114.64 E17.02817
G1 X90.482 Y114.733 E17.03069
G1 X90.487 Y114.823 E17.03309
G1 X90.482 Y114.92 E17.03567
G1 X90.465 Y115.003 E17.03793
G1 X90.433 Y115.098 E17.04059
G1 X90.396 Y115.176 E17.04289
G1 X90.339 Y115.264 E17.04568
G1 X90.287 Y115.326 E17.04783
G1 X90.208 Y115.399 E17.0507
G1 X90.135 Y115.452 E17.0531
G1 X90.039 Y115.503 E17.05599
G1 X89.957 Y115.535 E17.05833
G1 X89.855 Y115.56 E17.06112
G1 X89.398 Y115.613 E17.07337
G1 X89.055 Y115.683 E17.08268
G1 X88.713 Y115.79 E17.09222
G1 X88.385 Y115.931 E17.10172
G1 X88.075 Y116.102 E17.11114
G1 X87.783 Y116.304 E17.12058
G1 X87.511 Y116.534 E17.13006
G1 X87.265 Y116.79 E17.13951
G1 X87.046 Y117.067 E17.1489
G1 X86.854 Y117.371 E17.15847
G1 X86.696 Y117.691 E17.16797
G1 X86.571 Y118.022 E17.17738
G1 X86.482 Y118.368 E17.18689
G1 X86.427 Y118.714 E17.19621
G1 X86.411 Y119.108 E17.2067
G1 X86.41 Y124.101 E17.33956
G1 X86.428 Y124.4 E17.34753
G1 X86.483 Y124.736 E17.35659
G1 X86.581 Y125.062 E17.36564
G1 X86.711 Y125.372 E17.37459
G1 X86.876 Y125.669 E17.38363
