;FLAVOR:Marlin
;TIME:586
;Filament used: 0.118975m
;Layer height: 0.12
;MINX:101.252
;MINY:101.265
;MINZ:0.12
;MAXX:133.749
;MAXY:133.748
;MAXZ:7.8
;Generated with Cura_SteamEngine 4.5.0
M140 S60
M105
M190 S60
M104 S200
M105
M109 S200
M82 ;absolute extrusion mode
; Ender 3 Custom Start G-code
G92 E0 ; Reset Extruder
G28 ; Home all axes
G1 Z2.0 F3000 ; Move Z Axis up little to prevent scratching of Heat Bed
G1 X0.1 Y20 Z0.3 F5000.0 ; Move to start position
G1 X0.1 Y200.0 Z0.3 F1500.0 E15 ; Draw the first line
G1 X0.4 Y200.0 Z0.3 F5000.0 ; Move to side a little
G1 X0.4 Y20 Z0.3 F1500.0 E30 ; Draw the second line
G92 E0 ; Reset Extruder
G1 Z2.0 F3000 ; Move Z Axis up little to prevent scratching of Heat Bed
G1 X5 Y20 Z0.3 F5000.0 ; Move over to prevent blob squish
G92 E0
G92 E0
G1 F2700 E-5
;LAYER_COUNT:65
;LAYER:0
M107
G0 F6000 X105.78 Y106.256 Z0.12
;TYPE:SKIRT
G1 F2700 E0
G1 F1200 X106.537 Y105.515 E0.02114
G1 X106.941 Y105.156 E0.03193
G1 X107.668 Y104.564 E0.05063
G1 X108.143 Y104.228 E0.06225
G1 X108.831 Y103.769 E0.07875
G1 X109.826 Y103.179 E0.10184
G1 X110.07 Y103.051 E0.10733
G1 X110.801 Y102.701 E0.12351
G1 X111.195 Y102.53 E0.13208
G1 X111.888 Y102.257 E0.14694
G1 X112.217 Y102.14 E0.15391
G1 X113.146 Y101.855 E0.1733
G1 X113.795 Y101.687 E0.18668
G1 X114.865 Y101.466 E0.20849
G1 X115.142 Y101.423 E0.21408
G1 X116.271 Y101.307 E0.23673
G1 X116.94 Y101.273 E0.2501
G1 X117.86 Y101.265 E0.26846
G1 X118.285 Y101.279 E0.27694
G1 X119.331 Y101.364 E0.29789
G1 X119.881 Y101.435 E0.30895
G1 X120.813 Y101.596 E0.32783
G1 X121.13 Y101.665 E0.3343
G1 X122.419 Y102.029 E0.36103
G1 X123.309 Y102.34 E0.37984
G1 X124.18 Y102.687 E0.39855
G1 X124.947 Y103.067 E0.41564
G1 X125.596 Y103.421 E0.43039
G1 X126.4 Y103.905 E0.44912
G1 X126.901 Y104.257 E0.46134
G1 X127.501 Y104.704 E0.47627
G1 X128.332 Y105.389 E0.49776
G1 X128.565 Y105.601 E0.50405
G1 X129.128 Y106.151 E0.51975
G1 X129.388 Y106.424 E0.52728
G1 X129.906 Y107.008 E0.54285
G1 X130.147 Y107.3 E0.55041
G1 X130.635 Y107.938 E0.56644
G1 X130.862 Y108.258 E0.57427
G1 X131.514 Y109.295 E0.59871
G1 X131.866 Y109.931 E0.61322
G1 X132.36 Y110.943 E0.63569
G1 X132.534 Y111.351 E0.64454
G1 X132.858 Y112.207 E0.66281
G1 X132.966 Y112.533 E0.66966
G1 X133.197 Y113.329 E0.6862
G1 X133.322 Y113.83 E0.69651
G1 X133.526 Y114.849 E0.71725
G1 X133.594 Y115.299 E0.72633
G1 X133.69 Y116.174 E0.74389
G1 X133.72 Y116.602 E0.75246
G1 X133.746 Y117.224 E0.76488
G1 X133.749 Y117.449 E0.76937
G1 X133.739 Y118.081 E0.78198
G1 X133.73 Y118.285 E0.78606
G1 X133.643 Y119.268 E0.80575
G1 X133.542 Y120.018 E0.82086
G1 X133.31 Y121.223 E0.84534
G1 X133.197 Y121.674 E0.85462
G1 X133.035 Y122.254 E0.86664
G1 X132.961 Y122.493 E0.87163
G1 X132.675 Y123.303 E0.88878
G1 X132.518 Y123.698 E0.89726
G1 X132.219 Y124.381 E0.91214
G1 X132.109 Y124.611 E0.91722
G1 X131.81 Y125.198 E0.93037
G1 X131.267 Y126.12 E0.95172
G1 X130.884 Y126.703 E0.96564
G1 X130.262 Y127.557 E0.98673
G1 X130.036 Y127.838 E0.99392
G1 X129.526 Y128.428 E1.00949
G1 X129.28 Y128.693 E1.0167
G1 X128.712 Y129.261 E1.03273
G1 X128.452 Y129.503 E1.03982
G1 X127.895 Y129.988 E1.05456
G1 X127.639 Y130.196 E1.06114
G1 X126.985 Y130.688 E1.07748
G1 X126.62 Y130.942 E1.08635
G1 X125.912 Y131.395 E1.10312
G1 X125.497 Y131.639 E1.11273
G1 X124.669 Y132.08 E1.13145
G1 X124.157 Y132.309 E1.14264
G1 X123.33 Y132.654 E1.16053
G1 X122.117 Y133.079 E1.18618
G1 X121.83 Y133.161 E1.19213
G1 X121.191 Y133.323 E1.20529
G1 X120.808 Y133.408 E1.21312
G1 X119.513 Y133.615 E1.23929
G1 X118.708 Y133.695 E1.25543
G1 X117.488 Y133.748 E1.2798
G1 X117.155 Y133.744 E1.28645
G1 X116.468 Y133.714 E1.30017
G1 X116.16 Y133.691 E1.30633
G1 X115.395 Y133.607 E1.32169
G1 X114.962 Y133.544 E1.33042
G1 X114.301 Y133.427 E1.34382
G1 X113.994 Y133.363 E1.35008
G1 X113.229 Y133.175 E1.3658
G1 X112.881 Y133.076 E1.37302
G1 X112.147 Y132.839 E1.38841
G1 X111.81 Y132.717 E1.39556
G1 X111.159 Y132.46 E1.40953
G1 X110.648 Y132.233 E1.42069
G1 X110.433 Y132.131 E1.42544
G1 X109.841 Y131.828 E1.43871
G1 X109.536 Y131.66 E1.44566
G1 X108.845 Y131.246 E1.46173
G1 X108.476 Y131.006 E1.47052
G1 X107.951 Y130.642 E1.48327
G1 X107.693 Y130.452 E1.48966
G1 X107.046 Y129.937 E1.50616
G1 X106.811 Y129.735 E1.51235
G1 X106.255 Y129.223 E1.52743
G1 X106.029 Y129 E1.53377
G1 X105.549 Y128.495 E1.54767
G1 X105.158 Y128.057 E1.55939
G1 X104.498 Y127.243 E1.5803
G1 X104.299 Y126.972 E1.58701
G1 X103.632 Y125.949 E1.61138
G1 X103.229 Y125.249 E1.6275
G1 X102.673 Y124.143 E1.6522
G1 X102.544 Y123.846 E1.65867
G1 X102.3 Y123.237 E1.67176
G1 X102.17 Y122.881 E1.67932
G1 X101.93 Y122.144 E1.69479
G1 X101.845 Y121.848 E1.70094
G1 X101.642 Y121.022 E1.71791
G1 X101.545 Y120.549 E1.72755
G1 X101.425 Y119.848 E1.74174
G1 X101.384 Y119.552 E1.7477
G1 X101.305 Y118.785 E1.76309
G1 X101.276 Y118.356 E1.77167
G1 X101.252 Y117.477 E1.78922
G1 X101.256 Y117.157 E1.7956
G1 X101.279 Y116.572 E1.80729
G1 X101.294 Y116.344 E1.81185
G1 X101.345 Y115.786 E1.82303
G1 X101.39 Y115.402 E1.83074
G1 X101.55 Y114.419 E1.85062
G1 X101.649 Y113.948 E1.86022
G1 X101.844 Y113.166 E1.87631
G1 X101.948 Y112.805 E1.8838
G1 X102.133 Y112.225 E1.89595
G1 X102.207 Y112.013 E1.90043
G1 X102.396 Y111.51 E1.91116
G1 X102.479 Y111.305 E1.91557
G1 X102.686 Y110.826 E1.92598
G1 X102.811 Y110.555 E1.93194
G1 X103.231 Y109.737 E1.95029
G1 X103.468 Y109.319 E1.95988
G1 X103.906 Y108.609 E1.97653
G1 X104.164 Y108.225 E1.98576
G1 X104.527 Y107.718 E1.9982
G1 X104.652 Y107.553 E2.00233
G1 X105.356 Y106.713 E2.02421
G1 X105.78 Y106.256 E2.03665
G0 F6000 X106.073 Y106.528
G1 F1200 X106.803 Y105.814 E2.05702
G1 X107.207 Y105.455 E2.06781
G1 X107.921 Y104.874 E2.08618
G1 X108.365 Y104.561 E2.09702
G1 X109.053 Y104.102 E2.11353
G1 X110.012 Y103.533 E2.13578
G1 X110.256 Y103.405 E2.14128
G1 X110.96 Y103.068 E2.15685
G1 X111.354 Y102.897 E2.16542
G1 X112.022 Y102.634 E2.17975
G1 X112.351 Y102.517 E2.18672
G1 X113.247 Y102.242 E2.20542
G1 X113.896 Y102.074 E2.2188
G1 X114.926 Y101.861 E2.23979
G1 X115.203 Y101.818 E2.24539
G1 X116.291 Y101.707 E2.26721
G1 X116.96 Y101.673 E2.28058
G1 X117.847 Y101.665 E2.29828
G1 X118.272 Y101.679 E2.30677
G1 X119.28 Y101.76 E2.32695
G1 X119.83 Y101.831 E2.33801
G1 X120.727 Y101.987 E2.35618
G1 X121.044 Y102.056 E2.36266
G1 X122.287 Y102.406 E2.38843
G1 X123.177 Y102.717 E2.40724
G1 X124.032 Y103.059 E2.42562
G1 X124.756 Y103.418 E2.44174
G1 X125.405 Y103.772 E2.4565
G1 X126.193 Y104.248 E2.47487
G1 X126.662 Y104.578 E2.48631
G1 X127.262 Y105.025 E2.50124
G1 X128.063 Y105.685 E2.52196
G1 X128.296 Y105.897 E2.52824
G1 X128.838 Y106.427 E2.54337
G1 X129.098 Y106.7 E2.55089
G1 X129.597 Y107.263 E2.56591
G1 X129.838 Y107.555 E2.57346
G1 X130.309 Y108.169 E2.58891
G1 X130.536 Y108.489 E2.59674
G1 X131.164 Y109.489 E2.6203
G1 X131.516 Y110.125 E2.63481
G1 X131.992 Y111.1 E2.65646
G1 X132.166 Y111.508 E2.66531
G1 X132.478 Y112.333 E2.68291
G1 X132.586 Y112.659 E2.68977
G1 X132.809 Y113.426 E2.70571
G1 X132.934 Y113.927 E2.71601
G1 X133.13 Y114.909 E2.73599
G1 X133.198 Y115.359 E2.74508
G1 X133.291 Y116.202 E2.762
G1 X133.321 Y116.63 E2.77056
G1 X133.346 Y117.23 E2.78255
G1 X133.349 Y117.455 E2.78704
G1 X133.34 Y118.063 E2.79917
G1 X133.331 Y118.267 E2.80325
G1 X133.246 Y119.215 E2.82224
G1 X133.145 Y119.965 E2.83734
G1 X132.922 Y121.126 E2.86094
G1 X132.809 Y121.577 E2.87021
G1 X132.653 Y122.136 E2.8818
G1 X132.579 Y122.375 E2.88679
G1 X132.303 Y123.155 E2.9033
G1 X132.146 Y123.55 E2.91178
G1 X131.859 Y124.208 E2.92611
G1 X131.749 Y124.438 E2.9312
G1 X131.456 Y125.012 E2.94406
G1 X130.932 Y125.9 E2.96463
G1 X130.549 Y126.483 E2.97855
G1 X129.95 Y127.306 E2.99887
G1 X129.724 Y127.587 E3.00606
G1 X129.233 Y128.156 E3.02106
G1 X128.987 Y128.421 E3.02828
G1 X128.44 Y128.968 E3.04372
G1 X128.18 Y129.21 E3.0508
G1 X127.642 Y129.678 E3.06503
G1 X127.386 Y129.886 E3.07162
G1 X126.757 Y130.36 E3.08733
G1 X126.392 Y130.614 E3.09621
G1 X125.709 Y131.051 E3.11239
G1 X125.294 Y131.295 E3.122
G1 X124.481 Y131.726 E3.14036
G1 X124.003 Y131.94 E3.15081
G1 X123.176 Y132.285 E3.16869
G1 X122.007 Y132.694 E3.19341
G1 X121.72 Y132.776 E3.19936
G1 X121.105 Y132.932 E3.21203
G1 X120.722 Y133.017 E3.21986
G1 X119.473 Y133.217 E3.2451
G1 X118.668 Y133.297 E3.26124
G1 X117.493 Y133.348 E3.28471
G1 X117.16 Y133.344 E3.29136
G1 X116.498 Y133.316 E3.30458
G1 X116.19 Y133.293 E3.31074
G1 X115.453 Y133.212 E3.32554
G1 X115.02 Y133.149 E3.33427
G1 X114.383 Y133.036 E3.34718
G1 X114.076 Y132.972 E3.35344
G1 X113.339 Y132.79 E3.36859
G1 X112.991 Y132.691 E3.37581
G1 X112.283 Y132.463 E3.39065
G1 X111.946 Y132.341 E3.39781
G1 X111.312 Y132.09 E3.41141
G1 X110.82 Y131.872 E3.42215
G1 X110.605 Y131.77 E3.4269
G1 X110.034 Y131.478 E3.4397
G1 X109.729 Y131.31 E3.44665
G1 X109.064 Y130.911 E3.46213
G1 X108.695 Y130.671 E3.47091
G1 X108.188 Y130.32 E3.48322
G1 X107.93 Y130.13 E3.48961
G1 X107.306 Y129.633 E3.50553
G1 X107.071 Y129.431 E3.51171
G1 X106.536 Y128.938 E3.52623
G1 X106.31 Y128.715 E3.53257
G1 X105.847 Y128.229 E3.54596
G1 X105.456 Y127.791 E3.55768
G1 X104.82 Y127.006 E3.57784
G1 X104.621 Y126.735 E3.58455
G1 X103.979 Y125.75 E3.60802
G1 X103.576 Y125.05 E3.62413
G1 X103.039 Y123.984 E3.64795
G1 X102.91 Y123.687 E3.65442
G1 X102.676 Y123.1 E3.66703
G1 X102.546 Y122.744 E3.67459
G1 X102.315 Y122.034 E3.68949
G1 X102.23 Y121.738 E3.69564
G1 X102.034 Y120.941 E3.71201
G1 X101.937 Y120.468 E3.72165
G1 X101.821 Y119.793 E3.73532
G1 X101.78 Y119.497 E3.74128
G1 X101.704 Y118.758 E3.75611
G1 X101.675 Y118.329 E3.76469
G1 X101.652 Y117.482 E3.7816
G1 X101.656 Y117.162 E3.78798
G1 X101.678 Y116.598 E3.79925
G1 X101.693 Y116.37 E3.80381
G1 X101.742 Y115.832 E3.81459
G1 X101.787 Y115.448 E3.8223
G1 X101.942 Y114.502 E3.84143
G1 X102.041 Y114.031 E3.85104
G1 X102.228 Y113.277 E3.86654
G1 X102.332 Y112.916 E3.87404
G1 X102.51 Y112.357 E3.88575
G1 X102.584 Y112.145 E3.89023
G1 X102.767 Y111.66 E3.90057
G1 X102.85 Y111.455 E3.90498
G1 X103.05 Y110.993 E3.91503
G1 X103.175 Y110.722 E3.92099
G1 X103.579 Y109.934 E3.93866
G1 X103.816 Y109.516 E3.94825
G1 X104.238 Y108.832 E3.96429
G1 X104.496 Y108.448 E3.97352
G1 X104.846 Y107.959 E3.98552
G1 X104.971 Y107.794 E3.98965
G1 X105.649 Y106.985 E4.01071
G1 X106.073 Y106.528 E4.02316
G0 F6000 X106.367 Y106.801
G1 F1200 X107.069 Y106.113 E4.04277
G1 X107.473 Y105.754 E4.05356
G1 X108.174 Y105.185 E4.07157
G1 X108.587 Y104.894 E4.08166
G1 X109.275 Y104.435 E4.09816
G1 X110.198 Y103.887 E4.11958
G1 X110.442 Y103.759 E4.12508
G1 X111.119 Y103.435 E4.14006
G1 X111.513 Y103.264 E4.14863
G1 X112.156 Y103.011 E4.16242
G1 X112.485 Y102.894 E4.16939
G1 X113.347 Y102.629 E4.18738
G1 X113.996 Y102.461 E4.20076
G1 X114.987 Y102.257 E4.22095
G1 X115.264 Y102.214 E4.22655
G1 X116.311 Y102.106 E4.24755
G1 X116.98 Y102.072 E4.26092
G1 X117.834 Y102.065 E4.27796
G1 X118.259 Y102.079 E4.28645
G1 X119.229 Y102.157 E4.30587
G1 X119.779 Y102.228 E4.31694
G1 X120.642 Y102.377 E4.33441
G1 X120.959 Y102.446 E4.34089
G1 X122.155 Y102.784 E4.36569
G1 X123.045 Y103.095 E4.3845
G1 X123.883 Y103.43 E4.40251
G1 X124.564 Y103.769 E4.41769
G1 X125.213 Y104.123 E4.43245
G1 X125.986 Y104.591 E4.45048
G1 X126.423 Y104.898 E4.46114
G1 X127.023 Y105.345 E4.47607
G1 X127.793 Y105.981 E4.496
G1 X128.026 Y106.193 E4.50229
G1 X128.548 Y106.703 E4.51685
G1 X128.808 Y106.976 E4.52437
G1 X129.289 Y107.517 E4.53882
G1 X129.53 Y107.809 E4.54637
G1 X129.982 Y108.4 E4.56122
G1 X130.209 Y108.72 E4.56905
G1 X130.814 Y109.683 E4.59175
G1 X131.166 Y110.319 E4.60625
G1 X131.624 Y111.257 E4.62708
G1 X131.798 Y111.665 E4.63594
G1 X132.098 Y112.458 E4.65286
G1 X132.206 Y112.784 E4.65971
G1 X132.421 Y113.523 E4.67507
G1 X132.546 Y114.024 E4.68537
G1 X132.735 Y114.969 E4.70461
G1 X132.803 Y115.419 E4.71369
G1 X132.892 Y116.23 E4.72997
G1 X132.922 Y116.658 E4.73853
G1 X132.946 Y117.235 E4.75006
G1 X132.949 Y117.46 E4.75455
G1 X132.94 Y118.046 E4.76624
G1 X132.931 Y118.25 E4.77032
G1 X132.85 Y119.161 E4.78857
G1 X132.749 Y119.911 E4.80367
G1 X132.534 Y121.029 E4.82639
G1 X132.421 Y121.48 E4.83567
G1 X132.271 Y122.018 E4.84681
G1 X132.197 Y122.257 E4.85181
G1 X131.932 Y123.007 E4.86768
G1 X131.775 Y123.402 E4.87616
G1 X131.498 Y124.036 E4.88997
G1 X131.388 Y124.266 E4.89506
G1 X131.102 Y124.825 E4.90759
G1 X130.598 Y125.68 E4.9274
G1 X130.215 Y126.263 E4.94132
G1 X129.638 Y127.056 E4.96089
G1 X129.412 Y127.337 E4.96808
G1 X128.939 Y127.884 E4.98251
G1 X128.693 Y128.149 E4.98973
G1 X128.167 Y128.675 E5.00458
G1 X127.907 Y128.917 E5.01166
G1 X127.39 Y129.367 E5.02534
G1 X127.134 Y129.575 E5.03192
G1 X126.528 Y130.031 E5.04706
G1 X126.163 Y130.285 E5.05593
G1 X125.507 Y130.706 E5.07149
G1 X125.092 Y130.95 E5.0811
G1 X124.294 Y131.373 E5.09912
G1 X123.849 Y131.571 E5.10884
G1 X123.022 Y131.916 E5.12672
G1 X121.897 Y132.31 E5.15051
G1 X121.61 Y132.392 E5.15647
G1 X121.018 Y132.542 E5.16865
G1 X120.635 Y132.627 E5.17648
G1 X119.434 Y132.819 E5.20075
G1 X118.629 Y132.899 E5.2169
G1 X117.497 Y132.948 E5.23951
G1 X117.164 Y132.944 E5.24615
G1 X116.527 Y132.917 E5.25888
G1 X116.219 Y132.894 E5.26504
G1 X115.51 Y132.816 E5.27928
G1 X115.077 Y132.753 E5.28801
G1 X114.464 Y132.644 E5.30043
G1 X114.157 Y132.58 E5.30669
G1 X113.448 Y132.406 E5.32126
G1 X113.1 Y132.307 E5.32848
G1 X112.419 Y132.087 E5.34276
G1 X112.082 Y131.965 E5.34991
G1 X111.464 Y131.721 E5.36317
G1 X110.991 Y131.511 E5.3735
G1 X110.776 Y131.409 E5.37825
G1 X110.227 Y131.127 E5.39057
G1 X109.922 Y130.959 E5.39752
G1 X109.282 Y130.576 E5.4124
G1 X108.913 Y130.336 E5.42118
G1 X108.426 Y129.998 E5.43301
G1 X108.168 Y129.808 E5.43941
G1 X107.567 Y129.33 E5.45473
G1 X107.332 Y129.128 E5.46092
G1 X106.817 Y128.654 E5.47488
G1 X106.591 Y128.431 E5.48122
G1 X106.146 Y127.963 E5.49411
G1 X105.755 Y127.525 E5.50582
G1 X105.143 Y126.769 E5.52524
G1 X104.944 Y126.498 E5.53195
G1 X104.325 Y125.55 E5.55454
G1 X103.922 Y124.85 E5.57066
G1 X103.406 Y123.825 E5.59356
G1 X103.277 Y123.528 E5.60002
G1 X103.052 Y122.963 E5.61216
G1 X102.922 Y122.607 E5.61972
G1 X102.699 Y121.923 E5.63408
G1 X102.614 Y121.627 E5.64022
G1 X102.426 Y120.861 E5.65596
G1 X102.329 Y120.388 E5.6656
G1 X102.217 Y119.738 E5.67876
G1 X102.176 Y119.442 E5.68472
G1 X102.103 Y118.731 E5.69899
G1 X102.074 Y118.302 E5.70757
G1 X102.052 Y117.487 E5.72384
G1 X102.056 Y117.167 E5.73023
G1 X102.077 Y116.624 E5.74107
G1 X102.092 Y116.396 E5.74563
G1 X102.139 Y115.879 E5.75599
G1 X102.184 Y115.495 E5.7637
G1 X102.333 Y114.584 E5.78213
G1 X102.432 Y114.113 E5.79173
G1 X102.613 Y113.387 E5.80666
G1 X102.717 Y113.026 E5.81416
G1 X102.888 Y112.489 E5.82541
G1 X102.962 Y112.277 E5.82989
G1 X103.138 Y111.81 E5.83985
G1 X103.221 Y111.605 E5.84426
G1 X103.413 Y111.161 E5.85391
G1 X103.538 Y110.89 E5.85987
G1 X103.927 Y110.131 E5.87689
G1 X104.164 Y109.713 E5.88648
G1 X104.57 Y109.056 E5.90189
G1 X104.828 Y108.672 E5.91112
G1 X105.165 Y108.201 E5.92268
G1 X105.29 Y108.036 E5.92681
G1 X105.943 Y107.258 E5.94708
G1 X106.367 Y106.801 E5.95952
G1 F2700 E0.95952
;MESH:Bolt_Short.stl
G0 F6000 X114.538 Y112.37
G0 X115.057 Y113.206
G0 X116.274 Y113.048
;TYPE:WALL-INNER
G1 F2700 E5.95952
G1 F1200 X116.134 Y113.049 E5.96232
G1 X116.273 Y113.005 E5.96255
G1 X116.597 Y112.929 E5.96737
G1 X116.917 Y112.877 E5.97384
G1 X117.259 Y112.848 E5.98069
G1 X117.595 Y112.842 E5.9874
G1 X117.916 Y112.86 E5.99381
G1 X118.434 Y112.935 E6.00426
G1 X118.747 Y113.011 E6.01068
G1 X118.864 Y113.048 E6.01313
G1 X118.747 Y113.048 E6.01322
G1 X118.435 Y113.048 E6.01454
G1 X117.916 Y113.048 E6.01844
G1 X117.595 Y113.048 E6.0216
G1 X117.259 Y113.048 E6.02501
G1 X116.917 Y113.048 E6.02819
G1 X116.597 Y113.048 E6.03049
G1 X116.274 Y113.048 E6.03176
G0 F6000 X115.95 Y113.107
G1 F1200 X115.95 Y113.404 E6.03769
G1 X115.95 Y113.405 E6.03771
G1 X115.95 Y121.679 E6.20283
G1 X115.95 Y121.798 E6.2052
G1 X115.95 Y121.892 E6.20708
G1 X115.704 Y121.798 E6.2102
G1 X115.596 Y121.749 E6.21218
G1 X115.398 Y121.658 E6.21653
G1 X115.105 Y121.496 E6.22321
G1 X114.691 Y121.216 E6.23319
G1 X114.294 Y120.881 E6.24355
G1 X114.073 Y120.656 E6.24985
G1 X113.852 Y120.398 E6.25662
G1 X113.654 Y120.13 E6.26327
G1 X113.473 Y119.842 E6.27006
