;FLAVOR:Marlin
;TIME:1403
;Filament used: 0.341672m
;Layer height: 0.12
;MINX:99.672
;MINY:100.439
;MINZ:0.12
;MAXX:135.328
;MAXY:134.561
;MAXZ:18.24
;Generated with Cura_SteamEngine 4.5.0
M140 S60
M105
M190 S60
M104 S200
M105
M109 S200
M82 ;absolute extrusion mode
; Ender 3 Custom Start G-code
G92 E0 ; Reset Extruder
G28 ; Home all axes
G1 Z2.0 F3000 ; Move Z Axis up little to prevent scratching of Heat Bed
G1 X0.1 Y20 Z0.3 F5000.0 ; Move to start position
G1 X0.1 Y200.0 Z0.3 F1500.0 E15 ; Draw the first line
G1 X0.4 Y200.0 Z0.3 F5000.0 ; Move to side a little
G1 X0.4 Y20 Z0.3 F1500.0 E30 ; Draw the second line
G92 E0 ; Reset Extruder
G1 Z2.0 F3000 ; Move Z Axis up little to prevent scratching of Heat Bed
G1 X5 Y20 Z0.3 F5000.0 ; Move over to prevent blob squish
G92 E0
G92 E0
G1 F2700 E-5
;LAYER_COUNT:152
;LAYER:0
M107
G0 F6000 X105.94 Y104.146 Z0.12
;TYPE:SKIRT
G1 F2700 E0
G1 F1200 X106.191 Y103.892 E0.00713
G1 X106.878 Y103.254 E0.02584
G1 X107.617 Y102.676 E0.04456
G1 X108.402 Y102.164 E0.06326
G1 X109.219 Y101.724 E0.08178
G1 X109.444 Y101.615 E0.08677
G1 X110.305 Y101.243 E0.10549
G1 X111.102 Y100.971 E0.12229
G1 X112.008 Y100.729 E0.14101
G1 X112.932 Y100.566 E0.15973
G1 X113.571 Y100.499 E0.17255
G1 X113.907 Y100.474 E0.17928
G1 X114.612 Y100.445 E0.19336
G1 X115.227 Y100.439 E0.20563
G1 X119.826 Y100.442 E0.29741
G1 X120.635 Y100.453 E0.31355
G1 X121.572 Y100.508 E0.33229
G1 X122.934 Y100.733 E0.35983
G1 X123.264 Y100.809 E0.36659
G1 X124.168 Y101.058 E0.3853
G1 X125.047 Y101.383 E0.40401
G1 X126.104 Y101.894 E0.42744
G1 X126.349 Y102.029 E0.43302
G1 X127.15 Y102.516 E0.45173
G1 X127.907 Y103.07 E0.47045
G1 X128.614 Y103.686 E0.48916
G1 X129.104 Y104.181 E0.50306
G1 X129.271 Y104.361 E0.50796
G1 X129.879 Y105.076 E0.52669
G1 X130.57 Y106.07 E0.55085
G1 X131.139 Y107.001 E0.57262
G1 X133.498 Y111.095 E0.66691
G1 X133.833 Y111.694 E0.68061
G1 X134.255 Y112.531 E0.69932
G1 X134.605 Y113.401 E0.71803
G1 X134.759 Y113.871 E0.7279
G1 X134.853 Y114.181 E0.73436
G1 X135.086 Y115.089 E0.75307
G1 X135.242 Y116.014 E0.77179
G1 X135.324 Y117.154 E0.7946
G1 X135.328 Y117.355 E0.79861
G1 X135.306 Y118.293 E0.81734
G1 X135.205 Y119.225 E0.83604
G1 X135.048 Y120.05 E0.8528
G1 X134.987 Y120.314 E0.85821
G1 X134.737 Y121.218 E0.87693
G1 X134.312 Y122.324 E0.90057
G1 X134.224 Y122.521 E0.90488
G1 X133.781 Y123.405 E0.92461
G1 X133.383 Y124.115 E0.94085
G1 X131.105 Y128.058 E1.03173
G1 X130.709 Y128.722 E1.04716
G1 X130.195 Y129.507 E1.06588
G1 X129.531 Y130.342 E1.08717
G1 X129.381 Y130.513 E1.09171
G1 X128.536 Y131.376 E1.11581
G1 X128.407 Y131.494 E1.1193
G1 X127.689 Y132.096 E1.138
G1 X126.922 Y132.636 E1.15672
G1 X126.112 Y133.108 E1.17543
G1 X125.21 Y133.532 E1.19532
G1 X124.84 Y133.686 E1.20332
G1 X123.959 Y134.01 E1.22205
G1 X123.055 Y134.257 E1.24075
G1 X122.132 Y134.426 E1.25948
G1 X121.429 Y134.501 E1.27359
G1 X121.093 Y134.526 E1.28031
G1 X120.388 Y134.555 E1.29439
G1 X119.773 Y134.561 E1.30666
G1 X115.005 Y134.557 E1.40181
G1 X114.318 Y134.546 E1.41553
G1 X113.382 Y134.491 E1.43424
G1 X112.517 Y134.368 E1.45167
G1 X112.309 Y134.33 E1.45589
G1 X111.395 Y134.122 E1.4746
G1 X110.501 Y133.837 E1.49332
G1 X109.635 Y133.477 E1.51204
G1 X109.175 Y133.25 E1.52228
G1 X108.851 Y133.08 E1.52958
G1 X108.04 Y132.609 E1.54829
G1 X107.272 Y132.071 E1.56701
G1 X106.552 Y131.469 E1.58574
G1 X105.901 Y130.824 E1.60402
G1 X105.732 Y130.642 E1.60898
G1 X105.124 Y129.928 E1.6277
G1 X104.691 Y129.334 E1.64236
G1 X104.577 Y129.166 E1.64642
G1 X104.224 Y128.611 E1.65954
G1 X103.841 Y127.965 E1.67453
G1 X101.493 Y123.89 E1.76838
G1 X101.152 Y123.28 E1.78233
G1 X100.73 Y122.443 E1.80104
G1 X100.381 Y121.573 E1.81974
G1 X100.163 Y120.886 E1.83413
G1 X100.083 Y120.601 E1.84003
G1 X99.869 Y119.688 E1.85875
G1 X99.732 Y118.76 E1.87747
G1 X99.676 Y117.846 E1.89574
G1 X99.672 Y117.644 E1.89977
G1 X99.694 Y116.706 E1.9185
G1 X99.795 Y115.774 E1.93721
G1 X99.952 Y114.95 E1.95394
G1 X100.013 Y114.686 E1.95935
G1 X100.263 Y113.782 E1.97807
G1 X100.681 Y112.69 E2.0014
G1 X100.77 Y112.49 E2.00577
G1 X101.224 Y111.585 E2.02598
G1 X101.61 Y110.898 E2.0417
G1 X103.849 Y107.024 E2.131
G1 X104.332 Y106.219 E2.14973
G1 X104.848 Y105.436 E2.16844
G1 X105.429 Y104.7 E2.18716
G1 X105.94 Y104.146 E2.2022
G0 F6000 X106.224 Y104.427
G1 F1200 X106.475 Y104.173 E2.20932
G1 X107.15 Y103.547 E2.22769
G1 X107.877 Y102.982 E2.24607
G1 X108.65 Y102.482 E2.26444
G1 X109.394 Y102.084 E2.28128
G1 X109.619 Y101.975 E2.28627
G1 X110.464 Y101.61 E2.30464
G1 X111.221 Y101.353 E2.32059
G1 X112.111 Y101.116 E2.33897
G1 X113.018 Y100.958 E2.35734
G1 X113.6 Y100.898 E2.36902
G1 X113.936 Y100.873 E2.37574
G1 X114.616 Y100.845 E2.38932
G1 X115.227 Y100.839 E2.40152
G1 X119.826 Y100.842 E2.4933
G1 X120.629 Y100.853 E2.50932
G1 X121.548 Y100.907 E2.52769
G1 X122.844 Y101.122 E2.55391
G1 X123.174 Y101.198 E2.56067
G1 X124.061 Y101.444 E2.57904
G1 X124.924 Y101.765 E2.59741
G1 X125.911 Y102.244 E2.61931
G1 X126.156 Y102.379 E2.62489
G1 X126.942 Y102.858 E2.64326
G1 X127.684 Y103.403 E2.66163
G1 X128.375 Y104.011 E2.68
G1 X128.811 Y104.454 E2.6924
G1 X128.978 Y104.634 E2.6973
G1 X129.574 Y105.335 E2.71566
G1 X130.23 Y106.28 E2.73862
G1 X130.792 Y107.201 E2.76015
G1 X133.148 Y111.29 E2.85433
G1 X133.483 Y111.889 E2.86802
G1 X133.898 Y112.711 E2.8864
G1 X134.376 Y113.987 E2.91359
G1 X134.47 Y114.297 E2.92006
G1 X134.699 Y115.189 E2.93843
G1 X134.849 Y116.097 E2.9568
G1 X134.924 Y117.162 E2.97811
G1 X134.928 Y117.363 E2.98212
G1 X134.906 Y118.283 E3.00048
G1 X134.805 Y119.199 E3.01887
G1 X134.658 Y119.96 E3.03434
G1 X134.597 Y120.224 E3.03975
G1 X134.351 Y121.112 E3.05814
G1 X133.947 Y122.161 E3.08057
G1 X133.859 Y122.358 E3.08488
G1 X133.432 Y123.21 E3.10389
G1 X133.036 Y123.915 E3.12003
G1 X130.762 Y127.853 E3.21078
G1 X130.366 Y128.517 E3.22621
G1 X129.86 Y129.287 E3.24459
G1 X129.231 Y130.078 E3.26476
G1 X129.081 Y130.249 E3.2693
G1 X128.266 Y131.08 E3.29253
G1 X128.137 Y131.198 E3.29602
G1 X127.432 Y131.79 E3.31439
G1 X126.677 Y132.318 E3.33277
G1 X125.88 Y132.778 E3.35114
G1 X125.056 Y133.163 E3.36929
G1 X124.686 Y133.317 E3.37729
G1 X123.822 Y133.634 E3.39565
G1 X122.933 Y133.874 E3.41403
G1 X122.027 Y134.036 E3.4324
G1 X121.4 Y134.102 E3.44498
G1 X121.064 Y134.127 E3.4517
G1 X120.384 Y134.155 E3.46528
G1 X119.773 Y134.161 E3.47748
G1 X115.011 Y134.157 E3.57251
G1 X114.324 Y134.146 E3.58622
G1 X113.405 Y134.091 E3.60459
G1 X112.589 Y133.974 E3.62104
G1 X112.381 Y133.936 E3.62526
G1 X111.483 Y133.732 E3.64364
G1 X110.607 Y133.45 E3.662
G1 X109.361 Y132.895 E3.68922
G1 X109.037 Y132.725 E3.69653
G1 X108.241 Y132.263 E3.71489
G1 X107.488 Y131.733 E3.73327
G1 X106.784 Y131.139 E3.75165
G1 X106.194 Y130.552 E3.76826
G1 X106.025 Y130.37 E3.77322
G1 X105.429 Y129.669 E3.79158
G1 X105.022 Y129.109 E3.80539
G1 X104.908 Y128.941 E3.80944
G1 X104.568 Y128.406 E3.82209
G1 X104.188 Y127.765 E3.83697
G1 X101.843 Y123.695 E3.9307
G1 X101.502 Y123.085 E3.94465
G1 X101.088 Y122.263 E3.96302
G1 X100.747 Y121.408 E3.98139
G1 X100.548 Y120.778 E3.99457
G1 X100.468 Y120.493 E4.00048
G1 X100.258 Y119.596 E4.01886
G1 X100.127 Y118.685 E4.03723
G1 X100.076 Y117.838 E4.05416
G1 X100.072 Y117.636 E4.0582
G1 X100.094 Y116.715 E4.07658
G1 X100.195 Y115.8 E4.09495
G1 X100.342 Y115.04 E4.1104
G1 X100.403 Y114.776 E4.11581
G1 X100.649 Y113.888 E4.13419
G1 X101.047 Y112.852 E4.15634
G1 X101.136 Y112.652 E4.16071
G1 X101.573 Y111.781 E4.18016
G1 X101.956 Y111.098 E4.19578
G1 X104.192 Y107.229 E4.28496
G1 X104.675 Y106.424 E4.30369
G1 X105.182 Y105.656 E4.32206
G1 X105.754 Y104.935 E4.34043
G1 X106.224 Y104.427 E4.35424
G0 F6000 X106.509 Y104.708
G1 F1200 X106.76 Y104.454 E4.36136
G1 X107.422 Y103.841 E4.37937
G1 X108.137 Y103.288 E4.39741
G1 X108.897 Y102.801 E4.41542
G1 X109.568 Y102.444 E4.43059
G1 X109.793 Y102.335 E4.43558
G1 X110.622 Y101.978 E4.45359
G1 X111.341 Y101.734 E4.46874
G1 X112.214 Y101.503 E4.48676
G1 X113.104 Y101.35 E4.50478
G1 X113.63 Y101.297 E4.51533
G1 X113.966 Y101.272 E4.52206
G1 X114.62 Y101.245 E4.53512
G1 X115.227 Y101.239 E4.54723
G1 X119.826 Y101.242 E4.63901
G1 X120.623 Y101.253 E4.65492
G1 X121.524 Y101.307 E4.67293
G1 X122.754 Y101.512 E4.69782
G1 X123.084 Y101.588 E4.70457
G1 X123.954 Y101.83 E4.72259
G1 X124.8 Y102.147 E4.74062
G1 X125.718 Y102.594 E4.761
G1 X125.963 Y102.729 E4.76658
G1 X126.733 Y103.2 E4.7846
G1 X127.46 Y103.737 E4.80263
G1 X128.136 Y104.336 E4.82066
G1 X128.517 Y104.726 E4.83154
G1 X128.684 Y104.906 E4.83644
G1 X129.269 Y105.594 E4.85446
G1 X129.889 Y106.49 E4.8762
G1 X130.446 Y107.401 E4.89751
G1 X132.799 Y111.485 E4.99157
G1 X133.134 Y112.084 E5.00527
G1 X133.54 Y112.891 E5.0233
G1 X133.993 Y114.103 E5.04912
G1 X134.087 Y114.413 E5.05558
G1 X134.311 Y115.288 E5.07361
G1 X134.456 Y116.18 E5.09164
G1 X134.524 Y117.17 E5.11144
G1 X134.528 Y117.371 E5.11546
G1 X134.506 Y118.274 E5.13348
G1 X134.404 Y119.171 E5.1515
G1 X134.268 Y119.87 E5.16571
G1 X134.207 Y120.134 E5.17112
G1 X133.965 Y121.004 E5.18914
G1 X133.582 Y121.998 E5.21039
G1 X133.494 Y122.195 E5.2147
G1 X133.083 Y123.015 E5.233
G1 X132.69 Y123.715 E5.24902
G1 X130.418 Y127.649 E5.33968
G1 X130.022 Y128.313 E5.35511
G1 X129.526 Y129.067 E5.37312
G1 X128.93 Y129.814 E5.39219
G1 X128.78 Y129.985 E5.39673
G1 X127.996 Y130.785 E5.41909
G1 X127.867 Y130.903 E5.42257
G1 X127.175 Y131.483 E5.44059
G1 X126.434 Y131.999 E5.45861
G1 X125.65 Y132.447 E5.47663
G1 X124.902 Y132.794 E5.49309
G1 X124.532 Y132.948 E5.50109
G1 X123.684 Y133.258 E5.5191
G1 X122.812 Y133.491 E5.53712
G1 X121.922 Y133.647 E5.55515
G1 X121.37 Y133.703 E5.56622
G1 X121.034 Y133.728 E5.57294
G1 X120.38 Y133.755 E5.58601
G1 X119.773 Y133.761 E5.59812
G1 X115.018 Y133.757 E5.69301
G1 X114.331 Y133.746 E5.70672
G1 X113.429 Y133.691 E5.72476
G1 X112.661 Y133.581 E5.74024
G1 X112.453 Y133.543 E5.74446
G1 X111.573 Y133.341 E5.76248
G1 X110.713 Y133.063 E5.78051
G1 X109.547 Y132.541 E5.80601
G1 X109.223 Y132.371 E5.81331
G1 X108.443 Y131.917 E5.83132
G1 X107.705 Y131.395 E5.84936
G1 X107.017 Y130.81 E5.86738
G1 X106.488 Y130.28 E5.88233
G1 X106.319 Y130.098 E5.88728
G1 X105.734 Y129.409 E5.90532
G1 X105.353 Y128.884 E5.91826
G1 X105.239 Y128.716 E5.92232
G1 X104.912 Y128.202 E5.93447
G1 X104.534 Y127.565 E5.94925
G1 X102.192 Y123.5 E6.04288
G1 X101.851 Y122.89 E6.05682
G1 X101.445 Y122.083 E6.07485
G1 X101.113 Y121.243 E6.09288
G1 X100.934 Y120.67 E6.10486
G1 X100.854 Y120.385 E6.11076
G1 X100.648 Y119.505 E6.1288
G1 X100.521 Y118.611 E6.14682
G1 X100.476 Y117.83 E6.16243
G1 X100.472 Y117.628 E6.16646
G1 X100.494 Y116.725 E6.18449
G1 X100.596 Y115.828 E6.2025
G1 X100.732 Y115.13 E6.21669
G1 X100.793 Y114.866 E6.2221
G1 X101.035 Y113.996 E6.24012
G1 X101.412 Y113.015 E6.2611
G1 X101.501 Y112.815 E6.26546
G1 X101.922 Y111.976 E6.2842
G1 X102.303 Y111.298 E6.29972
G1 X104.535 Y107.435 E6.38875
G1 X105.018 Y106.63 E6.40749
G1 X105.516 Y105.877 E6.4255
G1 X106.079 Y105.171 E6.44352
G1 X106.509 Y104.708 E6.45613
G1 F2700 E1.45613
;MESH:Bolt_Stand.stl
G0 F6000 X113.109 Y111.651
G0 X114.032 Y112.222
G0 X111.86 Y117.493
G0 X114.576 Y122.554
;TYPE:WALL-INNER
G1 F2700 E6.45613
G1 F1200 X114.564 Y122.535 E6.45658
G1 X111.659 Y117.496 E6.57265
G1 X111.674 Y117.464 E6.57336
G1 X114.579 Y112.443 E6.68912
G1 X114.6 Y112.438 E6.68955
G1 X120.42 Y112.443 E6.80569
G1 X123.342 Y117.503 E6.9223
G1 X123.328 Y117.533 E6.92296
G1 X120.418 Y122.558 E7.03884
G1 X120.4 Y122.562 E7.03921
G1 X114.576 Y122.554 E7.15543
G0 F6000 X114.291 Y122.833
G1 F1200 X114.258 Y122.8 E7.15636
G1 X114.223 Y122.746 E7.15765
G1 X111.286 Y117.651 E7.27501
G1 X111.26 Y117.554 E7.27701
G1 X111.258 Y117.448 E7.27913
G1 X111.279 Y117.365 E7.28084
G1 X111.317 Y117.283 E7.28264
G1 X114.264 Y112.189 E7.40008
G1 X114.348 Y112.111 E7.40237
G1 X114.432 Y112.067 E7.40426
G1 X114.543 Y112.041 E7.40654
G1 X114.591 Y112.038 E7.4075
G1 X120.472 Y112.043 E7.52486
G1 X120.561 Y112.062 E7.52668
G1 X120.663 Y112.119 E7.52901
G1 X120.741 Y112.198 E7.53122
G1 X120.777 Y112.254 E7.53255
G1 X123.714 Y117.347 E7.64988
G1 X123.74 Y117.443 E7.65186
G1 X123.744 Y117.517 E7.65334
G1 X123.734 Y117.591 E7.65483
G1 X123.708 Y117.667 E7.65643
G1 X123.683 Y117.717 E7.65755
G1 X120.727 Y122.821 E7.77525
G1 X120.652 Y122.889 E7.77727
G1 X120.568 Y122.933 E7.77917
G1 X120.51 Y122.946 E7.78035
G1 X120.496 Y122.949 E7.78064
G1 X120.457 Y122.959 E7.78144
G1 X120.409 Y122.962 E7.7824
G1 X114.5 Y122.954 E7.90032
G1 X114.437 Y122.937 E7.90162
G1 X114.404 Y122.922 E7.90235
G1 X114.336 Y122.88 E7.90394
G1 X114.291 Y122.833 E7.90524
G0 F6000 X114.493 Y123.357
;TYPE:WALL-OUTER
G1 F1200 X114.428 Y123.348 E7.90655
G1 X114.353 Y123.331 E7.90809
G1 X114.289 Y123.309 E7.90944
G1 X114.214 Y123.274 E7.91109
G1 X114.141 Y123.232 E7.91277
G1 X114.091 Y123.197 E7.91399
G1 X114.025 Y123.14 E7.91573
G1 X113.975 Y123.087 E7.91718
G1 X113.929 Y123.029 E7.91866
G1 X113.881 Y122.955 E7.92042
G1 X110.926 Y117.829 E8.03849
G1 X110.903 Y117.769 E8.03978
G1 X110.879 Y117.688 E8.04146
G1 X110.864 Y117.614 E8.04297
G1 X110.857 Y117.541 E8.04443
G1 X110.855 Y117.461 E8.04603
G1 X110.862 Y117.387 E8.04751
G1 X110.876 Y117.318 E8.04892
G1 X110.898 Y117.241 E8.05051
G1 X110.93 Y117.161 E8.05223
G1 X110.96 Y117.102 E8.05356
G1 X113.845 Y112.106 E8.16869
G1 X113.934 Y111.963 E8.17205
G1 X113.965 Y111.923 E8.17306
G1 X114.021 Y111.864 E8.17468
G1 X114.088 Y111.805 E8.17646
G1 X114.135 Y111.772 E8.17761
G1 X114.208 Y111.73 E8.17929
G1 X114.281 Y111.696 E8.18089
G1 X114.347 Y111.673 E8.18229
G1 X114.429 Y111.653 E8.18397
G1 X114.498 Y111.643 E8.18537
G1 X114.586 Y111.638 E8.18712
G1 X120.507 Y111.643 E8.30528
G1 X120.647 Y111.669 E8.30813
G1 X120.711 Y111.691 E8.30948
G1 X120.786 Y111.726 E8.31113
G1 X120.859 Y111.768 E8.31281
G1 X120.908 Y111.802 E8.314
G1 X120.975 Y111.86 E8.31577
G1 X121.021 Y111.908 E8.31709
G1 X121.071 Y111.971 E8.3187
G1 X121.119 Y112.045 E8.32046
G1 X124.074 Y117.17 E8.43852
G1 X124.096 Y117.227 E8.43974
G1 X124.121 Y117.312 E8.4415
G1 X124.136 Y117.386 E8.44301
G1 X124.143 Y117.453 E8.44436
G1 X124.145 Y117.532 E8.44593
G1 X124.138 Y117.613 E8.44756
G1 X124.124 Y117.682 E8.44896
G1 X124.102 Y117.758 E8.45054
G1 X124.074 Y117.83 E8.45208
G1 X124.04 Y117.898 E8.4536
G1 X121.071 Y123.031 E8.57193
G1 X121.035 Y123.077 E8.5731
G1 X120.979 Y123.136 E8.57472
G1 X120.912 Y123.195 E8.5765
G1 X120.865 Y123.228 E8.57765
G1 X120.792 Y123.27 E8.57933
G1 X120.719 Y123.304 E8.58094
G1 X120.653 Y123.327 E8.58233
G1 X120.571 Y123.347 E8.58402
G1 X120.502 Y123.357 E8.58541
G1 X120.414 Y123.362 E8.58717
G1 X114.493 Y123.357 E8.70533
G0 F6000 X114.523 Y122.919
G0 X114.8 Y122.164
;TYPE:SKIN
G1 F1200 X112.107 Y117.492 E8.81294
G1 X114.806 Y112.828 E8.92048
G1 X120.195 Y112.833 E9.02802
G1 X122.894 Y117.507 E9.13573
G1 X120.192 Y122.172 E9.24331
G1 X114.8 Y122.164 E9.35092
G0 F6000 X115.214 Y122.002
G1 F1200 X114.453 Y121.241 E9.37239
G0 F6000 X114.072 Y121.459
G0 X114.677 Y122.378
G0 X115.78 Y122.445
G0 X115.781 Y122.004
G1 F1200 X113.684 Y119.906 E9.43159
G0 F6000 X113.303 Y120.124
G0 X112.533 Y118.79
G0 X112.915 Y118.571
G1 F1200 X116.348 Y122.004 E9.52848
G0 F6000 X116.914 Y122.005
G1 F1200 X112.33 Y117.422 E9.65783
G0 F6000 X112.538 Y117.063
G1 F1200 X117.48 Y122.006 E9.79732
G0 F6000 X118.047 Y122.007
G1 F1200 X112.746 Y116.705 E9.94694
G0 F6000 X112.953 Y116.347
G1 F1200 X118.614 Y122.008 E10.10671
G0 F6000 X119.18 Y122.009
G1 F1200 X113.16 Y115.988 E10.27662
G0 F6000 X113.367 Y115.63
G1 F1200 X119.747 Y122.01 E10.45668
G0 F6000 X120.179 Y121.876
G1 F1200 X113.574 Y115.271 E10.64308
G0 F6000 X113.782 Y114.914
G1 F1200 X120.387 Y121.518 E10.82948
G0 F6000 X120.594 Y121.159
G1 F1200 X113.989 Y114.555 E11.01587
G0 F6000 X114.197 Y114.197
G1 F1200 X120.801 Y120.801 E11.20225
G0 F6000 X121.009 Y120.443
G1 F1200 X114.404 Y113.838 E11.38866
G0 F6000 X114.611 Y113.48
G1 F1200 X121.216 Y120.085 E11.57506
G0 F6000 X121.423 Y119.726
G1 F1200 X114.819 Y113.122 E11.76144
G0 F6000 X115.251 Y112.988
G1 F1200 X121.631 Y119.368 E11.9415
G0 F6000 X121.838 Y119.01
G1 F1200 X115.817 Y112.989 E12.11143
G0 F6000 X116.383 Y112.989
