;FLAVOR:Marlin
;TIME:1504
;Filament used: 1.13945m
;Layer height: 0.28
;MINX:93.37
;MINY:95.39
;MINZ:0.28
;MAXX:163.63
;MAXY:163.609
;MAXZ:10.08
;Generated with Cura_SteamEngine 4.5.0
M140 S60
M105
M190 S60
M104 S200
M105
M109 S200
M82 ;absolute extrusion mode
; Ender 3 Custom Start G-code
G92 E0 ; Reset Extruder
G28 ; Home all axes
G1 Z2.0 F3000 ; Move Z Axis up little to prevent scratching of Heat Bed
G1 X0.1 Y20 Z0.3 F5000.0 ; Move to start position
G1 X0.1 Y200.0 Z0.3 F1500.0 E15 ; Draw the first line
G1 X0.4 Y200.0 Z0.3 F5000.0 ; Move to side a little
G1 X0.4 Y20 Z0.3 F1500.0 E30 ; Draw the second line
G92 E0 ; Reset Extruder
G1 Z2.0 F3000 ; Move Z Axis up little to prevent scratching of Heat Bed
G1 X5 Y20 Z0.3 F5000.0 ; Move over to prevent blob squish
G92 E0
G92 E0
G1 F2700 E-5
;LAYER_COUNT:36
;LAYER:0
M107
G0 F6000 X96.913 Y98.904 Z0.28
;TYPE:SKIRT
G1 F2700 E0
G1 F1200 X97.6 Y98.265 E0.04369
G1 X98.338 Y97.687 E0.08734
G1 X98.94 Y97.283 E0.1211
G1 X99.748 Y96.807 E0.16476
G1 X100.958 Y96.253 E0.22673
G1 X101.173 Y96.17 E0.23746
G1 X102.062 Y95.87 E0.28115
G1 X102.973 Y95.647 E0.32482
G1 X103.734 Y95.522 E0.36073
G1 X103.991 Y95.489 E0.3728
G1 X105.238 Y95.4 E0.43101
G1 X106.034 Y95.39 E0.46808
G1 X129.071 Y95.391 E1.54078
G1 X129.769 Y95.401 E1.57329
G1 X130.763 Y95.46 E1.61965
G1 X130.991 Y95.484 E1.63033
G1 X131.918 Y95.622 E1.67397
G1 X132.831 Y95.839 E1.71766
G1 X133.411 Y96.02 E1.74596
G1 X133.612 Y96.089 E1.75585
G1 X134.485 Y96.431 E1.79951
G1 X135.326 Y96.846 E1.84318
G1 X135.935 Y97.203 E1.87605
G1 X136.716 Y97.723 E1.91974
G1 X137.449 Y98.308 E1.96341
G1 X137.891 Y98.713 E1.99132
G1 X138.056 Y98.873 E2.00203
G1 X138.7 Y99.554 E2.04567
G1 X139.457 Y100.53 E2.10318
G1 X139.877 Y101.142 E2.13775
G1 X140.711 Y102.395 E2.20783
G1 X142.153 Y104.433 E2.32408
G1 X143.674 Y106.461 E2.44212
G1 X145.25 Y108.441 E2.55996
G1 X146.864 Y110.355 E2.67654
G1 X148.523 Y112.212 E2.79249
G1 X150.274 Y114.067 E2.91127
G1 X152.046 Y115.838 E3.02793
G1 X153.866 Y117.56 E3.1446
G1 X155.742 Y119.234 E3.26167
G1 X157.686 Y120.875 E3.38013
G1 X158.444 Y121.478 E3.42524
G1 X159.216 Y122.11 E3.47169
G1 X160 Y122.818 E3.52088
G1 X160.152 Y122.969 E3.53086
G1 X160.789 Y123.658 E3.57455
G1 X161.365 Y124.398 E3.61822
G1 X161.736 Y124.956 E3.64942
G1 X161.855 Y125.147 E3.6599
G1 X162.317 Y125.964 E3.7036
G1 X162.858 Y127.209 E3.76681
G1 X162.927 Y127.399 E3.77622
G1 X163.21 Y128.294 E3.81993
G1 X163.415 Y129.209 E3.8636
G1 X163.495 Y129.729 E3.88809
G1 X163.527 Y129.974 E3.8996
G1 X163.619 Y131.227 E3.9581
G1 X163.63 Y132.04 E3.99596
G1 X163.629 Y134.386 E4.1052
G1 X163.619 Y135.084 E4.13771
G1 X163.56 Y136.073 E4.18384
G1 X163.536 Y136.302 E4.19456
G1 X163.399 Y137.229 E4.2382
G1 X163.183 Y138.142 E4.28188
G1 X162.99 Y138.757 E4.3119
G1 X162.92 Y138.959 E4.32185
G1 X162.575 Y139.831 E4.36552
G1 X161.933 Y141.059 E4.43004
G1 X161.816 Y141.252 E4.44055
G1 X161.296 Y142.033 E4.48424
G1 X160.711 Y142.766 E4.52791
G1 X160.159 Y143.356 E4.56553
G1 X159.743 Y143.769 E4.59283
G1 X157.913 Y145.61 E4.7137
G1 X156.18 Y147.453 E4.8315
G1 X154.533 Y149.311 E4.94711
G1 X152.885 Y151.278 E5.0666
G1 X151.329 Y153.245 E5.18339
G1 X149.861 Y155.212 E5.29767
G1 X147.91 Y158.012 E5.45658
G1 X147.58 Y158.507 E5.48428
G1 X147.027 Y159.264 E5.52794
G1 X146.411 Y159.972 E5.57163
G1 X145.937 Y160.442 E5.60272
G1 X145.771 Y160.597 E5.61329
G1 X145.059 Y161.207 E5.65695
G1 X144.298 Y161.755 E5.70062
G1 X143.492 Y162.235 E5.7443
G1 X142.649 Y162.645 E5.78795
G1 X141.773 Y162.982 E5.83165
G1 X140.873 Y163.243 E5.87529
G1 X140.191 Y163.389 E5.90776
G1 X139.264 Y163.533 E5.95145
G1 X138.187 Y163.6 E6.00169
G1 X137.434 Y163.609 E6.03676
G1 X127.936 Y163.609 E6.47903
G1 X127.227 Y163.599 E6.51204
G1 X126.205 Y163.537 E6.55972
G1 X125.982 Y163.513 E6.57016
G1 X125.055 Y163.373 E6.61382
G1 X124.143 Y163.154 E6.65749
G1 X123.543 Y162.965 E6.68678
G1 X123.339 Y162.894 E6.69684
G1 X122.467 Y162.548 E6.74052
G1 X121.628 Y162.129 E6.78419
G1 X121.018 Y161.768 E6.8172
G1 X120.24 Y161.244 E6.86088
G1 X119.509 Y160.657 E6.90453
G1 X119.035 Y160.215 E6.93471
G1 X118.876 Y160.058 E6.94511
G1 X118.238 Y159.371 E6.98877
G1 X117.573 Y158.51 E7.03943
G1 X117.283 Y158.09 E7.06319
G1 X116.124 Y156.362 E7.16008
G1 X114.662 Y154.309 E7.27744
G1 X113.13 Y152.281 E7.39579
G1 X111.577 Y150.348 E7.51125
G1 X109.96 Y148.443 E7.6276
G1 X108.257 Y146.548 E7.74623
G1 X106.529 Y144.732 E7.86296
G1 X104.736 Y142.951 E7.98064
G1 X102.908 Y141.236 E8.09735
G1 X101.022 Y139.564 E8.21471
G1 X98.912 Y137.806 E8.3426
G1 X97.826 Y136.924 E8.40774
G1 X97.033 Y136.213 E8.45734
G1 X96.877 Y136.059 E8.46754
G1 X96.238 Y135.372 E8.51123
G1 X95.661 Y134.634 E8.55485
G1 X95.329 Y134.143 E8.58245
G1 X95.206 Y133.95 E8.59311
G1 X94.736 Y133.138 E8.6368
G1 X94.337 Y132.289 E8.68048
G1 X94.128 Y131.751 E8.70735
G1 X94.057 Y131.553 E8.71715
G1 X93.778 Y130.657 E8.76084
G1 X93.577 Y129.741 E8.80451
G1 X93.499 Y129.227 E8.82872
G1 X93.469 Y128.991 E8.8398
G1 X93.383 Y127.798 E8.89549
G1 X93.37 Y126.98 E8.93359
G1 X93.371 Y107.949 E9.81975
G1 X93.381 Y107.251 E9.85225
G1 X93.443 Y106.23 E9.89988
G1 X93.468 Y105.998 E9.91075
G1 X93.608 Y105.071 E9.9544
G1 X93.827 Y104.159 E9.99808
G1 X94.001 Y103.604 E10.02516
G1 X94.069 Y103.406 E10.03491
G1 X94.412 Y102.533 E10.07859
G1 X94.827 Y101.692 E10.12225
G1 X95.119 Y101.191 E10.14926
G1 X95.244 Y100.989 E10.16032
G1 X95.771 Y100.213 E10.204
G1 X96.362 Y99.485 E10.24766
G1 X96.767 Y99.052 E10.27527
G1 X96.913 Y98.904 E10.28495
G0 F6000 X97.198 Y99.185
G1 F1200 X97.872 Y98.558 E10.32781
G1 X98.599 Y97.992 E10.37071
G1 X99.157 Y97.618 E10.40199
G1 X99.951 Y97.152 E10.44486
G1 X101.102 Y96.626 E10.50379
G1 X101.317 Y96.543 E10.51452
G1 X102.19 Y96.249 E10.55741
G1 X103.085 Y96.032 E10.6003
G1 X103.785 Y95.918 E10.63332
G1 X104.042 Y95.885 E10.64539
G1 X105.243 Y95.8 E10.70145
G1 X106.034 Y95.79 E10.73828
G1 X129.065 Y95.791 E11.8107
G1 X129.763 Y95.801 E11.84321
G1 X130.721 Y95.858 E11.8879
G1 X130.949 Y95.882 E11.89857
G1 X131.859 Y96.018 E11.94142
G1 X132.755 Y96.233 E11.98432
G1 X133.281 Y96.398 E12.00999
G1 X133.482 Y96.467 E12.01989
G1 X134.339 Y96.804 E12.06277
G1 X135.535 Y97.429 E12.1256
G1 X135.728 Y97.546 E12.13611
G1 X136.494 Y98.057 E12.17899
G1 X137.212 Y98.632 E12.22182
G1 X137.612 Y99 E12.24713
G1 X137.777 Y99.16 E12.25783
G1 X138.41 Y99.829 E12.30072
G1 X139.127 Y100.757 E12.35533
G1 X139.544 Y101.364 E12.38962
G1 X140.384 Y102.626 E12.46021
G1 X141.821 Y104.658 E12.5761
G1 X143.357 Y106.705 E12.69526
G1 X144.947 Y108.703 E12.81416
G1 X146.543 Y110.596 E12.92946
G1 X148.235 Y112.489 E13.04768
G1 X149.999 Y114.358 E13.16735
G1 X151.771 Y116.129 E13.28401
G1 X153.598 Y117.858 E13.40114
G1 X155.481 Y119.538 E13.51864
G1 X157.425 Y121.178 E13.63707
G1 X158.191 Y121.788 E13.68267
G1 X158.963 Y122.42 E13.72912
G1 X159.719 Y123.102 E13.77653
G1 X159.871 Y123.253 E13.78651
G1 X160.495 Y123.93 E13.82938
G1 X161.058 Y124.658 E13.87224
G1 X161.397 Y125.168 E13.90075
G1 X161.516 Y125.359 E13.91123
G1 X161.968 Y126.161 E13.9541
G1 X162.482 Y127.346 E14.01424
G1 X162.551 Y127.536 E14.02365
G1 X162.828 Y128.414 E14.06652
G1 X163.027 Y129.313 E14.1094
G1 X163.099 Y129.781 E14.13145
G1 X163.131 Y130.026 E14.14295
G1 X163.219 Y131.234 E14.19935
G1 X163.23 Y132.04 E14.23689
G1 X163.229 Y134.38 E14.34585
G1 X163.219 Y135.078 E14.37835
G1 X163.162 Y136.031 E14.42281
G1 X163.138 Y136.26 E14.43353
G1 X163.003 Y137.17 E14.47636
G1 X162.788 Y138.066 E14.51927
G1 X162.612 Y138.626 E14.5466
G1 X162.542 Y138.828 E14.55656
G1 X162.203 Y139.684 E14.59943
G1 X161.59 Y140.852 E14.66085
G1 X161.473 Y141.045 E14.67136
G1 X160.962 Y141.811 E14.71424
G1 X160.387 Y142.529 E14.75707
G1 X159.877 Y143.072 E14.79176
G1 X159.511 Y143.436 E14.81579
G1 X157.603 Y145.355 E14.9418
G1 X155.905 Y147.161 E15.05723
G1 X154.21 Y149.073 E15.17621
G1 X152.58 Y151.018 E15.29437
G1 X151.028 Y152.981 E15.4109
G1 X149.526 Y154.993 E15.52781
G1 X147.598 Y157.761 E15.68488
G1 X147.248 Y158.285 E15.71423
G1 X146.704 Y159.028 E15.7571
G1 X146.098 Y159.721 E15.79997
G1 X145.664 Y160.15 E15.82839
G1 X145.498 Y160.305 E15.83896
G1 X144.799 Y160.903 E15.8818
G1 X144.05 Y161.439 E15.92468
G1 X143.257 Y161.907 E15.96756
G1 X142.427 Y162.305 E16.01042
G1 X141.566 Y162.63 E16.05327
G1 X140.334 Y162.953 E16.11258
G1 X140.113 Y162.997 E16.12307
G1 X139.203 Y163.137 E16.16594
G1 X138.182 Y163.2 E16.21358
G1 X137.434 Y163.209 E16.24841
G1 X127.942 Y163.209 E16.6904
G1 X127.233 Y163.199 E16.72341
G1 X126.248 Y163.139 E16.76936
G1 X126.025 Y163.115 E16.77981
G1 X125.115 Y162.977 E16.82267
G1 X124.22 Y162.76 E16.86555
G1 X123.675 Y162.587 E16.89217
G1 X123.471 Y162.516 E16.90223
G1 X122.615 Y162.176 E16.94512
G1 X121.418 Y161.544 E17.00815
G1 X121.227 Y161.427 E17.01858
G1 X120.464 Y160.912 E17.06144
G1 X119.748 Y160.334 E17.10429
G1 X119.316 Y159.931 E17.1318
G1 X119.157 Y159.774 E17.14221
G1 X118.531 Y159.099 E17.18507
G1 X117.901 Y158.281 E17.23315
G1 X117.615 Y157.867 E17.25658
G1 X116.449 Y156.13 E17.35399
G1 X114.991 Y154.082 E17.47106
G1 X113.461 Y152.056 E17.58927
G1 X111.859 Y150.062 E17.70838
G1 X110.279 Y148.2 E17.82209
G1 X108.543 Y146.269 E17.943
G1 X106.818 Y144.456 E18.05952
G1 X105.008 Y142.658 E18.17832
G1 X103.183 Y140.946 E18.29484
G1 X101.278 Y139.257 E18.41339
G1 X99.164 Y137.495 E18.54153
G1 X98.078 Y136.613 E18.60668
G1 X97.314 Y135.929 E18.65443
G1 X97.158 Y135.775 E18.66464
G1 X96.532 Y135.1 E18.7075
G1 X95.966 Y134.373 E18.75041
G1 X95.666 Y133.928 E18.7754
G1 X95.543 Y133.735 E18.78605
G1 X95.082 Y132.938 E18.82892
G1 X94.693 Y132.104 E18.87178
G1 X94.504 Y131.616 E18.89614
G1 X94.433 Y131.418 E18.90594
G1 X94.16 Y130.539 E18.9488
G1 X93.965 Y129.639 E18.99168
G1 X93.896 Y129.177 E19.01343
G1 X93.866 Y128.941 E19.02451
G1 X93.783 Y127.791 E19.07819
G1 X93.77 Y126.98 E19.11596
G1 X93.771 Y107.955 E20.00185
G1 X93.781 Y107.257 E20.03435
G1 X93.841 Y106.273 E20.08026
G1 X93.866 Y106.041 E20.09112
G1 X94.004 Y105.131 E20.13398
G1 X94.221 Y104.236 E20.17686
G1 X94.38 Y103.734 E20.20138
G1 X94.448 Y103.536 E20.21113
G1 X94.784 Y102.679 E20.25399
G1 X95.194 Y101.855 E20.29685
G1 X95.459 Y101.401 E20.32133
G1 X95.584 Y101.199 E20.33239
G1 X96.102 Y100.438 E20.37525
G1 X96.684 Y99.725 E20.41811
G1 X97.052 Y99.333 E20.44315
G1 X97.198 Y99.185 E20.45283
G0 F6000 X97.483 Y99.466
G1 F1200 X98.145 Y98.852 E20.49487
G1 X99.199 Y98.068 E20.55604
G1 X99.375 Y97.954 E20.5658
G1 X100.154 Y97.497 E20.60786
G1 X101.247 Y96.999 E20.66378
G1 X101.462 Y96.916 E20.67452
G1 X102.318 Y96.629 E20.71656
G1 X103.196 Y96.418 E20.7586
G1 X103.836 Y96.315 E20.78879
G1 X104.093 Y96.282 E20.80085
G1 X105.249 Y96.2 E20.85482
G1 X106.034 Y96.19 E20.89137
G1 X129.059 Y96.191 E21.96351
G1 X129.757 Y96.201 E21.99602
G1 X130.679 Y96.256 E22.03903
G1 X130.907 Y96.28 E22.0497
G1 X131.8 Y96.414 E22.09175
G1 X132.678 Y96.627 E22.13382
G1 X133.151 Y96.777 E22.15692
G1 X133.352 Y96.846 E22.16682
G1 X134.192 Y97.176 E22.20884
G1 X135.328 Y97.771 E22.26856
G1 X135.521 Y97.888 E22.27907
G1 X136.271 Y98.389 E22.32106
G1 X136.975 Y98.956 E22.36315
G1 X137.334 Y99.287 E22.38589
G1 X137.499 Y99.447 E22.39659
G1 X138.119 Y100.104 E22.43866
G1 X138.798 Y100.984 E22.49041
G1 X139.211 Y101.585 E22.52437
G1 X140.052 Y102.849 E22.59507
G1 X141.508 Y104.907 E22.71245
G1 X143.04 Y106.948 E22.83128
G1 X144.613 Y108.926 E22.94896
G1 X146.271 Y110.891 E23.06868
G1 X147.947 Y112.767 E23.18582
G1 X149.692 Y114.616 E23.3042
G1 X151.479 Y116.402 E23.42185
G1 X153.34 Y118.163 E23.54115
G1 X155.24 Y119.858 E23.65971
G1 X157.164 Y121.481 E23.77692
G1 X157.937 Y122.097 E23.82294
G1 X158.709 Y122.729 E23.8694
G1 X159.437 Y123.386 E23.91506
G1 X159.589 Y123.537 E23.92504
G1 X160.201 Y124.201 E23.96709
G1 X160.751 Y124.917 E24.00913
G1 X161.057 Y125.379 E24.03493
G1 X161.176 Y125.57 E24.04541
G1 X161.619 Y126.357 E24.08746
G1 X162.106 Y127.482 E24.14455
G1 X162.175 Y127.672 E24.15396
G1 X162.446 Y128.534 E24.19603
G1 X162.702 Y129.833 E24.25768
G1 X162.734 Y130.078 E24.26919
G1 X162.819 Y131.24 E24.32344
G1 X162.83 Y132.04 E24.3607
G1 X162.829 Y134.374 E24.46938
G1 X162.819 Y135.072 E24.50188
G1 X162.764 Y135.989 E24.54466
G1 X162.74 Y136.218 E24.55538
G1 X162.607 Y137.111 E24.59742
G1 X162.394 Y137.989 E24.63949
G1 X162.234 Y138.495 E24.6642
G1 X162.164 Y138.697 E24.67416
G1 X161.831 Y139.536 E24.71619
G1 X161.248 Y140.645 E24.77453
G1 X161.131 Y140.838 E24.78504
G1 X160.63 Y141.588 E24.82704
G1 X160.063 Y142.292 E24.86913
G1 X159.595 Y142.789 E24.90091
G1 X159.179 Y143.202 E24.92821
G1 X157.329 Y145.064 E25.05043
G1 X155.596 Y146.906 E25.1682
G1 X153.923 Y148.793 E25.28562
G1 X152.276 Y150.759 E25.40505
G1 X150.692 Y152.762 E25.52396
G1 X149.2 Y154.761 E25.64011
G1 X147.269 Y157.533 E25.79741
G1 X146.915 Y158.063 E25.82709
G1 X146.381 Y158.791 E25.86913
G1 X145.784 Y159.47 E25.91123
G1 X145.391 Y159.857 E25.93691
G1 X145.225 Y160.012 E25.94749
G1 X144.539 Y160.599 E25.98953
G1 X143.803 Y161.122 E26.03157
G1 X143.023 Y161.579 E26.07367
G1 X142.207 Y161.964 E26.11568
G1 X141.359 Y162.276 E26.15776
G1 X140.256 Y162.561 E26.2108
G1 X140.035 Y162.605 E26.22129
G1 X139.142 Y162.742 E26.26336
G1 X138.177 Y162.8 E26.30838
G1 X137.434 Y162.809 E26.34298
G1 X127.947 Y162.809 E26.78473
G1 X127.238 Y162.799 E26.81775
G1 X126.291 Y162.741 E26.86193
G1 X126.068 Y162.717 E26.87237
G1 X125.175 Y162.581 E26.91443
G1 X124.298 Y162.366 E26.95648
G1 X123.806 Y162.209 E26.98053
G1 X123.602 Y162.138 E26.99059
G1 X122.763 Y161.804 E27.03264
G1 X121.627 Y161.203 E27.09248
G1 X121.436 Y161.086 E27.10291
G1 X120.688 Y160.58 E27.14496
G1 X119.987 Y160.011 E27.187
G1 X119.597 Y159.646 E27.21187
G1 X119.438 Y159.489 E27.22228
G1 X118.824 Y158.827 E27.26432
G1 X118.23 Y158.053 E27.30975
G1 X117.947 Y157.644 E27.33291
G1 X116.775 Y155.897 E27.43087
G1 X115.32 Y153.855 E27.54762
G1 X113.764 Y151.793 E27.66791
G1 X112.207 Y149.856 E27.78363
G1 X110.532 Y147.882 E27.90418
G1 X108.848 Y146.009 E28.02146
G1 X107.107 Y144.179 E28.13907
G1 X105.299 Y142.383 E28.25774
G1 X103.437 Y140.636 E28.37663
G1 X101.557 Y138.969 E28.49363
G1 X99.417 Y137.185 E28.62336
G1 X98.331 Y136.303 E28.6885
G1 X97.595 Y135.644 E28.73451
G1 X97.439 Y135.49 E28.74471
G1 X96.825 Y134.828 E28.78676
G1 X96.272 Y134.114 E28.82881
G1 X96.003 Y133.713 E28.85129
G1 X95.88 Y133.52 E28.86195
G1 X95.429 Y132.738 E28.90398
G1 X95.049 Y131.918 E28.94607
G1 X94.81 Y131.283 E28.97766
G1 X94.543 Y130.42 E29.01973
G1 X94.292 Y129.126 E29.0811
G1 X94.262 Y128.89 E29.09218
G1 X94.183 Y127.784 E29.14381
G1 X94.17 Y126.98 E29.18125
G1 X94.171 Y107.961 E30.06686
G1 X94.181 Y107.263 E30.09936
G1 X94.239 Y106.316 E30.14354
G1 X94.264 Y106.084 E30.15441
G1 X94.4 Y105.191 E30.19647
G1 X94.615 Y104.314 E30.23852
G1 X94.826 Y103.666 E30.27025
G1 X95.157 Y102.826 E30.31229
G1 X95.561 Y102.018 E30.35435
G1 X95.799 Y101.612 E30.37627
G1 X95.924 Y101.41 E30.38733
G1 X96.433 Y100.663 E30.42942
G1 X97.006 Y99.965 E30.47147
G1 X97.483 Y99.466 E30.50361
G1 F2700 E25.50361
;MESH:extendedor_brazo.stl
G0 F6000 X103.744 Y107.027
G0 X104.789 Y107.427
G0 X105.172 Y127.705
G0 X105.294 Y127.804
G0 X111.727 Y128.009
;TYPE:WALL-INNER
G1 F2700 E30.50361
G1 F1200 X111.638 Y128.009 E30.50776
G1 X111.238 Y128.009 E30.52638
G1 X110.863 Y128.009 E30.54385
G1 X110.66 Y128.009 E30.5533
G1 X105.419 Y128.01 E30.79734
G1 X105.288 Y127.996 E30.80348
G1 X105.205 Y127.967 E30.80757
G1 X105.13 Y127.92 E30.81169
G1 X105.065 Y127.856 E30.81594
G1 X105.015 Y127.776 E30.82033
G1 X104.986 Y127.692 E30.82447
G1 X104.971 Y127.567 E30.83033
G1 X104.97 Y127.319 E30.84188
G1 X104.97 Y107.438 E31.76762
G1 X104.984 Y107.307 E31.77376
G1 X105.013 Y107.225 E31.77781
G1 X105.06 Y107.149 E31.78197
G1 X105.128 Y107.082 E31.78641
G1 X105.205 Y107.033 E31.79066
G1 X105.287 Y107.004 E31.79471
G1 X105.418 Y106.99 E31.80085
G1 X129.582 Y106.99 E32.92602
G1 X129.713 Y107.004 E32.93216
G1 X129.795 Y107.033 E32.93621
G1 X129.876 Y107.084 E32.94067
G1 X129.936 Y107.144 E32.94462
G1 X129.987 Y107.225 E32.94907
G1 X130.016 Y107.307 E32.95312
G1 X130.03 Y107.438 E32.95926
G1 X130.03 Y110.896 E33.12028
