;FLAVOR:Marlin
;TIME:4158
;Filament used: 1.73921m
;Layer height: 0.2
;MINX:94.196
;MINY:94.417
;MINZ:0.2
;MAXX:140.807
;MAXY:167.407
;MAXZ:18.2
;Generated with Cura_SteamEngine 4.5.0
M140 S60
M105
M190 S60
M104 S205
M105
M109 S205
M82 ;absolute extrusion mode
; Ender 3 Custom Start G-code
G92 E0 ; Reset Extruder
G28 ; Home all axes
G1 Z2.0 F3000 ; Move Z Axis up little to prevent scratching of Heat Bed
G1 X0.1 Y20 Z0.3 F5000.0 ; Move to start position
G1 X0.1 Y200.0 Z0.3 F1500.0 E15 ; Draw the first line
G1 X0.4 Y200.0 Z0.3 F5000.0 ; Move to side a little
G1 X0.4 Y20 Z0.3 F1500.0 E30 ; Draw the second line
G92 E0 ; Reset Extruder
G1 Z2.0 F3000 ; Move Z Axis up little to prevent scratching of Heat Bed
G1 X5 Y20 Z0.3 F5000.0 ; Move over to prevent blob squish
G92 E0
G92 E0
G1 F1500 E-6
;LAYER_COUNT:91
;LAYER:0
M107
M204 S500
M205 X20 Y20
G0 F7500 X97.597 Y97.986 Z0.2
;TYPE:SKIRT
G1 F1500 E0
G1 X98.301 Y97.367 E0.03118
G1 X99.089 Y96.787 E0.06372
G1 X99.482 Y96.524 E0.07945
G1 X100.32 Y96.016 E0.11204
G1 X100.733 Y95.79 E0.1277
G1 X101.574 Y95.376 E0.15888
G1 X102.447 Y95.034 E0.19006
G1 X103.347 Y94.768 E0.22128
G1 X104.265 Y94.58 E0.25244
G1 X105.197 Y94.47 E0.28366
G1 X105.745 Y94.443 E0.30191
G1 X106.889 Y94.419 E0.33997
G1 X107.726 Y94.42 E0.3678
G1 X113.443 Y94.438 E0.55795
G1 X121.57 Y94.437 E0.82826
G1 X128.366 Y94.417 E1.0543
G1 X129.076 Y94.425 E1.07791
G1 X130.012 Y94.475 E1.10909
G1 X130.941 Y94.605 E1.14029
G1 X131.856 Y94.814 E1.1715
G1 X132.749 Y95.1 E1.20269
G1 X133.934 Y95.617 E1.24569
G1 X134.123 Y95.713 E1.25274
G1 X134.839 Y96.111 E1.27999
G1 X135.478 Y96.498 E1.30484
G1 X136.259 Y97.018 E1.33604
G1 X136.993 Y97.602 E1.36724
G1 X137.674 Y98.246 E1.39841
G1 X138.298 Y98.947 E1.42963
G1 X138.86 Y99.698 E1.46083
G1 X139.356 Y100.494 E1.49202
G1 X139.782 Y101.329 E1.5232
G1 X140.136 Y102.198 E1.55441
G1 X140.414 Y103.093 E1.58558
G1 X140.615 Y104.009 E1.61677
G1 X140.767 Y105.371 E1.66235
G1 X140.792 Y105.883 E1.6794
G1 X140.807 Y106.47 E1.69893
G1 X140.806 Y106.812 E1.71031
G1 X140.762 Y109.438 E1.79766
G1 X140.804 Y113.052 E1.91787
G1 X140.777 Y114.972 E1.98174
G1 X140.782 Y117.796 E2.07566
G1 X140.804 Y119.552 E2.13407
G1 X140.777 Y121.472 E2.19794
G1 X140.782 Y124.296 E2.29186
G1 X140.804 Y126.052 E2.35027
G1 X140.777 Y127.972 E2.41414
G1 X140.782 Y130.796 E2.50807
G1 X140.804 Y132.552 E2.56648
G1 X140.777 Y134.472 E2.63034
G1 X140.782 Y137.296 E2.72427
G1 X140.804 Y139.052 E2.78268
G1 X140.777 Y140.972 E2.84654
G1 X140.782 Y143.796 E2.94047
G1 X140.804 Y145.552 E2.99888
G1 X140.777 Y147.472 E3.06275
G1 X140.782 Y150.296 E3.15667
G1 X140.804 Y152.049 E3.21498
G1 X140.795 Y152.701 E3.23667
G1 X140.78 Y153.141 E3.25131
G1 X140.697 Y154.075 E3.2825
G1 X140.535 Y154.999 E3.3137
G1 X140.295 Y155.906 E3.34491
G1 X139.978 Y156.788 E3.37608
G1 X139.587 Y157.641 E3.40729
G1 X139.125 Y158.457 E3.43848
G1 X138.596 Y159.231 E3.46966
G1 X138.002 Y159.957 E3.50086
G1 X137.348 Y160.63 E3.53207
G1 X136.64 Y161.244 E3.56324
G1 X135.882 Y161.797 E3.59445
G1 X135.454 Y162.067 E3.61128
G1 X134.836 Y162.438 E3.63525
G1 X134.204 Y162.79 E3.65931
G1 X133.533 Y163.135 E3.68441
G1 X131.292 Y164.325 E3.7688
G1 X128.481 Y165.933 E3.87651
G1 X127.647 Y166.363 E3.90772
G1 X126.781 Y166.721 E3.93889
G1 X125.886 Y167.004 E3.97011
G1 X124.971 Y167.21 E4.0013
G1 X124.042 Y167.336 E4.03248
G1 X122.685 Y167.379 E4.07764
G1 X121.912 Y167.354 E4.10336
G1 X120.415 Y167.288 E4.1532
G1 X117.857 Y167.247 E4.23829
G1 X115.358 Y167.279 E4.32142
G1 X112.17 Y167.407 E4.42754
G1 X111.232 Y167.38 E4.45875
G1 X110.301 Y167.274 E4.48991
G1 X109.381 Y167.088 E4.52113
G1 X108.481 Y166.825 E4.55232
G1 X107.607 Y166.486 E4.5835
G1 X106.523 Y165.939 E4.62388
G1 X104.299 Y164.657 E4.70926
G1 X100.69 Y162.741 E4.84516
G1 X100.143 Y162.43 E4.86609
G1 X99.525 Y162.055 E4.89013
G1 X98.744 Y161.535 E4.92134
G1 X98.011 Y160.95 E4.95253
G1 X97.33 Y160.305 E4.98373
G1 X96.707 Y159.604 E5.01492
G1 X96.146 Y158.853 E5.0461
G1 X95.651 Y158.056 E5.07731
G1 X95.225 Y157.22 E5.10851
G1 X94.872 Y156.351 E5.13971
G1 X94.595 Y155.456 E5.17087
G1 X94.394 Y154.539 E5.2021
G1 X94.264 Y153.504 E5.23679
G1 X94.228 Y153.041 E5.25224
G1 X94.196 Y152.036 E5.28568
G1 X94.223 Y150.082 E5.35068
G1 X94.218 Y147.254 E5.44474
G1 X94.196 Y145.498 E5.50314
G1 X94.223 Y143.578 E5.56701
G1 X94.218 Y140.754 E5.66094
G1 X94.196 Y138.998 E5.71935
G1 X94.223 Y137.078 E5.78321
G1 X94.218 Y134.254 E5.87714
G1 X94.196 Y132.498 E5.93555
G1 X94.223 Y130.578 E5.99941
G1 X94.218 Y127.754 E6.09334
G1 X94.196 Y125.998 E6.15175
G1 X94.223 Y124.078 E6.21562
G1 X94.218 Y121.254 E6.30954
G1 X94.196 Y119.498 E6.36795
G1 X94.223 Y117.578 E6.43182
G1 X94.218 Y114.754 E6.52575
G1 X94.196 Y113.01 E6.58376
G1 X94.235 Y109.983 E6.68444
G1 X94.218 Y107.769 E6.75808
G1 X94.197 Y106.702 E6.79358
G1 X94.196 Y106.367 E6.80472
G1 X94.215 Y105.498 E6.83363
G1 X94.292 Y104.563 E6.86483
G1 X94.448 Y103.638 E6.89603
G1 X94.682 Y102.73 E6.92722
G1 X94.993 Y101.845 E6.95842
G1 X95.378 Y100.99 E6.98961
G1 X95.835 Y100.171 E7.0208
G1 X96.359 Y99.393 E7.052
G1 X96.948 Y98.663 E7.0832
G1 X97.043 Y98.564 E7.08776
G0 F1350 X97.597 Y97.986
G0 F7500 X97.984 Y98.171
G1 F1500 X98.685 Y97.573 E7.11841
G1 X99.312 Y97.12 E7.14413
G1 X99.705 Y96.857 E7.15986
G1 X100.512 Y96.367 E7.19126
G1 X100.925 Y96.141 E7.20692
G1 X101.751 Y95.735 E7.23754
G1 X102.609 Y95.401 E7.26816
G1 X103.493 Y95.144 E7.29878
G1 X104.396 Y94.964 E7.3294
G1 X105.755 Y94.843 E7.37478
G1 X106.889 Y94.819 E7.41251
G1 X107.726 Y94.82 E7.44035
G1 X113.441 Y94.838 E7.63043
G1 X121.571 Y94.837 E7.90083
G1 X128.361 Y94.817 E8.12667
G1 X129.071 Y94.825 E8.15029
G1 X129.991 Y94.875 E8.18093
G1 X130.902 Y95.005 E8.21154
G1 X131.799 Y95.213 E8.24216
G1 X132.674 Y95.499 E8.27278
G1 X133.752 Y95.973 E8.31195
G1 X133.941 Y96.069 E8.319
G1 X134.632 Y96.453 E8.34529
G1 X135.271 Y96.84 E8.37014
G1 X136.037 Y97.351 E8.40077
G1 X136.756 Y97.926 E8.43139
G1 X137.422 Y98.562 E8.46202
G1 X138.031 Y99.252 E8.49263
G1 X138.577 Y99.993 E8.52324
G1 X139.057 Y100.779 E8.55387
G1 X139.467 Y101.603 E8.58448
G1 X139.804 Y102.46 E8.61511
G1 X140.065 Y103.343 E8.64574
G1 X140.249 Y104.245 E8.67635
G1 X140.367 Y105.39 E8.71464
G1 X140.392 Y105.902 E8.73169
G1 X140.407 Y106.476 E8.75079
G1 X140.407 Y106.805 E8.76173
G1 X140.362 Y109.48 E8.85071
G1 X140.404 Y113.046 E8.96933
G1 X140.377 Y114.966 E9.03319
G1 X140.382 Y117.802 E9.12752
G1 X140.404 Y119.546 E9.18553
G1 X140.377 Y121.466 E9.24939
G1 X140.382 Y124.302 E9.34372
G1 X140.404 Y126.046 E9.40173
G1 X140.377 Y127.966 E9.4656
G1 X140.382 Y130.802 E9.55992
G1 X140.404 Y132.546 E9.61793
G1 X140.377 Y134.466 E9.6818
G1 X140.382 Y137.302 E9.77612
G1 X140.404 Y139.046 E9.83413
G1 X140.377 Y140.966 E9.898
G1 X140.382 Y143.802 E9.99233
G1 X140.404 Y145.546 E10.05034
G1 X140.377 Y147.466 E10.1142
G1 X140.382 Y150.302 E10.20853
G1 X140.404 Y152.043 E10.26644
G1 X140.395 Y152.695 E10.28813
G1 X140.381 Y153.123 E10.30237
G1 X140.299 Y154.04 E10.33299
G1 X140.137 Y154.946 E10.3636
G1 X139.898 Y155.835 E10.39422
G1 X139.582 Y156.7 E10.42485
G1 X139.192 Y157.534 E10.45547
G1 X138.732 Y158.331 E10.48608
G1 X138.204 Y159.086 E10.51672
G1 X137.613 Y159.791 E10.54732
G1 X136.962 Y160.443 E10.57796
G1 X136.258 Y161.036 E10.60858
G1 X135.248 Y161.724 E10.64922
G1 X134.63 Y162.095 E10.6732
G1 X134.021 Y162.434 E10.69638
G1 X133.37 Y162.769 E10.72073
G1 X131.097 Y163.976 E10.80633
G1 X128.282 Y165.586 E10.91419
G1 X127.464 Y166.008 E10.9448
G1 X126.612 Y166.357 E10.97543
G1 X125.733 Y166.631 E11.00605
G1 X124.834 Y166.828 E11.03666
G1 X123.921 Y166.946 E11.06728
G1 X122.697 Y166.979 E11.108
G1 X121.93 Y166.955 E11.13353
G1 X120.404 Y166.888 E11.18433
G1 X117.858 Y166.847 E11.26902
G1 X115.37 Y166.879 E11.35178
G1 X112.164 Y167.007 E11.4585
G1 X111.244 Y166.98 E11.48911
G1 X110.33 Y166.873 E11.51972
G1 X109.428 Y166.687 E11.55035
G1 X108.546 Y166.424 E11.58096
G1 X107.69 Y166.085 E11.61158
G1 X106.723 Y165.593 E11.64767
G1 X104.497 Y164.31 E11.73312
G1 X100.877 Y162.388 E11.86944
G1 X100.35 Y162.088 E11.88961
G1 X99.732 Y161.713 E11.91365
G1 X98.967 Y161.202 E11.94425
G1 X98.248 Y160.626 E11.97489
G1 X97.583 Y159.99 E12.0055
G1 X96.975 Y159.299 E12.03611
G1 X96.429 Y158.557 E12.06675
G1 X95.95 Y157.771 E12.09737
G1 X95.54 Y156.946 E12.12801
G1 X95.204 Y156.089 E12.15863
G1 X94.944 Y155.206 E12.18924
G1 X94.761 Y154.304 E12.21985
G1 X94.663 Y153.473 E12.24768
G1 X94.627 Y153.01 E12.26313
G1 X94.596 Y152.042 E12.29534
G1 X94.623 Y150.088 E12.36034
G1 X94.618 Y147.248 E12.4548
G1 X94.596 Y145.504 E12.51281
G1 X94.623 Y143.584 E12.57667
G1 X94.618 Y140.748 E12.671
G1 X94.596 Y139.004 E12.72901
G1 X94.623 Y137.084 E12.79288
G1 X94.618 Y134.248 E12.8872
G1 X94.596 Y132.504 E12.94521
G1 X94.623 Y130.584 E13.00908
G1 X94.618 Y127.748 E13.1034
G1 X94.596 Y126.004 E13.16141
G1 X94.623 Y124.084 E13.22528
G1 X94.618 Y121.248 E13.3196
G1 X94.596 Y119.504 E13.37762
G1 X94.623 Y117.584 E13.44148
G1 X94.618 Y114.748 E13.53581
G1 X94.596 Y113.016 E13.59342
G1 X94.635 Y109.986 E13.6942
G1 X94.618 Y107.766 E13.76804
G1 X94.597 Y106.694 E13.80371
G1 X94.596 Y106.371 E13.81445
G1 X94.615 Y105.514 E13.84296
G1 X94.691 Y104.596 E13.8736
G1 X94.846 Y103.689 E13.9042
G1 X95.08 Y102.798 E13.93484
G1 X95.39 Y101.931 E13.96547
G1 X95.774 Y101.094 E13.99609
G1 X96.229 Y100.294 E14.0267
G1 X96.752 Y99.536 E14.05733
G1 X97.338 Y98.827 E14.08793
G1 X97.423 Y98.741 E14.09195
G0 F1350 X97.984 Y98.171
G0 F7500 X98.371 Y98.359
G1 F1500 X99.067 Y97.784 E14.12198
G1 X99.534 Y97.452 E14.14103
G1 X99.927 Y97.189 E14.15676
G1 X100.704 Y96.718 E14.18698
G1 X101.117 Y96.492 E14.20264
G1 X101.927 Y96.094 E14.23266
G1 X102.77 Y95.769 E14.26271
G1 X103.638 Y95.52 E14.29274
G1 X104.525 Y95.349 E14.32279
G1 X105.765 Y95.243 E14.36418
G1 X106.888 Y95.219 E14.40154
G1 X107.725 Y95.22 E14.42938
G1 X113.44 Y95.238 E14.61946
G1 X121.573 Y95.237 E14.88997
G1 X128.357 Y95.217 E15.1156
G1 X129.067 Y95.225 E15.13922
G1 X129.969 Y95.275 E15.16927
G1 X130.862 Y95.404 E15.19928
G1 X131.741 Y95.613 E15.22933
G1 X132.598 Y95.898 E15.25937
G1 X133.571 Y96.33 E15.29478
G1 X133.76 Y96.426 E15.30183
G1 X134.425 Y96.795 E15.32712
G1 X135.064 Y97.182 E15.35197
G1 X135.815 Y97.684 E15.38201
G1 X136.519 Y98.25 E15.41206
G1 X137.17 Y98.876 E15.4421
G1 X137.762 Y99.557 E15.47211
G1 X138.293 Y100.288 E15.50216
G1 X138.756 Y101.063 E15.53218
G1 X139.15 Y101.876 E15.56223
G1 X139.47 Y102.721 E15.59229
G1 X139.713 Y103.59 E15.6223
G1 X139.879 Y104.478 E15.65234
G1 X139.968 Y105.41 E15.68348
G1 X139.993 Y105.922 E15.70053
G1 X140.007 Y106.482 E15.71916
G1 X140.007 Y106.799 E15.72971
G1 X139.962 Y109.479 E15.81886
G1 X140.004 Y113.04 E15.93731
G1 X139.977 Y114.96 E16.00117
G1 X139.982 Y117.808 E16.0959
G1 X140.004 Y119.54 E16.15351
G1 X139.977 Y121.46 E16.21737
G1 X139.982 Y124.308 E16.3121
G1 X140.004 Y126.04 E16.36971
G1 X139.977 Y127.96 E16.43358
G1 X139.982 Y130.808 E16.5283
G1 X140.004 Y132.54 E16.58591
G1 X139.977 Y134.46 E16.64978
G1 X139.982 Y137.308 E16.7445
G1 X140.004 Y139.04 E16.80211
G1 X139.977 Y140.96 E16.86598
G1 X139.982 Y143.808 E16.9607
G1 X140.004 Y145.54 E17.01832
G1 X139.977 Y147.46 E17.08218
G1 X139.982 Y150.308 E17.17691
G1 X140.004 Y152.038 E17.23445
G1 X139.995 Y152.69 E17.25614
G1 X139.981 Y153.104 E17.26992
G1 X139.9 Y154.004 E17.29997
G1 X139.739 Y154.893 E17.33002
G1 X139.501 Y155.764 E17.36005
G1 X139.186 Y156.61 E17.39008
G1 X138.798 Y157.425 E17.4201
G1 X138.339 Y158.203 E17.45014
G1 X137.813 Y158.937 E17.48018
G1 X137.224 Y159.622 E17.51023
G1 X136.577 Y160.252 E17.54026
G1 X135.877 Y160.822 E17.57029
G1 X135.042 Y161.381 E17.60371
G1 X134.424 Y161.752 E17.62768
G1 X133.838 Y162.078 E17.64998
G1 X133.207 Y162.402 E17.67358
G1 X130.892 Y163.632 E17.76077
G1 X128.084 Y165.238 E17.86836
G1 X127.28 Y165.652 E17.89844
G1 X126.444 Y165.992 E17.92845
G1 X125.581 Y166.257 E17.95848
G1 X124.697 Y166.445 E17.98854
G1 X123.801 Y166.554 E18.01856
G1 X122.709 Y166.579 E18.05489
G1 X121.947 Y166.555 E18.08025
G1 X120.427 Y166.488 E18.13085
G1 X117.86 Y166.447 E18.21624
G1 X115.349 Y166.479 E18.29976
G1 X112.159 Y166.607 E18.40595
G1 X111.256 Y166.58 E18.436
G1 X110.359 Y166.473 E18.46604
G1 X109.475 Y166.287 E18.49609
G1 X108.612 Y166.023 E18.5261
G1 X107.774 Y165.685 E18.55616
G1 X106.923 Y165.246 E18.58801
G1 X104.683 Y163.955 E18.674
G1 X101.065 Y162.034 E18.81024
G1 X100.558 Y161.746 E18.82964
G1 X99.94 Y161.371 E18.85368
G1 X99.189 Y160.869 E18.88372
G1 X98.486 Y160.302 E18.91376
G1 X97.835 Y159.676 E18.9438
G1 X97.243 Y158.994 E18.97384
G1 X96.713 Y158.263 E19.00387
G1 X96.25 Y157.487 E19.03393
G1 X95.858 Y156.674 E19.06394
G1 X95.539 Y155.829 E19.09399
G1 X95.296 Y154.959 E19.12403
G1 X95.13 Y154.071 E19.15408
G1 X95.062 Y153.442 E19.17512
G1 X95.026 Y152.979 E19.19056
G1 X94.996 Y152.047 E19.22158
G1 X95.023 Y150.093 E19.28658
G1 X95.018 Y147.242 E19.3814
G1 X94.996 Y145.51 E19.43901
G1 X95.023 Y143.59 E19.50288
G1 X95.018 Y140.742 E19.5976
G1 X94.996 Y139.01 E19.65521
G1 X95.023 Y137.09 E19.71908
G1 X95.018 Y134.242 E19.8138
G1 X94.996 Y132.51 E19.87142
G1 X95.023 Y130.59 E19.93528
G1 X95.018 Y127.742 E20.03001
G1 X94.996 Y126.01 E20.08762
G1 X95.023 Y124.09 E20.15148
G1 X95.018 Y121.242 E20.24621
G1 X94.996 Y119.51 E20.30382
G1 X95.023 Y117.59 E20.36769
G1 X95.018 Y114.742 E20.46241
G1 X94.996 Y113.021 E20.51966
G1 X95.035 Y109.988 E20.62054
G1 X95.018 Y107.763 E20.69455
G1 X94.997 Y106.687 E20.73034
G1 X94.996 Y106.376 E20.74069
G1 X95.015 Y105.529 E20.76886
G1 X95.09 Y104.629 E20.7989
G1 X95.245 Y103.74 E20.82892
G1 X95.477 Y102.867 E20.85896
G1 X95.786 Y102.018 E20.88901
G1 X96.169 Y101.2 E20.91905
G1 X96.623 Y100.42 E20.94907
G1 X97.144 Y99.682 E20.97912
G1 X97.728 Y98.993 E21.00916
G1 X97.801 Y98.921 E21.01257
G0 F1350 X98.371 Y98.359
G1 F1500 E15.01257
;MESH:Rack.stl
G0 F7500 X106.189 Y106.471
;TYPE:WALL-INNER
G1 F1500 E21.01257
G1 X106.287 Y106.417 E21.01629
G1 X107.711 Y106.42 E21.06365
G1 X113.393 Y106.438 E21.25264
G1 X121.605 Y106.437 E21.52577
G1 X128.714 Y106.414 E21.76222
G1 X128.812 Y106.471 E21.76599
G1 X128.811 Y106.579 E21.76958
G1 X128.589 Y106.702 E21.77802
G1 X128.24 Y106.868 E21.79087
G1 X128.087 Y106.93 E21.79636
G1 X127.908 Y106.995 E21.8027
G1 X127.655 Y107.075 E21.81152
G1 X127.355 Y107.143 E21.82176
G1 X127.229 Y107.161 E21.82599
G1 X127.078 Y107.168 E21.83102
G1 X126.325 Y107.059 E21.85632
G1 X126.037 Y107.039 E21.86592
G1 X125.709 Y107.068 E21.87688
G1 X125.384 Y107.153 E21.88805
G1 X125.085 Y107.291 E21.899
G1 X124.816 Y107.47 E21.90975
G1 X124.576 Y107.694 E21.92067
G1 X124.375 Y107.956 E21.93165
G1 X124.222 Y108.246 E21.94256
G1 X124.133 Y108.507 E21.95173
G1 X123.985 Y109.057 E21.97067
G1 X123.985 Y110.465 E22.0175
G1 X124.129 Y111.028 E22.03683
G1 X124.214 Y111.289 E22.04596
G1 X124.367 Y111.582 E22.05695
G1 X124.566 Y111.845 E22.06792
G1 X124.802 Y112.067 E22.0787
G1 X125.072 Y112.252 E22.08959
G1 X125.376 Y112.393 E22.10073
G1 X125.689 Y112.475 E22.11149
G1 X126.006 Y112.511 E22.1221
G1 X126.295 Y112.497 E22.13173
G1 X127.142 Y112.383 E22.16015
G1 X127.343 Y112.406 E22.16688
G1 X127.65 Y112.473 E22.17733
G1 X127.864 Y112.537 E22.18476
G1 X128.073 Y112.613 E22.19216
G1 X128.223 Y112.675 E22.19756
G1 X128.494 Y112.797 E22.20744
G1 X128.72 Y112.915 E22.21592
G1 X128.812 Y112.969 E22.21947
G1 X128.812 Y113.079 E22.22313
G1 X128.586 Y113.204 E22.23172
G1 X128.428 Y113.281 E22.23757
G1 X128.238 Y113.368 E22.24452
G1 X128.087 Y113.43 E22.24994
G1 X127.908 Y113.495 E22.25628
G1 X127.655 Y113.575 E22.2651
G1 X127.355 Y113.643 E22.27534
G1 X127.229 Y113.661 E22.27957
G1 X127.078 Y113.668 E22.2846
G1 X126.325 Y113.559 E22.3099
G1 X126.037 Y113.539 E22.3195
G1 X125.709 Y113.568 E22.33046
G1 X125.384 Y113.653 E22.34163
G1 X125.085 Y113.791 E22.35258
G1 X124.816 Y113.97 E22.36333
G1 X124.576 Y114.194 E22.37425
G1 X124.375 Y114.456 E22.38523
G1 X124.222 Y114.746 E22.39614
G1 X124.133 Y115.007 E22.40531
G1 X123.985 Y115.557 E22.42425
G1 X123.985 Y116.965 E22.47108
G1 X124.129 Y117.528 E22.49041
G1 X124.214 Y117.789 E22.49954
G1 X124.367 Y118.082 E22.51053
