;FLAVOR:Marlin
;TIME:4760
;Filament used: 2.72887m
;Layer height: 0.28
;MINX:98.084
;MINY:52.24
;MINZ:0.28
;MAXX:135.438
;MAXY:153.729
;MAXZ:29.96
;Generated with Cura_SteamEngine 4.5.0
M140 S60
M105
M190 S60
M104 S200
M105
M109 S200
M82 ;absolute extrusion mode
; Ender 3 Custom Start G-code
G92 E0 ; Reset Extruder
G28 ; Home all axes
G1 Z2.0 F3000 ; Move Z Axis up little to prevent scratching of Heat Bed
G1 X0.1 Y20 Z0.3 F5000.0 ; Move to start position
G1 X0.1 Y200.0 Z0.3 F1500.0 E15 ; Draw the first line
G1 X0.4 Y200.0 Z0.3 F5000.0 ; Move to side a little
G1 X0.4 Y20 Z0.3 F1500.0 E30 ; Draw the second line
G92 E0 ; Reset Extruder
G1 Z2.0 F3000 ; Move Z Axis up little to prevent scratching of Heat Bed
G1 X5 Y20 Z0.3 F5000.0 ; Move over to prevent blob squish
G92 E0
G92 E0
G1 F2700 E-5
;LAYER_COUNT:107
;LAYER:0
M107
G0 F6000 X109.016 Y59.713 Z0.28
;TYPE:SKIRT
G1 F2700 E0
G1 F1200 X109.622 Y58.654 E0.05681
G1 X109.997 Y58.083 E0.08862
G1 X110.273 Y57.681 E0.11133
G1 X110.836 Y56.931 E0.155
G1 X111.461 Y56.232 E0.19866
G1 X112.143 Y55.589 E0.24231
G1 X113.023 Y54.902 E0.29429
G1 X113.338 Y54.681 E0.31221
G1 X113.661 Y54.463 E0.33035
G1 X114.061 Y54.203 E0.35257
G1 X114.869 Y53.726 E0.39626
G1 X115.714 Y53.319 E0.43993
G1 X116.59 Y52.986 E0.48357
G1 X117.453 Y52.739 E0.52537
G1 X117.843 Y52.644 E0.54406
G1 X118.506 Y52.503 E0.57562
G1 X119.014 Y52.412 E0.59965
G1 X119.944 Y52.286 E0.64335
G1 X120.881 Y52.24 E0.68704
G1 X121.818 Y52.274 E0.7307
G1 X122.909 Y52.415 E0.78192
G1 X123.291 Y52.484 E0.79999
G1 X123.615 Y52.548 E0.81537
G1 X124.092 Y52.649 E0.83808
G1 X125 Y52.882 E0.88173
G1 X125.885 Y53.192 E0.92539
G1 X126.741 Y53.576 E0.96908
G1 X127.722 Y54.132 E1.02158
G1 X128.047 Y54.339 E1.03952
G1 X128.365 Y54.549 E1.05727
G1 X128.78 Y54.834 E1.08071
G1 X129.53 Y55.398 E1.12441
G1 X130.229 Y56.023 E1.16807
G1 X130.872 Y56.706 E1.21175
G1 X131.607 Y57.656 E1.26768
G1 X132.022 Y58.264 E1.30196
G1 X132.267 Y58.642 E1.32293
G1 X132.743 Y59.45 E1.3666
G1 X133.148 Y60.296 E1.41027
G1 X133.48 Y61.173 E1.45394
G1 X133.717 Y61.994 E1.49373
G1 X133.801 Y62.335 E1.51008
G1 X133.94 Y62.984 E1.54099
G1 X134.04 Y63.53 E1.56683
G1 X134.17 Y64.459 E1.61051
G1 X134.219 Y65.396 E1.6542
G1 X134.209 Y65.994 E1.68205
G1 X134.164 Y67.016 E1.72969
G1 X134.088 Y69.617 E1.85085
G1 X134.084 Y72.142 E1.96843
G1 X134.153 Y74.661 E2.08577
G1 X134.292 Y77.158 E2.20222
G1 X134.525 Y79.898 E2.33026
G1 X134.646 Y81.132 E2.388
G1 X134.698 Y82.068 E2.43165
G1 X134.687 Y82.713 E2.46169
G1 X134.606 Y84.472 E2.54368
G1 X134.535 Y87.058 E2.66414
G1 X134.538 Y89.583 E2.78172
G1 X134.611 Y92.081 E2.89808
G1 X134.757 Y94.618 E3.01641
G1 X134.973 Y97.124 E3.13354
G1 X135.201 Y99.16 E3.22893
G1 X135.363 Y100.472 E3.29049
G1 X135.438 Y101.407 E3.33417
G1 X135.433 Y102.345 E3.37784
G1 X135.367 Y103.133 E3.41467
G1 X135.304 Y103.657 E3.43924
G1 X134.998 Y106.256 E3.5611
G1 X134.771 Y108.801 E3.68007
G1 X134.619 Y111.318 E3.79749
G1 X134.539 Y113.801 E3.91317
G1 X134.53 Y116.666 E4.04658
G1 X134.539 Y117.315 E4.0768
G1 X134.51 Y118.275 E4.12152
G1 X134.385 Y119.962 E4.20029
G1 X134.243 Y122.52 E4.31958
G1 X134.174 Y125.046 E4.43725
G1 X134.176 Y127.57 E4.55478
G1 X134.249 Y130.054 E4.67049
G1 X134.397 Y132.622 E4.79027
G1 X134.451 Y133.286 E4.82129
G1 X134.502 Y134.031 E4.85606
G1 X134.526 Y134.968 E4.8997
G1 X134.415 Y136.354 E4.96445
G1 X134.374 Y136.638 E4.97781
G1 X134.294 Y137.117 E5.00042
G1 X134.217 Y137.52 E5.01953
G1 X133.709 Y140.057 E5.14001
G1 X133.33 Y142.235 E5.24295
G1 X133.244 Y142.663 E5.26328
G1 X133.11 Y143.29 E5.29313
G1 X132.875 Y144.198 E5.3368
G1 X132.564 Y145.083 E5.38048
G1 X132.178 Y145.937 E5.42412
G1 X131.778 Y146.662 E5.46268
G1 X131.5 Y147.124 E5.48779
G1 X131.132 Y147.696 E5.51946
G1 X130.828 Y148.137 E5.5444
G1 X130.263 Y148.886 E5.58808
G1 X129.636 Y149.584 E5.63177
G1 X128.953 Y150.226 E5.67542
G1 X128.187 Y150.829 E5.72082
G1 X127.662 Y151.206 E5.75091
G1 X127.228 Y151.502 E5.77537
G1 X126.87 Y151.734 E5.79524
G1 X126.062 Y152.21 E5.83891
G1 X125.216 Y152.616 E5.8826
G1 X124.339 Y152.948 E5.92626
G1 X123.36 Y153.222 E5.9736
G1 X122.753 Y153.362 E6.00261
G1 X122.277 Y153.46 E6.02524
G1 X121.811 Y153.546 E6.0473
G1 X120.883 Y153.677 E6.09094
G1 X119.659 Y153.728 E6.14799
G1 X119.437 Y153.725 E6.15833
G1 X116.772 Y153.719 E6.28242
G1 X115.947 Y153.729 E6.32084
G1 X115.009 Y153.7 E6.36454
G1 X113.864 Y153.556 E6.41827
G1 X113.337 Y153.461 E6.44321
G1 X112.963 Y153.387 E6.46096
G1 X112.445 Y153.275 E6.48564
G1 X111.538 Y153.037 E6.5293
G1 X110.654 Y152.724 E6.57297
G1 X109.8 Y152.336 E6.61665
G1 X108.983 Y151.878 E6.66026
G1 X108.629 Y151.659 E6.67964
G1 X108.181 Y151.366 E6.70457
G1 X107.652 Y151.002 E6.73447
G1 X106.902 Y150.438 E6.77816
G1 X106.204 Y149.812 E6.82182
G1 X105.561 Y149.129 E6.8655
G1 X104.974 Y148.386 E6.90959
G1 X104.697 Y148.003 E6.9316
G1 X104.362 Y147.514 E6.9592
G1 X104.038 Y147.011 E6.98706
G1 X103.565 Y146.201 E7.03074
G1 X103.161 Y145.354 E7.07444
G1 X102.832 Y144.476 E7.1181
G1 X102.571 Y143.54 E7.16334
G1 X102.455 Y143.04 E7.18724
G1 X102.353 Y142.55 E7.21055
G1 X102.248 Y141.981 E7.23749
G1 X102.117 Y141.052 E7.28118
G1 X102.066 Y140.116 E7.32483
G1 X102.076 Y139.494 E7.35379
G1 X102.109 Y138.752 E7.38838
G1 X102.188 Y136.148 E7.50969
G1 X102.195 Y133.616 E7.62759
G1 X102.132 Y131.179 E7.7411
G1 X102.08 Y129.729 E7.80866
G1 X102.075 Y129.287 E7.82925
G1 X102.009 Y126.709 E7.94933
G1 X101.874 Y124.191 E8.06675
G1 X101.669 Y121.683 E8.18392
G1 X101.393 Y119.188 E8.3008
G1 X101.045 Y116.687 E8.41838
G1 X100.625 Y114.194 E8.5361
G1 X100.143 Y111.754 E8.65192
G1 X99.588 Y109.313 E8.76848
G1 X98.941 Y106.791 E8.88972
G1 X98.636 Y105.634 E8.94543
G1 X98.469 Y104.923 E8.97944
G1 X98.355 Y104.376 E9.00546
G1 X98.261 Y103.859 E9.02993
G1 X98.133 Y102.93 E9.07359
G1 X98.084 Y101.993 E9.11728
G1 X98.116 Y101.056 E9.16094
G1 X98.163 Y100.572 E9.18358
G1 X98.195 Y100.307 E9.19601
G1 X98.361 Y99.318 E9.24271
G1 X98.535 Y98.507 E9.28133
G1 X98.681 Y97.907 E9.31009
G1 X98.854 Y97.281 E9.34033
G1 X99.344 Y95.592 E9.42222
G1 X99.976 Y93.162 E9.53913
G1 X100.549 Y90.683 E9.65761
G1 X101.035 Y88.249 E9.77318
G1 X101.464 Y85.744 E9.89152
G1 X101.817 Y83.266 E10.00808
G1 X102.098 Y80.794 E10.12392
G1 X102.314 Y78.243 E10.24313
G1 X102.458 Y75.737 E10.36002
G1 X102.51 Y74.546 E10.41553
G1 X102.59 Y73.611 E10.45922
G1 X102.751 Y72.687 E10.5029
G1 X103.011 Y71.712 E10.54988
G1 X103.28 Y70.861 E10.59144
G1 X103.471 Y70.307 E10.61873
G1 X103.651 Y69.828 E10.64256
G1 X104.018 Y68.965 E10.68622
G1 X104.448 Y68.151 E10.72909
G1 X104.969 Y67.26 E10.77715
G1 X105.473 Y66.423 E10.82265
G1 X106.694 Y64.26 E10.9383
G1 X107.877 Y62.015 E11.05647
G1 X108.452 Y60.839 E11.11742
G1 X109.016 Y59.713 E11.17606
G0 F6000 X109.373 Y59.892
G1 F1200 X109.957 Y58.872 E11.23079
G1 X110.326 Y58.309 E11.26214
G1 X110.602 Y57.907 E11.28484
G1 X111.156 Y57.172 E11.3277
G1 X111.771 Y56.487 E11.37056
G1 X112.444 Y55.858 E11.41346
G1 X113.253 Y55.23 E11.46115
G1 X113.568 Y55.009 E11.47906
G1 X113.879 Y54.798 E11.49656
G1 X114.279 Y54.538 E11.51878
G1 X115.072 Y54.071 E11.56163
G1 X115.903 Y53.674 E11.60452
G1 X116.765 Y53.35 E11.6474
G1 X117.547 Y53.127 E11.68526
G1 X117.937 Y53.032 E11.70395
G1 X118.577 Y52.897 E11.73441
G1 X119.085 Y52.806 E11.75844
G1 X119.997 Y52.683 E11.80129
G1 X120.917 Y52.64 E11.84418
G1 X121.837 Y52.677 E11.88705
G1 X122.838 Y52.809 E11.93406
G1 X123.22 Y52.878 E11.95214
G1 X123.532 Y52.939 E11.96694
G1 X124.009 Y53.04 E11.98965
G1 X124.9 Y53.27 E12.03249
G1 X125.769 Y53.576 E12.07539
G1 X126.607 Y53.956 E12.11824
G1 X127.507 Y54.469 E12.16648
G1 X127.832 Y54.676 E12.18442
G1 X128.139 Y54.879 E12.20156
G1 X128.554 Y55.164 E12.225
G1 X129.289 Y55.718 E12.26786
G1 X129.974 Y56.333 E12.31072
G1 X130.603 Y57.006 E12.35362
G1 X131.278 Y57.883 E12.40515
G1 X131.686 Y58.482 E12.4389
G1 X131.931 Y58.86 E12.45987
G1 X132.398 Y59.653 E12.50272
G1 X132.794 Y60.484 E12.54559
G1 X133.116 Y61.347 E12.58848
G1 X133.328 Y62.09 E12.62446
G1 X133.412 Y62.431 E12.64081
G1 X133.547 Y63.056 E12.67058
G1 X133.647 Y63.602 E12.69643
G1 X133.773 Y64.514 E12.7393
G1 X133.82 Y65.434 E12.7822
G1 X133.81 Y65.976 E12.80744
G1 X133.764 Y67.016 E12.85591
G1 X133.688 Y69.604 E12.97647
G1 X133.684 Y72.152 E13.09512
G1 X133.753 Y74.659 E13.2119
G1 X133.895 Y77.215 E13.3311
G1 X134.127 Y79.937 E13.45831
G1 X134.248 Y81.171 E13.51604
G1 X134.298 Y82.09 E13.5589
G1 X134.288 Y82.695 E13.58707
G1 X134.205 Y84.495 E13.67098
G1 X134.135 Y87.048 E13.7899
G1 X134.138 Y89.596 E13.90855
G1 X134.211 Y92.08 E14.02426
G1 X134.358 Y94.639 E14.14362
G1 X134.575 Y97.163 E14.26158
G1 X134.815 Y99.296 E14.36153
G1 X134.966 Y100.521 E14.419
G1 X135.039 Y101.439 E14.46188
G1 X135.032 Y102.359 E14.50472
G1 X134.97 Y103.085 E14.53865
G1 X134.907 Y103.609 E14.56322
G1 X134.597 Y106.244 E14.68677
G1 X134.374 Y108.74 E14.80345
G1 X134.22 Y111.281 E14.92199
G1 X134.139 Y113.821 E15.04032
G1 X134.13 Y116.67 E15.17299
G1 X134.139 Y117.32 E15.20326
G1 X134.111 Y118.246 E15.24639
G1 X133.988 Y119.912 E15.32418
G1 X133.843 Y122.523 E15.44595
G1 X133.774 Y125.035 E15.56296
G1 X133.776 Y127.582 E15.68156
G1 X133.85 Y130.089 E15.79835
G1 X133.994 Y132.599 E15.91542
G1 X134.052 Y133.313 E15.94877
G1 X134.103 Y134.058 E15.98354
G1 X134.126 Y134.978 E16.0264
G1 X134.019 Y136.297 E16.08802
G1 X133.978 Y136.581 E16.10138
G1 X133.901 Y137.043 E16.12319
G1 X133.825 Y137.441 E16.14205
G1 X133.317 Y139.981 E16.26267
G1 X132.937 Y142.157 E16.36553
G1 X132.853 Y142.579 E16.38556
G1 X132.719 Y143.206 E16.41542
G1 X132.488 Y144.097 E16.45828
G1 X132.18 Y144.965 E16.50116
G1 X131.798 Y145.803 E16.54405
G1 X131.435 Y146.456 E16.57884
G1 X131.157 Y146.918 E16.60394
G1 X130.802 Y147.469 E16.63446
G1 X130.498 Y147.91 E16.65941
G1 X129.943 Y148.645 E16.70229
G1 X129.327 Y149.328 E16.74512
G1 X128.653 Y149.956 E16.78802
G1 X127.954 Y150.504 E16.82937
G1 X127.429 Y150.881 E16.85947
G1 X127.011 Y151.166 E16.88303
G1 X126.653 Y151.398 E16.90289
G1 X125.859 Y151.865 E16.94578
G1 X125.028 Y152.261 E16.98865
G1 X124.166 Y152.584 E17.03151
G1 X123.27 Y152.832 E17.0748
G1 X122.663 Y152.972 E17.10381
G1 X122.205 Y153.067 E17.12559
G1 X121.739 Y153.153 E17.14765
G1 X120.827 Y153.281 E17.19054
G1 X119.665 Y153.328 E17.24469
G1 X119.443 Y153.325 E17.25503
G1 X116.768 Y153.319 E17.37959
G1 X115.942 Y153.329 E17.41805
G1 X115.022 Y153.3 E17.46091
G1 X113.934 Y153.162 E17.51198
G1 X113.407 Y153.067 E17.53691
G1 X113.048 Y152.996 E17.55395
G1 X112.53 Y152.884 E17.57863
G1 X111.639 Y152.65 E17.62153
G1 X110.772 Y152.34 E17.6644
G1 X109.936 Y151.956 E17.70724
G1 X109.193 Y151.537 E17.74696
G1 X108.839 Y151.318 E17.76634
G1 X108.407 Y151.036 E17.79036
G1 X107.878 Y150.672 E17.82026
G1 X107.143 Y150.118 E17.86312
G1 X106.459 Y149.502 E17.90598
G1 X105.831 Y148.829 E17.94885
G1 X105.298 Y148.152 E17.98897
G1 X105.021 Y147.769 E18.01098
G1 X104.699 Y147.297 E18.03758
G1 X104.375 Y146.794 E18.06544
G1 X103.91 Y145.999 E18.10833
G1 X103.516 Y145.167 E18.1512
G1 X103.196 Y144.304 E18.19405
G1 X102.96 Y143.45 E18.23531
G1 X102.844 Y142.95 E18.25921
G1 X102.746 Y142.478 E18.28166
G1 X102.641 Y141.909 E18.3086
G1 X102.513 Y140.997 E18.35148
G1 X102.465 Y140.077 E18.39438
G1 X102.476 Y139.512 E18.42069
G1 X102.509 Y138.783 E18.45467
G1 X102.588 Y136.161 E18.57682
G1 X102.595 Y133.606 E18.69579
G1 X102.532 Y131.163 E18.80959
G1 X102.48 Y129.724 E18.87664
G1 X102.476 Y129.369 E18.89317
G1 X102.407 Y126.678 E19.01851
G1 X102.274 Y124.174 E19.13527
G1 X102.066 Y121.64 E19.25366
G1 X101.788 Y119.125 E19.37149
G1 X101.441 Y116.631 E19.48874
G1 X101.018 Y114.121 E19.60726
G1 X100.531 Y111.659 E19.72412
G1 X99.972 Y109.196 E19.84173
G1 X99.357 Y106.799 E19.95696
G1 X99.106 Y105.862 E20.00213
G1 X99.026 Y105.543 E20.01744
G1 X98.859 Y104.832 E20.05145
G1 X98.749 Y104.304 E20.07656
G1 X98.655 Y103.787 E20.10103
G1 X98.53 Y102.875 E20.14389
G1 X98.484 Y101.956 E20.18674
G1 X98.56 Y100.62 E20.24905
G1 X98.592 Y100.355 E20.26148
G1 X98.752 Y99.402 E20.30648
G1 X98.926 Y98.591 E20.3451
G1 X99.067 Y98.013 E20.3728
G1 X99.238 Y97.393 E20.40275
G1 X99.727 Y95.708 E20.48445
G1 X100.369 Y93.238 E20.60328
G1 X100.936 Y90.785 E20.72052
G1 X101.428 Y88.323 E20.83742
G1 X101.862 Y85.791 E20.95704
G1 X102.211 Y83.336 E21.07251
G1 X102.499 Y80.802 E21.19126
G1 X102.711 Y78.299 E21.30823
G1 X102.856 Y75.78 E21.42572
G1 X102.909 Y74.563 E21.48244
G1 X102.989 Y73.646 E21.5253
G1 X103.149 Y72.739 E21.56819
G1 X103.392 Y71.832 E21.61191
G1 X103.661 Y70.981 E21.65347
G1 X103.845 Y70.447 E21.67977
G1 X104.025 Y69.968 E21.7036
G1 X104.386 Y69.121 E21.74647
G1 X104.794 Y68.353 E21.78696
G1 X105.312 Y67.467 E21.83475
G1 X105.816 Y66.63 E21.88025
G1 X107.046 Y64.449 E21.99684
G1 X108.219 Y62.224 E22.11396
G1 X108.809 Y61.018 E22.17648
G1 X109.373 Y59.892 E22.23512
G0 F6000 X109.731 Y60.071
G1 F1200 X110.293 Y59.089 E22.28781
G1 X110.656 Y58.536 E22.31861
G1 X110.932 Y58.134 E22.34131
G1 X111.476 Y57.413 E22.38337
G1 X112.081 Y56.742 E22.42544
G1 X112.743 Y56.128 E22.46748
G1 X113.483 Y55.557 E22.51101
G1 X113.798 Y55.336 E22.52892
G1 X114.097 Y55.134 E22.54573
G1 X114.497 Y54.874 E22.56794
G1 X115.275 Y54.416 E22.60998
G1 X116.091 Y54.028 E22.65205
G1 X116.938 Y53.714 E22.69411
G1 X117.642 Y53.516 E22.72817
G1 X118.032 Y53.421 E22.74686
G1 X118.647 Y53.291 E22.77613
G1 X119.155 Y53.2 E22.80016
G1 X120.051 Y53.08 E22.84225
G1 X120.953 Y53.04 E22.8843
G1 X121.855 Y53.08 E22.92634
G1 X122.767 Y53.202 E22.96918
G1 X123.149 Y53.271 E22.98726
G1 X123.449 Y53.33 E23.00149
G1 X123.926 Y53.431 E23.0242
G1 X124.8 Y53.657 E23.06623
G1 X125.651 Y53.96 E23.1083
G1 X126.472 Y54.336 E23.15034
G1 X127.293 Y54.807 E23.19442
G1 X127.618 Y55.014 E23.21236
G1 X127.912 Y55.209 E23.22879
G1 X128.327 Y55.494 E23.25223
G1 X129.048 Y56.038 E23.29429
G1 X129.719 Y56.643 E23.33636
G1 X130.333 Y57.305 E23.3784
G1 X130.949 Y58.11 E23.4256
G1 X131.35 Y58.699 E23.45878
G1 X131.595 Y59.077 E23.47975
G1 X132.053 Y59.856 E23.52183
G1 X132.439 Y60.672 E23.56386
G1 X132.752 Y61.52 E23.60595
G1 X132.94 Y62.185 E23.63813
G1 X133.024 Y62.526 E23.65449
G1 X133.153 Y63.128 E23.68315
G1 X133.253 Y63.674 E23.709
G1 X133.376 Y64.569 E23.75107
G1 X133.42 Y65.471 E23.79312
G1 X133.41 Y65.959 E23.81585
G1 X133.367 Y66.929 E23.86106
G1 X133.288 Y69.627 E23.98674
G1 X133.284 Y72.162 E24.10478
G1 X133.353 Y74.693 E24.22268
G1 X133.494 Y77.233 E24.34114
G1 X133.729 Y79.976 E24.46933
G1 X133.85 Y81.21 E24.52707
G1 X133.899 Y82.111 E24.56908
G1 X133.888 Y82.677 E24.59544
G1 X133.805 Y84.467 E24.67888
G1 X133.735 Y87.038 E24.79864
G1 X133.738 Y89.573 E24.91668
G1 X133.813 Y92.15 E25.03673
G1 X133.958 Y94.663 E25.15394
G1 X134.177 Y97.203 E25.27265
G1 X134.407 Y99.258 E25.36894
G1 X134.569 Y100.57 E25.43049
G1 X134.64 Y101.47 E25.47253
G1 X134.631 Y102.373 E25.51458
G1 X134.573 Y103.038 E25.54567
G1 X134.51 Y103.562 E25.57024
G1 X134.199 Y106.199 E25.69388
G1 X133.972 Y108.751 E25.81318
G1 X133.821 Y111.245 E25.92953
G1 X133.739 Y113.807 E26.04888
G1 X133.73 Y116.675 E26.18243
G1 X133.739 Y117.326 E26.21275
G1 X133.712 Y118.216 E26.25421
G1 X133.586 Y119.912 E26.3334
G1 X133.443 Y122.49 E26.45363
G1 X133.374 Y125.025 E26.57171
G1 X133.376 Y127.559 E26.6897
G1 X133.451 Y130.123 E26.80915
G1 X133.597 Y132.655 E26.92724
G1 X133.653 Y133.34 E26.95924
G1 X133.704 Y134.085 E26.99402
G1 X133.726 Y134.988 E27.03608
G1 X133.623 Y136.239 E27.09453
G1 X133.582 Y136.523 E27.10789
G1 X133.508 Y136.968 E27.12889
G1 X133.433 Y137.363 E27.14761
G1 X132.923 Y139.913 E27.2687
G1 X132.545 Y142.08 E27.37113
G1 X132.462 Y142.496 E27.39088
G1 X132.328 Y143.123 E27.42074
G1 X132.1 Y143.997 E27.4628
G1 X131.796 Y144.847 E27.50483
G1 X131.418 Y145.667 E27.54688
G1 X131.093 Y146.25 E27.57796
G1 X130.815 Y146.712 E27.60306
G1 X130.473 Y147.242 E27.63244
G1 X130.169 Y147.683 E27.65738
G1 X129.624 Y148.403 E27.69942
G1 X129.017 Y149.072 E27.74149
G1 X128.354 Y149.685 E27.78353
G1 X127.721 Y150.179 E27.82092
G1 X127.196 Y150.556 E27.85102
G1 X126.793 Y150.831 E27.87374
G1 X126.435 Y151.063 E27.8936
G1 X125.656 Y151.52 E27.93566
