;FLAVOR:Marlin
;TIME:8324
;Filament used: 8.80395m
;Layer height: 0.28
;MINX:8.33
;MINY:14.718
;MINZ:0.28
;MAXX:226.669
;MAXY:220.282
;MAXZ:5.32
;Generated with Cura_SteamEngine 4.5.0
M140 S60
M105
M190 S60
M104 S200
M105
M109 S200
M82 ;absolute extrusion mode
; Ender 3 Custom Start G-code
G92 E0 ; Reset Extruder
G28 ; Home all axes
G1 Z2.0 F3000 ; Move Z Axis up little to prevent scratching of Heat Bed
G1 X0.1 Y20 Z0.3 F5000.0 ; Move to start position
G1 X0.1 Y200.0 Z0.3 F1500.0 E15 ; Draw the first line
G1 X0.4 Y200.0 Z0.3 F5000.0 ; Move to side a little
G1 X0.4 Y20 Z0.3 F1500.0 E30 ; Draw the second line
G92 E0 ; Reset Extruder
G1 Z2.0 F3000 ; Move Z Axis up little to prevent scratching of Heat Bed
G1 X5 Y20 Z0.3 F5000.0 ; Move over to prevent blob squish
G92 E0
G92 E0
G1 F2700 E-5
;LAYER_COUNT:19
;LAYER:0
M107
G0 F6000 X49.455 Y40.865 Z0.28
;TYPE:SKIRT
G1 F2700 E0
G1 F1200 X50.087 Y40.148 E0.04451
G1 X50.655 Y39.534 E0.08345
G1 X51.282 Y38.946 E0.12348
G1 X52.039 Y38.336 E0.16875
G1 X52.711 Y37.824 E0.20809
G1 X53.451 Y37.342 E0.24921
G1 X54.454 Y36.792 E0.30247
G1 X55.027 Y36.497 E0.33248
G1 X55.808 Y36.163 E0.37204
G1 X56.758 Y35.836 E0.41882
G1 X57.532 Y35.593 E0.45659
G1 X58.365 Y35.396 E0.49645
G1 X59.272 Y35.249 E0.53924
G1 X59.942 Y35.152 E0.57076
G1 X62.611 Y34.728 E0.6966
G1 X65.235 Y34.234 E0.82093
G1 X67.826 Y33.671 E0.94439
G1 X70.37 Y33.041 E1.06643
G1 X72.976 Y32.319 E1.19235
G1 X75.477 Y31.547 E1.31423
G1 X78.045 Y30.675 E1.44051
G1 X80.504 Y29.762 E1.56265
G1 X82.976 Y28.763 E1.6868
G1 X85.4 Y27.702 E1.81001
G1 X87.856 Y26.545 E1.93643
G1 X89.568 Y25.686 E2.02562
G1 X91.863 Y24.506 E2.14578
G1 X93.616 Y23.634 E2.23695
G1 X95.977 Y22.417 E2.36063
G1 X98.296 Y21.139 E2.48392
G1 X100.592 Y19.787 E2.60799
G1 X102.866 Y18.362 E2.73295
G1 X104.58 Y17.226 E2.8287
G1 X105.673 Y16.486 E2.89017
G1 X106.268 Y16.131 E2.92243
G1 X106.899 Y15.847 E2.95465
G1 X107.498 Y15.654 E2.98395
G1 X108.023 Y15.518 E3.00921
G1 X110.275 Y14.997 E3.11684
G1 X110.948 Y14.852 E3.14889
G1 X111.633 Y14.745 E3.18118
G1 X112.325 Y14.718 E3.21342
G1 X113.215 Y14.802 E3.25505
G1 X116.194 Y15.307 E3.39574
G1 X118.864 Y15.683 E3.5213
G1 X121.521 Y15.981 E3.64579
G1 X124.139 Y16.199 E3.76812
G1 X126.807 Y16.346 E3.89254
G1 X129.468 Y16.417 E4.01649
G1 X132.119 Y16.413 E4.13994
G1 X135.746 Y16.287 E4.30893
G1 X136.688 Y16.244 E4.35284
G1 X143.752 Y16.084 E4.68185
G1 X144.915 Y16.077 E4.736
G1 X152.181 Y16.24 E5.07443
G1 X153.818 Y16.301 E5.1507
G1 X155.374 Y16.373 E5.22324
G1 X158.005 Y16.419 E5.34576
G1 X160.704 Y16.392 E5.47145
G1 X163.301 Y16.291 E5.59247
G1 X165.993 Y16.11 E5.7181
G1 X168.657 Y15.856 E5.84271
G1 X171.253 Y15.534 E5.96452
G1 X173.898 Y15.129 E6.08911
G1 X175.257 Y14.884 E6.15341
G1 X175.792 Y14.797 E6.17865
G1 X176.481 Y14.725 E6.21091
G1 X177.173 Y14.734 E6.24314
G1 X177.99 Y14.848 E6.28155
G1 X179.076 Y15.077 E6.33323
G1 X180.678 Y15.449 E6.40981
G1 X181.4 Y15.627 E6.44444
G1 X182.062 Y15.832 E6.4767
G1 X182.696 Y16.111 E6.50896
G1 X183.331 Y16.487 E6.54332
G1 X185.632 Y18.047 E6.67277
G1 X187.864 Y19.469 E6.796
G1 X190.151 Y20.835 E6.92004
G1 X192.477 Y22.138 E7.04419
G1 X195.841 Y23.874 E7.22046
G1 X197.479 Y24.68 E7.30546
G1 X199.377 Y25.658 E7.40488
G1 X199.906 Y25.94 E7.4328
G1 X200.226 Y26.123 E7.44996
G1 X201.226 Y26.739 E7.50465
G1 X203.121 Y27.955 E7.6095
G1 X203.532 Y28.227 E7.63245
G1 X203.838 Y28.444 E7.64991
G1 X204.821 Y29.188 E7.70732
G1 X206.517 Y30.52 E7.80774
G1 X206.954 Y30.873 E7.83389
G1 X207.233 Y31.112 E7.851
G1 X208.138 Y31.941 E7.90815
G1 X209.718 Y33.447 E8.00979
G1 X210.102 Y33.824 E8.03484
G1 X210.351 Y34.082 E8.05154
G1 X211.19 Y35.012 E8.10986
G1 X212.559 Y36.59 E8.20714
G1 X212.953 Y37.056 E8.23556
G1 X213.186 Y37.35 E8.25302
G1 X213.929 Y38.351 E8.31107
G1 X215.176 Y40.098 E8.41102
G1 X215.487 Y40.546 E8.43641
G1 X215.69 Y40.86 E8.45382
G1 X216.314 Y41.893 E8.51002
G1 X217.416 Y43.796 E8.61241
G1 X217.682 Y44.27 E8.63772
G1 X217.855 Y44.601 E8.65511
G1 X218.373 Y45.678 E8.71076
G1 X219.274 Y47.644 E8.81146
G1 X219.517 Y48.196 E8.83955
G1 X219.651 Y48.526 E8.85613
G1 X220.06 Y49.63 E8.91095
G1 X220.795 Y51.744 E9.01517
G1 X220.963 Y52.252 E9.04008
G1 X221.065 Y52.595 E9.05675
G1 X221.372 Y53.755 E9.11262
G1 X221.882 Y55.84 E9.21257
G1 X222.017 Y56.422 E9.24039
G1 X222.092 Y56.803 E9.25847
G1 X222.284 Y57.973 E9.31368
G1 X222.59 Y60.071 E9.4124
G1 X222.713 Y61.016 E9.45678
G1 X222.825 Y62.161 E9.51035
G1 X223.121 Y64.788 E9.63345
G1 X223.498 Y67.445 E9.75841
G1 X223.946 Y70.074 E9.88259
G1 X224.459 Y72.647 E10.00476
G1 X225.056 Y75.25 E10.12911
G1 X225.729 Y77.844 E10.2539
G1 X226.442 Y80.32 E10.37388
G1 X226.595 Y80.996 E10.40615
G1 X226.669 Y81.684 E10.43837
G1 X226.662 Y82.396 E10.47153
G1 X226.621 Y82.915 E10.49577
G1 X226.37 Y85.277 E10.60637
G1 X226.287 Y85.959 E10.63836
G1 X226.164 Y86.64 E10.67059
G1 X225.963 Y87.303 E10.70285
G1 X225.637 Y88.035 E10.74016
G1 X225.012 Y89.208 E10.80205
G1 X223.795 Y91.564 E10.92552
G1 X222.642 Y93.961 E11.04938
G1 X221.551 Y96.405 E11.17401
G1 X220.537 Y98.856 E11.29752
G1 X219.582 Y101.363 E11.42244
G1 X218.718 Y103.849 E11.54499
G1 X217.923 Y106.357 E11.6675
G1 X217.265 Y108.637 E11.778
G1 X215.518 Y114.711 E12.07229
G1 X215.248 Y115.594 E12.11529
G1 X214.981 Y116.395 E12.1546
G1 X212.89 Y122.494 E12.45483
G1 X212.532 Y123.489 E12.50406
G1 X212.379 Y123.881 E12.52366
G1 X209.921 Y130.046 E12.8327
G1 X209.511 Y131.03 E12.88234
G1 X209.355 Y131.383 E12.90031
G1 X206.573 Y137.47 E13.21195
G1 X206.126 Y138.411 E13.26046
G1 X205.966 Y138.73 E13.27707
G1 X202.851 Y144.746 E13.59253
G1 X202.361 Y145.655 E13.64061
G1 X201.173 Y147.707 E13.75102
G1 X199.87 Y150.022 E13.87472
G1 X198.63 Y152.38 E13.99877
G1 X197.452 Y154.783 E14.12339
G1 X196.345 Y157.212 E14.24769
G1 X195.319 Y159.642 E14.37051
G1 X194.343 Y162.144 E14.49556
G1 X193.467 Y164.606 E14.61725
G1 X192.636 Y167.159 E14.74226
G1 X191.883 Y169.719 E14.86652
G1 X191.21 Y172.269 E14.98932
G1 X190.603 Y174.863 E15.11337
G1 X190.066 Y177.488 E15.23813
G1 X189.613 Y180.091 E15.36116
G1 X189.23 Y182.715 E15.48464
G1 X188.921 Y185.357 E15.6085
G1 X188.869 Y185.9 E15.6339
G1 X188.82 Y186.34 E15.65452
G1 X188.739 Y186.862 E15.67911
G1 X188.538 Y187.845 E15.72583
G1 X188.36 Y188.621 E15.76291
G1 X188.102 Y189.459 E15.80374
G1 X187.733 Y190.4 E15.8508
G1 X187.425 Y191.129 E15.88765
G1 X187.027 Y191.907 E15.92834
G1 X186.502 Y192.768 E15.9753
G1 X186.075 Y193.431 E16.01202
G1 X185.545 Y194.135 E16.05305
G1 X184.913 Y194.852 E16.09756
G1 X184.345 Y195.466 E16.13651
G1 X183.718 Y196.054 E16.17653
G1 X182.961 Y196.664 E16.2218
G1 X182.289 Y197.176 E16.26114
G1 X181.549 Y197.658 E16.30226
G1 X180.546 Y198.208 E16.35553
G1 X179.973 Y198.503 E16.38554
G1 X179.192 Y198.837 E16.42509
G1 X178.242 Y199.164 E16.47187
G1 X177.468 Y199.407 E16.50965
G1 X176.635 Y199.604 E16.54951
G1 X175.728 Y199.751 E16.59229
G1 X175.058 Y199.848 E16.62381
G1 X172.389 Y200.272 E16.74965
G1 X169.765 Y200.766 E16.87398
G1 X167.174 Y201.329 E16.99745
G1 X164.63 Y201.959 E17.11948
G1 X162.024 Y202.681 E17.2454
G1 X159.523 Y203.453 E17.36728
G1 X156.955 Y204.325 E17.49356
G1 X154.496 Y205.238 E17.6157
G1 X152.024 Y206.237 E17.73985
G1 X149.6 Y207.298 E17.86306
G1 X147.144 Y208.455 E17.98948
G1 X145.432 Y209.314 E18.07867
G1 X143.137 Y210.494 E18.19883
G1 X141.384 Y211.366 E18.29
G1 X139.031 Y212.579 E18.41327
G1 X136.704 Y213.861 E18.53698
G1 X134.408 Y215.213 E18.66105
G1 X132.134 Y216.638 E18.78601
G1 X130.42 Y217.774 E18.88176
G1 X129.327 Y218.514 E18.94322
G1 X128.732 Y218.869 E18.97548
G1 X128.101 Y219.153 E19.0077
G1 X127.502 Y219.346 E19.03701
G1 X126.977 Y219.482 E19.06226
G1 X124.725 Y220.003 E19.16989
G1 X124.052 Y220.148 E19.20195
G1 X123.367 Y220.255 E19.23423
G1 X122.675 Y220.282 E19.26648
G1 X121.785 Y220.198 E19.3081
G1 X118.806 Y219.693 E19.4488
G1 X116.136 Y219.317 E19.57435
G1 X113.479 Y219.019 E19.69885
G1 X110.861 Y218.801 E19.82117
G1 X108.193 Y218.654 E19.9456
G1 X105.532 Y218.583 E20.06955
G1 X102.881 Y218.587 E20.19299
G1 X99.254 Y218.713 E20.36198
G1 X98.312 Y218.756 E20.40589
G1 X91.248 Y218.916 E20.7349
G1 X90.085 Y218.923 E20.78906
G1 X82.819 Y218.76 E21.12748
G1 X81.182 Y218.699 E21.20376
G1 X79.626 Y218.627 E21.27629
G1 X76.995 Y218.581 E21.39882
G1 X74.296 Y218.608 E21.5245
G1 X71.699 Y218.709 E21.64552
G1 X69.007 Y218.89 E21.77115
G1 X66.343 Y219.144 E21.89576
G1 X63.747 Y219.466 E22.01757
G1 X61.102 Y219.871 E22.14217
G1 X59.743 Y220.116 E22.20647
G1 X59.208 Y220.203 E22.23171
G1 X58.519 Y220.275 E22.26396
G1 X57.827 Y220.266 E22.29619
G1 X57.01 Y220.152 E22.3346
G1 X55.924 Y219.923 E22.38628
G1 X54.329 Y219.552 E22.46253
G1 X53.607 Y219.375 E22.49715
G1 X52.945 Y219.172 E22.52939
G1 X52.311 Y218.894 E22.56163
G1 X51.669 Y218.514 E22.59636
G1 X49.383 Y216.964 E22.72497
G1 X47.108 Y215.515 E22.85057
G1 X44.859 Y214.17 E22.97259
G1 X42.523 Y212.862 E23.09725
G1 X39.159 Y211.126 E23.27352
G1 X37.521 Y210.32 E23.35853
G1 X35.623 Y209.342 E23.45795
G1 X35.094 Y209.06 E23.48587
G1 X34.774 Y208.877 E23.50303
G1 X33.774 Y208.261 E23.55772
G1 X31.879 Y207.045 E23.66256
G1 X31.468 Y206.773 E23.68551
G1 X31.162 Y206.556 E23.70298
G1 X30.179 Y205.812 E23.76039
G1 X28.481 Y204.479 E23.86091
G1 X28.043 Y204.125 E23.88713
G1 X27.767 Y203.887 E23.9041
G1 X26.862 Y203.059 E23.96122
G1 X25.281 Y201.553 E24.06289
G1 X24.895 Y201.174 E24.08808
G1 X24.647 Y200.915 E24.10477
G1 X23.81 Y199.988 E24.16293
G1 X22.443 Y198.412 E24.26008
G1 X22.047 Y197.944 E24.28862
G1 X21.81 Y197.646 E24.30635
G1 X21.053 Y196.624 E24.36557
G1 X19.819 Y194.894 E24.46452
G1 X19.511 Y194.45 E24.48968
G1 X19.309 Y194.139 E24.50695
G1 X18.686 Y193.107 E24.56308
G1 X17.584 Y191.204 E24.66548
G1 X17.318 Y190.73 E24.69079
G1 X17.145 Y190.399 E24.70818
G1 X16.627 Y189.322 E24.76383
G1 X15.726 Y187.357 E24.86449
G1 X15.482 Y186.803 E24.89268
G1 X15.347 Y186.471 E24.90937
G1 X14.94 Y185.37 E24.96402
G1 X14.205 Y183.256 E25.06824
G1 X14.037 Y182.748 E25.09315
G1 X13.935 Y182.405 E25.10982
G1 X13.628 Y181.245 E25.16569
G1 X13.118 Y179.16 E25.26564
G1 X12.983 Y178.578 E25.29346
G1 X12.908 Y178.197 E25.31154
G1 X12.716 Y177.027 E25.36675
G1 X12.41 Y174.928 E25.46552
G1 X12.288 Y173.984 E25.50984
G1 X12.175 Y172.839 E25.56342
G1 X11.879 Y170.212 E25.68652
G1 X11.502 Y167.554 E25.81152
G1 X11.054 Y164.926 E25.93566
G1 X10.541 Y162.353 E26.05783
G1 X9.944 Y159.75 E26.18218
G1 X9.271 Y157.156 E26.30697
G1 X8.557 Y154.677 E26.42709
G1 X8.404 Y154.001 E26.45937
G1 X8.33 Y153.313 E26.49159
G1 X8.339 Y152.577 E26.52586
G1 X8.379 Y152.085 E26.54885
G1 X8.63 Y149.722 E26.6595
G1 X8.713 Y149.041 E26.69144
G1 X8.836 Y148.36 E26.72366
G1 X9.037 Y147.697 E26.75592
G1 X9.362 Y146.968 E26.79309
G1 X9.988 Y145.792 E26.85512
G1 X11.205 Y143.436 E26.9786
G1 X12.358 Y141.039 E27.10246
G1 X13.449 Y138.595 E27.22708
G1 X14.463 Y136.144 E27.35059
G1 X15.418 Y133.637 E27.47551
G1 X16.282 Y131.151 E27.59806
G1 X17.077 Y128.643 E27.72057
G1 X17.735 Y126.363 E27.83107
G1 X19.482 Y120.289 E28.12537
G1 X19.753 Y119.404 E28.16847
G1 X20.053 Y118.503 E28.21269
G1 X22.11 Y112.506 E28.5079
G1 X22.468 Y111.511 E28.55714
G1 X22.621 Y111.119 E28.57674
G1 X25.079 Y104.954 E28.88578
G1 X25.489 Y103.97 E28.93542
G1 X25.645 Y103.617 E28.95339
G1 X28.427 Y97.529 E29.26507
G1 X28.89 Y96.556 E29.31524
G1 X29.034 Y96.27 E29.33015
G1 X32.149 Y90.254 E29.64561
G1 X32.616 Y89.385 E29.69154
G1 X32.844 Y88.986 E29.71294
G1 X33.822 Y87.303 E29.80358
G1 X35.139 Y84.963 E29.92861
G1 X36.363 Y82.636 E30.05104
G1 X37.549 Y80.216 E30.17653
G1 X38.655 Y77.788 E30.30077
G1 X39.687 Y75.344 E30.4243
G1 X40.657 Y72.856 E30.54865
G1 X41.533 Y70.394 E30.67033
G1 X42.364 Y67.841 E30.79534
G1 X43.117 Y65.281 E30.9196
G1 X43.79 Y62.731 E31.0424
G1 X44.397 Y60.137 E31.16645
G1 X44.934 Y57.512 E31.29122
G1 X45.387 Y54.909 E31.41424
G1 X45.77 Y52.285 E31.53772
G1 X46.079 Y49.643 E31.66158
G1 X46.131 Y49.1 E31.68698
G1 X46.18 Y48.66 E31.7076
G1 X46.261 Y48.138 E31.7322
G1 X46.462 Y47.155 E31.77892
G1 X46.64 Y46.379 E31.81599
G1 X46.898 Y45.541 E31.85682
G1 X47.267 Y44.6 E31.90388
G1 X47.575 Y43.871 E31.94073
G1 X47.973 Y43.093 E31.98142
G1 X48.498 Y42.232 E32.02838
G1 X48.925 Y41.569 E32.0651
G1 X49.455 Y40.865 E32.10613
G0 F6000 X49.756 Y41.128
G1 F1200 X50.38 Y40.419 E32.15011
G1 X50.948 Y39.805 E32.18906
G1 X51.534 Y39.257 E32.22642
G1 X52.281 Y38.655 E32.27109
G1 X52.953 Y38.143 E32.31043
G1 X53.645 Y37.692 E32.34889
G1 X54.637 Y37.148 E32.40158
G1 X55.21 Y36.853 E32.43158
G1 X55.939 Y36.541 E32.46851
G1 X56.878 Y36.218 E32.51475
G1 X57.652 Y35.975 E32.55252
G1 X58.43 Y35.791 E32.58975
G1 X59.33 Y35.645 E32.6322
G1 X59.986 Y35.55 E32.66307
G1 X62.711 Y35.117 E32.79155
G1 X65.289 Y34.632 E32.9137
G1 X67.902 Y34.064 E33.03821
G1 X70.468 Y33.429 E33.1613
G1 X73.096 Y32.7 E33.28829
G1 X75.619 Y31.922 E33.41123
G1 X78.177 Y31.053 E33.53703
G1 X80.646 Y30.136 E33.65967
G1 X83.138 Y29.129 E33.78482
G1 X85.566 Y28.067 E33.90822
G1 X87.995 Y26.922 E34.03326
G1 X89.803 Y26.015 E34.12745
G1 X92.041 Y24.864 E34.24463
G1 X93.761 Y24.008 E34.33409
G1 X96.167 Y22.769 E34.46011
G1 X98.515 Y21.475 E34.58495
G1 X100.802 Y20.128 E34.70854
G1 X103.087 Y18.695 E34.83413
G1 X104.766 Y17.583 E34.9279
G1 X105.897 Y16.817 E34.99151
G1 X106.472 Y16.475 E35.02266
G1 X107.084 Y16.205 E35.05381
G1 X107.601 Y16.04 E35.07908
G1 X108.113 Y15.908 E35.1037
G1 X110.36 Y15.388 E35.21109
G1 X111.033 Y15.243 E35.24315
G1 X111.694 Y15.141 E35.27429
G1 X112.362 Y15.119 E35.30542
G1 X113.149 Y15.196 E35.34224
G1 X116.178 Y15.71 E35.4853
G1 X118.801 Y16.079 E35.60864
G1 X121.448 Y16.375 E35.73266
G1 X124.153 Y16.601 E35.85905
G1 X126.775 Y16.746 E35.98133
G1 X129.458 Y16.817 E36.10631
G1 X132.104 Y16.813 E36.22952
G1 X135.779 Y16.685 E36.40074
G1 X136.697 Y16.643 E36.44353
G1 X143.755 Y16.484 E36.77227
G1 X144.906 Y16.477 E36.82586
G1 X152.166 Y16.64 E37.16401
G1 X153.8 Y16.701 E37.24014
G1 X155.349 Y16.772 E37.31235
G1 X158.002 Y16.819 E37.4359
G1 X160.688 Y16.792 E37.56098
G1 X163.38 Y16.687 E37.68643
G1 X165.986 Y16.512 E37.80805
G1 X168.708 Y16.252 E37.93537
G1 X171.325 Y15.928 E38.05816
G1 X173.964 Y15.524 E38.18247
G1 X175.321 Y15.279 E38.24668
G1 X175.856 Y15.192 E38.27192
G1 X176.522 Y15.124 E38.3031
G1 X177.191 Y15.136 E38.33425
G1 X177.908 Y15.239 E38.36798
G1 X178.985 Y15.467 E38.41924
G1 X180.582 Y15.838 E38.49559
G1 X181.304 Y16.016 E38.53021
G1 X181.943 Y16.214 E38.56136
G1 X182.554 Y16.488 E38.59254
G1 X183.106 Y16.818 E38.62249
G1 X185.398 Y18.372 E38.75143
G1 X187.65 Y19.806 E38.87575
G1 X189.972 Y21.194 E39.00172
G1 X192.264 Y22.478 E39.12405
G1 X195.68 Y24.241 E39.30304
G1 X197.296 Y25.036 E39.3869
G1 X199.189 Y26.011 E39.48606
G1 X199.718 Y26.293 E39.51397
G1 X200.016 Y26.464 E39.52997
G1 X201.01 Y27.076 E39.58432
G1 X202.901 Y28.289 E39.68893
G1 X203.312 Y28.561 E39.71188
G1 X203.597 Y28.763 E39.72815
G1 X204.574 Y29.502 E39.78519
G1 X206.266 Y30.831 E39.88538
G1 X206.703 Y31.184 E39.91153
G1 X206.963 Y31.407 E39.92748
G1 X207.862 Y32.231 E39.98427
G1 X209.438 Y33.732 E40.08561
G1 X209.822 Y34.109 E40.11067
G1 X210.054 Y34.35 E40.12625
G1 X210.888 Y35.275 E40.18424
G1 X212.253 Y36.848 E40.28122
G1 X212.647 Y37.314 E40.30963
G1 X212.865 Y37.589 E40.32597
G1 X213.603 Y38.584 E40.38366
G1 X214.847 Y40.327 E40.48337
G1 X215.158 Y40.775 E40.50877
G1 X215.348 Y41.067 E40.52499
G1 X215.968 Y42.093 E40.58081
G1 X217.068 Y43.991 E40.68296
G1 X217.334 Y44.465 E40.70827
G1 X217.494 Y44.774 E40.72447
G1 X218.009 Y45.845 E40.7798
G1 X218.908 Y47.805 E40.88021
G1 X219.151 Y48.357 E40.9083
G1 X219.276 Y48.665 E40.92377
G1 X219.682 Y49.762 E40.97824
G1 X220.415 Y51.87 E41.08216
G1 X220.583 Y52.378 E41.10708
G1 X220.678 Y52.698 E41.12262
G1 X220.983 Y53.851 E41.17816
G1 X221.492 Y55.931 E41.27787
G1 X221.627 Y56.513 E41.30569
G1 X221.698 Y56.868 E41.32255
G1 X221.888 Y58.031 E41.37742
G1 X222.194 Y60.124 E41.47591
G1 X222.315 Y61.057 E41.51972
G1 X222.427 Y62.2 E41.5732
G1 X222.727 Y64.856 E41.69766
G1 X223.106 Y67.532 E41.82351
G1 X223.546 Y70.114 E41.94547
G1 X224.07 Y72.742 E42.07025
G1 X224.667 Y75.343 E42.19451
