;FLAVOR:Marlin
;TIME:1123
;Filament used: 0.852615m
;Layer height: 0.16
;Generated with Cura_SteamEngine 4.0.0
M140 S65
M105
M190 S65
M104 S205
M105
M109 S205
M82 ;absolute extrusion mode
; Ender 3 Custom Start G-code
M117 Clean ; Indicate nozzle clean in progress on LCD
M107 ; Turn layer fan off
G21 ; Set to metric [change to G20 if you want Imperial]
G28 ; Home all axes
; ***SET NEW E STEP *** (93 is factory value)
G90                          ; Force coordinates to be absolute relative to the origin
M92 E95 ;
G90                          ; Force coordinates to be absolute relative to the origin
G28                          ; Home X/Y/Z axis
;
G92 E0 ; Reset Extruder
G1 Z2.0 F3000 ; Move Z Axis up little to prevent scratching of Heat Bed
G1 X0.1 Y20 Z0.3 F5000.0 ; Move to start position
G1 X0.1 Y200.0 Z0.3 F1500.0 E15 ; Draw the first line
G1 X0.4 Y200.0 Z0.3 F5000.0 ; Move to side a little
G1 X0.4 Y20 Z0.3 F1500.0 E30 ; Draw the second line
G92 E0 ; Reset Extruder
G1 Z2.0 F3000 ; Move Z Axis up little to prevent scratching of Heat Bed
M117 Printing ; Indicate printing on LCD
; End of custom start GCode
G92 E0
G1 F3000 E-6
;LAYER_COUNT:26
;LAYER:0
M107
M204 S5000
M205 X30 Y30
G0 F7200 X99.073 Y100.596 Z0.16
M204 S500
M205 X20 Y20
;TYPE:SKIRT
G1 F3000 E0
G1 F1200 X99.605 Y100.117 E0.01905
G1 X100.187 Y99.702 E0.03807
G1 X100.811 Y99.353 E0.05709
G1 X101.471 Y99.077 E0.07613
G1 X102.157 Y98.876 E0.09515
G1 X102.862 Y98.753 E0.11419
G1 X103.61 Y98.709 E0.13413
G1 X127.391 Y98.71 E0.76689
G1 X128.105 Y98.75 E0.78592
G1 X128.811 Y98.869 E0.80497
G1 X129.498 Y99.067 E0.824
G1 X130.159 Y99.34 E0.84302
G1 X130.786 Y99.685 E0.86207
G1 X131.37 Y100.097 E0.88108
G1 X131.905 Y100.573 E0.90014
G1 X132.383 Y101.105 E0.91917
G1 X132.798 Y101.687 E0.93819
G1 X133.147 Y102.311 E0.95721
G1 X133.423 Y102.971 E0.97625
G1 X133.624 Y103.658 E0.99529
G1 X133.747 Y104.362 E1.01431
G1 X133.791 Y105.11 E1.03425
G1 X133.791 Y149.891 E2.22578
G1 X133.751 Y150.605 E2.24481
G1 X133.632 Y151.31 E2.26384
G1 X133.434 Y151.998 E2.28288
G1 X133.161 Y152.659 E2.30191
G1 X132.817 Y153.286 E2.32094
G1 X132.404 Y153.87 E2.33998
G1 X131.929 Y154.404 E2.35899
G1 X131.397 Y154.883 E2.37804
G1 X130.815 Y155.298 E2.39706
G1 X130.19 Y155.647 E2.41611
G1 X129.53 Y155.923 E2.43514
G1 X128.844 Y156.124 E2.45416
G1 X128.139 Y156.247 E2.4732
G1 X127.391 Y156.291 E2.49314
G1 X103.609 Y156.291 E3.12594
G1 X102.895 Y156.251 E3.14496
G1 X102.19 Y156.132 E3.16399
G1 X101.502 Y155.934 E3.18304
G1 X100.841 Y155.661 E3.20207
G1 X100.214 Y155.317 E3.2211
G1 X99.63 Y154.904 E3.24013
G1 X99.096 Y154.429 E3.25914
G1 X98.617 Y153.897 E3.27819
G1 X98.202 Y153.315 E3.29721
G1 X97.853 Y152.69 E3.31626
G1 X97.577 Y152.03 E3.33529
G1 X97.376 Y151.344 E3.35431
G1 X97.253 Y150.639 E3.37336
G1 X97.209 Y149.891 E3.39329
G1 X97.21 Y105.109 E4.58486
G1 X97.25 Y104.395 E4.60389
G1 X97.369 Y103.689 E4.62294
G1 X97.567 Y103.002 E4.64196
G1 X97.84 Y102.341 E4.66099
G1 X98.185 Y101.714 E4.68003
G1 X98.597 Y101.13 E4.69905
G1 X99.073 Y100.596 E4.71808
M204 S5000
M205 X30 Y30
G0 F7200 X99.466 Y100.77
M204 S500
M205 X20 Y20
G1 F1200 X99.994 Y100.321 E4.73652
G1 X100.57 Y99.936 E4.75496
G1 X101.186 Y99.621 E4.77337
G1 X101.834 Y99.378 E4.79178
G1 X102.507 Y99.211 E4.81023
G1 X103.194 Y99.123 E4.82866
G1 X103.61 Y99.109 E4.83974
G1 X127.391 Y99.11 E5.4725
G1 X128.083 Y99.15 E5.49095
G1 X128.765 Y99.269 E5.50937
G1 X129.429 Y99.467 E5.52781
G1 X130.065 Y99.739 E5.54621
G1 X130.666 Y100.083 E5.56464
G1 X131.224 Y100.494 E5.58308
G1 X131.73 Y100.966 E5.60149
G1 X132.179 Y101.494 E5.61993
G1 X132.564 Y102.07 E5.63837
G1 X132.88 Y102.686 E5.65679
G1 X133.122 Y103.335 E5.67522
G1 X133.289 Y104.007 E5.69364
G1 X133.377 Y104.694 E5.71207
G1 X133.391 Y105.11 E5.72315
G1 X133.391 Y149.891 E6.91468
G1 X133.351 Y150.582 E6.9331
G1 X133.232 Y151.265 E6.95155
G1 X133.034 Y151.928 E6.96996
G1 X132.762 Y152.565 E6.98839
G1 X132.418 Y153.166 E7.00681
G1 X132.007 Y153.724 E7.02525
G1 X131.535 Y154.23 E7.04367
G1 X131.007 Y154.679 E7.06211
G1 X130.432 Y155.064 E7.08052
G1 X129.815 Y155.379 E7.09895
G1 X129.167 Y155.622 E7.11737
G1 X128.494 Y155.789 E7.13582
G1 X127.808 Y155.877 E7.15422
G1 X127.391 Y155.891 E7.16532
G1 X103.609 Y155.891 E7.79812
G1 X102.918 Y155.851 E7.81653
G1 X102.235 Y155.732 E7.83498
G1 X101.572 Y155.534 E7.85339
G1 X100.935 Y155.262 E7.87182
G1 X100.334 Y154.918 E7.89025
G1 X99.776 Y154.507 E7.90869
G1 X99.27 Y154.035 E7.9271
G1 X98.821 Y153.507 E7.94554
G1 X98.436 Y152.932 E7.96396
G1 X98.121 Y152.315 E7.98239
G1 X97.878 Y151.667 E8.0008
G1 X97.711 Y150.994 E8.01925
G1 X97.623 Y150.308 E8.03766
G1 X97.609 Y149.891 E8.04876
G1 X97.61 Y105.109 E9.24032
G1 X97.65 Y104.417 E9.25877
G1 X97.769 Y103.735 E9.27719
G1 X97.967 Y103.071 E9.29562
G1 X98.239 Y102.435 E9.31403
G1 X98.583 Y101.834 E9.33245
G1 X98.994 Y101.276 E9.35089
G1 X99.466 Y100.77 E9.36931
M204 S5000
M205 X30 Y30
G0 F7200 X99.859 Y100.951
M204 S500
M205 X20 Y20
G1 F1200 X100.382 Y100.533 E9.38712
G1 X100.95 Y100.181 E9.4049
G1 X101.557 Y99.899 E9.42271
G1 X102.193 Y99.691 E9.44051
G1 X102.849 Y99.561 E9.45831
G1 X103.61 Y99.509 E9.47861
G1 X127.391 Y99.51 E10.11137
G1 X128.059 Y99.55 E10.12918
G1 X128.717 Y99.669 E10.14697
G1 X129.357 Y99.866 E10.16479
G1 X129.968 Y100.138 E10.18258
G1 X130.543 Y100.481 E10.2004
G1 X131.072 Y100.89 E10.21819
G1 X131.549 Y101.359 E10.23599
G1 X131.967 Y101.882 E10.25381
G1 X132.319 Y102.45 E10.27159
G1 X132.601 Y103.057 E10.28939
G1 X132.809 Y103.693 E10.3072
G1 X132.939 Y104.349 E10.32499
G1 X132.991 Y105.11 E10.34529
G1 X132.991 Y149.891 E11.53683
G1 X132.951 Y150.559 E11.55463
G1 X132.832 Y151.217 E11.57243
G1 X132.635 Y151.857 E11.59024
G1 X132.363 Y152.468 E11.60804
G1 X132.02 Y153.042 E11.62583
G1 X131.611 Y153.572 E11.64364
G1 X131.142 Y154.049 E11.66144
G1 X130.62 Y154.467 E11.67924
G1 X130.051 Y154.819 E11.69704
G1 X129.444 Y155.101 E11.71485
G1 X128.808 Y155.309 E11.73265
G1 X128.152 Y155.439 E11.75045
G1 X127.391 Y155.491 E11.77074
G1 X103.609 Y155.491 E12.40354
G1 X102.941 Y155.451 E12.42134
G1 X102.283 Y155.332 E12.43914
G1 X101.643 Y155.135 E12.45695
G1 X101.032 Y154.863 E12.47475
G1 X100.458 Y154.52 E12.49254
G1 X99.928 Y154.111 E12.51036
G1 X99.451 Y153.642 E12.52815
G1 X99.033 Y153.12 E12.54595
G1 X98.681 Y152.551 E12.56375
G1 X98.399 Y151.944 E12.58156
G1 X98.191 Y151.308 E12.59937
G1 X98.061 Y150.652 E12.61716
G1 X98.009 Y149.891 E12.63746
G1 X98.01 Y105.109 E13.82902
G1 X98.05 Y104.441 E13.84683
G1 X98.169 Y103.783 E13.86462
G1 X98.366 Y103.143 E13.88244
G1 X98.638 Y102.532 E13.90023
G1 X98.981 Y101.958 E13.91802
G1 X99.39 Y101.428 E13.93584
G1 X99.859 Y100.951 E13.95364
M204 S5000
M205 X30 Y30
G0 F7200 X99.785 Y101.586
M204 S500
M205 X20 Y20
G1 F1200 X100.251 Y101.14 E13.9708
G1 X100.768 Y100.755 E13.98795
G1 X101.328 Y100.436 E14.0051
G1 X101.924 Y100.19 E14.02226
G1 X102.545 Y100.019 E14.03939
G1 X103.183 Y99.927 E14.05655
G1 X103.61 Y99.909 E14.06792
G1 X127.391 Y99.91 E14.70069
G1 X128.035 Y99.95 E14.71785
G1 X128.668 Y100.069 E14.73499
G1 X129.282 Y100.266 E14.75215
G1 X129.867 Y100.537 E14.7693
G1 X130.414 Y100.879 E14.78647
G1 X130.914 Y101.285 E14.80361
G1 X131.36 Y101.751 E14.82077
G1 X131.745 Y102.268 E14.83792
G1 X132.064 Y102.828 E14.85507
G1 X132.31 Y103.424 E14.87223
G1 X132.481 Y104.046 E14.88939
G1 X132.573 Y104.684 E14.90654
G1 X132.591 Y105.11 E14.91789
G1 X132.591 Y149.891 E16.10943
G1 X132.551 Y150.534 E16.12657
G1 X132.432 Y151.168 E16.14373
G1 X132.235 Y151.782 E16.16089
G1 X131.964 Y152.367 E16.17804
G1 X131.622 Y152.914 E16.19521
G1 X131.216 Y153.414 E16.21235
G1 X130.751 Y153.86 E16.22949
G1 X130.234 Y154.245 E16.24664
G1 X129.673 Y154.564 E16.26381
G1 X129.077 Y154.81 E16.28097
G1 X128.456 Y154.981 E16.29811
G1 X127.818 Y155.073 E16.31526
G1 X127.391 Y155.091 E16.32663
G1 X103.609 Y155.091 E16.95943
G1 X102.966 Y155.051 E16.97657
G1 X102.332 Y154.932 E16.99373
G1 X101.718 Y154.735 E17.01089
G1 X101.133 Y154.464 E17.02805
G1 X100.586 Y154.122 E17.04521
G1 X100.086 Y153.716 E17.06235
G1 X99.64 Y153.251 E17.07949
G1 X99.255 Y152.734 E17.09664
G1 X98.936 Y152.173 E17.11382
G1 X98.69 Y151.577 E17.13097
G1 X98.519 Y150.956 E17.14811
G1 X98.427 Y150.318 E17.16526
G1 X98.409 Y149.891 E17.17663
G1 X98.41 Y105.109 E18.3682
G1 X98.45 Y104.465 E18.38537
G1 X98.569 Y103.832 E18.40251
G1 X98.766 Y103.218 E18.41966
G1 X99.037 Y102.633 E18.43682
G1 X99.379 Y102.086 E18.45398
G1 X99.785 Y101.586 E18.47112
M204 S5000
M205 X30 Y30
G1 F3000 E12.47112
G1 F300 Z1.16
;MESH:tapa_union.stl(1)
G0 F7200 X112.4 Y106.1 Z1.16
M204 S500
M205 X20 Y20
;TYPE:WALL-INNER
G1 F300 Z0.16
G1 F3000 E18.47112
G1 F1200 X112.4 Y148.9 E19.60995
G1 X104.6 Y148.9 E19.81749
G1 X104.6 Y106.1 E20.95632
G1 X112.4 Y106.1 E21.16386
M204 S5000
M205 X30 Y30
G0 F7200 X112.8 Y105.7
M204 S500
M205 X20 Y20
G1 F1200 X112.8 Y149.3 E22.32397
G1 X104.2 Y149.3 E22.5528
G1 X104.2 Y105.7 E23.71292
G1 X112.8 Y105.7 E23.94175
M204 S5000
M205 X30 Y30
G0 F7200 X113.2 Y105.3
M204 S500
M205 X20 Y20
;TYPE:WALL-OUTER
G1 F1200 X113.2 Y149.7 E25.12315
G1 X103.8 Y149.7 E25.37326
G1 X103.8 Y105.3 E26.55466
G1 X113.2 Y105.3 E26.80478
M204 S5000
M205 X30 Y30
G0 F7200 X113.2 Y105.5
G0 X112.76 Y105.74
G0 X112.76 Y105.8
G0 X112.01 Y106.49
M204 S500
M205 X20 Y20
;TYPE:SKIN
G1 F1200 X112.01 Y148.51 E27.92285
G1 X104.99 Y148.51 E28.10964
G1 X104.99 Y106.49 E29.22771
G1 X112.01 Y106.49 E29.4145
M204 S5000
M205 X30 Y30
G0 F7200 X111.83 Y107.213
M204 S500
M205 X20 Y20
G1 F1200 X111.286 Y106.669 E29.43497
M204 S5000
M205 X30 Y30
G0 F7200 X110.72 Y106.669
M204 S500
M205 X20 Y20
G1 F1200 X111.83 Y107.779 E29.47674
M204 S5000
M205 X30 Y30
G0 F7200 X111.83 Y108.345
M204 S500
M205 X20 Y20
G1 F1200 X110.155 Y106.669 E29.53979
M204 S5000
M205 X30 Y30
G0 F7200 X109.589 Y106.669
M204 S500
M205 X20 Y20
G1 F1200 X111.83 Y108.91 E29.62412
M204 S5000
M205 X30 Y30
G0 F7200 X111.83 Y109.476
M204 S500
M205 X20 Y20
G1 F1200 X109.023 Y106.669 E29.72974
M204 S5000
M205 X30 Y30
G0 F7200 X108.458 Y106.669
M204 S500
M205 X20 Y20
G1 F1200 X111.83 Y110.042 E29.85665
M204 S5000
M205 X30 Y30
G0 F7200 X111.83 Y110.607
M204 S500
M205 X20 Y20
G1 F1200 X107.892 Y106.669 E30.00484
M204 S5000
M205 X30 Y30
G0 F7200 X107.326 Y106.669
M204 S500
M205 X20 Y20
G1 F1200 X111.83 Y111.173 E30.17432
M204 S5000
M205 X30 Y30
G0 F7200 X111.83 Y111.739
M204 S500
M205 X20 Y20
G1 F1200 X106.761 Y106.669 E30.36508
M204 S5000
M205 X30 Y30
G0 F7200 X106.195 Y106.669
M204 S500
M205 X20 Y20
G1 F1200 X111.83 Y112.304 E30.57712
M204 S5000
M205 X30 Y30
G0 F7200 X111.83 Y112.87
M204 S500
M205 X20 Y20
G1 F1200 X105.629 Y106.669 E30.81047
M204 S5000
M205 X30 Y30
G0 F7200 X105.168 Y106.774
M204 S500
M205 X20 Y20
G1 F1200 X111.83 Y113.436 E31.06115
M204 S5000
M205 X30 Y30
G0 F7200 X111.83 Y114.001
M204 S500
M205 X20 Y20
G1 F1200 X105.168 Y107.34 E31.31182
M204 S5000
M205 X30 Y30
G0 F7200 X105.168 Y107.906
M204 S500
M205 X20 Y20
G1 F1200 X111.83 Y114.567 E31.56249
M204 S5000
M205 X30 Y30
G0 F7200 X111.83 Y115.133
M204 S500
M205 X20 Y20
G1 F1200 X105.168 Y108.471 E31.81318
M204 S5000
M205 X30 Y30
G0 F7200 X105.168 Y109.037
M204 S500
M205 X20 Y20
G1 F1200 X111.83 Y115.699 E32.06387
M204 S5000
M205 X30 Y30
G0 F7200 X111.83 Y116.264
M204 S500
M205 X20 Y20
G1 F1200 X105.168 Y109.603 E32.31454
M204 S5000
M205 X30 Y30
G0 F7200 X105.168 Y110.168
M204 S500
M205 X20 Y20
G1 F1200 X111.83 Y116.83 E32.56523
M204 S5000
M205 X30 Y30
G0 F7200 X111.83 Y117.396
M204 S500
M205 X20 Y20
G1 F1200 X105.168 Y110.734 E32.81591
M204 S5000
M205 X30 Y30
G0 F7200 X105.168 Y111.3
M204 S500
M205 X20 Y20
G1 F1200 X111.83 Y117.961 E33.06658
M204 S5000
M205 X30 Y30
G0 F7200 X111.83 Y118.527
M204 S500
M205 X20 Y20
G1 F1200 X105.168 Y111.865 E33.31727
M204 S5000
M205 X30 Y30
G0 F7200 X105.168 Y112.431
M204 S500
M205 X20 Y20
G1 F1200 X111.83 Y119.093 E33.56796
M204 S5000
M205 X30 Y30
G0 F7200 X111.83 Y119.658
M204 S500
M205 X20 Y20
G1 F1200 X105.168 Y112.997 E33.81863
M204 S5000
M205 X30 Y30
G0 F7200 X105.168 Y113.562
M204 S500
M205 X20 Y20
G1 F1200 X111.83 Y120.224 E34.06932
M204 S5000
M205 X30 Y30
G0 F7200 X111.83 Y120.79
M204 S500
M205 X20 Y20
G1 F1200 X105.168 Y114.128 E34.32
M204 S5000
M205 X30 Y30
G0 F7200 X105.168 Y114.694
M204 S500
M205 X20 Y20
G1 F1200 X111.83 Y121.355 E34.57067
M204 S5000
M205 X30 Y30
G0 F7200 X111.83 Y121.921
M204 S500
M205 X20 Y20
G1 F1200 X105.168 Y115.259 E34.82136
M204 S5000
M205 X30 Y30
G0 F7200 X105.168 Y115.825
M204 S500
M205 X20 Y20
G1 F1200 X111.83 Y122.487 E35.07205
M204 S5000
M205 X30 Y30
G0 F7200 X111.83 Y123.052
M204 S500
M205 X20 Y20
G1 F1200 X105.168 Y116.391 E35.32272
M204 S5000
M205 X30 Y30
G0 F7200 X105.168 Y116.956
M204 S500
M205 X20 Y20
G1 F1200 X111.83 Y123.618 E35.57341
M204 S5000
M205 X30 Y30
G0 F7200 X111.83 Y124.184
M204 S500
M205 X20 Y20
G1 F1200 X105.168 Y117.522 E35.82409
M204 S5000
M205 X30 Y30
G0 F7200 X105.168 Y118.088
M204 S500
M205 X20 Y20
G1 F1200 X111.83 Y124.749 E36.07476
M204 S5000
M205 X30 Y30
G0 F7200 X111.83 Y125.315
M204 S500
M205 X20 Y20
G1 F1200 X105.168 Y118.654 E36.32543
M204 S5000
M205 X30 Y30
G0 F7200 X105.168 Y119.219
M204 S500
M205 X20 Y20
G1 F1200 X111.83 Y125.881 E36.57612
M204 S5000
M205 X30 Y30
G0 F7200 X111.83 Y126.447
M204 S500
M205 X20 Y20
G1 F1200 X105.168 Y119.785 E36.82681
M204 S5000
M205 X30 Y30
G0 F7200 X105.168 Y120.351
M204 S500
M205 X20 Y20
G1 F1200 X111.83 Y127.012 E37.07748
M204 S5000
M205 X30 Y30
G0 F7200 X111.83 Y127.578
M204 S500
M205 X20 Y20
G1 F1200 X105.168 Y120.916 E37.32817
M204 S5000
M205 X30 Y30
G0 F7200 X105.168 Y121.482
M204 S500
M205 X20 Y20
G1 F1200 X111.83 Y128.144 E37.57885
M204 S5000
M205 X30 Y30
G0 F7200 X111.83 Y128.709
M204 S500
M205 X20 Y20
G1 F1200 X105.168 Y122.048 E37.82952
M204 S5000
M205 X30 Y30
G0 F7200 X105.168 Y122.613
M204 S500
M205 X20 Y20
G1 F1200 X111.83 Y129.275 E38.08021
M204 S5000
M205 X30 Y30
G0 F7200 X111.83 Y129.841
M204 S500
M205 X20 Y20
G1 F1200 X105.168 Y123.179 E38.3309
M204 S5000
M205 X30 Y30
G0 F7200 X105.168 Y123.745
M204 S500
M205 X20 Y20
G1 F1200 X111.83 Y130.406 E38.58157
M204 S5000
M205 X30 Y30
G0 F7200 X111.83 Y130.972
M204 S500
M205 X20 Y20
G1 F1200 X105.168 Y124.31 E38.83226
M204 S5000
M205 X30 Y30
G0 F7200 X105.168 Y124.876
M204 S500
M205 X20 Y20
G1 F1200 X111.83 Y131.538 E39.08295
M204 S5000
M205 X30 Y30
G0 F7200 X111.83 Y132.103
M204 S500
M205 X20 Y20
G1 F1200 X105.168 Y125.442 E39.33361
M204 S5000
M205 X30 Y30
G0 F7200 X105.168 Y126.007
M204 S500
M205 X20 Y20
G1 F1200 X111.83 Y132.669 E39.5843
M204 S5000
M205 X30 Y30
G0 F7200 X111.83 Y133.235
M204 S500
M205 X20 Y20
G1 F1200 X105.168 Y126.573 E39.83499
M204 S5000
M205 X30 Y30
G0 F7200 X105.168 Y127.139
M204 S500
M205 X20 Y20
G1 F1200 X111.83 Y133.8 E40.08566
M204 S5000
M205 X30 Y30
G0 F7200 X111.83 Y134.366
M204 S500
M205 X20 Y20
G1 F1200 X105.168 Y127.704 E40.33635
M204 S5000
M205 X30 Y30
G0 F7200 X105.168 Y128.27
M204 S500
M205 X20 Y20
G1 F1200 X111.83 Y134.932 E40.58704
M204 S5000
M205 X30 Y30
G0 F7200 X111.83 Y135.498
M204 S500
M205 X20 Y20
G1 F1200 X105.168 Y128.836 E40.83772
M204 S5000
M205 X30 Y30
G0 F7200 X105.168 Y129.402
M204 S500
M205 X20 Y20
G1 F1200 X111.83 Y136.063 E41.08839
M204 S5000
M205 X30 Y30
G0 F7200 X111.83 Y136.629
M204 S500
M205 X20 Y20
G1 F1200 X105.168 Y129.967 E41.33908
M204 S5000
M205 X30 Y30
G0 F7200 X105.168 Y130.533
M204 S500
M205 X20 Y20
G1 F1200 X111.83 Y137.195 E41.58977
M204 S5000
M205 X30 Y30
G0 F7200 X111.83 Y137.76
M204 S500
M205 X20 Y20
G1 F1200 X105.168 Y131.099 E41.84044
M204 S5000
M205 X30 Y30
G0 F7200 X105.168 Y131.664
M204 S500
M205 X20 Y20
G1 F1200 X111.83 Y138.326 E42.09113
M204 S5000
M205 X30 Y30
G0 F7200 X111.83 Y138.892
M204 S500
M205 X20 Y20
G1 F1200 X105.168 Y132.23 E42.34181
M204 S5000
M205 X30 Y30
G0 F7200 X105.168 Y132.796
M204 S500
M205 X20 Y20
G1 F1200 X111.83 Y139.457 E42.59248
M204 S5000
M205 X30 Y30
G0 F7200 X111.83 Y140.023
M204 S500
M205 X20 Y20
G1 F1200 X105.168 Y133.361 E42.84317
M204 S5000
M205 X30 Y30
G0 F7200 X105.168 Y133.927
M204 S500
M205 X20 Y20
G1 F1200 X111.83 Y140.589 E43.09386
M204 S5000
M205 X30 Y30
G0 F7200 X111.83 Y141.154
M204 S500
