;FLAVOR:Marlin
;TIME:12096
;Filament used: 21.7533m
;Layer height: 0.3
;Generated with Cura_SteamEngine 4.0.0
M140 S65
M105
M190 S65
M104 S205
M105
M109 S205
M82 ;absolute extrusion mode
; Ender 3 Custom Start G-code
M117 Clean ; Indicate nozzle clean in progress on LCD
M107 ; Turn layer fan off
G21 ; Set to metric [change to G20 if you want Imperial]
G28 ; Home all axes
; ***SET NEW E STEP *** (93 is factory value)
G90                          ; Force coordinates to be absolute relative to the origin
M92 E95 ;
G90                          ; Force coordinates to be absolute relative to the origin
G28                          ; Home X/Y/Z axis
;
G92 E0 ; Reset Extruder
G1 Z2.0 F3000 ; Move Z Axis up little to prevent scratching of Heat Bed
G1 X0.1 Y20 Z0.3 F5000.0 ; Move to start position
G1 X0.1 Y200.0 Z0.3 F1500.0 E15 ; Draw the first line
G1 X0.4 Y200.0 Z0.3 F5000.0 ; Move to side a little
G1 X0.4 Y20 Z0.3 F1500.0 E30 ; Draw the second line
G92 E0 ; Reset Extruder
G1 Z2.0 F3000 ; Move Z Axis up little to prevent scratching of Heat Bed
M117 Printing ; Indicate printing on LCD
; End of custom start GCode
G92 E0
G1 F3000 E-6
;LAYER_COUNT:92
;LAYER:0
M107
M204 S5000
M205 X30 Y30
G0 F7200 X29.224 Y68.63 Z0.3
M204 S500
M205 X20 Y20
;TYPE:SKIRT
G1 F3000 E0
G1 F1200 X29.91 Y68.429 E0.03566
G1 X30.615 Y68.307 E0.07136
G1 X31.36 Y68.263 E0.10859
G1 X213.641 Y68.264 E9.20263
G1 X214.355 Y68.304 E9.23831
G1 X215.06 Y68.423 E9.27398
G1 X215.748 Y68.621 E9.30969
G1 X216.409 Y68.894 E9.34537
G1 X217.036 Y69.238 E9.38105
G1 X217.62 Y69.651 E9.41674
G1 X218.154 Y70.126 E9.45239
G1 X218.633 Y70.658 E9.48811
G1 X219.048 Y71.24 E9.52377
G1 X219.397 Y71.865 E9.55948
G1 X219.673 Y72.525 E9.59517
G1 X219.874 Y73.211 E9.63084
G1 X219.997 Y73.916 E9.66654
G1 X220.041 Y74.667 E9.70407
G1 X220.04 Y76.954 E9.81817
G1 X220 Y77.668 E9.85385
G1 X219.909 Y78.238 E9.88265
G1 X219.118 Y82.093 E10.07898
G1 X218.685 Y84.633 E10.20753
G1 X218.01 Y89.919 E10.47339
G1 X217.635 Y95.218 E10.73842
G1 X217.55 Y99.251 E10.93967
G1 X217.54 Y119.448 E11.94731
G1 X217.5 Y120.162 E11.98298
G1 X217.38 Y120.867 E12.01866
G1 X217.182 Y121.555 E12.05438
G1 X216.935 Y122.161 E12.08703
G1 X214.564 Y127.219 E12.36572
G1 X212.553 Y132.226 E12.63492
G1 X211.722 Y134.585 E12.7597
G1 X210.161 Y139.689 E13.02598
G1 X208.889 Y144.876 E13.29243
G1 X208.367 Y147.472 E13.42453
G1 X207.936 Y150.003 E13.55262
G1 X207.261 Y155.289 E13.81848
G1 X206.886 Y160.588 E14.08351
G1 X206.8 Y164.627 E14.28507
G1 X206.79 Y181.895 E15.14657
G1 X206.75 Y182.609 E15.18225
G1 X206.63 Y183.314 E15.21793
G1 X206.432 Y184.001 E15.2536
G1 X206.159 Y184.662 E15.28928
G1 X205.814 Y185.289 E15.32498
G1 X205.401 Y185.873 E15.36066
G1 X204.925 Y186.407 E15.39635
G1 X204.393 Y186.885 E15.43204
G1 X203.81 Y187.3 E15.46774
G1 X203.186 Y187.648 E15.50338
G1 X202.526 Y187.924 E15.53907
G1 X201.839 Y188.125 E15.57479
G1 X201.134 Y188.248 E15.61049
G1 X200.39 Y188.291 E15.64767
G1 X20.609 Y188.291 E24.61698
G1 X19.895 Y188.251 E24.65266
G1 X19.19 Y188.132 E24.68833
G1 X18.502 Y187.934 E24.72405
G1 X17.841 Y187.661 E24.75972
G1 X17.214 Y187.317 E24.7954
G1 X16.63 Y186.904 E24.83109
G1 X16.096 Y186.429 E24.86675
G1 X15.617 Y185.897 E24.90246
G1 X15.202 Y185.315 E24.93812
G1 X14.853 Y184.69 E24.97384
G1 X14.577 Y184.03 E25.00953
G1 X14.376 Y183.344 E25.04519
G1 X14.253 Y182.639 E25.08089
G1 X14.209 Y181.891 E25.11828
G1 X14.21 Y139.603 E27.22803
G1 X14.25 Y138.889 E27.26371
G1 X14.369 Y138.183 E27.29943
G1 X14.567 Y137.496 E27.3351
G1 X14.816 Y136.884 E27.36806
G1 X17.189 Y131.827 E27.64675
G1 X19.197 Y126.828 E27.91552
G1 X20.028 Y124.469 E28.0403
G1 X21.589 Y119.365 E28.30659
G1 X22.861 Y114.178 E28.57303
G1 X23.383 Y111.582 E28.70514
G1 X23.814 Y109.051 E28.83323
G1 X24.489 Y103.765 E29.09909
G1 X24.864 Y98.466 E29.36412
G1 X24.95 Y94.427 E29.56567
G1 X24.96 Y74.66 E30.55185
G1 X25 Y73.946 E30.58753
G1 X25.12 Y73.24 E30.62326
G1 X25.318 Y72.553 E30.65893
G1 X25.591 Y71.892 E30.69461
G1 X25.936 Y71.266 E30.73027
G1 X26.349 Y70.682 E30.76595
G1 X26.825 Y70.147 E30.80168
G1 X27.357 Y69.669 E30.83736
G1 X27.939 Y69.254 E30.87302
G1 X28.564 Y68.906 E30.90871
G1 X29.224 Y68.63 E30.9444
M204 S5000
M205 X30 Y30
G0 F7200 X29.587 Y68.931
M204 S500
M205 X20 Y20
G1 F1200 X30.26 Y68.765 E30.97899
G1 X30.946 Y68.677 E31.01349
G1 X31.36 Y68.663 E31.03416
G1 X213.641 Y68.664 E40.12819
G1 X214.332 Y68.704 E40.16272
G1 X215.015 Y68.823 E40.19731
G1 X215.678 Y69.021 E40.23183
G1 X216.315 Y69.293 E40.26639
G1 X216.916 Y69.637 E40.30094
G1 X217.474 Y70.048 E40.33551
G1 X217.98 Y70.52 E40.37004
G1 X218.429 Y71.048 E40.40461
G1 X218.814 Y71.623 E40.43914
G1 X219.129 Y72.24 E40.4737
G1 X219.372 Y72.888 E40.50823
G1 X219.539 Y73.561 E40.54282
G1 X219.627 Y74.248 E40.57738
G1 X219.641 Y74.667 E40.59829
G1 X219.64 Y76.954 E40.71239
G1 X219.6 Y77.645 E40.74692
G1 X219.517 Y78.157 E40.7728
G1 X218.728 Y82.001 E40.96858
G1 X218.292 Y84.562 E41.09818
G1 X217.61 Y89.895 E41.36641
G1 X217.235 Y95.202 E41.63184
G1 X217.15 Y99.241 E41.83339
G1 X217.14 Y119.448 E42.84152
G1 X217.1 Y120.139 E42.87606
G1 X216.98 Y120.821 E42.9106
G1 X216.782 Y121.485 E42.94517
G1 X216.573 Y121.992 E42.97253
G1 X214.195 Y127.065 E43.25205
G1 X212.182 Y132.077 E43.52152
G1 X211.344 Y134.456 E43.64735
G1 X209.77 Y139.603 E43.91588
G1 X208.496 Y144.799 E44.18278
G1 X207.981 Y147.359 E44.31306
G1 X207.543 Y149.932 E44.44328
G1 X206.861 Y155.265 E44.71151
G1 X206.486 Y160.572 E44.97693
G1 X206.4 Y164.619 E45.17889
G1 X206.39 Y181.894 E46.04074
G1 X206.35 Y182.586 E46.07532
G1 X206.23 Y183.268 E46.10987
G1 X206.032 Y183.932 E46.14444
G1 X205.76 Y184.568 E46.17895
G1 X205.415 Y185.169 E46.21352
G1 X205.004 Y185.726 E46.24806
G1 X204.531 Y186.232 E46.28261
G1 X204.004 Y186.681 E46.31715
G1 X203.428 Y187.065 E46.35169
G1 X202.811 Y187.381 E46.38627
G1 X202.162 Y187.623 E46.42083
G1 X201.49 Y187.789 E46.45536
G1 X200.803 Y187.877 E46.48992
G1 X200.39 Y187.891 E46.51054
G1 X20.609 Y187.891 E55.47985
G1 X19.918 Y187.851 E55.51438
G1 X19.235 Y187.732 E55.54897
G1 X18.572 Y187.534 E55.58349
G1 X17.935 Y187.262 E55.61804
G1 X17.334 Y186.918 E55.65259
G1 X16.776 Y186.507 E55.68717
G1 X16.27 Y186.035 E55.72169
G1 X15.821 Y185.507 E55.75627
G1 X15.436 Y184.932 E55.79079
G1 X15.121 Y184.315 E55.82535
G1 X14.878 Y183.667 E55.85988
G1 X14.711 Y182.994 E55.89447
G1 X14.623 Y182.308 E55.92898
G1 X14.609 Y181.891 E55.9498
G1 X14.61 Y139.603 E58.05955
G1 X14.65 Y138.911 E58.09413
G1 X14.769 Y138.229 E58.12867
G1 X14.967 Y137.565 E58.16324
G1 X15.178 Y137.054 E58.19082
G1 X17.555 Y131.989 E58.46996
G1 X19.568 Y126.977 E58.73943
G1 X20.406 Y124.598 E58.86526
G1 X21.981 Y119.448 E59.13394
G1 X23.254 Y114.255 E59.40069
G1 X23.769 Y111.695 E59.53097
G1 X24.207 Y109.122 E59.66119
G1 X24.889 Y103.789 E59.92942
G1 X25.264 Y98.482 E60.19484
G1 X25.35 Y94.435 E60.3968
G1 X25.36 Y74.66 E61.38337
G1 X25.4 Y73.969 E61.41791
G1 X25.52 Y73.287 E61.45245
G1 X25.718 Y72.623 E61.48702
G1 X25.99 Y71.986 E61.52158
G1 X26.334 Y71.385 E61.55613
G1 X26.746 Y70.828 E61.59069
G1 X27.218 Y70.322 E61.62521
G1 X27.746 Y69.873 E61.65979
G1 X28.322 Y69.489 E61.69433
G1 X28.938 Y69.173 E61.72887
G1 X29.587 Y68.931 E61.76343
M204 S5000
M205 X30 Y30
G0 F7200 X29.309 Y69.452
M204 S500
M205 X20 Y20
G1 F1200 X29.946 Y69.245 E61.79684
G1 X30.602 Y69.115 E61.83021
G1 X31.36 Y69.063 E61.86811
G1 X213.641 Y69.064 E70.96215
G1 X214.309 Y69.104 E70.99554
G1 X214.967 Y69.223 E71.0289
G1 X215.607 Y69.42 E71.0623
G1 X216.218 Y69.692 E71.09567
G1 X216.792 Y70.035 E71.12903
G1 X217.322 Y70.444 E71.16243
G1 X217.799 Y70.913 E71.1958
G1 X218.217 Y71.435 E71.22917
G1 X218.569 Y72.004 E71.26255
G1 X218.851 Y72.611 E71.29594
G1 X219.059 Y73.247 E71.32932
G1 X219.189 Y73.903 E71.36269
G1 X219.241 Y74.666 E71.40084
G1 X219.24 Y76.953 E71.51494
G1 X219.2 Y77.621 E71.54833
G1 X219.126 Y78.077 E71.57138
G1 X218.326 Y81.977 E71.77
G1 X217.897 Y84.49 E71.89719
G1 X217.213 Y89.85 E72.16677
G1 X216.835 Y95.186 E72.43365
G1 X216.75 Y99.233 E72.6356
G1 X216.74 Y119.448 E73.64413
G1 X216.7 Y120.116 E73.67752
G1 X216.58 Y120.774 E73.71088
G1 X216.383 Y121.413 E73.74425
G1 X216.211 Y121.822 E73.76638
G1 X213.819 Y126.924 E74.04751
G1 X211.818 Y131.907 E74.31541
G1 X210.958 Y134.347 E74.44448
G1 X209.389 Y139.48 E74.71226
G1 X208.104 Y144.717 E74.98129
G1 X207.581 Y147.324 E75.11394
G1 X207.148 Y149.86 E75.24229
G1 X206.464 Y155.22 E75.51187
G1 X206.086 Y160.556 E75.77875
G1 X206 Y164.61 E75.98106
G1 X205.99 Y181.894 E76.84336
G1 X205.95 Y182.562 E76.87674
G1 X205.83 Y183.22 E76.91011
G1 X205.633 Y183.86 E76.94352
G1 X205.36 Y184.471 E76.97691
G1 X205.017 Y185.045 E77.01027
G1 X204.608 Y185.574 E77.04363
G1 X204.139 Y186.051 E77.077
G1 X203.616 Y186.468 E77.11037
G1 X203.047 Y186.821 E77.14378
G1 X202.44 Y187.102 E77.17715
G1 X201.804 Y187.31 E77.21054
G1 X201.148 Y187.439 E77.24389
G1 X200.39 Y187.491 E77.2818
G1 X20.609 Y187.491 E86.25111
G1 X19.941 Y187.451 E86.28449
G1 X19.283 Y187.332 E86.31785
G1 X18.643 Y187.135 E86.35126
G1 X18.032 Y186.863 E86.38463
G1 X17.458 Y186.52 E86.41799
G1 X16.928 Y186.111 E86.45139
G1 X16.451 Y185.642 E86.48476
G1 X16.033 Y185.12 E86.51813
G1 X15.681 Y184.551 E86.55151
G1 X15.399 Y183.944 E86.5849
G1 X15.191 Y183.308 E86.61828
G1 X15.061 Y182.652 E86.65165
G1 X15.009 Y181.891 E86.6897
G1 X15.01 Y139.603 E88.79946
G1 X15.05 Y138.935 E88.83284
G1 X15.169 Y138.277 E88.86621
G1 X15.366 Y137.637 E88.89961
G1 X15.54 Y137.224 E88.92197
G1 X17.931 Y132.13 E89.20272
G1 X19.932 Y127.147 E89.47061
G1 X20.792 Y124.707 E89.59969
G1 X22.361 Y119.574 E89.86747
G1 X23.646 Y114.337 E90.13649
G1 X24.169 Y111.73 E90.26915
G1 X24.602 Y109.194 E90.3975
G1 X25.286 Y103.834 E90.66708
G1 X25.664 Y98.498 E90.93396
G1 X25.75 Y94.444 E91.13626
G1 X25.76 Y74.66 E92.12329
G1 X25.8 Y73.992 E92.15668
G1 X25.92 Y73.334 E92.19005
G1 X26.117 Y72.695 E92.22341
G1 X26.389 Y72.084 E92.25677
G1 X26.732 Y71.509 E92.29018
G1 X27.142 Y70.98 E92.32357
G1 X27.611 Y70.503 E92.35694
G1 X28.134 Y70.086 E92.39031
G1 X28.703 Y69.734 E92.42369
G1 X29.309 Y69.452 E92.45704
M204 S5000
M205 X30 Y30
G0 F7200 X29.676 Y69.743
M204 S500
M205 X20 Y20
G1 F1200 X30.298 Y69.573 E92.48921
G1 X30.936 Y69.48 E92.52138
G1 X31.36 Y69.463 E92.54255
G1 X213.641 Y69.464 E101.63658
G1 X214.284 Y69.504 E101.66872
G1 X214.918 Y69.623 E101.70091
G1 X215.532 Y69.82 E101.73308
G1 X216.117 Y70.091 E101.76524
G1 X216.664 Y70.433 E101.79743
G1 X217.164 Y70.839 E101.82956
G1 X217.61 Y71.304 E101.86171
G1 X217.995 Y71.821 E101.89387
G1 X218.314 Y72.382 E101.92606
G1 X218.56 Y72.978 E101.95823
G1 X218.731 Y73.599 E101.99037
G1 X218.823 Y74.237 E102.02252
G1 X218.841 Y74.666 E102.04395
G1 X218.84 Y76.953 E102.15804
G1 X218.8 Y77.597 E102.19024
G1 X218.734 Y77.996 E102.21041
G1 X217.936 Y81.885 E102.40848
G1 X217.5 Y84.446 E102.53809
G1 X216.815 Y89.806 E102.80767
G1 X216.435 Y95.17 E103.07595
G1 X216.35 Y99.224 E103.27825
G1 X216.34 Y119.448 E104.28723
G1 X216.3 Y120.091 E104.31937
G1 X216.18 Y120.724 E104.35152
G1 X215.983 Y121.338 E104.38369
G1 X215.848 Y121.652 E104.40074
G1 X213.46 Y126.748 E104.68151
G1 X211.444 Y131.765 E104.95126
G1 X210.581 Y134.216 E105.0809
G1 X208.997 Y139.393 E105.351
G1 X207.718 Y144.612 E105.61908
G1 X207.189 Y147.243 E105.75297
G1 X206.751 Y149.816 E105.88319
G1 X206.066 Y155.176 E106.15277
G1 X205.686 Y160.539 E106.421
G1 X205.6 Y164.602 E106.62375
G1 X205.59 Y181.894 E107.48645
G1 X205.55 Y182.537 E107.5186
G1 X205.43 Y183.171 E107.55079
G1 X205.233 Y183.785 E107.58296
G1 X204.961 Y184.369 E107.6151
G1 X204.62 Y184.916 E107.64726
G1 X204.213 Y185.416 E107.67942
G1 X203.747 Y185.862 E107.7116
G1 X203.23 Y186.247 E107.74376
G1 X202.669 Y186.565 E107.77594
G1 X202.073 Y186.811 E107.8081
G1 X201.452 Y186.981 E107.84023
G1 X200.814 Y187.074 E107.87239
G1 X200.39 Y187.091 E107.89356
G1 X20.609 Y187.091 E116.86287
G1 X19.966 Y187.051 E116.89501
G1 X19.332 Y186.932 E116.9272
G1 X18.718 Y186.735 E116.95937
G1 X18.133 Y186.464 E116.99153
G1 X17.586 Y186.122 E117.02372
G1 X17.086 Y185.716 E117.05585
G1 X16.64 Y185.251 E117.088
G1 X16.255 Y184.734 E117.12016
G1 X15.936 Y184.173 E117.15235
G1 X15.69 Y183.577 E117.18452
G1 X15.519 Y182.956 E117.21665
G1 X15.427 Y182.318 E117.24881
G1 X15.409 Y181.891 E117.27014
G1 X15.41 Y139.603 E119.37989
G1 X15.45 Y138.959 E119.41208
G1 X15.569 Y138.326 E119.44422
G1 X15.766 Y137.712 E119.47639
G1 X15.903 Y137.394 E119.49366
G1 X18.291 Y132.306 E119.77407
G1 X20.306 Y127.289 E120.0438
G1 X21.169 Y124.838 E120.17344
G1 X22.753 Y119.661 E120.44355
G1 X24.032 Y114.442 E120.71163
G1 X24.561 Y111.811 E120.84551
G1 X24.999 Y109.238 E120.97573
G1 X25.684 Y103.878 E121.24532
G1 X26.064 Y98.515 E121.51355
G1 X26.15 Y94.453 E121.71625
G1 X26.16 Y74.66 E122.70372
G1 X26.2 Y74.017 E122.73587
G1 X26.32 Y73.383 E122.76806
G1 X26.517 Y72.77 E122.80018
G1 X26.788 Y72.185 E122.83235
G1 X27.13 Y71.638 E122.86453
G1 X27.537 Y71.138 E122.8967
G1 X28.002 Y70.692 E122.92884
G1 X28.52 Y70.307 E122.96104
G1 X29.08 Y69.989 E122.99317
G1 X29.676 Y69.743 E123.02534
M204 S5000
M205 X30 Y30
G1 F3000 E117.02534
G1 F300 Z1.3
;MESH:mikl_derecha.stl
G0 F7200 X212.65 Y75.654 Z1.3
M204 S500
M205 X20 Y20
;TYPE:WALL-INNER
G1 F300 Z0.3
G1 F3000 E123.02534
G1 F1200 X212.65 Y75.954 E123.0403
G1 X210.15 Y75.954 E123.16503
G1 X210.15 Y118.454 E125.28536
G1 X32.35 Y118.454 E134.15584
G1 X32.35 Y75.654 E136.29114
G1 X210.15 Y75.654 E145.16162
G1 X212.65 Y75.654 E145.2554
M204 S5000
M205 X30 Y30
G0 F7200 X213.05 Y75.254
M204 S500
M205 X20 Y20
G1 F1200 X213.05 Y76.354 E145.31028
G1 X210.55 Y76.354 E145.435
G1 X210.55 Y118.854 E147.55534
G1 X31.95 Y118.854 E156.46573
G1 X31.95 Y75.254 E158.64094
G1 X213.05 Y75.254 E167.67605
M204 S5000
M205 X30 Y30
G0 F7200 X213.45 Y74.854
M204 S500
M205 X20 Y20
;TYPE:WALL-OUTER
G1 F1200 X213.45 Y76.754 E167.77085
G1 X210.95 Y76.754 E167.89557
G1 X210.95 Y119.254 E170.01591
G1 X31.55 Y119.254 E178.96621
G1 X31.55 Y74.854 E181.18133
G1 X213.45 Y74.854 E190.25636
M204 S5000
M205 X30 Y30
G0 F7200 X213.45 Y75.054
G0 X213.01 Y75.294
G0 X213.01 Y75.354
G0 X209.76 Y76.044
M204 S500
M205 X20 Y20
;TYPE:SKIN
G1 F1200 X209.76 Y118.064 E192.35275
G1 X32.74 Y118.064 E201.18431
G1 X32.74 Y76.044 E203.2807
G1 X209.76 Y76.044 E212.11226
M204 S5000
M205 X30 Y30
G0 F7200 X209.579 Y76.552
M204 S500
M205 X20 Y20
G1 F1200 X209.251 Y76.224 E212.1354
M204 S5000
M205 X30 Y30
G0 F7200 X208.685 Y76.224
M204 S500
M205 X20 Y20
G1 F1200 X209.579 Y77.117 E212.19844
M204 S5000
M205 X30 Y30
G0 F7200 X209.579 Y77.683
M204 S500
M205 X20 Y20
G1 F1200 X208.119 Y76.224 E212.30142
M204 S5000
M205 X30 Y30
G0 F7200 X207.554 Y76.224
M204 S500
M205 X20 Y20
G1 F1200 X209.579 Y78.249 E212.44429
M204 S5000
M205 X30 Y30
G0 F7200 X209.579 Y78.814
M204 S500
M205 X20 Y20
G1 F1200 X206.988 Y76.224 E212.62707
M204 S5000
M205 X30 Y30
G0 F7200 X206.422 Y76.224
M204 S500
M205 X20 Y20
G1 F1200 X209.579 Y79.38 E212.84978
M204 S5000
M205 X30 Y30
G0 F7200 X209.579 Y79.946
M204 S500
M205 X20 Y20
G1 F1200 X205.857 Y76.224 E213.11238
M204 S5000
M205 X30 Y30
G0 F7200 X205.291 Y76.224
M204 S500
M205 X20 Y20
G1 F1200 X209.579 Y80.511 E213.41489
M204 S5000
M205 X30 Y30
G0 F7200 X209.579 Y81.077
M204 S500
M205 X20 Y20
G1 F1200 X204.725 Y76.224 E213.75733
M204 S5000
M205 X30 Y30
G0 F7200 X204.16 Y76.224
M204 S500
M205 X20 Y20
G1 F1200 X209.579 Y81.643 E214.13967
M204 S5000
M205 X30 Y30
G0 F7200 X209.579 Y82.209
M204 S500
M205 X20 Y20
G1 F1200 X203.594 Y76.224 E214.56194
M204 S5000
M205 X30 Y30
G0 F7200 X203.028 Y76.224
M204 S500
M205 X20 Y20
G1 F1200 X209.579 Y82.774 E215.02412
M204 S5000
M205 X30 Y30
G0 F7200 X209.579 Y83.34
M204 S500
M205 X20 Y20
G1 F1200 X202.463 Y76.224 E215.52619
M204 S5000
M205 X30 Y30
G0 F7200 X201.897 Y76.224
M204 S500
M205 X20 Y20
G1 F1200 X209.579 Y83.906 E216.0682
M204 S5000
M205 X30 Y30
G0 F7200 X209.579 Y84.471
M204 S500
M205 X20 Y20
G1 F1200 X201.331 Y76.224 E216.6501
M204 S5000
M205 X30 Y30
G0 F7200 X200.766 Y76.224
M204 S500
M205 X20 Y20
G1 F1200 X209.579 Y85.037 E217.27191
M204 S5000
M205 X30 Y30
G0 F7200 X209.579 Y85.603
M204 S500
M205 X20 Y20
