;FLAVOR:Marlin
;TIME:501
;Filament used: 0.427581m
;Layer height: 0.16
;Generated with Cura_SteamEngine 4.0.0
M140 S65
M105
M190 S65
M104 S205
M105
M109 S205
M82 ;absolute extrusion mode
; Ender 3 Custom Start G-code
M117 Clean ; Indicate nozzle clean in progress on LCD
M107 ; Turn layer fan off
G21 ; Set to metric [change to G20 if you want Imperial]
G28 ; Home all axes
; ***SET NEW E STEP *** (93 is factory value)
G90                          ; Force coordinates to be absolute relative to the origin
M92 E95 ;
G90                          ; Force coordinates to be absolute relative to the origin
G28                          ; Home X/Y/Z axis
;
G92 E0 ; Reset Extruder
G1 Z2.0 F3000 ; Move Z Axis up little to prevent scratching of Heat Bed
G1 X0.1 Y20 Z0.3 F5000.0 ; Move to start position
G1 X0.1 Y200.0 Z0.3 F1500.0 E15 ; Draw the first line
G1 X0.4 Y200.0 Z0.3 F5000.0 ; Move to side a little
G1 X0.4 Y20 Z0.3 F1500.0 E30 ; Draw the second line
G92 E0 ; Reset Extruder
G1 Z2.0 F3000 ; Move Z Axis up little to prevent scratching of Heat Bed
M117 Printing ; Indicate printing on LCD
; End of custom start GCode
G92 E0
G1 F3000 E-6
;LAYER_COUNT:26
;LAYER:0
M107
M204 S5000
M205 X30 Y30
G0 F7200 X112.596 Y101.13 Z0.16
M204 S500
M205 X20 Y20
;TYPE:SKIRT
G1 F3000 E0
G1 F1200 X113.071 Y100.596 E0.01902
G1 X113.603 Y100.117 E0.03806
G1 X114.185 Y99.702 E0.05708
G1 X114.81 Y99.353 E0.07613
G1 X115.47 Y99.077 E0.09517
G1 X116.156 Y98.876 E0.11419
G1 X116.861 Y98.753 E0.13323
G1 X117.61 Y98.709 E0.15319
G1 X127.392 Y98.71 E0.41347
G1 X128.106 Y98.75 E0.4325
G1 X128.811 Y98.87 E0.45153
G1 X129.498 Y99.067 E0.47055
G1 X130.16 Y99.34 E0.4896
G1 X130.786 Y99.685 E0.50862
G1 X131.37 Y100.098 E0.52765
G1 X131.905 Y100.573 E0.54669
G1 X132.383 Y101.105 E0.56572
G1 X132.799 Y101.687 E0.58475
G1 X133.147 Y102.312 E0.60379
G1 X133.423 Y102.971 E0.6228
G1 X133.624 Y103.658 E0.64184
G1 X133.747 Y104.363 E0.66089
G1 X133.791 Y105.11 E0.6808
G1 X133.791 Y149.891 E1.87233
G1 X133.751 Y150.605 E1.89136
G1 X133.632 Y151.31 E1.91039
G1 X133.434 Y151.998 E1.92944
G1 X133.161 Y152.659 E1.94846
G1 X132.817 Y153.286 E1.96749
G1 X132.404 Y153.87 E1.98653
G1 X131.929 Y154.404 E2.00554
G1 X131.397 Y154.883 E2.02459
G1 X130.815 Y155.298 E2.04361
G1 X130.19 Y155.647 E2.06266
G1 X129.53 Y155.923 E2.08169
G1 X128.844 Y156.124 E2.10071
G1 X128.139 Y156.247 E2.11975
G1 X127.391 Y156.291 E2.13969
G1 X117.609 Y156.291 E2.39997
G1 X116.895 Y156.251 E2.419
G1 X116.19 Y156.132 E2.43802
G1 X115.502 Y155.934 E2.45707
G1 X114.841 Y155.661 E2.4761
G1 X114.214 Y155.317 E2.49513
G1 X113.63 Y154.904 E2.51416
G1 X113.096 Y154.429 E2.53318
G1 X112.617 Y153.897 E2.55223
G1 X112.202 Y153.315 E2.57125
G1 X111.853 Y152.69 E2.5903
G1 X111.577 Y152.03 E2.60933
G1 X111.376 Y151.344 E2.62835
G1 X111.253 Y150.639 E2.64739
G1 X111.209 Y149.891 E2.66733
G1 X111.209 Y105.109 E3.85889
G1 X111.249 Y104.395 E3.87792
G1 X111.368 Y103.69 E3.89695
G1 X111.566 Y103.002 E3.916
G1 X111.839 Y102.341 E3.93502
G1 X112.183 Y101.714 E3.95405
G1 X112.596 Y101.13 E3.97309
M204 S5000
M205 X30 Y30
G0 F7200 X112.993 Y101.276
M204 S500
M205 X20 Y20
G1 F1200 X113.465 Y100.77 E3.9915
G1 X113.993 Y100.321 E4.00994
G1 X114.568 Y99.936 E4.02835
G1 X115.185 Y99.621 E4.04679
G1 X115.833 Y99.378 E4.0652
G1 X116.506 Y99.211 E4.08365
G1 X117.192 Y99.123 E4.10205
G1 X117.61 Y99.109 E4.11318
G1 X127.392 Y99.11 E4.37346
G1 X128.083 Y99.15 E4.39188
G1 X128.765 Y99.269 E4.4103
G1 X129.429 Y99.467 E4.42874
G1 X130.066 Y99.739 E4.44717
G1 X130.667 Y100.083 E4.46559
G1 X131.224 Y100.494 E4.48401
G1 X131.731 Y100.967 E4.50246
G1 X132.179 Y101.494 E4.52087
G1 X132.564 Y102.07 E4.5393
G1 X132.88 Y102.686 E4.55772
G1 X133.122 Y103.335 E4.57615
G1 X133.289 Y104.007 E4.59458
G1 X133.377 Y104.694 E4.61301
G1 X133.391 Y105.11 E4.62408
G1 X133.391 Y149.891 E5.81562
G1 X133.351 Y150.582 E5.83404
G1 X133.232 Y151.265 E5.85248
G1 X133.034 Y151.928 E5.87089
G1 X132.762 Y152.565 E5.88932
G1 X132.418 Y153.166 E5.90775
G1 X132.007 Y153.724 E5.92619
G1 X131.535 Y154.23 E5.9446
G1 X131.007 Y154.679 E5.96304
G1 X130.432 Y155.064 E5.98146
G1 X129.815 Y155.379 E5.99989
G1 X129.167 Y155.622 E6.0183
G1 X128.494 Y155.789 E6.03675
G1 X127.808 Y155.877 E6.05516
G1 X127.391 Y155.891 E6.06626
G1 X117.609 Y155.891 E6.32654
G1 X116.918 Y155.851 E6.34496
G1 X116.235 Y155.732 E6.3634
G1 X115.572 Y155.534 E6.38181
G1 X114.935 Y155.262 E6.40024
G1 X114.334 Y154.918 E6.41867
G1 X113.776 Y154.507 E6.43711
G1 X113.27 Y154.035 E6.45552
G1 X112.821 Y153.507 E6.47396
G1 X112.436 Y152.932 E6.49238
G1 X112.121 Y152.315 E6.51081
G1 X111.878 Y151.667 E6.52922
G1 X111.711 Y150.994 E6.54767
G1 X111.623 Y150.308 E6.56608
G1 X111.609 Y149.891 E6.57718
G1 X111.609 Y105.109 E7.76874
G1 X111.649 Y104.418 E7.78716
G1 X111.768 Y103.735 E7.80561
G1 X111.966 Y103.072 E7.82402
G1 X112.238 Y102.435 E7.84245
G1 X112.582 Y101.834 E7.86087
G1 X112.993 Y101.276 E7.87931
M204 S5000
M205 X30 Y30
G0 F7200 X113.389 Y101.428
M204 S500
M205 X20 Y20
G1 F1200 X113.858 Y100.951 E7.89711
G1 X114.38 Y100.533 E7.91491
G1 X114.949 Y100.181 E7.93271
G1 X115.556 Y99.899 E7.95052
G1 X116.192 Y99.691 E7.96832
G1 X116.848 Y99.561 E7.98612
G1 X117.61 Y99.509 E8.00644
G1 X127.392 Y99.51 E8.26672
G1 X128.059 Y99.55 E8.2845
G1 X128.718 Y99.669 E8.30232
G1 X129.357 Y99.866 E8.32011
G1 X129.968 Y100.138 E8.33791
G1 X130.543 Y100.481 E8.35572
G1 X131.072 Y100.89 E8.37351
G1 X131.549 Y101.359 E8.39131
G1 X131.967 Y101.882 E8.40913
G1 X132.319 Y102.451 E8.42693
G1 X132.601 Y103.057 E8.44472
G1 X132.809 Y103.693 E8.46252
G1 X132.939 Y104.35 E8.48034
G1 X132.991 Y105.11 E8.50061
G1 X132.991 Y149.891 E9.69215
G1 X132.951 Y150.559 E9.70995
G1 X132.832 Y151.217 E9.72775
G1 X132.635 Y151.857 E9.74556
G1 X132.363 Y152.468 E9.76336
G1 X132.02 Y153.042 E9.78115
G1 X131.611 Y153.572 E9.79896
G1 X131.142 Y154.049 E9.81676
G1 X130.62 Y154.467 E9.83456
G1 X130.051 Y154.819 E9.85236
G1 X129.444 Y155.101 E9.87017
G1 X128.808 Y155.309 E9.88797
G1 X128.152 Y155.439 E9.90577
G1 X127.391 Y155.491 E9.92607
G1 X117.609 Y155.491 E10.18635
G1 X116.941 Y155.451 E10.20415
G1 X116.283 Y155.332 E10.22194
G1 X115.643 Y155.135 E10.23976
G1 X115.032 Y154.863 E10.25756
G1 X114.458 Y154.52 E10.27535
G1 X113.928 Y154.111 E10.29316
G1 X113.451 Y153.642 E10.31096
G1 X113.033 Y153.12 E10.32876
G1 X112.681 Y152.551 E10.34656
G1 X112.399 Y151.944 E10.36437
G1 X112.191 Y151.308 E10.38217
G1 X112.061 Y150.652 E10.39997
G1 X112.009 Y149.891 E10.42026
G1 X112.009 Y105.109 E11.61183
G1 X112.049 Y104.441 E11.62963
G1 X112.168 Y103.783 E11.64743
G1 X112.365 Y103.143 E11.66524
G1 X112.637 Y102.532 E11.68304
G1 X112.98 Y101.958 E11.70083
G1 X113.389 Y101.428 E11.71864
M204 S5000
M205 X30 Y30
G0 F7200 X113.378 Y102.086
M204 S500
M205 X20 Y20
G1 F1200 X113.784 Y101.586 E11.73578
G1 X114.249 Y101.14 E11.75293
G1 X114.766 Y100.755 E11.77008
G1 X115.327 Y100.436 E11.78725
G1 X115.923 Y100.19 E11.80441
G1 X116.544 Y100.019 E11.82154
G1 X117.182 Y99.927 E11.8387
G1 X117.61 Y99.909 E11.85009
G1 X127.392 Y99.91 E12.11037
G1 X128.035 Y99.95 E12.12752
G1 X128.668 Y100.069 E12.14465
G1 X129.282 Y100.266 E12.16181
G1 X129.867 Y100.537 E12.17897
G1 X130.414 Y100.879 E12.19613
G1 X130.914 Y101.286 E12.21329
G1 X131.36 Y101.751 E12.23043
G1 X131.746 Y102.268 E12.2476
G1 X132.064 Y102.829 E12.26476
G1 X132.31 Y103.424 E12.28189
G1 X132.481 Y104.046 E12.29905
G1 X132.574 Y104.684 E12.31621
G1 X132.591 Y105.11 E12.32755
G1 X132.591 Y149.891 E13.51909
G1 X132.551 Y150.534 E13.53623
G1 X132.432 Y151.168 E13.5534
G1 X132.235 Y151.782 E13.57055
G1 X131.964 Y152.367 E13.58771
G1 X131.622 Y152.914 E13.60487
G1 X131.216 Y153.414 E13.62201
G1 X130.751 Y153.86 E13.63916
G1 X130.234 Y154.245 E13.65631
G1 X129.673 Y154.564 E13.67348
G1 X129.077 Y154.81 E13.69063
G1 X128.456 Y154.981 E13.70777
G1 X127.818 Y155.073 E13.72493
G1 X127.391 Y155.091 E13.7363
G1 X117.609 Y155.091 E13.99658
G1 X116.966 Y155.051 E14.01372
G1 X116.332 Y154.932 E14.03088
G1 X115.718 Y154.735 E14.04804
G1 X115.133 Y154.464 E14.0652
G1 X114.586 Y154.122 E14.08236
G1 X114.086 Y153.716 E14.0995
G1 X113.64 Y153.251 E14.11664
G1 X113.255 Y152.734 E14.13379
G1 X112.936 Y152.173 E14.15097
G1 X112.69 Y151.577 E14.16812
G1 X112.519 Y150.956 E14.18526
G1 X112.427 Y150.318 E14.20241
G1 X112.409 Y149.891 E14.21378
G1 X112.409 Y105.109 E15.40535
G1 X112.449 Y104.466 E15.42249
G1 X112.568 Y103.832 E15.43966
G1 X112.765 Y103.218 E15.45681
G1 X113.036 Y102.633 E15.47397
G1 X113.378 Y102.086 E15.49113
M204 S5000
M205 X30 Y30
G1 F3000 E9.49113
G1 F300 Z1.16
;MESH:tapa_union.stl
G0 F7200 X126.4 Y106.1 Z1.16
M204 S500
M205 X20 Y20
;TYPE:WALL-INNER
G1 F300 Z0.16
G1 F3000 E15.49113
G1 F1200 X126.4 Y148.9 E16.62996
G1 X118.6 Y148.9 E16.8375
G1 X118.6 Y106.1 E17.97633
G1 X126.4 Y106.1 E18.18387
M204 S5000
M205 X30 Y30
G0 F7200 X126.8 Y105.7
M204 S500
M205 X20 Y20
G1 F1200 X126.8 Y149.3 E19.34399
G1 X118.2 Y149.3 E19.57282
G1 X118.2 Y105.7 E20.73293
G1 X126.8 Y105.7 E20.96176
M204 S5000
M205 X30 Y30
G0 F7200 X127.2 Y105.3
M204 S500
M205 X20 Y20
;TYPE:WALL-OUTER
G1 F1200 X127.2 Y149.7 E22.14316
G1 X117.8 Y149.7 E22.39328
G1 X117.8 Y105.3 E23.57468
G1 X127.2 Y105.3 E23.82479
M204 S5000
M205 X30 Y30
G0 F7200 X127.2 Y105.5
G0 X126.76 Y105.74
G0 X126.76 Y105.8
G0 X126.01 Y106.49
M204 S500
M205 X20 Y20
;TYPE:SKIN
G1 F1200 X126.01 Y148.51 E24.94287
G1 X118.99 Y148.51 E25.12965
G1 X118.99 Y106.49 E26.24773
G1 X126.01 Y106.49 E26.43452
M204 S5000
M205 X30 Y30
G0 F7200 X125.829 Y107.07
M204 S500
M205 X20 Y20
G1 F1200 X125.428 Y106.669 E26.4496
M204 S5000
M205 X30 Y30
G0 F7200 X124.863 Y106.669
M204 S500
M205 X20 Y20
G1 F1200 X125.829 Y107.636 E26.48597
M204 S5000
M205 X30 Y30
G0 F7200 X125.829 Y108.202
M204 S500
M205 X20 Y20
G1 F1200 X124.297 Y106.669 E26.54364
M204 S5000
M205 X30 Y30
G0 F7200 X123.731 Y106.669
M204 S500
M205 X20 Y20
G1 F1200 X125.829 Y108.767 E26.62259
M204 S5000
M205 X30 Y30
G0 F7200 X125.829 Y109.333
M204 S500
M205 X20 Y20
G1 F1200 X123.166 Y106.669 E26.72281
M204 S5000
M205 X30 Y30
G0 F7200 X122.6 Y106.669
M204 S500
M205 X20 Y20
G1 F1200 X125.829 Y109.899 E26.84434
M204 S5000
M205 X30 Y30
G0 F7200 X125.829 Y110.465
M204 S500
M205 X20 Y20
G1 F1200 X122.034 Y106.669 E26.98716
M204 S5000
M205 X30 Y30
G0 F7200 X121.468 Y106.669
M204 S500
M205 X20 Y20
G1 F1200 X125.829 Y111.03 E27.15126
M204 S5000
M205 X30 Y30
G0 F7200 X125.829 Y111.596
M204 S500
M205 X20 Y20
G1 F1200 X120.903 Y106.669 E27.33665
M204 S5000
M205 X30 Y30
G0 F7200 X120.337 Y106.669
M204 S500
M205 X20 Y20
G1 F1200 X125.829 Y112.162 E27.54333
M204 S5000
M205 X30 Y30
G0 F7200 X125.829 Y112.727
M204 S500
M205 X20 Y20
G1 F1200 X119.771 Y106.669 E27.77129
M204 S5000
M205 X30 Y30
G0 F7200 X119.206 Y106.669
M204 S500
M205 X20 Y20
G1 F1200 X125.829 Y113.293 E28.02053
M204 S5000
M205 X30 Y30
G0 F7200 X125.829 Y113.859
M204 S500
M205 X20 Y20
G1 F1200 X119.169 Y107.198 E28.27116
M204 S5000
M205 X30 Y30
G0 F7200 X119.169 Y107.764
M204 S500
M205 X20 Y20
G1 F1200 X125.829 Y114.424 E28.52177
M204 S5000
M205 X30 Y30
G0 F7200 X125.829 Y114.99
M204 S500
M205 X20 Y20
G1 F1200 X119.169 Y108.33 E28.77238
M204 S5000
M205 X30 Y30
G0 F7200 X119.169 Y108.895
M204 S500
M205 X20 Y20
G1 F1200 X125.829 Y115.556 E29.02301
M204 S5000
M205 X30 Y30
G0 F7200 X125.829 Y116.121
M204 S500
M205 X20 Y20
G1 F1200 X119.169 Y109.461 E29.27363
M204 S5000
M205 X30 Y30
G0 F7200 X119.169 Y110.027
M204 S500
M205 X20 Y20
G1 F1200 X125.829 Y116.687 E29.52424
M204 S5000
M205 X30 Y30
G0 F7200 X125.829 Y117.253
M204 S500
M205 X20 Y20
G1 F1200 X119.169 Y110.593 E29.77485
M204 S5000
M205 X30 Y30
G0 F7200 X119.169 Y111.158
M204 S500
M205 X20 Y20
G1 F1200 X125.829 Y117.818 E30.02547
M204 S5000
M205 X30 Y30
G0 F7200 X125.829 Y118.384
M204 S500
M205 X20 Y20
G1 F1200 X119.169 Y111.724 E30.27608
M204 S5000
M205 X30 Y30
G0 F7200 X119.169 Y112.29
M204 S500
M205 X20 Y20
G1 F1200 X125.829 Y118.95 E30.52669
M204 S5000
M205 X30 Y30
G0 F7200 X125.829 Y119.515
M204 S500
M205 X20 Y20
G1 F1200 X119.169 Y112.855 E30.7773
M204 S5000
M205 X30 Y30
G0 F7200 X119.169 Y113.421
M204 S500
M205 X20 Y20
G1 F1200 X125.829 Y120.081 E31.02792
M204 S5000
M205 X30 Y30
G0 F7200 X125.829 Y120.647
M204 S500
M205 X20 Y20
G1 F1200 X119.169 Y113.987 E31.27853
M204 S5000
M205 X30 Y30
G0 F7200 X119.169 Y114.552
M204 S500
M205 X20 Y20
G1 F1200 X125.829 Y121.213 E31.52916
M204 S5000
M205 X30 Y30
G0 F7200 X125.829 Y121.778
M204 S500
M205 X20 Y20
G1 F1200 X119.169 Y115.118 E31.77977
M204 S5000
M205 X30 Y30
G0 F7200 X119.169 Y115.684
M204 S500
M205 X20 Y20
G1 F1200 X125.829 Y122.344 E32.03039
M204 S5000
M205 X30 Y30
G0 F7200 X125.829 Y122.91
M204 S500
M205 X20 Y20
G1 F1200 X119.169 Y116.249 E32.28102
M204 S5000
M205 X30 Y30
G0 F7200 X119.169 Y116.815
M204 S500
M205 X20 Y20
G1 F1200 X125.829 Y123.475 E32.53163
M204 S5000
M205 X30 Y30
G0 F7200 X125.829 Y124.041
M204 S500
M205 X20 Y20
G1 F1200 X119.169 Y117.381 E32.78224
M204 S5000
M205 X30 Y30
G0 F7200 X119.169 Y117.946
M204 S500
M205 X20 Y20
G1 F1200 X125.829 Y124.607 E33.03288
M204 S5000
M205 X30 Y30
G0 F7200 X125.829 Y125.172
M204 S500
M205 X20 Y20
G1 F1200 X119.169 Y118.512 E33.28349
M204 S5000
M205 X30 Y30
G0 F7200 X119.169 Y119.078
M204 S500
M205 X20 Y20
G1 F1200 X125.829 Y125.738 E33.5341
M204 S5000
M205 X30 Y30
G0 F7200 X125.829 Y126.304
M204 S500
M205 X20 Y20
G1 F1200 X119.169 Y119.643 E33.78473
M204 S5000
M205 X30 Y30
G0 F7200 X119.169 Y120.209
M204 S500
M205 X20 Y20
G1 F1200 X125.829 Y126.869 E34.03535
M204 S5000
M205 X30 Y30
G0 F7200 X125.829 Y127.435
M204 S500
M205 X20 Y20
G1 F1200 X119.169 Y120.775 E34.28596
M204 S5000
M205 X30 Y30
G0 F7200 X119.169 Y121.341
M204 S500
M205 X20 Y20
G1 F1200 X125.829 Y128.001 E34.53657
M204 S5000
M205 X30 Y30
G0 F7200 X125.829 Y128.566
M204 S500
M205 X20 Y20
G1 F1200 X119.169 Y121.906 E34.78718
M204 S5000
M205 X30 Y30
G0 F7200 X119.169 Y122.472
M204 S500
M205 X20 Y20
G1 F1200 X125.829 Y129.132 E35.0378
M204 S5000
M205 X30 Y30
G0 F7200 X125.829 Y129.698
M204 S500
M205 X20 Y20
G1 F1200 X119.169 Y123.038 E35.28841
M204 S5000
M205 X30 Y30
G0 F7200 X119.169 Y123.603
M204 S500
M205 X20 Y20
G1 F1200 X125.829 Y130.264 E35.53904
M204 S5000
M205 X30 Y30
G0 F7200 X125.829 Y130.829
M204 S500
M205 X20 Y20
G1 F1200 X119.169 Y124.169 E35.78965
M204 S5000
M205 X30 Y30
G0 F7200 X119.169 Y124.735
M204 S500
M205 X20 Y20
G1 F1200 X125.829 Y131.395 E36.04027
M204 S5000
M205 X30 Y30
G0 F7200 X125.829 Y131.961
M204 S500
M205 X20 Y20
G1 F1200 X119.169 Y125.3 E36.2909
M204 S5000
M205 X30 Y30
G0 F7200 X119.169 Y125.866
M204 S500
M205 X20 Y20
G1 F1200 X125.829 Y132.526 E36.54151
M204 S5000
M205 X30 Y30
G0 F7200 X125.829 Y133.092
M204 S500
M205 X20 Y20
G1 F1200 X119.169 Y126.432 E36.79212
M204 S5000
M205 X30 Y30
G0 F7200 X119.169 Y126.997
M204 S500
M205 X20 Y20
G1 F1200 X125.829 Y133.658 E37.04276
M204 S5000
M205 X30 Y30
G0 F7200 X125.829 Y134.223
M204 S500
M205 X20 Y20
G1 F1200 X119.169 Y127.563 E37.29337
M204 S5000
M205 X30 Y30
G0 F7200 X119.169 Y128.129
M204 S500
M205 X20 Y20
G1 F1200 X125.829 Y134.789 E37.54398
M204 S5000
M205 X30 Y30
G0 F7200 X125.829 Y135.355
M204 S500
M205 X20 Y20
G1 F1200 X119.169 Y128.694 E37.79461
M204 S5000
M205 X30 Y30
G0 F7200 X119.169 Y129.26
M204 S500
M205 X20 Y20
G1 F1200 X125.829 Y135.92 E38.04523
M204 S5000
M205 X30 Y30
G0 F7200 X125.829 Y136.486
M204 S500
M205 X20 Y20
G1 F1200 X119.169 Y129.826 E38.29584
M204 S5000
M205 X30 Y30
G0 F7200 X119.169 Y130.392
M204 S500
M205 X20 Y20
G1 F1200 X125.829 Y137.052 E38.54645
M204 S5000
M205 X30 Y30
G0 F7200 X125.829 Y137.617
M204 S500
M205 X20 Y20
G1 F1200 X119.169 Y130.957 E38.79706
M204 S5000
M205 X30 Y30
G0 F7200 X119.169 Y131.523
M204 S500
M205 X20 Y20
G1 F1200 X125.829 Y138.183 E39.04768
M204 S5000
M205 X30 Y30
G0 F7200 X125.829 Y138.749
M204 S500
M205 X20 Y20
G1 F1200 X119.169 Y132.089 E39.29829
M204 S5000
M205 X30 Y30
G0 F7200 X119.169 Y132.654
M204 S500
M205 X20 Y20
G1 F1200 X125.829 Y139.314 E39.5489
M204 S5000
M205 X30 Y30
G0 F7200 X125.829 Y139.88
M204 S500
M205 X20 Y20
G1 F1200 X119.169 Y133.22 E39.79951
M204 S5000
M205 X30 Y30
G0 F7200 X119.169 Y133.786
M204 S500
M205 X20 Y20
