;FLAVOR:Marlin
;TIME:1331
;Filament used: 0.835804m
;Layer height: 0.2
;MINX:28.6
;MINY:99.6
;MINZ:0.2
;MAXX:206.4
;MAXY:135.4
;MAXZ:1
;Generated with Cura_SteamEngine 4.12.1
M140 S50
M105
M190 S50
M104 S200
M105
M109 S200
M82 ;absolute extrusion mode
; Ender 3 Custom Start G-code
G92 E0 ; Reset Extruder
G28 ; Home all axes
G1 Z2.0 F3000 ; Move Z Axis up little to prevent scratching of Heat Bed
G1 X0.1 Y20 Z0.3 F5000.0 ; Move to start position
G1 X0.1 Y200.0 Z0.3 F1500.0 E15 ; Draw the first line
G1 X0.4 Y200.0 Z0.3 F5000.0 ; Move to side a little
G1 X0.4 Y20 Z0.3 F1500.0 E30 ; Draw the second line
G92 E0 ; Reset Extruder
G1 Z2.0 F3000 ; Move Z Axis up little to prevent scratching of Heat Bed
G1 X5 Y20 Z0.3 F5000.0 ; Move over to prevent blob squish
G92 E0
G92 E0
G1 F2700 E-6
;LAYER_COUNT:5
;LAYER:0
M107
M204 S500
M205 X8 Y8
G0 F7500 X35.701 Y100.327 Z0.2
;TYPE:SKIRT
G1 F2700 E0
G1 F1500 X36.591 Y100.031 E0.02964
G1 X37.503 Y99.813 E0.05926
G1 X38.43 Y99.672 E0.08889
G1 X39.301 Y99.613 E0.11648
G1 X39.622 Y99.604 E0.12662
G1 X39.93 Y99.6 E0.13636
G1 X194.693 Y99.6 E5.02642
G1 X195.549 Y99.611 E5.05347
G1 X196.485 Y99.665 E5.0831
G1 X197.413 Y99.797 E5.11271
G1 X198.327 Y100.009 E5.14236
G1 X199.219 Y100.298 E5.17199
G1 X200.084 Y100.661 E5.20163
G1 X200.914 Y101.097 E5.23125
G1 X201.705 Y101.602 E5.2609
G1 X202.449 Y102.173 E5.29054
G1 X203.142 Y102.805 E5.32017
G1 X203.779 Y103.493 E5.3498
G1 X204.354 Y104.234 E5.37943
G1 X204.865 Y105.02 E5.40906
G1 X205.307 Y105.848 E5.43871
G1 X205.676 Y106.71 E5.46834
G1 X205.971 Y107.6 E5.49797
G1 X206.189 Y108.512 E5.52759
G1 X206.329 Y109.44 E5.55725
G1 X206.387 Y110.301 E5.58452
G1 X206.396 Y110.621 E5.59463
G1 X206.4 Y110.93 E5.60439
G1 X206.399 Y123.8 E6.01105
G1 X206.39 Y124.527 E6.03402
G1 X206.339 Y125.464 E6.06367
G1 X206.207 Y126.392 E6.09329
G1 X205.998 Y127.306 E6.12292
G1 X205.711 Y128.199 E6.15255
G1 X205.349 Y129.065 E6.18221
G1 X204.915 Y129.896 E6.21183
G1 X204.411 Y130.687 E6.24147
G1 X203.842 Y131.432 E6.27109
G1 X203.211 Y132.127 E6.30075
G1 X202.524 Y132.765 E6.33037
G1 X201.785 Y133.342 E6.36
G1 X200.999 Y133.854 E6.38964
G1 X200.173 Y134.297 E6.41925
G1 X199.311 Y134.669 E6.44892
G1 X198.422 Y134.965 E6.47852
G1 X197.51 Y135.185 E6.50817
G1 X196.583 Y135.326 E6.5378
G1 X195.699 Y135.387 E6.56579
G1 X195.378 Y135.396 E6.57594
G1 X195.07 Y135.4 E6.58567
G1 X40.165 Y135.399 E11.48023
G1 X39.467 Y135.39 E11.50228
G1 X38.531 Y135.338 E11.5319
G1 X37.602 Y135.206 E11.56155
G1 X36.688 Y134.996 E11.59118
G1 X35.795 Y134.709 E11.62082
G1 X34.93 Y134.346 E11.65046
G1 X34.099 Y133.912 E11.68008
G1 X33.308 Y133.408 E11.70972
G1 X32.563 Y132.838 E11.73936
G1 X31.869 Y132.207 E11.769
G1 X31.232 Y131.52 E11.7986
G1 X30.655 Y130.78 E11.82825
G1 X30.143 Y129.994 E11.85789
G1 X29.7 Y129.167 E11.88753
G1 X29.329 Y128.306 E11.91716
G1 X29.033 Y127.416 E11.94679
G1 X28.814 Y126.504 E11.97643
G1 X28.673 Y125.577 E12.00606
G1 X28.613 Y124.688 E12.03421
G1 X28.604 Y124.355 E12.04473
G1 X28.6 Y124.058 E12.05412
G1 X28.601 Y111.125 E12.46277
G1 X28.61 Y110.46 E12.48378
G1 X28.663 Y109.524 E12.5134
G1 X28.795 Y108.595 E12.54305
G1 X29.006 Y107.681 E12.57269
G1 X29.294 Y106.789 E12.60231
G1 X29.657 Y105.924 E12.63195
G1 X30.092 Y105.093 E12.66158
G1 X30.596 Y104.303 E12.69119
G1 X31.166 Y103.558 E12.72083
G1 X31.798 Y102.864 E12.75049
G1 X32.486 Y102.227 E12.78012
G1 X33.226 Y101.651 E12.80975
G1 X34.012 Y101.139 E12.83939
G1 X34.839 Y100.697 E12.86902
G1 X35.701 Y100.327 E12.89866
G0 F7500 X36.065 Y100.619
G1 F1500 X36.945 Y100.349 E12.92774
G1 X37.845 Y100.157 E12.95682
G1 X38.759 Y100.043 E12.98592
G1 X39.312 Y100.013 E13.00342
G1 X39.633 Y100.004 E13.01357
G1 X39.93 Y100 E13.02295
G1 X194.693 Y100 E17.91302
G1 X195.543 Y100.011 E17.93988
G1 X196.462 Y100.064 E17.96896
G1 X197.373 Y100.197 E17.99806
G1 X198.269 Y100.408 E18.02714
G1 X199.143 Y100.696 E18.05622
G1 X199.99 Y101.059 E18.08533
G1 X200.801 Y101.494 E18.11441
G1 X201.571 Y101.998 E18.14349
G1 X202.295 Y102.567 E18.17259
G1 X202.967 Y103.197 E18.20169
G1 X203.582 Y103.882 E18.23078
G1 X204.135 Y104.618 E18.25987
G1 X204.622 Y105.399 E18.28895
G1 X205.039 Y106.22 E18.31805
G1 X205.384 Y107.074 E18.34715
G1 X205.653 Y107.954 E18.37622
G1 X205.845 Y108.855 E18.40533
G1 X205.958 Y109.768 E18.4344
G1 X205.987 Y110.312 E18.45161
G1 X205.996 Y110.632 E18.46173
G1 X206 Y110.93 E18.47115
G1 X205.999 Y123.795 E18.87764
G1 X205.99 Y124.522 E18.90061
G1 X205.939 Y125.441 E18.9297
G1 X205.808 Y126.353 E18.95881
G1 X205.598 Y127.249 E18.98789
G1 X205.312 Y128.124 E19.01697
G1 X204.951 Y128.971 E19.04607
G1 X204.517 Y129.783 E19.07516
G1 X204.015 Y130.555 E19.10426
G1 X203.447 Y131.28 E19.13336
G1 X202.819 Y131.953 E19.16244
G1 X202.135 Y132.569 E19.19153
G1 X201.4 Y133.123 E19.22061
G1 X200.62 Y133.612 E19.2497
G1 X199.8 Y134.031 E19.27879
G1 X198.947 Y134.377 E19.30788
G1 X198.067 Y134.648 E19.33697
G1 X197.167 Y134.841 E19.36606
G1 X196.253 Y134.956 E19.39516
G1 X195.688 Y134.987 E19.41304
G1 X195.367 Y134.996 E19.42319
G1 X195.07 Y135 E19.43258
G1 X40.17 Y134.999 E24.32697
G1 X39.472 Y134.99 E24.34903
G1 X38.553 Y134.938 E24.37811
G1 X37.642 Y134.807 E24.40719
G1 X36.746 Y134.597 E24.43627
G1 X35.871 Y134.31 E24.46537
G1 X35.024 Y133.948 E24.49447
G1 X34.212 Y133.514 E24.52356
G1 X33.441 Y133.012 E24.55263
G1 X32.716 Y132.444 E24.58173
G1 X32.043 Y131.815 E24.61084
G1 X31.428 Y131.131 E24.63991
G1 X30.874 Y130.396 E24.66899
G1 X30.386 Y129.615 E24.69809
G1 X29.967 Y128.795 E24.72718
G1 X29.621 Y127.942 E24.75627
G1 X29.351 Y127.062 E24.78535
G1 X29.158 Y126.161 E24.81447
G1 X29.044 Y125.248 E24.84354
G1 X29.013 Y124.677 E24.86161
G1 X29.004 Y124.344 E24.87213
G1 X29 Y124.058 E24.88117
G1 X29.001 Y111.131 E25.28963
G1 X29.01 Y110.466 E25.31064
G1 X29.062 Y109.546 E25.33976
G1 X29.194 Y108.635 E25.36884
G1 X29.405 Y107.739 E25.39793
G1 X29.692 Y106.864 E25.42702
G1 X30.055 Y106.018 E25.45611
G1 X30.489 Y105.206 E25.4852
G1 X30.992 Y104.435 E25.51429
G1 X31.561 Y103.711 E25.54339
G1 X32.189 Y103.039 E25.57245
G1 X32.874 Y102.423 E25.60156
G1 X33.61 Y101.87 E25.63065
G1 X34.391 Y101.382 E25.65974
G1 X35.211 Y100.964 E25.68883
G1 X36.065 Y100.619 E25.71793
G0 F7500 X35.582 Y101.238
G1 F1500 X36.427 Y100.918 E25.74648
G1 X37.296 Y100.675 E25.77499
G1 X38.184 Y100.509 E25.80353
G1 X39.323 Y100.413 E25.83965
G1 X39.644 Y100.404 E25.8498
G1 X39.93 Y100.4 E25.85884
G1 X194.693 Y100.4 E30.7489
G1 X195.537 Y100.411 E30.77557
G1 X196.439 Y100.464 E30.80412
G1 X197.332 Y100.596 E30.83264
G1 X198.21 Y100.807 E30.86118
G1 X199.066 Y101.095 E30.88971
G1 X199.893 Y101.457 E30.91824
G1 X200.685 Y101.892 E30.94679
G1 X201.436 Y102.394 E30.97533
G1 X202.139 Y102.961 E31.00387
G1 X202.789 Y103.588 E31.03241
G1 X203.381 Y104.27 E31.06094
G1 X203.911 Y105.001 E31.08947
G1 X204.373 Y105.777 E31.11801
G1 X204.766 Y106.59 E31.14654
G1 X205.084 Y107.435 E31.17507
G1 X205.327 Y108.305 E31.20361
G1 X205.492 Y109.193 E31.23215
G1 X205.587 Y110.323 E31.26798
G1 X205.596 Y110.643 E31.27809
G1 X205.6 Y110.93 E31.28716
G1 X205.599 Y123.79 E31.6935
G1 X205.59 Y124.517 E31.71647
G1 X205.539 Y125.419 E31.74502
G1 X205.408 Y126.313 E31.77357
G1 X205.199 Y127.191 E31.80209
G1 X204.913 Y128.048 E31.83063
G1 X204.552 Y128.876 E31.85917
G1 X204.12 Y129.668 E31.88768
G1 X203.619 Y130.42 E31.91623
G1 X203.053 Y131.124 E31.94477
G1 X202.428 Y131.775 E31.97329
G1 X201.747 Y132.369 E32.00184
G1 X201.016 Y132.9 E32.03039
G1 X200.242 Y133.364 E32.0589
G1 X199.429 Y133.758 E32.08745
G1 X198.585 Y134.078 E32.11597
G1 X197.715 Y134.323 E32.14453
G1 X196.828 Y134.489 E32.17304
G1 X195.677 Y134.587 E32.20954
G1 X195.356 Y134.596 E32.21969
G1 X195.07 Y134.6 E32.22873
G1 X40.175 Y134.599 E37.12296
G1 X39.477 Y134.59 E37.14502
G1 X38.576 Y134.539 E37.17353
G1 X37.682 Y134.407 E37.20209
G1 X36.804 Y134.198 E37.23061
G1 X35.947 Y133.911 E37.25916
G1 X35.12 Y133.55 E37.28768
G1 X34.327 Y133.117 E37.31622
G1 X33.576 Y132.616 E37.34475
G1 X32.872 Y132.05 E37.37329
G1 X32.221 Y131.424 E37.40183
G1 X31.628 Y130.743 E37.43036
G1 X31.098 Y130.012 E37.45889
G1 X30.634 Y129.237 E37.48743
G1 X30.24 Y128.424 E37.51598
G1 X29.92 Y127.58 E37.5445
G1 X29.676 Y126.71 E37.57305
G1 X29.51 Y125.822 E37.60159
G1 X29.413 Y124.667 E37.63821
G1 X29.404 Y124.334 E37.64874
G1 X29.4 Y124.058 E37.65746
G1 X29.401 Y111.136 E38.06576
G1 X29.41 Y110.471 E38.08677
G1 X29.462 Y109.569 E38.11532
G1 X29.594 Y108.676 E38.14384
G1 X29.804 Y107.798 E38.17237
G1 X30.091 Y106.941 E38.20093
G1 X30.453 Y106.114 E38.22945
G1 X30.886 Y105.322 E38.25797
G1 X31.388 Y104.571 E38.28651
G1 X31.955 Y103.867 E38.31508
G1 X32.581 Y103.217 E38.34359
G1 X33.262 Y102.624 E38.37212
G1 X33.994 Y102.094 E38.40068
G1 X34.769 Y101.631 E38.4292
G1 X35.582 Y101.238 E38.45774
G1 F2700 E32.45774
;MESH:regla-costura.stl
G0 F7500 X43.053 Y121.053
G0 X41.784 Y119.868
G0 X41.762 Y122.146
G0 X41.94 Y122.635
G1 F2700 E38.45774
G0 F7500 X42.006 Y122.561
;TYPE:WALL-INNER
G1 F1500 X42.396 Y122.7 E38.47082
G1 X192.638 Y122.7 E43.21803
G1 X193.061 Y122.494 E43.2329
G1 X193.2 Y122.104 E43.24598
G1 X193.2 Y120.362 E43.30102
G1 X192.994 Y119.939 E43.31589
G1 X192.604 Y119.8 E43.32897
G1 X42.362 Y119.8 E48.07619
G1 X41.939 Y120.006 E48.09105
G1 X41.8 Y120.396 E48.10414
G1 X41.8 Y122.138 E48.15918
G1 X42.006 Y122.561 E48.17404
G0 F7500 X42.15 Y122.4
;TYPE:WALL-OUTER
G1 F1500 X42.431 Y122.5 E48.183
G1 X192.592 Y122.5 E52.69042
G1 X192.9 Y122.35 E52.7007
G1 X193 Y122.069 E52.70966
G1 X193 Y120.408 E52.75952
G1 X192.85 Y120.1 E52.7698
G1 X192.569 Y120 E52.77875
G1 X42.408 Y120 E57.28618
G1 X42.1 Y120.15 E57.29646
G1 X42 Y120.431 E57.30541
G1 X42 Y122.092 E57.35527
G1 X42.15 Y122.4 E57.36556
G0 F7500 X42.431 Y122.5
G0 X42.533 Y122.5
G0 X42.533 Y122.94
G1 F2700 E51.36556
G0 F7500 X42.533 Y122.81
G0 X192.638 Y122.7
G0 X192.638 Y123.59
G0 X194.7 Y123.73
G1 F2700 E57.36556
G0 F7500 X194.8 Y123.8
;TYPE:WALL-INNER
G1 F1500 X40.2 Y123.8 E62.25047
G1 X40.2 Y111.2 E62.6486
G1 X194.8 Y111.2 E67.53351
G1 X194.8 Y123.8 E67.93164
G0 F7500 X195 Y124
;TYPE:WALL-OUTER
G1 F1500 X40 Y124 E72.58431
G1 X40 Y111 E72.97454
G1 X195 Y111 E77.62721
G1 X195 Y124 E78.01744
G0 F7500 X194.6 Y124
G0 X194.56 Y123.56
G0 X194.634 Y123.48
;TYPE:SKIN
G1 F1500 X40.365 Y123.48 E81.42956
G0 F7500 X40.365 Y123.2
G1 F1500 X194.634 Y123.2 E84.84168
G0 F7500 X194.634 Y122.92
G1 F1500 X40.365 Y122.92 E88.2538
G0 F7500 X40.365 Y122.64
G1 F1500 X41.86 Y122.64 E88.28687
G0 F7500 X41.724 Y122.36
G1 F1500 X40.365 Y122.36 E88.31692
G0 F7500 X40.365 Y122.08
G1 F1500 X41.633 Y122.08 E88.34497
G0 F7500 X41.633 Y121.8
G1 F1500 X40.365 Y121.8 E88.37301
G0 F7500 X40.365 Y121.52
G1 F1500 X41.633 Y121.52 E88.40106
G0 F7500 X41.633 Y121.24
G1 F1500 X40.365 Y121.24 E88.42911
G0 F7500 X40.365 Y120.96
G1 F1500 X41.633 Y120.96 E88.45715
G0 F7500 X41.633 Y120.68
G1 F1500 X40.365 Y120.68 E88.4852
G0 F7500 X40.365 Y120.4
G1 F1500 X41.633 Y120.4 E88.51324
G0 F7500 X41.72 Y120.12
G1 F1500 X40.365 Y120.12 E88.54321
G0 F7500 X40.365 Y119.84
G1 F1500 X41.9 Y119.84 E88.57716
G1 F2700 E82.57716
G0 F7500 X41.922 Y119.891
G0 X41.716 Y120.062
G0 X40.41 Y120.062
G0 X40.31 Y119.56
G1 F2700 E88.57716
G0 F7500 X40.365 Y119.56
G1 F1500 X194.634 Y119.56 E91.98928
G0 F7500 X194.634 Y119.84
G1 F1500 X193.13 Y119.84 E92.02255
G0 F7500 X193.266 Y120.12
G1 F1500 X194.634 Y120.12 E92.05281
G0 F7500 X194.634 Y120.4
G1 F1500 X193.366 Y120.4 E92.08085
G0 F7500 X193.366 Y120.68
G1 F1500 X194.634 Y120.68 E92.1089
G0 F7500 X194.634 Y120.96
G1 F1500 X193.366 Y120.96 E92.13694
G0 F7500 X193.366 Y121.24
G1 F1500 X194.634 Y121.24 E92.16499
G0 F7500 X194.634 Y121.52
G1 F1500 X193.366 Y121.52 E92.19304
G0 F7500 X193.366 Y121.8
G1 F1500 X194.634 Y121.8 E92.22108
G0 F7500 X194.634 Y122.08
G1 F1500 X193.366 Y122.08 E92.24913
G0 F7500 X193.285 Y122.36
G1 F1500 X194.634 Y122.36 E92.27896
G0 F7500 X194.634 Y122.64
G1 F1500 X193.138 Y122.64 E92.31205
G1 F2700 E86.31205
G0 F7500 X193.116 Y122.59
G0 X193.185 Y122.319
G0 X193.391 Y120.318
G0 X194.59 Y120.318
G0 X194.69 Y119.28
G1 F2700 E92.31205
G0 F7500 X194.634 Y119.28
G1 F1500 X40.365 Y119.28 E95.72417
G0 F7500 X40.365 Y119
G1 F1500 X194.634 Y119 E99.13629
G0 F7500 X194.634 Y118.72
G1 F1500 X40.365 Y118.72 E102.54841
G0 F7500 X40.365 Y118.44
G1 F1500 X194.634 Y118.44 E105.96053
G0 F7500 X194.634 Y118.16
G1 F1500 X40.365 Y118.16 E109.37265
G0 F7500 X40.365 Y117.88
G1 F1500 X194.634 Y117.88 E112.78477
G0 F7500 X194.634 Y117.6
G1 F1500 X40.365 Y117.6 E116.19689
G0 F7500 X40.365 Y117.32
G1 F1500 X194.634 Y117.32 E119.60901
G0 F7500 X194.634 Y117.04
G1 F1500 X40.365 Y117.04 E123.02113
G0 F7500 X40.365 Y116.76
G1 F1500 X194.634 Y116.76 E126.43325
G0 F7500 X194.634 Y116.48
G1 F1500 X40.365 Y116.48 E129.84537
G0 F7500 X40.365 Y116.2
G1 F1500 X194.634 Y116.2 E133.25749
G0 F7500 X194.634 Y115.92
G1 F1500 X40.365 Y115.92 E136.66961
G0 F7500 X40.365 Y115.64
G1 F1500 X194.634 Y115.64 E140.08173
G0 F7500 X194.634 Y115.36
G1 F1500 X40.365 Y115.36 E143.49385
G0 F7500 X40.365 Y115.08
G1 F1500 X194.634 Y115.08 E146.90597
G0 F7500 X194.634 Y114.8
G1 F1500 X40.365 Y114.8 E150.31809
G0 F7500 X40.365 Y114.52
G1 F1500 X194.634 Y114.52 E153.73021
G0 F7500 X194.634 Y114.24
G1 F1500 X40.365 Y114.24 E157.14234
G0 F7500 X40.365 Y113.96
G1 F1500 X194.634 Y113.96 E160.55446
G0 F7500 X194.634 Y113.68
G1 F1500 X40.365 Y113.68 E163.96658
G0 F7500 X40.365 Y113.4
G1 F1500 X194.634 Y113.4 E167.3787
G0 F7500 X194.634 Y113.12
G1 F1500 X40.365 Y113.12 E170.79082
G0 F7500 X40.365 Y112.84
G1 F1500 X194.634 Y112.84 E174.20294
G0 F7500 X194.634 Y112.56
G1 F1500 X40.365 Y112.56 E177.61506
G0 F7500 X40.365 Y112.28
G1 F1500 X194.634 Y112.28 E181.02718
G0 F7500 X194.634 Y112
G1 F1500 X40.365 Y112 E184.4393
G0 F7500 X40.365 Y111.72
G1 F1500 X194.634 Y111.72 E187.85142
G0 F7500 X194.634 Y111.44
G1 F1500 X40.365 Y111.44 E191.26354
G1 F2700 E185.26354
;MESH:NONMESH
G0 F300 X40.365 Y111.44 Z0.4
G0 F7500 X40.31 Y111.44
G0 X40.41 Y119.902
G0 X41.619 Y120.334
G0 X41.899 Y119.902
G1 F2700 E191.26354
G0 F7500 X41.9 Y119.9
;TIME_ELAPSED:318.939188
;LAYER:1
M106 S85
;TYPE:WALL-INNER
;MESH:regla-costura.stl
G1 F2250 X41.9 Y122.6 E191.35334
G1 X193.1 Y122.6 E196.38227
G1 X193.1 Y119.9 E196.47207
G1 X41.9 Y119.9 E201.50101
G0 F8250 X42.1 Y120.1
;TYPE:WALL-OUTER
G1 F1500 X42.1 Y122.4 E201.57368
G1 X192.9 Y122.4 E206.33853
G1 X192.9 Y120.1 E206.4112
G1 X42.1 Y120.1 E211.17605
G0 F8250 X42.1 Y120.5
G0 X41.66 Y120.5
G1 F2700 E205.17605
G0 F8250 X41.79 Y120.5
G0 X41.872 Y122.628
G0 X193.128 Y122.628
G0 X193.1 Y123.69
G0 X194.8 Y123.83
G1 F2700 E211.17605
G0 F8250 X194.9 Y123.9
;TYPE:WALL-INNER
G1 F2250 X40.1 Y123.9 E216.32472
G1 X40.1 Y111.1 E216.75045
G1 X194.9 Y111.1 E221.89911
G1 X194.9 Y123.9 E222.32484
G0 F8250 X195.1 Y124.1
;TYPE:WALL-OUTER
G1 F1500 X39.9 Y124.1 E227.22872
G1 X39.9 Y110.9 E227.6458
G1 X195.1 Y110.9 E232.54968
G1 X195.1 Y124.1 E232.96676
G0 F8250 X194.7 Y124.1
G0 X194.66 Y123.66
G0 X194.734 Y123.48
;TYPE:SKIN
G1 F1500 X40.265 Y123.48 E236.56312
G0 F8250 X40.265 Y123.2
G1 F1500 X194.734 Y123.2 E240.15948
G0 F8250 X194.734 Y122.92
G1 F1500 X40.265 Y122.92 E243.75584
G0 F8250 X40.265 Y122.64
G1 F1500 X41.733 Y122.64 E243.79002
G0 F8250 X41.733 Y122.36
G1 F1500 X40.265 Y122.36 E243.8242
G0 F8250 X40.265 Y122.08
G1 F1500 X41.733 Y122.08 E243.85838
G0 F8250 X41.733 Y121.8
G1 F1500 X40.265 Y121.8 E243.89256
G0 F8250 X40.265 Y121.52
G1 F1500 X41.733 Y121.52 E243.92673
G0 F8250 X41.733 Y121.24
G1 F1500 X40.265 Y121.24 E243.96091
G0 F8250 X40.265 Y120.96
G1 F1500 X41.733 Y120.96 E243.99509
G0 F8250 X41.733 Y120.68
G1 F1500 X40.265 Y120.68 E244.02927
G0 F8250 X40.265 Y120.4
G1 F1500 X41.733 Y120.4 E244.06345
G0 F8250 X41.733 Y120.12
G1 F1500 X40.265 Y120.12 E244.09762
G0 F8250 X40.265 Y119.84
G1 F1500 X41.733 Y119.84 E244.1318
G0 F8250 X41.79 Y119.84
G0 X40.31 Y119.704
G0 X40.265 Y119.56
G1 F1500 X194.734 Y119.56 E247.72816
G0 F8250 X194.734 Y119.84
G1 F1500 X193.266 Y119.84 E247.76234
G0 F8250 X193.266 Y120.12
G1 F1500 X194.734 Y120.12 E247.79652
G0 F8250 X194.734 Y120.4
G1 F1500 X193.266 Y120.4 E247.8307
G0 F8250 X193.266 Y120.68
