;FLAVOR:Marlin
M117 Time Left 3h37m37s
;TIME:13057
;Filament used: 17.325m
;Layer height: 0.2
;MINX:45.824
;MINY:35.325
;MINZ:0.28
;MAXX:189.178
;MAXY:199.176
;MAXZ:18.48
;POSTPROCESSED
;Generated with Cura_SteamEngine 5.2.1
M140 S75
M105
M190 S75
M104 S220
M105
M109 S220
M82 ;absolute extrusion mode
; Ender 3 Custom Start G-code
G92 E0 ; Reset Extruder
G28 ; Home all axes
G1 Z2.0 F3000 ; Move Z Axis up little to prevent scratching of Heat Bed
G1 X0.1 Y20 Z0.3 F5000.0 ; Move to start position
G1 X0.1 Y200.0 Z0.3 F1500.0 E15 ; Draw the first line
G1 X0.4 Y200.0 Z0.3 F5000.0 ; Move to side a little
G1 X0.4 Y20 Z0.3 F1500.0 E30 ; Draw the second line
G92 E0 ; Reset Extruder
G1 Z2.0 F3000 ; Move Z Axis up little to prevent scratching of Heat Bed
G1 X5 Y20 Z0.3 F5000.0 ; Move over to prevent blob squish
G92 E0
G92 E0
G1 F2700 E-6
;LAYER_COUNT:92
;LAYER:0
M107
M204 S500
M205 X5 Y5
G0 F7500 X49.032 Y44.648 Z0.28
M205 X8 Y8
;TYPE:SKIRT
G1 F2700 E0
G1 F1500 X49.722 Y44.005 E0.04459
G1 X50.464 Y43.422 E0.0892
G1 X51.403 Y42.816 E0.14204
G1 X54 Y41.319 E0.28375
G1 X56.104 Y40.021 E0.40063
G1 X58.219 Y38.633 E0.52023
G1 X59.784 Y37.54 E0.61048
G1 X60.245 Y37.228 E0.6368
G1 X61.05 Y36.736 E0.6814
G1 X61.893 Y36.313 E0.72599
G1 X62.769 Y35.963 E0.77059
G1 X63.671 Y35.689 E0.81516
G1 X64.594 Y35.492 E0.85978
G1 X65.53 Y35.374 E0.90438
G1 X66.079 Y35.342 E0.93038
G1 X66.78 Y35.325 E0.96353
G1 X74.502 Y35.326 E1.3286
G1 X75.512 Y35.345 E1.37636
G1 X76.39 Y35.382 E1.41791
G1 X79.033 Y35.457 E1.54291
G1 X81.513 Y35.457 E1.66016
G1 X84.096 Y35.384 E1.78233
G1 X84.671 Y35.355 E1.80954
G1 X85.78 Y35.325 E1.86199
G1 X99.502 Y35.326 E2.51073
G1 X100.512 Y35.345 E2.55849
G1 X101.39 Y35.382 E2.60004
G1 X104.033 Y35.457 E2.72504
G1 X106.513 Y35.457 E2.84229
G1 X109.096 Y35.384 E2.96445
G1 X109.671 Y35.355 E2.99167
G1 X110.78 Y35.325 E3.04412
G1 X132.5 Y35.326 E4.07098
G1 X134.129 Y35.349 E4.14801
G1 X134.954 Y35.372 E4.18702
G1 X137.505 Y35.375 E4.30763
G1 X139.783 Y35.325 E4.41535
G1 X177.505 Y35.326 E6.19874
G1 X178.203 Y35.336 E6.23175
G1 X179.145 Y35.39 E6.27635
G1 X180.079 Y35.523 E6.32096
G1 X180.998 Y35.734 E6.36553
G1 X181.896 Y36.023 E6.41013
G1 X182.766 Y36.387 E6.45472
G1 X183.602 Y36.823 E6.4993
G1 X184.399 Y37.328 E6.5439
G1 X185.149 Y37.9 E6.5885
G1 X185.849 Y38.532 E6.63308
G1 X186.492 Y39.222 E6.67767
G1 X187.075 Y39.963 E6.72225
G1 X187.593 Y40.752 E6.76687
G1 X188.042 Y41.581 E6.81144
G1 X188.419 Y42.445 E6.85601
G1 X188.722 Y43.339 E6.90064
G1 X188.948 Y44.254 E6.9452
G1 X189.096 Y45.186 E6.98981
G1 X189.165 Y46.147 E7.03536
G1 X189.178 Y46.78 E7.06529
G1 X189.176 Y183.194 E13.51457
G1 X189.164 Y184.033 E13.55423
G1 X189.122 Y184.898 E13.59518
G1 X189.027 Y185.8 E13.63806
G1 X188.983 Y186.1 E13.65239
G1 X188.811 Y187.01 E13.69618
G1 X188.678 Y187.581 E13.72389
G1 X188.425 Y188.489 E13.76846
G1 X188.197 Y189.127 E13.80049
G1 X188.037 Y189.534 E13.82116
G1 X187.634 Y190.439 E13.868
G1 X187.424 Y190.859 E13.8902
G1 X186.88 Y191.823 E13.94253
G1 X186.695 Y192.116 E13.95891
G1 X186.195 Y192.842 E14.00059
G1 X185.972 Y193.14 E14.01819
G1 X185.362 Y193.886 E14.06374
G1 X185.178 Y194.092 E14.0768
G1 X184.494 Y194.793 E14.12311
G1 X184.12 Y195.144 E14.14736
G1 X183.337 Y195.814 E14.19608
G1 X183.013 Y196.066 E14.21548
G1 X182.171 Y196.66 E14.2642
G1 X181.814 Y196.888 E14.28422
G1 X180.72 Y197.503 E14.34356
G1 X180.377 Y197.671 E14.36162
G1 X179.47 Y198.071 E14.40848
G1 X178.694 Y198.349 E14.44745
G1 X178.265 Y198.488 E14.46877
G1 X177.094 Y198.798 E14.52604
G1 X176.766 Y198.866 E14.54188
G1 X175.966 Y199.002 E14.58024
G1 X175.565 Y199.055 E14.59936
G1 X174.539 Y199.143 E14.64805
G1 X173.922 Y199.167 E14.67724
G1 X173.49 Y199.175 E14.69767
G1 X61.806 Y199.176 E19.97777
G1 X60.965 Y199.164 E20.01754
G1 X60.243 Y199.13 E20.05171
G1 X59.815 Y199.096 E20.07201
G1 X58.795 Y198.967 E20.12062
G1 X58.426 Y198.903 E20.13832
G1 X57.517 Y198.706 E20.18229
G1 X57.199 Y198.623 E20.19783
G1 X56.375 Y198.378 E20.23847
G1 X55.547 Y198.07 E20.28024
G1 X55.212 Y197.932 E20.29737
G1 X54.385 Y197.551 E20.34042
G1 X54.119 Y197.415 E20.35454
G1 X53.336 Y196.975 E20.397
G1 X52.975 Y196.752 E20.41706
G1 X52.157 Y196.194 E20.46388
G1 X51.863 Y195.974 E20.48124
G1 X51.119 Y195.366 E20.52666
G1 X50.895 Y195.166 E20.54086
G1 X50.175 Y194.462 E20.58847
G1 X49.876 Y194.142 E20.60917
G1 X49.219 Y193.371 E20.65706
G1 X48.885 Y192.941 E20.6828
G1 X48.206 Y191.963 E20.73909
G1 X48.059 Y191.725 E20.75232
G1 X47.631 Y190.968 E20.79343
G1 X47.471 Y190.657 E20.80997
G1 X47.093 Y189.843 E20.8524
G1 X46.914 Y189.413 E20.87442
G1 X46.489 Y188.198 E20.93527
G1 X46.386 Y187.838 E20.95297
G1 X46.179 Y186.99 E20.99424
G1 X46.122 Y186.709 E21.0078
G1 X45.989 Y185.902 E21.04647
G1 X45.934 Y185.47 E21.06705
G1 X45.852 Y184.461 E21.11491
G1 X45.826 Y183.531 E21.1589
G1 X45.824 Y52.978 E27.33108
G1 X45.834 Y52.293 E27.36347
G1 X45.888 Y51.351 E27.40808
G1 X46.021 Y50.417 E27.45268
G1 X46.233 Y49.498 E27.49727
G1 X46.522 Y48.6 E27.54187
G1 X46.886 Y47.73 E27.58645
G1 X47.323 Y46.894 E27.63105
G1 X47.828 Y46.098 E27.67562
G1 X48.4 Y45.347 E27.72025
G1 X49.032 Y44.648 E27.7648
M205 X5 Y5
G0 F7500 X49.473 Y44.844
M205 X8 Y8
G1 F1500 X50.159 Y44.225 E27.80848
G1 X50.896 Y43.668 E27.85216
G1 X51.627 Y43.206 E27.89304
G1 X54.234 Y41.704 E28.03529
G1 X56.353 Y40.396 E28.15302
G1 X58.482 Y38.998 E28.27343
G1 X60.042 Y37.909 E28.36337
G1 X60.496 Y37.602 E28.38928
G1 X61.285 Y37.12 E28.433
G1 X62.112 Y36.708 E28.47668
G1 X62.971 Y36.369 E28.52034
G1 X63.857 Y36.106 E28.56403
G1 X64.762 Y35.921 E28.6077
G1 X66.094 Y35.792 E28.67097
G1 X66.78 Y35.775 E28.70341
G1 X74.343 Y35.775 E29.06097
G1 X75.194 Y35.786 E29.10121
G1 X76.359 Y35.832 E29.15633
G1 X79.02 Y35.907 E29.28218
G1 X81.526 Y35.907 E29.40066
G1 X84.086 Y35.835 E29.52173
G1 X84.694 Y35.804 E29.55052
G1 X85.78 Y35.775 E29.60188
G1 X99.496 Y35.776 E30.25033
G1 X100.194 Y35.786 E30.28334
G1 X101.359 Y35.832 E30.33846
G1 X104.02 Y35.907 E30.46431
G1 X106.526 Y35.907 E30.58279
G1 X109.13 Y35.833 E30.70595
G1 X109.92 Y35.796 E30.74334
G1 X110.78 Y35.775 E30.78401
G1 X132.494 Y35.776 E31.81058
G1 X134.123 Y35.799 E31.88761
G1 X134.941 Y35.822 E31.92629
G1 X137.515 Y35.825 E32.04799
G1 X139.783 Y35.775 E32.15524
G1 X177.499 Y35.776 E33.93834
G1 X178.197 Y35.786 E33.97135
G1 X179.119 Y35.839 E34.01501
G1 X180.034 Y35.972 E34.05872
G1 X180.933 Y36.183 E34.10238
G1 X181.811 Y36.472 E34.14608
G1 X182.66 Y36.835 E34.18973
G1 X183.475 Y37.27 E34.23341
G1 X184.25 Y37.774 E34.27711
G1 X184.977 Y38.343 E34.32076
G1 X185.653 Y38.973 E34.36445
G1 X186.272 Y39.659 E34.40813
G1 X186.829 Y40.396 E34.45181
G1 X187.321 Y41.178 E34.49549
G1 X187.743 Y42 E34.53917
G1 X188.092 Y42.856 E34.58287
G1 X188.366 Y43.738 E34.62654
G1 X188.563 Y44.641 E34.67023
G1 X188.681 Y45.557 E34.7139
G1 X188.715 Y46.16 E34.74245
G1 X188.728 Y46.78 E34.77177
G1 X188.726 Y183.188 E41.22076
G1 X188.714 Y184.027 E41.26043
G1 X188.673 Y184.869 E41.30028
G1 X188.582 Y185.735 E41.34145
G1 X188.538 Y186.035 E41.35578
G1 X188.373 Y186.908 E41.39779
G1 X188.24 Y187.479 E41.4255
G1 X187.991 Y188.369 E41.4692
G1 X187.778 Y188.963 E41.49903
G1 X187.618 Y189.37 E41.51971
G1 X187.231 Y190.238 E41.56464
G1 X187.021 Y190.658 E41.58684
G1 X186.499 Y191.583 E41.63705
G1 X186.314 Y191.876 E41.65343
G1 X185.835 Y192.573 E41.69342
G1 X185.612 Y192.871 E41.71101
G1 X185.027 Y193.586 E41.75469
G1 X184.843 Y193.792 E41.76775
G1 X184.186 Y194.465 E41.81221
G1 X183.812 Y194.816 E41.83646
G1 X183.061 Y195.458 E41.88317
G1 X182.737 Y195.71 E41.90258
G1 X181.929 Y196.281 E41.94935
G1 X181.572 Y196.509 E41.96938
G1 X180.522 Y197.099 E42.02632
G1 X180.179 Y197.267 E42.04438
G1 X179.305 Y197.652 E42.08953
G1 X178.555 Y197.921 E42.1272
G1 X178.126 Y198.06 E42.14852
G1 X177.003 Y198.358 E42.20345
G1 X176.675 Y198.426 E42.21929
G1 X175.907 Y198.556 E42.25611
G1 X175.506 Y198.609 E42.27523
G1 X174.522 Y198.693 E42.32192
G1 X173.49 Y198.725 E42.37074
G1 X61.813 Y198.726 E47.65051
G1 X60.972 Y198.714 E47.69028
G1 X60.279 Y198.681 E47.72308
G1 X59.851 Y198.647 E47.74338
G1 X58.872 Y198.524 E47.79002
G1 X58.503 Y198.46 E47.80773
G1 X57.631 Y198.271 E47.84991
G1 X57.313 Y198.188 E47.86545
G1 X56.516 Y197.951 E47.90476
G1 X55.718 Y197.654 E47.94502
G1 X55.383 Y197.516 E47.96215
G1 X54.589 Y197.151 E48.00346
G1 X54.323 Y197.015 E48.01759
G1 X53.573 Y196.592 E48.05829
G1 X53.212 Y196.369 E48.07835
G1 X52.426 Y195.834 E48.12331
G1 X52.132 Y195.614 E48.14067
G1 X51.418 Y195.03 E48.18428
G1 X51.194 Y194.83 E48.19847
G1 X50.504 Y194.155 E48.24411
G1 X50.205 Y193.835 E48.26481
G1 X49.574 Y193.095 E48.31079
G1 X49.24 Y192.665 E48.33653
G1 X48.589 Y191.727 E48.39051
G1 X48.442 Y191.489 E48.40374
G1 X48.032 Y190.763 E48.44315
G1 X47.872 Y190.452 E48.45969
G1 X47.509 Y189.671 E48.50041
G1 X47.33 Y189.241 E48.52243
G1 X46.922 Y188.074 E48.58087
G1 X46.819 Y187.714 E48.59858
G1 X46.62 Y186.9 E48.63819
G1 X46.563 Y186.619 E48.65175
G1 X46.435 Y185.845 E48.68884
G1 X46.38 Y185.413 E48.70943
G1 X46.302 Y184.445 E48.75534
G1 X46.276 Y183.531 E48.79857
G1 X46.274 Y52.984 E54.97047
G1 X46.284 Y52.299 E55.00285
G1 X46.338 Y51.377 E55.04652
G1 X46.471 Y50.463 E55.09018
G1 X46.682 Y49.563 E55.13389
G1 X46.971 Y48.685 E55.17759
G1 X47.334 Y47.836 E55.22124
G1 X47.769 Y47.021 E55.26492
G1 X48.274 Y46.247 E55.30861
G1 X48.843 Y45.519 E55.35229
G1 X49.473 Y44.844 E55.39594
M205 X5 Y5
G0 F7500 X49.913 Y45.044
M205 X8 Y8
G1 F1500 X50.596 Y44.451 E55.43871
G1 X51.328 Y43.92 E55.48146
G1 X51.852 Y43.596 E55.51059
G1 X54.454 Y42.097 E55.65256
G1 X56.587 Y40.78 E55.77107
G1 X58.746 Y39.363 E55.89316
G1 X60.448 Y38.176 E55.99127
G1 X60.747 Y37.975 E56.0083
G1 X61.519 Y37.504 E56.05105
G1 X62.33 Y37.104 E56.0938
G1 X63.173 Y36.776 E56.13657
G1 X64.041 Y36.524 E56.1793
G1 X64.929 Y36.35 E56.22208
G1 X66.109 Y36.242 E56.2781
G1 X66.78 Y36.225 E56.30984
G1 X74.343 Y36.225 E56.66739
G1 X75.187 Y36.236 E56.7073
G1 X76.399 Y36.283 E56.76464
G1 X79.007 Y36.357 E56.88799
G1 X81.539 Y36.357 E57.0077
G1 X84.122 Y36.284 E57.12986
G1 X84.933 Y36.245 E57.16825
G1 X85.78 Y36.225 E57.2083
G1 X99.489 Y36.226 E57.85643
G1 X100.474 Y36.244 E57.903
G1 X101.399 Y36.283 E57.94677
G1 X104.007 Y36.357 E58.07012
G1 X106.539 Y36.357 E58.18983
G1 X109.12 Y36.284 E58.3119
G1 X109.933 Y36.245 E58.35038
G1 X110.78 Y36.225 E58.39043
G1 X132.487 Y36.226 E59.41668
G1 X134.269 Y36.252 E59.50094
G1 X134.963 Y36.272 E59.53376
G1 X137.525 Y36.275 E59.65488
G1 X139.783 Y36.225 E59.76166
G1 X177.492 Y36.226 E61.54444
G1 X178.19 Y36.236 E61.57744
G1 X179.093 Y36.289 E61.62021
G1 X179.988 Y36.421 E61.66298
G1 X180.867 Y36.632 E61.70571
G1 X181.724 Y36.92 E61.74846
G1 X182.552 Y37.283 E61.7912
G1 X183.346 Y37.717 E61.83398
G1 X184.097 Y38.219 E61.87669
G1 X184.802 Y38.786 E61.91946
G1 X185.453 Y39.413 E61.96219
G1 X186.047 Y40.095 E62.00495
G1 X186.578 Y40.827 E62.0477
G1 X187.042 Y41.603 E62.09045
G1 X187.436 Y42.417 E62.1332
G1 X187.756 Y43.263 E62.17596
G1 X188.001 Y44.133 E62.21869
G1 X188.167 Y45.022 E62.26145
G1 X188.265 Y46.173 E62.31606
G1 X188.278 Y46.78 E62.34477
G1 X188.276 Y183.181 E68.79342
G1 X188.264 Y184.02 E68.83309
G1 X188.224 Y184.84 E68.87191
G1 X188.137 Y185.67 E68.91136
G1 X188.093 Y185.97 E68.9257
G1 X187.934 Y186.806 E68.96593
G1 X187.801 Y187.377 E68.99365
G1 X187.558 Y188.247 E69.03635
G1 X187.359 Y188.798 E69.06405
G1 X187.199 Y189.205 E69.08473
G1 X186.829 Y190.037 E69.12777
G1 X186.619 Y190.457 E69.14997
G1 X186.119 Y191.343 E69.19807
G1 X185.934 Y191.636 E69.21445
G1 X185.475 Y192.303 E69.25273
G1 X185.252 Y192.601 E69.27033
G1 X184.691 Y193.286 E69.31219
G1 X184.507 Y193.492 E69.32525
G1 X183.878 Y194.137 E69.36784
G1 X183.504 Y194.488 E69.39209
G1 X182.785 Y195.103 E69.43682
G1 X182.461 Y195.355 E69.45623
G1 X181.687 Y195.901 E69.50101
G1 X181.33 Y196.129 E69.52103
G1 X180.324 Y196.695 E69.57561
G1 X179.981 Y196.863 E69.59366
G1 X179.14 Y197.234 E69.63712
G1 X178.417 Y197.493 E69.67343
G1 X177.988 Y197.632 E69.69475
G1 X176.912 Y197.917 E69.74737
G1 X176.584 Y197.985 E69.76321
G1 X175.848 Y198.11 E69.7985
G1 X175.447 Y198.163 E69.81763
G1 X174.504 Y198.243 E69.86237
G1 X173.49 Y198.275 E69.91033
G1 X61.819 Y198.276 E75.18982
G1 X60.978 Y198.264 E75.22959
G1 X60.314 Y198.233 E75.26101
G1 X59.886 Y198.199 E75.28131
G1 X58.949 Y198.081 E75.32596
G1 X58.58 Y198.017 E75.34367
G1 X57.745 Y197.836 E75.38406
G1 X57.427 Y197.753 E75.3996
G1 X56.659 Y197.524 E75.43749
G1 X55.889 Y197.238 E75.47632
G1 X55.554 Y197.1 E75.49345
G1 X54.794 Y196.75 E75.53301
G1 X54.528 Y196.614 E75.54713
G1 X53.809 Y196.209 E75.58615
G1 X53.448 Y195.986 E75.60621
G1 X52.696 Y195.474 E75.64922
G1 X52.402 Y195.254 E75.66658
G1 X51.718 Y194.694 E75.70837
G1 X51.494 Y194.494 E75.72257
G1 X50.833 Y193.848 E75.76626
G1 X50.534 Y193.528 E75.78697
G1 X49.93 Y192.819 E75.831
G1 X49.596 Y192.389 E75.85674
G1 X48.972 Y191.49 E75.90848
G1 X48.825 Y191.252 E75.92171
G1 X48.432 Y190.557 E75.95945
G1 X48.272 Y190.246 E75.97599
G1 X47.924 Y189.498 E76.01499
G1 X47.745 Y189.068 E76.03701
G1 X47.354 Y187.951 E76.09296
G1 X47.251 Y187.591 E76.11066
G1 X47.061 Y186.811 E76.14862
G1 X47.004 Y186.53 E76.16217
G1 X46.882 Y185.788 E76.19773
G1 X46.827 Y185.356 E76.21831
G1 X46.751 Y184.429 E76.26229
G1 X46.726 Y183.531 E76.30476
G1 X46.724 Y52.991 E82.47632
G1 X46.734 Y52.306 E82.50871
G1 X46.787 Y51.403 E82.55148
G1 X46.92 Y50.509 E82.59421
G1 X47.131 Y49.629 E82.63699
G1 X47.419 Y48.772 E82.67973
G1 X47.782 Y47.944 E82.72248
G1 X48.216 Y47.151 E82.76522
G1 X48.719 Y46.399 E82.80799
G1 X49.286 Y45.695 E82.85072
G1 X49.913 Y45.044 E82.89345
M205 X5 Y5
G1 F2700 E76.89345
;MESH:soporte_over_soporteV32.stl
G0 F7500 X75.444 Y99.492
G0 X75.839 Y101.524
G0 X76.078 Y102.261
G0 X76.539 Y103.427
G1 F2700 E82.89345
G0 F7500 X76.676 Y103.369
M205 X8 Y8
;TYPE:WALL-INNER
G1 F1500 X76.411 Y102.754 E82.92863
G1 X76.193 Y102.15 E82.96236
G1 X75.988 Y101.451 E83.00063
G1 X75.835 Y100.764 E83.0376
G1 X75.735 Y100.106 E83.07256
G1 X75.671 Y99.425 E83.10849
G1 X75.65 Y98.785 E83.14213
G1 X75.65 Y83.222 E83.95966
G1 X75.672 Y82.557 E83.99461
G1 X75.732 Y81.912 E84.02864
G1 X75.842 Y81.211 E84.06591
G1 X75.984 Y80.567 E84.10056
G1 X76.186 Y79.873 E84.13852
G1 X76.423 Y79.214 E84.17531
G1 X76.675 Y78.634 E84.20853
G1 X77.003 Y77.991 E84.24645
G1 X77.353 Y77.401 E84.28249
G1 X77.715 Y76.868 E84.31633
G1 X78.136 Y76.32 E84.35263
G1 X78.58 Y75.814 E84.38799
G1 X79.08 Y75.314 E84.42514
G1 X79.61 Y74.846 E84.46228
G1 X80.138 Y74.434 E84.49746
G1 X80.722 Y74.04 E84.53447
G1 X81.266 Y73.716 E84.56773
G1 X81.917 Y73.383 E84.60614
G1 X82.545 Y73.112 E84.64207
G1 X83.159 Y72.89 E84.67637
G1 X83.806 Y72.7 E84.71179
G1 X84.531 Y72.536 E84.75083
G1 X85.2 Y72.434 E84.78638
G1 X85.874 Y72.371 E84.82194
G1 X86.521 Y72.35 E84.85595
G1 X89.478 Y72.35 E85.01128
G1 X90.143 Y72.372 E85.04623
G1 X90.789 Y72.432 E85.08031
G1 X91.495 Y72.543 E85.11785
G1 X92.177 Y72.695 E85.15456
G1 X92.842 Y72.89 E85.19096
G1 X93.433 Y73.104 E85.22398
G1 X94.064 Y73.374 E85.26003
G1 X94.711 Y73.705 E85.29821
G1 X95.303 Y74.055 E85.33434
G1 X95.833 Y74.415 E85.36799
G1 X96.421 Y74.868 E85.40698
G1 X96.892 Y75.285 E85.44003
G1 X97.419 Y75.815 E85.47929
G1 X97.847 Y76.298 E85.51319
G1 X98.271 Y76.844 E85.54951
G1 X98.66 Y77.422 E85.5861
G1 X98.999 Y77.993 E85.62099
G1 X99.308 Y78.598 E85.65667
G1 X99.595 Y79.256 E85.69438
G1 X99.823 Y79.896 E85.73007
G1 X100.013 Y80.553 E85.766
G1 X100.159 Y81.206 E85.80115
G1 X100.267 Y81.9 E85.83804
G1 X100.327 Y82.541 E85.87186
G1 X100.35 Y83.221 E85.9076
G1 X100.35 Y98.79 E86.72544
G1 X100.328 Y99.45 E86.76013
G1 X100.262 Y100.133 E86.79618
G1 X100.165 Y100.752 E86.82909
G1 X100.017 Y101.428 E86.86544
G1 X99.825 Y102.094 E86.90185
G1 X99.583 Y102.769 E86.93952
G1 X99.316 Y103.387 E86.97489
G1 X98.994 Y104.016 E87.01201
G1 X98.656 Y104.587 E87.04686
G1 X98.266 Y105.162 E87.08336
G1 X97.839 Y105.708 E87.11977
G1 X97.388 Y106.22 E87.15561
G1 X96.906 Y106.7 E87.19134
G1 X96.39 Y107.154 E87.22745
G1 X95.837 Y107.584 E87.26425
G1 X95.278 Y107.96 E87.29963
G1 X94.729 Y108.287 E87.3332
G1 X94.078 Y108.619 E87.37159
