;FLAVOR:Marlin
M117 Time Left 0h37m34s
;TIME:2254
;Filament used: 2.54281m
;Layer height: 0.28
;MINX:84.25
;MINY:32.25
;MINZ:0.28
;MAXX:150.75
;MAXY:202.75
;MAXZ:5.04
;POSTPROCESSED
;Generated with Cura_SteamEngine 4.11.0
M140 S50
M105
M190 S50
M104 S200
M105
M109 S200
M82 ;absolute extrusion mode
; Ender 3 Custom Start G-code
G92 E0 ; Reset Extruder
G28 ; Home all axes
; ***SET NEW E STEP *** (93 is factory value - 95 mine - start)
G90                          ; Force coordinates to be absolute relative to the origin
M92 E95 ;					 ; ***SET NEW E STEP *** (93 is factory value - 95 mine - end)
G90                          ; Force coordinates to be absolute relative to the origin
G28                          ; Home X/Y/Z axis
G92 E0 ; Reset Extruder
G28 ; Home all axes
G1 Z2.0 F3000 ; Move Z Axis up little to prevent scratching of Heat Bed
G1 X0.1 Y20 Z0.3 F5000.0 ; Move to start position
G1 X0.1 Y200.0 Z0.3 F1500.0 E15 ; Draw the first line
G1 X0.4 Y200.0 Z0.3 F5000.0 ; Move to side a little
G1 X0.4 Y20 Z0.3 F1500.0 E30 ; Draw the second line
G92 E0 ; Reset Extruder
G1 Z2.0 F3000 ; Move Z Axis up little to prevent scratching of Heat Bed
G1 X5 Y20 Z0.3 F5000.0 ; Move over to prevent blob squish
G92 E0
G92 E0
G1 F2700 E-6
;LAYER_COUNT:18
;LAYER:0
M107
M204 S500
M205 X8 Y8
G0 F7500 X104.444 Y39.439 Z0.28
;TYPE:SKIRT
G1 F2700 E0
G1 F1500 X104.807 Y38.574 E0.0415
G1 X105.242 Y37.743 E0.08299
G1 X105.746 Y36.953 E0.12444
G1 X106.316 Y36.208 E0.16594
G1 X106.948 Y35.514 E0.20746
G1 X107.636 Y34.877 E0.24893
G1 X108.376 Y34.301 E0.29042
G1 X109.162 Y33.789 E0.33191
G1 X109.989 Y33.347 E0.37339
G1 X110.851 Y32.977 E0.41489
G1 X111.741 Y32.681 E0.45638
G1 X112.653 Y32.463 E0.49786
G1 X113.58 Y32.322 E0.53934
G1 X114.451 Y32.263 E0.57796
G1 X114.772 Y32.254 E0.59216
G1 X115.08 Y32.25 E0.60579
G1 X123.043 Y32.25 E0.95804
G1 X123.899 Y32.261 E0.99591
G1 X124.835 Y32.315 E1.03738
G1 X125.763 Y32.447 E1.07884
G1 X126.677 Y32.659 E1.12035
G1 X127.569 Y32.948 E1.16183
G1 X128.434 Y33.311 E1.20332
G1 X129.264 Y33.747 E1.2448
G1 X130.055 Y34.252 E1.28631
G1 X130.799 Y34.823 E1.3278
G1 X131.492 Y35.455 E1.36929
G1 X132.129 Y36.143 E1.41076
G1 X132.704 Y36.884 E1.45225
G1 X133.215 Y37.67 E1.49373
G1 X133.657 Y38.498 E1.53524
G1 X134.026 Y39.36 E1.57672
G1 X134.321 Y40.25 E1.6182
G1 X134.539 Y41.162 E1.65968
G1 X134.679 Y42.09 E1.70119
G1 X134.737 Y42.951 E1.73937
G1 X134.746 Y43.271 E1.75353
G1 X134.75 Y43.58 E1.7672
G1 X134.749 Y60.701 E2.52456
G1 X134.739 Y61.398 E2.5554
G1 X134.692 Y62.272 E2.59412
G1 X134.666 Y62.548 E2.60638
G1 X134.449 Y65.106 E2.71994
G1 X134.308 Y67.625 E2.83155
G1 X134.237 Y70.15 E2.94329
G1 X134.237 Y72.674 E3.05494
G1 X134.308 Y75.16 E3.16495
G1 X134.453 Y77.692 E3.27714
G1 X134.664 Y80.179 E3.38755
G1 X134.952 Y82.692 E3.49945
G1 X135.307 Y85.19 E3.61106
G1 X135.731 Y87.653 E3.72161
G1 X136.224 Y90.114 E3.83264
G1 X136.8 Y92.614 E3.94613
G1 X137.421 Y94.994 E4.05494
G1 X138.136 Y97.455 E4.1683
G1 X138.908 Y99.85 E4.27961
G1 X139.74 Y102.208 E4.39023
G1 X140.644 Y104.551 E4.50132
G1 X141.236 Y105.989 E4.57011
G1 X149.654 Y125.929 E5.52756
G1 X149.932 Y126.615 E5.5603
G1 X150.247 Y127.498 E5.60177
G1 X150.485 Y128.405 E5.64325
G1 X150.645 Y129.329 E5.68473
G1 X150.736 Y130.566 E5.7396
G1 X150.749 Y131.362 E5.77482
G1 X150.75 Y132.04 E5.80481
G1 X150.747 Y132.337 E5.81795
G1 X150.747 Y134.461 E5.91191
G1 X150.743 Y134.549 E5.9158
G1 X150.75 Y135.483 E5.95712
G1 X150.749 Y191.165 E8.42027
G1 X150.739 Y191.892 E8.45243
G1 X150.686 Y192.829 E8.49395
G1 X150.554 Y193.757 E8.53541
G1 X150.343 Y194.671 E8.5769
G1 X150.054 Y195.563 E8.61838
G1 X149.691 Y196.428 E8.65988
G1 X149.256 Y197.259 E8.70137
G1 X148.751 Y198.049 E8.74285
G1 X148.181 Y198.794 E8.78434
G1 X147.55 Y199.488 E8.82584
G1 X146.861 Y200.125 E8.86734
G1 X146.121 Y200.701 E8.90883
G1 X145.335 Y201.212 E8.9503
G1 X144.508 Y201.654 E8.99178
G1 X143.646 Y202.024 E9.03327
G1 X142.756 Y202.319 E9.07475
G1 X141.844 Y202.538 E9.11624
G1 X140.917 Y202.678 E9.15771
G1 X140.049 Y202.737 E9.1962
G1 X139.729 Y202.746 E9.21036
G1 X139.42 Y202.75 E9.22403
G1 X95.815 Y202.749 E11.15294
G1 X95.117 Y202.74 E11.18382
G1 X94.181 Y202.688 E11.22529
G1 X93.252 Y202.556 E11.26679
G1 X92.338 Y202.346 E11.30828
G1 X91.445 Y202.059 E11.34977
G1 X90.58 Y201.696 E11.39127
G1 X89.749 Y201.262 E11.43274
G1 X88.958 Y200.758 E11.47423
G1 X88.213 Y200.188 E11.51573
G1 X87.519 Y199.557 E11.55722
G1 X86.882 Y198.87 E11.59866
G1 X86.305 Y198.13 E11.64017
G1 X85.793 Y197.344 E11.68167
G1 X85.35 Y196.517 E11.72317
G1 X84.979 Y195.656 E11.76464
G1 X84.683 Y194.766 E11.80613
G1 X84.464 Y193.854 E11.84762
G1 X84.323 Y192.927 E11.8891
G1 X84.263 Y192.038 E11.92851
G1 X84.254 Y191.705 E11.94325
G1 X84.25 Y191.408 E11.95639
G1 X84.251 Y186.286 E12.18297
G1 X84.262 Y185.58 E12.2142
G1 X84.317 Y184.643 E12.25572
G1 X84.451 Y183.715 E12.2972
G1 X84.664 Y182.802 E12.33867
G1 X84.954 Y181.91 E12.38016
G1 X85.318 Y181.046 E12.42163
G1 X85.755 Y180.216 E12.46313
G1 X86.319 Y179.345 E12.50903
G1 X87.788 Y177.295 E12.62059
G1 X89.201 Y175.202 E12.7323
G1 X90.54 Y173.095 E12.84274
G1 X91.842 Y170.91 E12.95525
G1 X93.08 Y168.692 E13.06762
G1 X94.217 Y166.512 E13.17638
G1 X95.334 Y164.216 E13.28933
G1 X96.366 Y161.932 E13.4002
G1 X97.348 Y159.585 E13.51274
G1 X98.251 Y157.237 E13.62402
G1 X99.08 Y154.888 E13.73421
G1 X99.854 Y152.482 E13.84602
G1 X100.551 Y150.084 E13.95648
G1 X101.19 Y147.625 E14.06887
G1 X101.761 Y145.155 E14.18102
G1 X102.247 Y142.721 E14.29081
G1 X102.674 Y140.229 E14.40266
G1 X103.028 Y137.742 E14.51378
G1 X103.314 Y135.224 E14.62588
G1 X103.527 Y132.726 E14.73678
G1 X103.668 Y130.244 E14.84676
G1 X103.741 Y127.657 E14.96124
G1 X103.75 Y126.362 E15.01853
G1 X103.751 Y59.301 E17.98504
G1 X103.761 Y58.594 E18.01631
G1 X103.77 Y58.284 E18.03003
G1 X103.803 Y57.537 E18.06311
G1 X103.888 Y56.042 E18.12935
G1 X103.959 Y53.494 E18.24211
G1 X103.959 Y50.97 E18.35376
G1 X103.887 Y48.45 E18.46528
G1 X103.821 Y47.142 E18.52321
G1 X103.778 Y46.397 E18.55622
G1 X103.765 Y46.084 E18.57008
G1 X103.755 Y45.741 E18.58526
G1 X103.75 Y45.42 E18.59946
G1 X103.751 Y43.775 E18.67223
G1 X103.76 Y43.11 E18.70165
G1 X103.813 Y42.174 E18.74312
G1 X103.945 Y41.245 E18.78463
G1 X104.156 Y40.331 E18.82612
G1 X104.444 Y39.439 E18.86759
G0 F7500 X104.842 Y39.514
G1 F1500 X105.205 Y38.668 E18.90831
G1 X105.639 Y37.856 E18.94904
G1 X106.142 Y37.085 E18.98976
G1 X106.711 Y36.361 E19.0305
G1 X107.339 Y35.689 E19.07118
G1 X108.024 Y35.073 E19.11193
G1 X108.76 Y34.52 E19.15266
G1 X109.541 Y34.032 E19.1934
G1 X110.361 Y33.614 E19.23411
G1 X111.215 Y33.269 E19.27485
G1 X112.095 Y32.999 E19.31557
G1 X112.995 Y32.807 E19.35628
G1 X113.909 Y32.693 E19.39703
G1 X114.462 Y32.663 E19.42152
G1 X114.783 Y32.654 E19.43573
G1 X115.08 Y32.65 E19.44887
G1 X123.043 Y32.65 E19.80112
G1 X123.893 Y32.661 E19.83872
G1 X124.812 Y32.714 E19.87944
G1 X125.723 Y32.847 E19.92017
G1 X126.619 Y33.058 E19.96089
G1 X127.493 Y33.346 E20.0016
G1 X128.34 Y33.709 E20.04236
G1 X129.151 Y34.144 E20.08307
G1 X129.921 Y34.648 E20.12378
G1 X130.645 Y35.217 E20.16451
G1 X131.317 Y35.847 E20.20526
G1 X131.932 Y36.532 E20.24598
G1 X132.485 Y37.268 E20.28671
G1 X132.972 Y38.049 E20.32742
G1 X133.389 Y38.87 E20.36816
G1 X133.734 Y39.724 E20.4089
G1 X134.003 Y40.604 E20.44961
G1 X134.195 Y41.505 E20.49036
G1 X134.308 Y42.418 E20.53105
G1 X134.337 Y42.962 E20.55515
G1 X134.346 Y43.282 E20.56931
G1 X134.35 Y43.58 E20.5825
G1 X134.349 Y60.695 E21.33959
G1 X134.339 Y61.392 E21.37043
G1 X134.293 Y62.234 E21.40773
G1 X134.276 Y62.411 E21.4156
G1 X134.049 Y65.084 E21.53427
G1 X133.908 Y67.592 E21.64539
G1 X133.837 Y70.139 E21.7581
G1 X133.837 Y72.651 E21.86922
G1 X133.91 Y75.192 E21.98167
G1 X134.053 Y77.711 E22.09328
G1 X134.267 Y80.224 E22.20485
G1 X134.557 Y82.762 E22.31785
G1 X134.911 Y85.243 E22.42871
G1 X135.344 Y87.763 E22.54182
G1 X135.828 Y90.177 E22.65073
G1 X136.409 Y92.7 E22.76526
G1 X137.042 Y95.126 E22.87617
G1 X137.747 Y97.552 E22.98792
G1 X138.526 Y99.969 E23.10026
G1 X139.366 Y102.348 E23.21186
G1 X140.276 Y104.706 E23.32367
G1 X140.889 Y106.197 E23.39498
G1 X149.283 Y126.079 E24.34965
G1 X149.561 Y126.765 E24.38239
G1 X149.869 Y127.632 E24.4231
G1 X150.101 Y128.523 E24.46382
G1 X150.255 Y129.431 E24.50456
G1 X150.336 Y130.573 E24.55521
G1 X150.349 Y131.369 E24.59042
G1 X150.35 Y132.04 E24.62011
G1 X150.347 Y132.331 E24.63298
G1 X150.347 Y134.461 E24.7272
G1 X150.343 Y134.549 E24.7311
G1 X150.35 Y135.486 E24.77255
G1 X150.349 Y191.16 E27.23534
G1 X150.339 Y191.887 E27.26751
G1 X150.286 Y192.806 E27.30823
G1 X150.154 Y193.717 E27.34895
G1 X149.943 Y194.613 E27.38967
G1 X149.656 Y195.488 E27.4304
G1 X149.293 Y196.334 E27.47112
G1 X148.859 Y197.146 E27.51185
G1 X148.355 Y197.917 E27.5526
G1 X147.787 Y198.641 E27.59331
G1 X147.158 Y199.313 E27.63402
G1 X146.473 Y199.928 E27.67475
G1 X145.737 Y200.481 E27.71547
G1 X144.956 Y200.969 E27.75621
G1 X144.136 Y201.387 E27.79692
G1 X143.282 Y201.732 E27.83767
G1 X142.402 Y202.001 E27.87837
G1 X141.501 Y202.194 E27.91913
G1 X140.588 Y202.307 E27.95983
G1 X140.038 Y202.337 E27.98419
G1 X139.718 Y202.346 E27.99835
G1 X139.42 Y202.35 E28.01154
G1 X95.82 Y202.349 E29.94023
G1 X95.122 Y202.34 E29.97111
G1 X94.203 Y202.288 E30.01182
G1 X93.292 Y202.157 E30.05254
G1 X92.396 Y201.947 E30.09325
G1 X91.521 Y201.66 E30.13398
G1 X90.674 Y201.298 E30.17473
G1 X89.862 Y200.864 E30.21546
G1 X89.091 Y200.362 E30.25616
G1 X88.366 Y199.794 E30.2969
G1 X87.693 Y199.165 E30.33765
G1 X87.078 Y198.481 E30.37834
G1 X86.524 Y197.746 E30.41905
G1 X86.036 Y196.965 E30.45979
G1 X85.617 Y196.145 E30.50052
G1 X85.271 Y195.292 E30.54124
G1 X85.001 Y194.412 E30.58196
G1 X84.808 Y193.511 E30.62272
G1 X84.694 Y192.598 E30.66342
G1 X84.663 Y192.027 E30.68872
G1 X84.654 Y191.694 E30.70346
G1 X84.65 Y191.408 E30.71611
G1 X84.651 Y186.292 E30.94242
G1 X84.662 Y185.586 E30.97365
G1 X84.717 Y184.667 E31.01438
G1 X84.85 Y183.756 E31.05511
G1 X85.063 Y182.86 E31.09585
G1 X85.352 Y181.986 E31.13657
G1 X85.716 Y181.141 E31.17727
G1 X86.152 Y180.33 E31.218
G1 X86.644 Y179.578 E31.25775
G1 X88.129 Y177.505 E31.37055
G1 X89.527 Y175.435 E31.48105
G1 X90.888 Y173.293 E31.59331
G1 X92.192 Y171.104 E31.70602
G1 X93.412 Y168.92 E31.81668
G1 X94.588 Y166.665 E31.92919
G1 X95.701 Y164.377 E32.04174
G1 X96.722 Y162.115 E32.15152
G1 X97.731 Y159.705 E32.2671
G1 X98.614 Y157.41 E32.37587
G1 X99.462 Y155.007 E32.4886
G1 X100.236 Y152.601 E32.6004
G1 X100.933 Y150.2 E32.711
G1 X101.584 Y147.701 E32.82523
G1 X102.148 Y145.257 E32.93619
G1 X102.64 Y142.795 E33.04725
G1 X103.071 Y140.281 E33.16008
G1 X103.428 Y137.772 E33.27219
G1 X103.708 Y135.302 E33.38215
G1 X103.926 Y132.746 E33.49563
G1 X104.068 Y130.244 E33.60648
G1 X104.141 Y127.671 E33.72035
G1 X104.15 Y126.365 E33.77812
G1 X104.151 Y59.307 E36.7445
G1 X104.161 Y58.6 E36.77577
G1 X104.17 Y58.301 E36.78901
G1 X104.202 Y57.56 E36.82182
G1 X104.288 Y56.042 E36.88907
G1 X104.359 Y53.505 E37.00135
G1 X104.359 Y50.993 E37.11247
G1 X104.285 Y48.418 E37.22642
G1 X104.216 Y47.039 E37.2875
G1 X104.178 Y46.374 E37.31696
G1 X104.165 Y46.072 E37.33033
G1 X104.155 Y45.729 E37.34551
G1 X104.15 Y45.42 E37.35919
G1 X104.151 Y43.781 E37.43169
G1 X104.16 Y43.116 E37.46111
G1 X104.212 Y42.196 E37.50187
G1 X104.344 Y41.285 E37.54259
G1 X104.555 Y40.389 E37.58331
G1 X104.842 Y39.514 E37.62404
G0 F7500 X105.241 Y39.591
G1 F1500 X105.603 Y38.764 E37.66398
G1 X106.036 Y37.972 E37.70391
G1 X106.538 Y37.221 E37.74387
G1 X107.105 Y36.517 E37.78385
G1 X107.731 Y35.867 E37.82377
G1 X108.412 Y35.274 E37.86372
G1 X109.144 Y34.744 E37.9037
G1 X109.919 Y34.281 E37.94363
G1 X110.732 Y33.888 E37.98358
G1 X111.577 Y33.568 E38.02355
G1 X112.446 Y33.325 E38.06346
G1 X113.334 Y33.159 E38.10342
G1 X114.473 Y33.063 E38.15399
G1 X114.794 Y33.054 E38.16819
G1 X115.08 Y33.05 E38.18085
G1 X123.043 Y33.05 E38.5331
G1 X123.887 Y33.061 E38.57044
G1 X124.789 Y33.114 E38.6104
G1 X125.682 Y33.246 E38.65034
G1 X126.56 Y33.457 E38.69028
G1 X127.416 Y33.745 E38.73023
G1 X128.243 Y34.107 E38.77017
G1 X129.035 Y34.542 E38.81014
G1 X129.786 Y35.044 E38.8501
G1 X130.489 Y35.611 E38.89005
G1 X131.139 Y36.238 E38.93
G1 X131.731 Y36.92 E38.96995
G1 X132.261 Y37.651 E39.00989
G1 X132.723 Y38.427 E39.04984
G1 X133.116 Y39.24 E39.08979
G1 X133.434 Y40.085 E39.12973
G1 X133.677 Y40.955 E39.16969
G1 X133.842 Y41.843 E39.20964
G1 X133.937 Y42.973 E39.2598
G1 X133.946 Y43.293 E39.27396
G1 X133.95 Y43.58 E39.28666
G1 X133.949 Y60.689 E40.04349
G1 X133.939 Y61.386 E40.07433
G1 X133.895 Y62.197 E40.11026
G1 X133.878 Y62.378 E40.1183
G1 X133.65 Y65.066 E40.23763
G1 X133.508 Y67.593 E40.34959
G1 X133.437 Y70.128 E40.46178
G1 X133.437 Y72.662 E40.57387
G1 X133.51 Y75.227 E40.68738
G1 X133.653 Y77.732 E40.79837
G1 X133.869 Y80.267 E40.91092
G1 X134.158 Y82.792 E41.02334
G1 X134.515 Y85.301 E41.13545
G1 X134.95 Y87.831 E41.24901
G1 X135.439 Y90.273 E41.35918
G1 X136.02 Y92.793 E41.47357
G1 X136.65 Y95.21 E41.58407
G1 X137.359 Y97.649 E41.69642
G1 X138.151 Y100.109 E41.81074
G1 X138.991 Y102.489 E41.92239
G1 X139.907 Y104.862 E42.03491
G1 X140.499 Y106.3 E42.1037
G1 X148.856 Y126.092 E43.05407
G1 X149.19 Y126.915 E43.09336
G1 X149.492 Y127.766 E43.1333
G1 X149.717 Y128.641 E43.17327
G1 X149.864 Y129.532 E43.21322
G1 X149.936 Y130.579 E43.25964
G1 X149.949 Y131.375 E43.29486
G1 X149.95 Y132.04 E43.32428
G1 X149.947 Y132.325 E43.33688
G1 X149.947 Y134.461 E43.43137
G1 X149.943 Y134.547 E43.43518
G1 X149.95 Y135.489 E43.47685
G1 X149.949 Y191.154 E45.93925
G1 X149.939 Y191.881 E45.97141
G1 X149.887 Y192.783 E46.01138
G1 X149.755 Y193.676 E46.05131
G1 X149.544 Y194.555 E46.0913
G1 X149.257 Y195.411 E46.13123
G1 X148.895 Y196.238 E46.17117
G1 X148.461 Y197.03 E46.21112
G1 X147.959 Y197.781 E46.25108
G1 X147.393 Y198.484 E46.291
G1 X146.766 Y199.135 E46.33099
G1 X146.085 Y199.727 E46.3709
G1 X145.354 Y200.257 E46.41084
G1 X144.578 Y200.72 E46.45082
G1 X143.765 Y201.113 E46.49076
G1 X142.92 Y201.433 E46.53073
G1 X142.051 Y201.676 E46.57065
G1 X141.163 Y201.841 E46.6106
G1 X140.027 Y201.937 E46.66103
G1 X139.707 Y201.946 E46.67519
G1 X139.42 Y201.95 E46.68789
G1 X95.825 Y201.949 E48.61636
G1 X95.127 Y201.94 E48.64724
G1 X94.226 Y201.889 E48.68716
G1 X93.332 Y201.757 E48.72713
G1 X92.454 Y201.548 E48.76706
G1 X91.597 Y201.261 E48.80704
G1 X90.77 Y200.9 E48.84695
G1 X89.977 Y200.467 E48.88692
G1 X89.226 Y199.966 E48.92686
G1 X88.522 Y199.4 E48.96682
G1 X87.871 Y198.774 E49.00677
G1 X87.278 Y198.093 E49.04671
G1 X86.748 Y197.362 E49.08665
G1 X86.284 Y196.587 E49.12661
G1 X85.89 Y195.774 E49.16658
G1 X85.57 Y194.93 E49.2065
G1 X85.326 Y194.06 E49.24647
G1 X85.16 Y193.172 E49.28644
G1 X85.063 Y192.017 E49.33771
G1 X85.054 Y191.684 E49.35245
G1 X85.05 Y191.408 E49.36466
G1 X85.051 Y186.298 E49.5907
G1 X85.062 Y185.592 E49.62194
G1 X85.116 Y184.691 E49.66186
G1 X85.25 Y183.797 E49.70185
G1 X85.462 Y182.92 E49.74176
G1 X85.751 Y182.064 E49.78173
G1 X86.114 Y181.237 E49.82168
G1 X86.549 Y180.446 E49.86162
G1 X86.969 Y179.81 E49.89533
G1 X88.453 Y177.739 E50.00804
G1 X89.874 Y175.635 E50.12035
G1 X91.242 Y173.481 E50.23322
G1 X92.527 Y171.325 E50.34425
G1 X93.773 Y169.093 E50.45733
G1 X94.945 Y166.846 E50.56943
G1 X96.047 Y164.58 E50.6809
G1 X97.103 Y162.242 E50.79438
G1 X98.093 Y159.878 E50.90776
G1 X98.992 Y157.538 E51.01864
G1 X99.845 Y155.125 E51.13186
G1 X100.618 Y152.719 E51.24365
G1 X101.328 Y150.275 E51.35623
G1 X101.967 Y147.82 E51.46845
G1 X102.542 Y145.328 E51.58158
G1 X103.035 Y142.863 E51.69278
G1 X103.462 Y140.369 E51.80471
G1 X103.822 Y137.842 E51.91763
G1 X104.11 Y135.309 E52.0304
G1 X104.323 Y132.804 E52.14161
G1 X104.468 Y130.242 E52.25512
G1 X104.541 Y127.684 E52.36832
G1 X104.55 Y126.368 E52.42654
G1 X104.551 Y59.313 E55.39278
G1 X104.561 Y58.606 E55.42406
G1 X104.569 Y58.318 E55.43681
G1 X104.601 Y57.582 E55.46939
G1 X104.688 Y56.039 E55.53776
G1 X104.759 Y53.516 E55.64941
G1 X104.759 Y50.981 E55.76155
G1 X104.685 Y48.387 E55.87634
G1 X104.616 Y47.019 E55.93694
G1 X104.577 Y46.351 E55.96654
G1 X104.564 Y46.06 E55.97942
G1 X104.554 Y45.717 E55.9946
