;FLAVOR:Marlin
M117 Time Left 2h23m43s
;TIME:8623
;Filament used: 8.08002m
;Layer height: 0.28
;MINX:92.968
;MINY:19.462
;MINZ:0.28
;MAXX:149.187
;MAXY:215.399
;MAXZ:45.08
;POSTPROCESSED
;Generated with Cura_SteamEngine 4.10.0
M140 S50
M105
M190 S50
M104 S200
M105
M109 S200
M82 ;absolute extrusion mode
; Ender 3 Custom Start G-code
G92 E0 ; Reset Extruder
G28 ; Home all axes
; ***SET NEW E STEP *** (93 is factory value - 95 mine - start)
G90                          ; Force coordinates to be absolute relative to the origin
M92 E95 ;					 ; ***SET NEW E STEP *** (93 is factory value - 95 mine - end)
G90                          ; Force coordinates to be absolute relative to the origin
G28                          ; Home X/Y/Z axis
G92 E0 ; Reset Extruder
G28 ; Home all axes
G1 Z2.0 F3000 ; Move Z Axis up little to prevent scratching of Heat Bed
G1 X0.1 Y20 Z0.3 F5000.0 ; Move to start position
G1 X0.1 Y200.0 Z0.3 F1500.0 E15 ; Draw the first line
G1 X0.4 Y200.0 Z0.3 F5000.0 ; Move to side a little
G1 X0.4 Y20 Z0.3 F1500.0 E30 ; Draw the second line
G92 E0 ; Reset Extruder
G1 Z2.0 F3000 ; Move Z Axis up little to prevent scratching of Heat Bed
G1 X5 Y20 Z0.3 F5000.0 ; Move over to prevent blob squish
G92 E0
G92 E0
G1 F2700 E-6
;LAYER_COUNT:161
;LAYER:0
M107
M204 S500
M205 X8 Y8
G0 F7500 X97.667 Y46.751 Z0.28
;TYPE:SKIRT
G1 F2700 E0
G1 F1500 X98.063 Y45.998 E0.03764
G1 X98.202 Y45.742 E0.05052
G1 X99.768 Y42.749 E0.19995
G1 X99.811 Y42.662 E0.20424
G1 X100.266 Y41.841 E0.24576
G1 X100.782 Y41.073 E0.28669
G1 X100.944 Y40.853 E0.29878
G1 X102.484 Y38.69 E0.41623
G1 X102.978 Y37.985 E0.45431
G1 X103.59 Y37.191 E0.49866
G1 X103.976 Y36.755 E0.52442
G1 X104.745 Y35.933 E0.57421
G1 X105.053 Y35.613 E0.59386
G1 X106.725 Y33.778 E0.70368
G1 X108.369 Y31.869 E0.81512
G1 X109.931 Y29.948 E0.92464
G1 X110.877 Y28.815 E0.98994
G1 X111.925 Y27.525 E1.06346
G1 X112.35 Y27.017 E1.09276
G1 X113.083 Y26.223 E1.14056
G1 X114.404 Y24.927 E1.22242
G1 X114.93 Y24.426 E1.25456
G1 X115.637 Y23.81 E1.29604
G1 X116.112 Y23.451 E1.32238
G1 X116.84 Y22.932 E1.36192
G1 X118.03 Y22.108 E1.42595
G1 X118.633 Y21.703 E1.45809
G1 X119.433 Y21.214 E1.49956
G1 X120.272 Y20.795 E1.54105
G1 X121.144 Y20.449 E1.58255
G1 X121.937 Y20.205 E1.61925
G1 X122.697 Y20.004 E1.65402
G1 X123.458 Y19.811 E1.68875
G1 X124.376 Y19.619 E1.73024
G1 X125.307 Y19.506 E1.77173
G1 X125.961 Y19.475 E1.80069
G1 X126.616 Y19.463 E1.82967
G1 X126.983 Y19.462 E1.8459
G1 X128.115 Y19.48 E1.89598
G1 X129.63 Y19.522 E1.96303
G1 X132.482 Y19.521 E2.08919
G1 X132.97 Y19.528 E2.11078
G1 X133.906 Y19.582 E2.15225
G1 X134.835 Y19.715 E2.19377
G1 X135.748 Y19.926 E2.23522
G1 X136.633 Y20.212 E2.27636
G1 X137.532 Y20.546 E2.31878
G1 X138.853 Y21.058 E2.38146
G1 X140.511 Y21.73 E2.46059
G1 X140.981 Y21.927 E2.48314
G1 X141.758 Y22.269 E2.52069
G1 X142.599 Y22.685 E2.5622
G1 X143.401 Y23.17 E2.60366
G1 X144.089 Y23.667 E2.6412
G1 X144.342 Y23.865 E2.65541
G1 X144.61 Y24.082 E2.67067
G1 X144.918 Y24.339 E2.68841
G1 X145.612 Y24.97 E2.7299
G1 X146.25 Y25.658 E2.77141
G1 X146.826 Y26.398 E2.81289
G1 X147.338 Y27.184 E2.85439
G1 X147.781 Y28.01 E2.89585
G1 X148.268 Y29.194 E2.95248
G1 X148.488 Y29.831 E2.98229
G1 X148.609 Y30.202 E2.99956
G1 X148.714 Y30.545 E3.01543
G1 X148.95 Y31.453 E3.05693
G1 X149.108 Y32.377 E3.09839
G1 X149.187 Y33.312 E3.1399
G1 X149.185 Y34.25 E3.18139
G1 X149.104 Y35.184 E3.22287
G1 X148.986 Y35.902 E3.25505
G1 X148.457 Y38.573 E3.3755
G1 X148.038 Y41.062 E3.48716
G1 X147.69 Y43.554 E3.59846
G1 X147.415 Y46.04 E3.7091
G1 X147.206 Y48.573 E3.82153
G1 X147.073 Y51.04 E3.93082
G1 X147 Y54.726 E4.09391
G1 X146.999 Y184.911 E9.85277
G1 X146.993 Y185.327 E9.87117
G1 X146.993 Y187.902 E9.98508
G1 X147.065 Y190.478 E10.09908
G1 X147.169 Y192.437 E10.18586
G1 X147.188 Y192.738 E10.1992
G1 X147.203 Y193.031 E10.21218
G1 X147.223 Y193.577 E10.23635
G1 X147.354 Y196.216 E10.35323
G1 X147.546 Y198.667 E10.46198
G1 X147.658 Y199.668 E10.50654
G1 X147.675 Y199.917 E10.51758
G1 X147.806 Y201.196 E10.57445
G1 X147.861 Y202.132 E10.61593
G1 X147.837 Y203.07 E10.65744
G1 X147.733 Y204.002 E10.69892
G1 X147.55 Y204.921 E10.74037
G1 X147.381 Y205.535 E10.76854
G1 X147.204 Y206.113 E10.79528
G1 X147.095 Y206.449 E10.81091
G1 X146.959 Y206.847 E10.82951
G1 X146.618 Y207.721 E10.87101
G1 X146.204 Y208.562 E10.91248
G1 X145.72 Y209.365 E10.95396
G1 X145.169 Y210.124 E10.99545
G1 X144.556 Y210.834 E11.03694
G1 X143.884 Y211.488 E11.07842
G1 X143.159 Y212.083 E11.11991
G1 X142.685 Y212.42 E11.14564
G1 X141.908 Y212.941 E11.18702
G1 X141.585 Y213.149 E11.20401
G1 X140.961 Y213.544 E11.23668
G1 X140.148 Y214.012 E11.27818
G1 X139.298 Y214.408 E11.31966
G1 X138.418 Y214.731 E11.36113
G1 X137.513 Y214.977 E11.40261
G1 X136.59 Y215.146 E11.44412
G1 X136.006 Y215.211 E11.47011
G1 X135.817 Y215.227 E11.47851
G1 X135.505 Y215.249 E11.49234
G1 X135.067 Y215.273 E11.51175
G1 X132.889 Y215.372 E11.60819
G1 X131.982 Y215.399 E11.64833
G1 X131.072 Y215.388 E11.68859
G1 X129.948 Y215.327 E11.73838
G1 X129.135 Y215.273 E11.77443
G1 X126.537 Y215.172 E11.88944
G1 X125.05 Y215.139 E11.95523
G1 X124.114 Y215.078 E11.99673
G1 X123.187 Y214.938 E12.0382
G1 X122.275 Y214.719 E12.07969
G1 X121.385 Y214.423 E12.12118
G1 X120.52 Y214.05 E12.16285
G1 X119.697 Y213.652 E12.20329
G1 X117.545 Y212.574 E12.30976
G1 X116.803 Y212.189 E12.34674
G1 X115.99 Y211.721 E12.38824
G1 X115.22 Y211.186 E12.42971
G1 X114.82 Y210.866 E12.45237
G1 X114.058 Y210.168 E12.49808
G1 X113.84 Y209.948 E12.51178
G1 X111.953 Y208.099 E12.62865
G1 X110.119 Y206.401 E12.73921
G1 X108.197 Y204.721 E12.85213
G1 X106.284 Y203.14 E12.96192
G1 X104.291 Y201.588 E13.07366
G1 X102.281 Y200.111 E13.184
G1 X100.771 Y199.077 E13.26495
G1 X99.608 Y198.266 E13.32767
G1 X98.862 Y197.697 E13.36918
G1 X98.168 Y197.067 E13.41064
G1 X97.529 Y196.38 E13.45214
G1 X96.952 Y195.641 E13.49362
G1 X96.439 Y194.855 E13.53514
G1 X95.996 Y194.029 E13.5766
G1 X95.624 Y193.168 E13.61809
G1 X95.327 Y192.278 E13.65959
G1 X95.107 Y191.367 E13.70105
G1 X94.965 Y190.44 E13.74254
G1 X94.905 Y189.583 E13.78054
G1 X94.895 Y189.26 E13.79483
G1 X94.89 Y188.92 E13.80988
G1 X94.89 Y134.384 E16.22233
G1 X94.853 Y131.776 E16.33771
G1 X94.746 Y129.254 E16.44937
G1 X94.569 Y126.759 E16.56002
G1 X94.321 Y124.26 E16.67111
G1 X94.003 Y121.771 E16.78211
G1 X93.602 Y119.221 E16.89629
G1 X93.333 Y117.727 E16.96344
G1 X93.16 Y116.818 E17.00438
G1 X93.024 Y115.89 E17.04587
G1 X92.968 Y114.953 E17.08739
G1 X92.991 Y114.016 E17.12885
G1 X93.143 Y112.798 E17.18315
G1 X93.277 Y112.061 E17.21629
G1 X93.721 Y109.417 E17.33488
G1 X94.06 Y106.977 E17.44386
G1 X94.338 Y104.455 E17.55609
G1 X94.546 Y101.912 E17.66896
G1 X94.677 Y99.45 E17.77802
G1 X94.74 Y96.898 E17.89095
G1 X94.732 Y94.376 E18.00251
G1 X94.653 Y91.878 E18.11307
G1 X94.623 Y91.355 E18.13624
G1 X94.613 Y91.146 E18.1455
G1 X94.588 Y90.492 E18.17445
G1 X94.592 Y89.554 E18.21594
G1 X94.636 Y88.959 E18.24234
G1 X94.648 Y88.841 E18.24758
G1 X94.87 Y86.322 E18.35945
G1 X95.019 Y83.839 E18.46948
G1 X95.1 Y81.282 E18.58265
G1 X95.108 Y78.729 E18.69558
G1 X95.085 Y77.493 E18.75027
G1 X95.075 Y77.082 E18.76846
G1 X95.072 Y76.783 E18.78168
G1 X95.077 Y75.558 E18.83587
G1 X95.086 Y75.003 E18.86043
G1 X95.056 Y72.491 E18.97156
G1 X94.969 Y70.428 E19.0629
G1 X94.946 Y69.686 E19.09573
G1 X94.956 Y68.773 E19.13612
G1 X95.007 Y67.822 E19.17825
G1 X95.085 Y66.654 E19.23004
G1 X95.126 Y65.65 E19.27449
G1 X95.245 Y63.538 E19.36806
G1 X95.276 Y63.094 E19.38775
G1 X95.383 Y60.525 E19.50149
G1 X95.413 Y58.968 E19.57038
G1 X95.43 Y57.348 E19.64204
G1 X95.431 Y55.411 E19.72773
G1 X95.471 Y54.474 E19.76922
G1 X95.592 Y53.544 E19.8107
G1 X95.778 Y52.677 E19.84993
G1 X96.069 Y51.552 E19.90133
G1 X96.643 Y49.479 E19.99648
G1 X96.839 Y48.804 E20.02758
G1 X97.139 Y47.915 E20.06908
G1 X97.667 Y46.751 E20.12562
G0 F7500 X98.021 Y46.937
G1 F1500 X98.495 Y46.039 E20.17054
G1 X98.562 Y45.916 E20.17673
G1 X100.133 Y42.913 E20.32665
G1 X100.169 Y42.841 E20.33022
G1 X100.616 Y42.036 E20.37095
G1 X101.104 Y41.31 E20.40964
G1 X101.286 Y41.062 E20.42325
G1 X102.76 Y38.992 E20.53566
G1 X103.305 Y38.214 E20.57768
G1 X103.895 Y37.449 E20.62042
G1 X104.268 Y37.028 E20.6453
G1 X105.037 Y36.206 E20.69509
G1 X105.319 Y35.913 E20.71308
G1 X107.04 Y34.025 E20.82609
G1 X108.681 Y32.12 E20.93732
G1 X110.145 Y30.317 E21.04005
G1 X111.148 Y29.116 E21.10927
G1 X112.232 Y27.781 E21.18534
G1 X112.657 Y27.273 E21.21464
G1 X113.364 Y26.508 E21.26072
G1 X114.809 Y25.092 E21.35022
G1 X115.205 Y24.716 E21.37437
G1 X115.9 Y24.112 E21.4151
G1 X116.344 Y23.776 E21.43974
G1 X117.068 Y23.261 E21.47904
G1 X118.253 Y22.441 E21.54278
G1 X118.856 Y22.036 E21.57492
G1 X119.642 Y21.556 E21.61566
G1 X120.466 Y21.146 E21.65637
G1 X121.323 Y20.81 E21.69709
G1 X122.04 Y20.592 E21.73024
G1 X122.795 Y20.391 E21.7648
G1 X123.556 Y20.198 E21.79953
G1 X124.458 Y20.011 E21.84028
G1 X125.372 Y19.902 E21.881
G1 X125.968 Y19.875 E21.90739
G1 X126.623 Y19.863 E21.93637
G1 X126.977 Y19.862 E21.95203
G1 X128.104 Y19.88 E22.00189
G1 X129.619 Y19.922 E22.06893
G1 X132.476 Y19.921 E22.19532
G1 X132.964 Y19.928 E22.21691
G1 X133.883 Y19.981 E22.25763
G1 X134.794 Y20.114 E22.29835
G1 X135.69 Y20.325 E22.33907
G1 X136.494 Y20.587 E22.37648
G1 X137.388 Y20.919 E22.41866
G1 X138.709 Y21.431 E22.48134
G1 X140.361 Y22.101 E22.56019
G1 X140.825 Y22.296 E22.58246
G1 X141.596 Y22.635 E22.61972
G1 X142.421 Y23.044 E22.66045
G1 X143.208 Y23.522 E22.70118
G1 X143.843 Y23.982 E22.73587
G1 X144.096 Y24.18 E22.75008
G1 X144.354 Y24.389 E22.76477
G1 X144.662 Y24.646 E22.78251
G1 X145.343 Y25.266 E22.82325
G1 X145.967 Y25.943 E22.86398
G1 X146.53 Y26.671 E22.90469
G1 X147.028 Y27.446 E22.94544
G1 X147.457 Y28.26 E22.98614
G1 X147.89 Y29.325 E23.037
G1 X148.11 Y29.962 E23.06681
G1 X148.227 Y30.319 E23.08343
G1 X148.332 Y30.662 E23.0993
G1 X148.563 Y31.553 E23.14001
G1 X148.716 Y32.461 E23.18075
G1 X148.789 Y33.379 E23.22148
G1 X148.783 Y34.3 E23.26223
G1 X148.696 Y35.216 E23.30293
G1 X148.594 Y35.824 E23.3302
G1 X148.065 Y38.495 E23.45065
G1 X147.64 Y41.017 E23.56379
G1 X147.295 Y43.492 E23.67433
G1 X147.014 Y46.035 E23.78751
G1 X146.809 Y48.52 E23.89781
G1 X146.673 Y51.04 E24.00944
G1 X146.6 Y54.718 E24.17217
G1 X146.599 Y184.905 E29.93112
G1 X146.593 Y185.321 E29.94953
G1 X146.593 Y187.913 E30.06419
G1 X146.664 Y190.47 E30.17734
G1 X146.77 Y192.462 E30.26558
G1 X146.789 Y192.763 E30.27893
G1 X146.803 Y193.045 E30.29142
G1 X146.824 Y193.61 E30.31643
G1 X146.952 Y196.198 E30.43105
G1 X147.149 Y198.715 E30.54273
G1 X147.261 Y199.713 E30.58716
G1 X147.279 Y199.97 E30.59855
G1 X147.408 Y201.236 E30.65485
G1 X147.462 Y202.156 E30.69561
G1 X147.436 Y203.076 E30.73633
G1 X147.33 Y203.99 E30.77703
G1 X147.145 Y204.892 E30.81776
G1 X146.998 Y205.418 E30.84192
G1 X146.821 Y205.996 E30.86866
G1 X146.717 Y206.32 E30.88371
G1 X146.581 Y206.718 E30.90232
G1 X146.245 Y207.575 E30.94304
G1 X145.837 Y208.4 E30.98375
G1 X145.358 Y209.187 E31.02451
G1 X144.814 Y209.929 E31.06521
G1 X144.206 Y210.621 E31.10595
G1 X143.541 Y211.257 E31.14666
G1 X142.462 Y212.088 E31.20691
G1 X141.69 Y212.605 E31.24801
G1 X141.372 Y212.811 E31.26477
G1 X140.748 Y213.206 E31.29744
G1 X139.949 Y213.665 E31.3382
G1 X139.114 Y214.052 E31.37891
G1 X138.248 Y214.365 E31.41964
G1 X137.358 Y214.602 E31.46038
G1 X136.451 Y214.761 E31.50112
G1 X135.972 Y214.812 E31.52243
G1 X135.783 Y214.828 E31.53082
G1 X135.482 Y214.849 E31.54416
G1 X135.049 Y214.873 E31.56335
G1 X132.696 Y214.979 E31.66754
G1 X131.97 Y215 E31.69967
G1 X131.093 Y214.989 E31.73847
G1 X130.11 Y214.936 E31.78201
G1 X129.174 Y214.874 E31.82351
G1 X126.562 Y214.773 E31.93914
G1 X125.059 Y214.739 E32.00565
G1 X124.141 Y214.679 E32.04634
G1 X123.231 Y214.538 E32.08708
G1 X122.336 Y214.32 E32.12782
G1 X121.464 Y214.024 E32.16856
G1 X120.694 Y213.69 E32.20569
G1 X119.876 Y213.294 E32.24589
G1 X117.724 Y212.216 E32.35236
G1 X116.988 Y211.834 E32.38904
G1 X116.19 Y211.374 E32.42979
G1 X115.094 Y210.574 E32.48981
G1 X114.341 Y209.886 E32.53493
G1 X114.083 Y209.626 E32.55114
G1 X112.222 Y207.803 E32.66638
G1 X110.391 Y206.107 E32.77678
G1 X108.471 Y204.428 E32.88961
G1 X106.539 Y202.833 E33.00043
G1 X104.528 Y201.266 E33.11321
G1 X102.509 Y199.782 E33.22405
G1 X101 Y198.749 E33.30495
G1 X99.837 Y197.938 E33.36767
G1 X99.105 Y197.379 E33.40841
G1 X98.425 Y196.759 E33.44912
G1 X97.801 Y196.082 E33.48984
G1 X97.238 Y195.353 E33.53059
G1 X96.741 Y194.578 E33.57132
G1 X96.312 Y193.763 E33.61206
G1 X95.956 Y192.914 E33.65278
G1 X95.675 Y192.038 E33.69348
G1 X95.471 Y191.14 E33.73421
G1 X95.346 Y190.228 E33.77493
G1 X95.305 Y189.571 E33.80405
G1 X95.295 Y189.248 E33.81835
G1 X95.29 Y188.92 E33.83286
G1 X95.29 Y134.378 E36.24558
G1 X95.253 Y131.753 E36.36171
G1 X95.146 Y129.245 E36.47276
G1 X94.968 Y126.724 E36.58455
G1 X94.718 Y124.206 E36.69649
G1 X94.397 Y121.695 E36.80847
G1 X94.006 Y119.21 E36.91974
G1 X93.707 Y117.552 E36.99427
G1 X93.553 Y116.743 E37.0307
G1 X93.42 Y115.832 E37.07143
G1 X93.367 Y114.913 E37.11215
G1 X93.394 Y113.992 E37.15291
G1 X93.536 Y112.869 E37.20298
G1 X93.692 Y112.009 E37.24164
G1 X94.112 Y109.507 E37.35387
G1 X94.46 Y107.004 E37.46566
G1 X94.737 Y104.495 E37.57732
G1 X94.943 Y101.967 E37.68952
G1 X95.078 Y99.446 E37.8012
G1 X95.141 Y96.907 E37.91355
G1 X95.133 Y94.396 E38.02462
G1 X95.051 Y91.843 E38.13762
G1 X95.022 Y91.332 E38.16026
G1 X94.988 Y90.477 E38.19811
G1 X94.993 Y89.556 E38.23885
G1 X95.034 Y89 E38.26351
G1 X95.269 Y86.345 E38.38142
G1 X95.419 Y83.841 E38.49238
G1 X95.5 Y81.295 E38.60507
G1 X95.508 Y78.722 E38.71889
G1 X95.485 Y77.483 E38.7737
G1 X95.475 Y77.072 E38.79189
G1 X95.472 Y76.784 E38.80463
G1 X95.476 Y75.565 E38.85856
G1 X95.486 Y74.97 E38.88488
G1 X95.456 Y72.502 E38.99406
G1 X95.369 Y70.415 E39.08646
G1 X95.346 Y69.673 E39.1193
G1 X95.355 Y68.794 E39.15819
G1 X95.396 Y68.007 E39.19305
G1 X95.486 Y66.66 E39.25277
G1 X95.534 Y65.496 E39.3043
G1 X95.644 Y63.566 E39.38981
G1 X95.677 Y63.103 E39.41035
G1 X95.782 Y60.551 E39.52333
G1 X95.813 Y58.975 E39.59306
G1 X95.83 Y57.352 E39.66486
G1 X95.831 Y55.412 E39.75068
G1 X95.871 Y54.492 E39.79142
G1 X95.992 Y53.579 E39.83216
G1 X96.165 Y52.776 E39.86849
G1 X96.405 Y51.843 E39.91111
G1 X97.027 Y49.59 E40.0145
G1 X97.223 Y48.915 E40.04559
G1 X97.518 Y48.043 E40.08631
G1 X98.021 Y46.937 E40.14006
G0 F7500 X98.375 Y47.123
G1 F1500 X98.771 Y46.37 E40.1777
G1 X98.921 Y46.093 E40.19163
G1 X100.477 Y43.12 E40.34007
G1 X100.527 Y43.019 E40.34505
G1 X100.966 Y42.23 E40.38499
G1 X101.427 Y41.547 E40.42145
G1 X101.55 Y41.379 E40.43066
G1 X103.135 Y39.154 E40.5515
G1 X103.633 Y38.444 E40.58986
G1 X104.2 Y37.707 E40.631
G1 X104.56 Y37.302 E40.65497
G1 X105.442 Y36.361 E40.71202
G1 X105.637 Y36.16 E40.72441
G1 X107.322 Y34.31 E40.8351
G1 X108.996 Y32.367 E40.94855
G1 X110.545 Y30.461 E41.0572
G1 X111.481 Y29.341 E41.12177
G1 X112.539 Y28.038 E41.19601
G1 X112.964 Y27.53 E41.22531
G1 X113.644 Y26.794 E41.26964
G1 X115.085 Y25.382 E41.35889
G1 X115.481 Y25.006 E41.38304
G1 X116.163 Y24.414 E41.42299
G1 X116.577 Y24.102 E41.44592
G1 X117.296 Y23.59 E41.48497
G1 X118.476 Y22.773 E41.54846
G1 X119.079 Y22.368 E41.58059
G1 X119.85 Y21.898 E41.62053
G1 X120.66 Y21.498 E41.6605
G1 X121.502 Y21.171 E41.70045
G1 X122.143 Y20.978 E41.73006
G1 X122.894 Y20.779 E41.76443
G1 X123.655 Y20.586 E41.79916
G1 X124.539 Y20.403 E41.8391
G1 X125.436 Y20.299 E41.87904
G1 X125.975 Y20.275 E41.90291
G1 X126.63 Y20.263 E41.93189
G1 X126.971 Y20.262 E41.94697
G1 X128.093 Y20.28 E41.99661
G1 X129.609 Y20.322 E42.0637
G1 X132.47 Y20.321 E42.19026
G1 X132.958 Y20.328 E42.21185
G1 X133.86 Y20.381 E42.25182
G1 X134.753 Y20.513 E42.29175
G1 X135.631 Y20.724 E42.33169
G1 X136.355 Y20.962 E42.36541
G1 X137.243 Y21.292 E42.40731
G1 X138.715 Y21.864 E42.47717
G1 X140.345 Y22.527 E42.55501
G1 X140.821 Y22.73 E42.5779
G1 X141.434 Y23.001 E42.60755
G1 X142.243 Y23.402 E42.64749
G1 X143.014 Y23.874 E42.68748
G1 X143.596 Y24.297 E42.71931
G1 X143.849 Y24.495 E42.73352
G1 X144.098 Y24.696 E42.74768
G1 X144.406 Y24.953 E42.76542
G1 X145.073 Y25.562 E42.80538
G1 X145.684 Y26.227 E42.84533
