;FLAVOR:Marlin
;TIME:3202
;Filament used: 2.90212m
;Layer height: 0.2
;MINX:91.338
;MINY:94.825
;MINZ:0.2
;MAXX:143.667
;MAXY:147.175
;MAXZ:17.2
;Generated with Cura_SteamEngine 4.3.0
M140 S50
M105
M190 S50
M104 S205
M105
M109 S205
M82 ;absolute extrusion mode
; Ender 3 Custom Start G-code
M201 X500.00 Y500.00 Z100.00 E5000.00 ;Setup machine max acceleration
M203 X500.00 Y500.00 Z10.00 E50.00 ;Setup machine max feedrate
M204 P500.00 R1000.00 T500.00 ;Setup Print/Retract/Travel acceleration
M205 X8.00 Y8.00 Z0.40 E5.00 ;Setup Jerk
M220 S100 ;Reset Feedrate
M221 S100 ;Reset Flowrate
M117 Clean ; Indicate nozzle clean in progress on LCD
M107 ; Turn layer fan off
G21 ; Set to metric [change to G20 if you want Imperial]
G28 ; Home all axes
G90                          ; Force coordinates to be absolute relative to the origin
M92 E95 ;
G90                          ; Force coordinates to be absolute relative to the origin
G28                          ; Home X/Y/Z axis
G92 E0 ; Reset Extruder
G1 Z2.0 F3000 ;Move Z Axis up
G1 X10.1 Y20 Z0.28 F5000.0 ;Move to start position
G1 X10.1 Y200.0 Z0.28 F1500.0 E15 ;Draw the first line
G1 X10.4 Y200.0 Z0.28 F5000.0 ;Move to side a little
G1 X10.4 Y20 Z0.28 F1500.0 E30 ;Draw the second line
G92 E0 ; Reset Extruder
G1 Z2.0 F3000 ; Move Z Axis up little to prevent scratching of Heat Bed
M117 Printing ; Indicate printing on LCD
G92 E0
G92 E0
G1 F1500 E-6
;LAYER_COUNT:86
;LAYER:0
M107
M204 S500
M205 X20 Y20
G0 F7500 X98.813 Y102.688 Z0.2
;TYPE:SKIRT
G1 F1500 E0
G1 X99.645 Y101.864 E0.04674
G1 X99.822 Y101.706 E0.05621
G1 X100.098 Y101.467 E0.07078
G1 X100.317 Y101.284 E0.08217
G1 X100.41 Y101.207 E0.08699
G1 X101.347 Y100.441 E0.13529
G1 X101.474 Y100.338 E0.14182
G1 X102.026 Y99.9 E0.16994
G1 X103.022 Y99.195 E0.21865
G1 X103.246 Y99.054 E0.22921
G1 X103.597 Y98.842 E0.24558
G1 X104.874 Y98.102 E0.30448
G1 X105.027 Y98.015 E0.31151
G1 X105.598 Y97.696 E0.33761
G1 X106.612 Y97.195 E0.38275
G1 X106.82 Y97.105 E0.3918
G1 X107.162 Y96.964 E0.40656
G1 X107.431 Y96.858 E0.4181
G1 X107.55 Y96.812 E0.4232
G1 X108.705 Y96.372 E0.47253
G1 X108.883 Y96.306 E0.4801
G1 X109.519 Y96.076 E0.5071
G1 X110.657 Y95.731 E0.55456
G1 X110.885 Y95.675 E0.56393
G1 X111.182 Y95.606 E0.5761
G1 X111.431 Y95.552 E0.58627
G1 X111.56 Y95.525 E0.59153
G1 X112.767 Y95.278 E0.6407
G1 X112.933 Y95.246 E0.64745
G1 X113.621 Y95.116 E0.67539
G1 X114.866 Y94.952 E0.72551
G1 X115.134 Y94.932 E0.73624
G1 X115.497 Y94.911 E0.75075
G1 X116.945 Y94.85 E0.8086
G1 X117.108 Y94.844 E0.81511
G1 X117.799 Y94.825 E0.8427
G1 X118.745 Y94.839 E0.88046
G1 X119.24 Y94.878 E0.90027
G1 X119.781 Y94.933 E0.92198
G1 X119.992 Y94.957 E0.93045
G1 X121.175 Y95.1 E0.97801
G1 X121.331 Y95.12 E0.98429
G1 X121.982 Y95.208 E1.01051
G1 X123.13 Y95.425 E1.05714
G1 X123.393 Y95.489 E1.06794
G1 X123.75 Y95.582 E1.08267
G1 X123.969 Y95.643 E1.09174
G1 X124.082 Y95.675 E1.09643
G1 X125.279 Y96.022 E1.14617
G1 X125.415 Y96.062 E1.15183
G1 X126.077 Y96.263 E1.17944
G1 X127.31 Y96.718 E1.2319
G1 X127.525 Y96.812 E1.24126
G1 X127.825 Y96.948 E1.25441
G1 X129.164 Y97.581 E1.31352
G1 X129.306 Y97.65 E1.31982
G1 X129.914 Y97.948 E1.34685
G1 X130.969 Y98.538 E1.39509
G1 X131.181 Y98.672 E1.4051
G1 X131.487 Y98.872 E1.41969
G1 X131.708 Y99.022 E1.43035
G1 X131.768 Y99.063 E1.43325
G1 X132.753 Y99.741 E1.48098
G1 X132.892 Y99.839 E1.48777
G1 X133.48 Y100.257 E1.51656
G1 X134.228 Y100.837 E1.55434
G1 X134.6 Y101.167 E1.57419
G1 X135.018 Y101.554 E1.59692
G1 X135.16 Y101.688 E1.60472
G1 X135.937 Y102.433 E1.64768
G1 X136.055 Y102.547 E1.65423
G1 X136.603 Y103.088 E1.68496
G1 X137.247 Y103.78 E1.72269
G1 X137.565 Y104.169 E1.74274
G1 X137.87 Y104.56 E1.76254
G1 X137.986 Y104.711 E1.77014
G1 X138.718 Y105.683 E1.8187
G1 X138.817 Y105.817 E1.82535
G1 X139.209 Y106.354 E1.85189
G1 X139.828 Y107.298 E1.89694
G1 X139.958 Y107.52 E1.90721
G1 X140.169 Y107.897 E1.92445
G1 X140.276 Y108.097 E1.93351
G1 X140.314 Y108.169 E1.93676
G1 X140.899 Y109.282 E1.98694
G1 X140.977 Y109.433 E1.99372
G1 X141.29 Y110.051 E2.02137
G1 X141.779 Y111.163 E2.06986
G1 X141.863 Y111.386 E2.07937
G1 X141.999 Y111.767 E2.09551
G1 X142.473 Y113.178 E2.15492
G1 X142.523 Y113.332 E2.16138
G1 X142.731 Y113.982 E2.18862
G1 X143.044 Y115.188 E2.23835
G1 X143.084 Y115.387 E2.24645
G1 X143.144 Y115.707 E2.25945
G1 X143.197 Y116.017 E2.272
G1 X143.21 Y116.097 E2.27523
G1 X143.406 Y117.296 E2.32372
G1 X143.43 Y117.446 E2.32979
G1 X143.528 Y118.101 E2.35622
G1 X143.64 Y119.272 E2.40317
G1 X143.651 Y119.525 E2.41328
G1 X143.661 Y119.879 E2.42741
G1 X143.664 Y120.134 E2.43759
G1 X143.665 Y120.248 E2.44214
G1 X143.667 Y121.507 E2.49239
G1 X143.666 Y121.664 E2.49866
G1 X143.658 Y122.307 E2.52432
G1 X143.58 Y123.492 E2.57172
G1 X143.555 Y123.702 E2.58016
G1 X143.509 Y124.044 E2.59394
G1 X143.452 Y124.423 E2.60923
G1 X143.431 Y124.557 E2.61465
G1 X143.252 Y125.656 E2.65909
G1 X143.229 Y125.797 E2.66479
G1 X143.103 Y126.513 E2.69381
G1 X142.818 Y127.727 E2.74358
G1 X142.754 Y127.945 E2.75264
G1 X142.674 Y128.207 E2.76358
G1 X142.6 Y128.438 E2.77326
G1 X142.558 Y128.565 E2.7786
G1 X142.159 Y129.761 E2.82892
G1 X142.112 Y129.901 E2.83481
G1 X141.887 Y130.547 E2.86212
G1 X141.431 Y131.66 E2.91012
G1 X141.331 Y131.871 E2.91944
G1 X141.181 Y132.174 E2.93293
G1 X141.07 Y132.391 E2.94266
G1 X141.016 Y132.496 E2.94738
G1 X140.456 Y133.563 E2.99547
G1 X140.386 Y133.695 E3.00143
G1 X140.031 Y134.35 E3.03117
G1 X139.545 Y135.162 E3.06894
G1 X139.272 Y135.559 E3.08817
G1 X139.017 Y135.913 E3.10558
G1 X138.888 Y136.088 E3.11426
G1 X138.122 Y137.109 E3.1652
G1 X138.024 Y137.238 E3.17167
G1 X137.605 Y137.78 E3.19901
G1 X136.801 Y138.709 E3.24805
G1 X136.633 Y138.883 E3.2577
G1 X136.404 Y139.115 E3.27071
G1 X136.229 Y139.286 E3.28048
G1 X136.165 Y139.347 E3.28401
G1 X135.248 Y140.229 E3.33479
G1 X135.126 Y140.345 E3.34151
G1 X134.676 Y140.765 E3.36607
G1 X133.861 Y141.456 E3.40872
G1 X133.662 Y141.609 E3.41874
G1 X133.294 Y141.88 E3.43698
G1 X133.039 Y142.06 E3.44944
G1 X132.944 Y142.126 E3.45406
G1 X131.955 Y142.809 E3.50203
G1 X131.823 Y142.899 E3.5084
G1 X131.263 Y143.274 E3.5353
G1 X130.253 Y143.876 E3.58223
G1 X130.05 Y143.983 E3.59139
G1 X129.736 Y144.142 E3.60544
G1 X129.496 Y144.259 E3.61609
G1 X129.391 Y144.31 E3.62075
G1 X128.262 Y144.846 E3.67063
G1 X128.127 Y144.909 E3.67658
G1 X127.512 Y145.191 E3.70358
G1 X126.339 Y145.651 E3.75387
G1 X126.135 Y145.718 E3.76244
G1 X125.848 Y145.808 E3.77445
G1 X125.557 Y145.895 E3.78657
G1 X125.472 Y145.92 E3.7901
G1 X124.325 Y146.253 E3.83777
G1 X124.173 Y146.296 E3.84408
G1 X123.497 Y146.482 E3.87206
G1 X122.275 Y146.746 E3.92196
G1 X122.06 Y146.78 E3.93065
G1 X121.784 Y146.82 E3.94178
G1 X121.49 Y146.859 E3.95362
G1 X121.374 Y146.874 E3.95828
G1 X120.145 Y147.024 E4.0077
G1 X119.974 Y147.043 E4.01457
G1 X119.326 Y147.112 E4.04058
G1 X118.14 Y147.175 E4.08798
G1 X117.885 Y147.175 E4.09816
G1 X117.466 Y147.167 E4.11488
G1 X115.971 Y147.111 E4.17459
G1 X115.802 Y147.104 E4.18134
G1 X115.155 Y147.07 E4.2072
G1 X114.009 Y146.95 E4.25319
G1 X113.792 Y146.916 E4.26196
G1 X113.398 Y146.847 E4.27792
G1 X113.119 Y146.793 E4.28927
G1 X113.015 Y146.772 E4.2935
G1 X111.83 Y146.531 E4.34176
G1 X111.664 Y146.496 E4.34854
G1 X110.957 Y146.341 E4.37742
G1 X109.599 Y145.953 E4.43379
G1 X109.127 Y145.785 E4.45379
G1 X108.914 Y145.706 E4.46286
G1 X107.782 Y145.277 E4.51117
G1 X107.636 Y145.221 E4.51741
G1 X106.988 Y144.965 E4.54522
G1 X105.946 Y144.49 E4.59093
G1 X105.759 Y144.393 E4.59934
G1 X105.407 Y144.202 E4.61532
G1 X105.099 Y144.028 E4.62944
G1 X105.009 Y143.977 E4.63357
G1 X104.006 Y143.398 E4.67979
G1 X103.883 Y143.326 E4.68548
G1 X103.284 Y142.97 E4.71329
G1 X102.492 Y142.453 E4.75104
G1 X102.09 Y142.152 E4.77108
G1 X101.69 Y141.838 E4.79138
G1 X101.524 Y141.705 E4.79987
G1 X100.632 Y140.977 E4.84582
G1 X100.528 Y140.891 E4.85121
G1 X99.947 Y140.405 E4.88144
G1 X99.247 Y139.767 E4.91924
G1 X98.882 Y139.388 E4.94024
G1 X98.546 Y139.022 E4.96007
G1 X98.42 Y138.882 E4.96759
G1 X97.616 Y137.976 E5.01594
G1 X97.497 Y137.84 E5.02315
G1 X97.046 Y137.315 E5.05077
G1 X96.297 Y136.34 E5.09985
G1 X96.152 Y136.128 E5.1101
G1 X95.944 Y135.812 E5.1252
G1 X95.149 Y134.561 E5.18436
G1 X95.054 Y134.408 E5.19154
G1 X94.707 Y133.842 E5.21804
G1 X94.126 Y132.768 E5.26678
G1 X94.025 Y132.554 E5.27622
G1 X93.906 Y132.293 E5.28767
G1 X93.794 Y132.039 E5.29875
G1 X93.74 Y131.913 E5.30422
G1 X93.256 Y130.778 E5.35347
G1 X93.203 Y130.653 E5.35889
G1 X92.945 Y130.027 E5.38591
G1 X92.622 Y129.137 E5.4237
G1 X92.476 Y128.636 E5.44453
G1 X92.337 Y128.113 E5.46613
G1 X92.288 Y127.923 E5.47396
G1 X92.009 Y126.794 E5.52037
G1 X91.973 Y126.644 E5.52653
G1 X91.813 Y125.956 E5.55472
G1 X91.582 Y124.572 E5.61073
G1 X91.535 Y124.118 E5.62894
G1 X91.512 Y123.869 E5.63892
G1 X91.411 Y122.622 E5.68886
G1 X91.399 Y122.466 E5.6951
G1 X91.353 Y121.779 E5.72258
G1 X91.338 Y120.546 E5.7718
G1 X91.35 Y120.269 E5.78286
G1 X91.368 Y119.967 E5.79494
G1 X91.388 Y119.683 E5.8063
G1 X91.395 Y119.588 E5.8101
G1 X91.485 Y118.449 E5.85571
G1 X91.499 Y118.289 E5.86212
G1 X91.566 Y117.572 E5.89086
G1 X91.693 Y116.634 E5.92864
G1 X91.789 Y116.159 E5.94798
G1 X91.911 Y115.616 E5.97019
G1 X91.964 Y115.392 E5.97938
G1 X92.234 Y114.296 E6.02443
G1 X92.271 Y114.151 E6.0304
G1 X92.456 Y113.441 E6.05969
G1 X92.845 Y112.233 E6.11034
G1 X92.938 Y111.992 E6.12065
G1 X93.072 Y111.661 E6.1349
G1 X93.64 Y110.318 E6.1931
G1 X93.712 Y110.152 E6.20032
G1 X93.991 Y109.521 E6.22786
G1 X94.645 Y108.262 E6.28448
G1 X94.913 Y107.818 E6.30518
G1 X95.029 Y107.63 E6.314
G1 X95.663 Y106.625 E6.36142
G1 X95.754 Y106.484 E6.36812
G1 X96.138 Y105.895 E6.39619
G1 X96.905 Y104.855 E6.44776
G1 X97.072 Y104.654 E6.45819
G1 X97.284 Y104.406 E6.47121
G1 X98.263 Y103.295 E6.53032
G1 X98.376 Y103.169 E6.53707
G1 X98.813 Y102.688 E6.56301
G0 F7500 X99.169 Y103.01
G1 F1500 X99.964 Y102.222 E6.60768
G1 X100.141 Y102.064 E6.61715
G1 X100.406 Y101.835 E6.63113
G1 X100.625 Y101.652 E6.64252
G1 X100.714 Y101.578 E6.64714
G1 X101.651 Y100.812 E6.69545
G1 X101.773 Y100.714 E6.70169
G1 X102.325 Y100.276 E6.72982
G1 X103.277 Y99.602 E6.77637
G1 X103.501 Y99.461 E6.78694
G1 X103.837 Y99.258 E6.8026
G1 X105.114 Y98.518 E6.86151
G1 X105.261 Y98.434 E6.86827
G1 X105.832 Y98.115 E6.89437
G1 X106.803 Y97.636 E6.93759
G1 X107.011 Y97.546 E6.94663
G1 X107.338 Y97.41 E6.96077
G1 X107.607 Y97.304 E6.97231
G1 X107.721 Y97.26 E6.97719
G1 X108.876 Y96.82 E7.02652
G1 X109.046 Y96.757 E7.03375
G1 X109.682 Y96.527 E7.06074
G1 X110.771 Y96.197 E7.10616
G1 X110.999 Y96.141 E7.11553
G1 X111.284 Y96.076 E7.1272
G1 X111.533 Y96.022 E7.13737
G1 X111.656 Y95.996 E7.14239
G1 X112.863 Y95.749 E7.19156
G1 X113.022 Y95.717 E7.19803
G1 X113.71 Y95.587 E7.22598
G1 X114.902 Y95.431 E7.27396
G1 X115.17 Y95.411 E7.28468
G1 X115.517 Y95.39 E7.29856
G1 X116.965 Y95.329 E7.3564
G1 X117.121 Y95.324 E7.36263
G1 X117.812 Y95.305 E7.39022
G1 X119.191 Y95.356 E7.4453
G1 X119.732 Y95.411 E7.467
G1 X119.934 Y95.433 E7.47511
G1 X121.117 Y95.576 E7.52267
G1 X121.267 Y95.596 E7.52871
G1 X121.918 Y95.684 E7.55493
G1 X123.017 Y95.891 E7.59957
G1 X123.28 Y95.955 E7.61037
G1 X123.621 Y96.044 E7.62443
G1 X123.84 Y96.105 E7.63351
G1 X123.949 Y96.136 E7.63803
G1 X125.146 Y96.483 E7.68777
G1 X125.275 Y96.521 E7.69314
G1 X125.937 Y96.722 E7.72075
G1 X127.117 Y97.158 E7.77096
G1 X127.332 Y97.252 E7.78033
G1 X127.62 Y97.382 E7.79294
G1 X128.959 Y98.015 E7.85205
G1 X129.095 Y98.081 E7.85809
G1 X129.703 Y98.379 E7.88511
G1 X130.713 Y98.943 E7.93128
G1 X130.925 Y99.077 E7.94129
G1 X131.217 Y99.269 E7.95524
G1 X131.438 Y99.419 E7.9659
G1 X131.496 Y99.459 E7.96871
G1 X132.481 Y100.137 E8.01644
G1 X132.614 Y100.23 E8.02291
G1 X133.202 Y100.648 E8.05171
G1 X134.274 Y101.519 E8.10684
G1 X134.692 Y101.906 E8.12957
G1 X134.828 Y102.034 E8.13703
G1 X135.605 Y102.779 E8.17999
G1 X135.717 Y102.888 E8.18623
G1 X136.265 Y103.429 E8.21696
G1 X137.187 Y104.465 E8.27232
G1 X137.492 Y104.856 E8.29211
G1 X137.602 Y105 E8.29934
G1 X138.334 Y105.972 E8.3479
G1 X138.429 Y106.1 E8.35427
G1 X138.821 Y106.637 E8.3808
G1 X139.414 Y107.541 E8.42395
G1 X139.544 Y107.763 E8.43422
G1 X139.745 Y108.123 E8.45068
G1 X139.852 Y108.323 E8.45973
G1 X139.889 Y108.392 E8.46286
G1 X140.474 Y109.505 E8.51304
G1 X140.548 Y109.649 E8.5195
G1 X140.861 Y110.267 E8.54715
G1 X141.33 Y111.332 E8.5936
G1 X141.414 Y111.555 E8.60311
G1 X141.544 Y111.92 E8.61857
G1 X142.018 Y113.331 E8.67798
G1 X142.066 Y113.478 E8.68415
G1 X142.274 Y114.128 E8.71139
G1 X142.574 Y115.282 E8.75898
G1 X142.614 Y115.481 E8.76708
G1 X142.671 Y115.787 E8.77951
G1 X142.724 Y116.097 E8.79206
G1 X142.737 Y116.175 E8.79521
G1 X142.933 Y117.374 E8.8437
G1 X142.955 Y117.517 E8.84948
G1 X143.053 Y118.172 E8.87591
G1 X143.161 Y119.292 E8.92082
G1 X143.172 Y119.545 E8.93093
G1 X143.181 Y119.885 E8.9445
G1 X143.184 Y120.14 E8.95468
G1 X143.185 Y120.249 E8.95903
G1 X143.187 Y121.508 E9.00928
G1 X143.186 Y121.658 E9.01527
G1 X143.178 Y122.301 E9.04093
G1 X143.104 Y123.435 E9.08629
G1 X143.079 Y123.645 E9.09473
G1 X143.035 Y123.972 E9.1079
G1 X142.978 Y124.351 E9.1232
G1 X142.958 Y124.48 E9.12841
G1 X142.779 Y125.579 E9.17285
G1 X142.756 Y125.714 E9.17831
G1 X142.63 Y126.43 E9.20733
G1 X142.358 Y127.592 E9.25496
G1 X142.294 Y127.81 E9.26403
G1 X142.217 Y128.06 E9.27447
G1 X142.143 Y128.291 E9.28415
G1 X142.103 Y128.414 E9.28931
G1 X141.704 Y129.61 E9.33964
G1 X141.659 Y129.743 E9.34524
G1 X141.434 Y130.389 E9.37254
G1 X140.997 Y131.454 E9.41849
G1 X140.897 Y131.665 E9.42781
G1 X140.754 Y131.956 E9.44075
G1 X140.643 Y132.173 E9.45048
G1 X140.591 Y132.273 E9.45497
G1 X140.031 Y133.34 E9.50307
G1 X139.964 Y133.466 E9.50877
G1 X139.609 Y134.121 E9.5385
G1 X138.882 Y135.279 E9.59307
G1 X138.627 Y135.633 E9.61049
G1 X138.504 Y135.8 E9.61876
G1 X137.738 Y136.821 E9.66971
G1 X137.644 Y136.944 E9.67589
G1 X137.225 Y137.486 E9.70323
G1 X136.456 Y138.376 E9.75017
G1 X136.288 Y138.55 E9.75983
G1 X136.068 Y138.771 E9.77227
G1 X135.893 Y138.942 E9.78204
G1 X135.832 Y139.001 E9.78543
G1 X134.915 Y139.883 E9.83621
G1 X134.798 Y139.994 E9.84264
G1 X134.348 Y140.414 E9.86721
G1 X133.568 Y141.076 E9.90804
G1 X133.369 Y141.229 E9.91806
G1 X133.017 Y141.488 E9.93551
G1 X132.762 Y141.668 E9.94796
G1 X132.672 Y141.731 E9.95235
G1 X131.683 Y142.414 E10.00032
G1 X131.556 Y142.5 E10.00644
G1 X130.996 Y142.875 E10.03334
G1 X130.03 Y143.451 E10.07823
G1 X129.827 Y143.558 E10.08739
G1 X129.526 Y143.711 E10.10086
G1 X129.286 Y143.828 E10.11152
G1 X129.186 Y143.876 E10.11595
G1 X128.057 Y144.412 E10.16583
G1 X127.927 Y144.472 E10.17154
G1 X127.312 Y144.754 E10.19855
G1 X126.189 Y145.195 E10.2467
G1 X125.985 Y145.262 E10.25527
G1 X125.711 Y145.348 E10.26673
G1 X125.42 Y145.435 E10.27885
G1 X125.338 Y145.459 E10.28226
G1 X124.191 Y145.792 E10.32993
G1 X124.046 Y145.833 E10.33595
G1 X123.37 Y146.019 E10.36393
G1 X122.2 Y146.271 E10.4117
G1 X121.985 Y146.305 E10.42039
G1 X121.721 Y146.344 E10.43104
G1 X121.427 Y146.383 E10.44288
G1 X121.316 Y146.397 E10.44734
G1 X120.087 Y146.547 E10.49676
G1 X119.923 Y146.566 E10.50335
G1 X119.275 Y146.635 E10.52936
G1 X118.14 Y146.695 E10.57472
G1 X117.885 Y146.695 E10.5849
G1 X117.484 Y146.687 E10.6009
G1 X115.989 Y146.631 E10.66062
G1 X115.827 Y146.624 E10.66709
G1 X115.18 Y146.59 E10.69295
G1 X114.084 Y146.476 E10.73693
G1 X113.867 Y146.442 E10.74569
G1 X113.489 Y146.376 E10.76101
G1 X113.21 Y146.322 E10.77235
G1 X113.111 Y146.302 E10.77638
G1 X111.926 Y146.061 E10.82464
G1 X111.766 Y146.027 E10.83117
G1 X111.059 Y145.872 E10.86006
G1 X109.76 Y145.5 E10.91399
G1 X109.288 Y145.332 E10.93399
G1 X109.084 Y145.257 E10.94266
G1 X107.952 Y144.828 E10.99098
G1 X107.812 Y144.774 E10.99697
G1 X107.164 Y144.518 E11.02478
G1 X106.167 Y144.064 E11.0685
G1 X105.98 Y143.967 E11.07691
G1 X105.643 Y143.785 E11.09219
G1 X105.335 Y143.611 E11.10631
G1 X105.249 Y143.561 E11.11028
G1 X104.246 Y142.982 E11.15651
G1 X104.128 Y142.913 E11.16196
G1 X103.529 Y142.557 E11.18977
G1 X102.387 Y141.774 E11.24504
G1 X101.987 Y141.46 E11.26533
G1 X101.828 Y141.333 E11.27346
G1 X100.936 Y140.605 E11.31941
G1 X100.836 Y140.523 E11.32457
