;FLAVOR:Marlin
;TIME:4012
;Filament used: 2.19597m
;Layer height: 0.2
;MINX:93.407
;MINY:95.19
;MINZ:0.2
;MAXX:141.597
;MAXY:152.572
;MAXZ:21.6
;Generated with Cura_SteamEngine 4.2.1
M140 S55
M105
M190 S55
M104 S200
M105
M109 S200
M82 ;absolute extrusion mode
; Ender 3 Custom Start G-code
M201 X500.00 Y500.00 Z100.00 E5000.00 ;Setup machine max acceleration
M203 X500.00 Y500.00 Z10.00 E50.00 ;Setup machine max feedrate
M204 P500.00 R1000.00 T500.00 ;Setup Print/Retract/Travel acceleration
M205 X8.00 Y8.00 Z0.40 E5.00 ;Setup Jerk
M220 S100 ;Reset Feedrate
M221 S100 ;Reset Flowrate
;
M117 Clean ; Indicate nozzle clean in progress on LCD
M107 ; Turn layer fan off
G21 ; Set to metric [change to G20 if you want Imperial]
G28 ; Home all axes
; ***SET NEW E STEP *** (93 is factory value - 95 mine - start)
G90                          ; Force coordinates to be absolute relative to the origin
M92 E95 ;
; ***SET NEW E STEP *** (93 is factory value - 95 mine - end)
G90                          ; Force coordinates to be absolute relative to the origin
G28                          ; Home X/Y/Z axis
;
G92 E0 ; Reset Extruder
G1 Z2.0 F3000 ;Move Z Axis up
G1 X10.1 Y20 Z0.28 F5000.0 ;Move to start position
G1 X10.1 Y200.0 Z0.28 F1500.0 E15 ;Draw the first line
G1 X10.4 Y200.0 Z0.28 F5000.0 ;Move to side a little
G1 X10.4 Y20 Z0.28 F1500.0 E30 ;Draw the second line
G92 E0 ; Reset Extruder
G1 Z2.0 F3000 ; Move Z Axis up little to prevent scratching of Heat Bed
M117 Printing ; Indicate printing on LCD
; End of custom start GCode
M141 S28
G92 E0
G92 E0
G1 F1500 E-7
;LAYER_COUNT:107
;LAYER:0
M107
M204 S500
M205 X20 Y20
G0 F7500 X99.711 Y98.934 Z0.2
;TYPE:SKIRT
G1 F1500 E0
G1 X100.405 Y98.261 E0.03858
G1 X101.151 Y97.647 E0.07715
G1 X101.946 Y97.097 E0.11573
G1 X102.784 Y96.615 E0.15431
G1 X103.507 Y96.269 E0.18631
G1 X103.738 Y96.168 E0.19637
G1 X104.639 Y95.818 E0.23495
G1 X105.565 Y95.543 E0.2735
G1 X106.511 Y95.346 E0.31207
G1 X107.471 Y95.228 E0.35067
G1 X108.436 Y95.19 E0.38922
G1 X109.379 Y95.23 E0.42689
G1 X110.126 Y95.292 E0.4568
G1 X112.77 Y95.476 E0.56259
G1 X115.255 Y95.579 E0.66185
G1 X117.739 Y95.612 E0.761
G1 X120.259 Y95.573 E0.8616
G1 X122.759 Y95.465 E0.96147
G1 X123.984 Y95.377 E1.01049
G1 X124.144 Y95.366 E1.01689
G1 X124.837 Y95.326 E1.04459
G1 X125.803 Y95.311 E1.08315
G1 X126.768 Y95.375 E1.12175
G1 X127.723 Y95.519 E1.1603
G1 X128.765 Y95.77 E1.20308
G1 X130.095 Y96.156 E1.25835
G1 X130.282 Y96.212 E1.26614
G1 X130.603 Y96.311 E1.27955
G1 X131.514 Y96.634 E1.31813
G1 X132.755 Y97.219 E1.37289
G1 X133.292 Y97.512 E1.3973
G1 X134.121 Y98.01 E1.4359
G1 X134.905 Y98.574 E1.47445
G1 X135.641 Y99.201 E1.51304
G1 X136.321 Y99.887 E1.55159
G1 X136.943 Y100.627 E1.59017
G1 X137.502 Y101.416 E1.62876
G1 X138.013 Y102.285 E1.669
G1 X138.692 Y103.563 E1.72676
G1 X139.07 Y104.343 E1.76135
G1 X139.328 Y104.93 E1.78695
G1 X139.475 Y105.28 E1.8021
G1 X139.597 Y105.584 E1.81517
G1 X139.809 Y106.155 E1.83948
G1 X140.126 Y107.082 E1.87858
G1 X140.268 Y107.527 E1.89723
G1 X140.366 Y107.856 E1.91093
G1 X140.458 Y108.183 E1.92449
G1 X140.62 Y108.791 E1.9496
G1 X140.773 Y109.44 E1.97621
G1 X140.927 Y110.187 E2.00665
G1 X140.975 Y110.432 E2.01662
G1 X141.03 Y110.731 E2.02875
G1 X141.131 Y111.381 E2.05501
G1 X141.23 Y112.165 E2.08655
G1 X141.257 Y112.393 E2.09571
G1 X141.294 Y112.741 E2.10968
G1 X141.327 Y113.106 E2.1243
G1 X141.393 Y113.99 E2.15968
G1 X141.417 Y114.431 E2.17731
G1 X141.431 Y114.812 E2.19253
G1 X141.426 Y115.795 E2.23176
G1 X141.39 Y116.563 E2.26245
G1 X141.299 Y119.15 E2.36577
G1 X141.282 Y121.677 E2.46663
G1 X141.334 Y124.112 E2.56383
G1 X141.534 Y127.731 E2.7085
G1 X141.564 Y128.13 E2.72447
G1 X141.597 Y129.096 E2.76304
G1 X141.55 Y130.055 E2.80137
G1 X141.49 Y130.719 E2.82798
G1 X141.285 Y133.26 E2.92972
G1 X141.164 Y135.429 E3.01643
G1 X141.07 Y136.391 E3.055
G1 X140.897 Y137.342 E3.09358
G1 X140.646 Y138.275 E3.13215
G1 X140.319 Y139.184 E3.1707
G1 X139.917 Y140.064 E3.20932
G1 X139.444 Y140.906 E3.24786
G1 X138.903 Y141.709 E3.28651
G1 X138.684 Y142.006 E3.30123
G1 X138.078 Y142.759 E3.33981
G1 X137.413 Y143.46 E3.37838
G1 X136.692 Y144.103 E3.41693
G1 X135.781 Y144.78 E3.46224
G1 X135.542 Y144.94 E3.47371
G1 X134.929 Y145.323 E3.50256
G1 X132.639 Y146.659 E3.60838
G1 X130.522 Y147.976 E3.70789
G1 X128.395 Y149.383 E3.80968
G1 X126.846 Y150.462 E3.88502
G1 X126.03 Y150.981 E3.92362
G1 X125.175 Y151.43 E3.96216
G1 X124.285 Y151.808 E4.00076
G1 X123.368 Y152.11 E4.03929
G1 X122.428 Y152.336 E4.07788
G1 X121.473 Y152.483 E4.11644
G1 X120.378 Y152.554 E4.16024
G1 X119.469 Y152.57 E4.19652
G1 X119.175 Y152.572 E4.20826
G1 X118.917 Y152.57 E4.21855
G1 X115.948 Y152.572 E4.33705
G1 X115.772 Y152.571 E4.34408
G1 X115.078 Y152.561 E4.37178
G1 X114.113 Y152.507 E4.41036
G1 X113.156 Y152.373 E4.44892
G1 X112.213 Y152.161 E4.4875
G1 X111.291 Y151.872 E4.52606
G1 X110.396 Y151.507 E4.56464
G1 X109.534 Y151.07 E4.60322
G1 X108.531 Y150.439 E4.65051
G1 X107.808 Y149.931 E4.68578
G1 X107.653 Y149.82 E4.69339
G1 X107.312 Y149.572 E4.71022
G1 X105.225 Y148.096 E4.81224
G1 X103.138 Y146.705 E4.91234
G1 X100.98 Y145.356 E5.01392
G1 X100.537 Y145.092 E5.0345
G1 X99.727 Y144.563 E5.07311
G1 X99.247 Y144.202 E5.09708
G1 X98.79 Y143.839 E5.12038
G1 X98.277 Y143.407 E5.14714
G1 X98.156 Y143.299 E5.15362
G1 X97.463 Y142.626 E5.19217
G1 X96.827 Y141.898 E5.23076
G1 X96.298 Y141.185 E5.26619
G1 X96.011 Y140.766 E5.28646
G1 X95.498 Y139.947 E5.32503
G1 X95.055 Y139.088 E5.36361
G1 X94.684 Y138.196 E5.40216
G1 X94.389 Y137.276 E5.44073
G1 X94.148 Y136.213 E5.48423
G1 X94.046 Y135.64 E5.50746
G1 X93.923 Y134.76 E5.54292
G1 X93.901 Y134.541 E5.55171
G1 X93.89 Y134.418 E5.55664
G1 X93.642 Y131.656 E5.66732
G1 X93.591 Y131.224 E5.68468
G1 X93.573 Y131.059 E5.6913
G1 X93.467 Y130.039 E5.73223
G1 X93.407 Y129.075 E5.77078
G1 X93.428 Y128.077 E5.81062
G1 X93.48 Y127.274 E5.84274
G1 X93.494 Y127.083 E5.85038
G1 X93.584 Y125.977 E5.89467
G1 X93.711 Y123.526 E5.99263
G1 X93.773 Y120.975 E6.09447
G1 X93.77 Y118.91 E6.17689
G1 X93.766 Y118.648 E6.18735
G1 X93.732 Y117.374 E6.23822
G1 X93.729 Y117.194 E6.2454
G1 X93.721 Y116.497 E6.27322
G1 X93.78 Y115.179 E6.32588
G1 X93.965 Y113.363 E6.39874
G1 X94.039 Y112.498 E6.43339
G1 X94.055 Y112.325 E6.44032
G1 X94.121 Y111.668 E6.46667
G1 X94.258 Y110.711 E6.50526
G1 X94.473 Y109.769 E6.54382
G1 X94.685 Y109.073 E6.57286
G1 X94.8 Y108.735 E6.58711
G1 X94.884 Y108.497 E6.59719
G1 X95.367 Y107.172 E6.65347
G1 X95.558 Y106.624 E6.67664
G1 X95.608 Y106.482 E6.68264
G1 X96.061 Y105.236 E6.73556
G1 X96.141 Y105.023 E6.74464
G1 X96.624 Y103.771 E6.7982
G1 X97.009 Y102.885 E6.83676
G1 X97.703 Y101.648 E6.89337
G1 X97.964 Y101.243 E6.9126
G1 X98.099 Y101.039 E6.92236
G1 X98.503 Y100.44 E6.9512
G1 X99.076 Y99.662 E6.98976
G1 X99.711 Y98.934 E7.02832
G0 F7500 X100.087 Y99.235
G1 F1500 X100.768 Y98.579 E7.06606
G1 X101.503 Y97.983 E7.10383
G1 X102.286 Y97.451 E7.14161
G1 X103.111 Y96.987 E7.17939
G1 X103.699 Y96.709 E7.20535
G1 X103.93 Y96.608 E7.21541
G1 X104.813 Y96.266 E7.2532
G1 X105.721 Y95.999 E7.29098
G1 X106.648 Y95.811 E7.32873
G1 X107.588 Y95.701 E7.3665
G1 X108.534 Y95.671 E7.40428
G1 X109.34 Y95.708 E7.43648
G1 X110.132 Y95.773 E7.4682
G1 X112.753 Y95.956 E7.57306
G1 X115.228 Y96.059 E7.67193
G1 X117.741 Y96.092 E7.77224
G1 X120.287 Y96.053 E7.87387
G1 X122.777 Y95.945 E7.97334
G1 X124.018 Y95.856 E8.023
G1 X124.172 Y95.846 E8.02916
G1 X124.865 Y95.806 E8.05686
G1 X125.811 Y95.791 E8.09463
G1 X126.755 Y95.856 E8.13239
G1 X127.69 Y96.001 E8.17016
G1 X128.632 Y96.231 E8.20886
G1 X129.962 Y96.617 E8.26413
G1 X130.141 Y96.67 E8.27158
G1 X130.462 Y96.769 E8.28499
G1 X131.354 Y97.086 E8.32277
G1 X132.525 Y97.64 E8.37448
G1 X133.062 Y97.933 E8.39889
G1 X133.873 Y98.421 E8.43667
G1 X134.64 Y98.976 E8.47445
G1 X135.357 Y99.593 E8.51221
G1 X136.02 Y100.269 E8.55
G1 X136.623 Y100.998 E8.58776
G1 X137.162 Y101.776 E8.62554
G1 X137.589 Y102.51 E8.65943
G1 X138.268 Y103.788 E8.71719
G1 X138.63 Y104.536 E8.75035
G1 X138.888 Y105.123 E8.77595
G1 X139.029 Y105.459 E8.79049
G1 X139.151 Y105.763 E8.80356
G1 X139.354 Y106.31 E8.82685
G1 X139.671 Y107.237 E8.86595
G1 X139.808 Y107.664 E8.88385
G1 X139.906 Y107.993 E8.89755
G1 X139.994 Y108.306 E8.91053
G1 X140.156 Y108.914 E8.93564
G1 X140.303 Y109.537 E8.96119
G1 X140.457 Y110.284 E8.99163
G1 X140.503 Y110.519 E9.00119
G1 X140.558 Y110.818 E9.01332
G1 X140.655 Y111.441 E9.03849
G1 X140.754 Y112.225 E9.07003
G1 X140.779 Y112.444 E9.07882
G1 X140.816 Y112.792 E9.09279
G1 X140.848 Y113.142 E9.10682
G1 X140.914 Y114.026 E9.1422
G1 X140.937 Y114.449 E9.15911
G1 X140.951 Y114.83 E9.17432
G1 X140.946 Y115.772 E9.21192
G1 X140.91 Y116.523 E9.24193
G1 X140.819 Y119.13 E9.34605
G1 X140.802 Y121.684 E9.44798
G1 X140.854 Y124.12 E9.54523
G1 X141.054 Y127.741 E9.68997
G1 X141.086 Y128.166 E9.70698
G1 X141.116 Y129.112 E9.74476
G1 X141.072 Y130.012 E9.78072
G1 X141.012 Y130.676 E9.80733
G1 X140.806 Y133.237 E9.90988
G1 X140.685 Y135.402 E9.99642
G1 X140.592 Y136.344 E10.0342
G1 X140.42 Y137.275 E10.07199
G1 X140.17 Y138.188 E10.10977
G1 X139.844 Y139.076 E10.14753
G1 X139.444 Y139.934 E10.18531
G1 X138.973 Y140.755 E10.22309
G1 X138.516 Y141.424 E10.25542
G1 X138.297 Y141.721 E10.27015
G1 X137.704 Y142.458 E10.30791
G1 X137.051 Y143.143 E10.34568
G1 X136.342 Y143.77 E10.38345
G1 X135.514 Y144.381 E10.42453
G1 X135.275 Y144.541 E10.436
G1 X134.687 Y144.908 E10.46367
G1 X132.385 Y146.251 E10.57004
G1 X130.261 Y147.572 E10.66987
G1 X128.131 Y148.982 E10.77182
G1 X126.571 Y150.068 E10.84769
G1 X125.773 Y150.575 E10.88542
G1 X124.934 Y151.013 E10.9232
G1 X124.061 Y151.379 E10.96098
G1 X123.16 Y151.67 E10.99877
G1 X122.239 Y151.884 E11.03651
G1 X121.302 Y152.019 E11.07429
G1 X120.369 Y152.074 E11.11159
G1 X119.46 Y152.09 E11.14788
G1 X119.179 Y152.092 E11.15909
G1 X118.92 Y152.09 E11.16943
G1 X115.947 Y152.092 E11.28809
G1 X115.779 Y152.091 E11.2948
G1 X115.085 Y152.081 E11.3225
G1 X114.14 Y152.027 E11.36028
G1 X113.203 Y151.894 E11.39805
G1 X112.28 Y151.682 E11.43585
G1 X111.379 Y151.393 E11.47361
G1 X110.506 Y151.029 E11.51136
G1 X109.666 Y150.593 E11.54914
G1 X108.807 Y150.046 E11.58978
G1 X108.084 Y149.538 E11.62505
G1 X107.935 Y149.432 E11.63235
G1 X107.571 Y149.167 E11.65032
G1 X105.51 Y147.71 E11.75106
G1 X103.377 Y146.288 E11.85337
G1 X101.233 Y144.948 E11.95428
G1 X100.782 Y144.679 E11.97524
G1 X99.99 Y144.161 E12.01301
G1 X99.546 Y143.826 E12.03521
G1 X99.089 Y143.463 E12.05851
G1 X98.597 Y143.049 E12.08417
G1 X98.476 Y142.941 E12.09064
G1 X97.797 Y142.281 E12.12844
G1 X97.177 Y141.567 E12.16618
G1 X96.694 Y140.914 E12.1986
G1 X96.407 Y140.495 E12.21887
G1 X95.905 Y139.693 E12.25663
G1 X95.474 Y138.85 E12.29442
G1 X95.115 Y137.975 E12.33217
G1 X94.831 Y137.072 E12.36995
G1 X94.62 Y136.129 E12.40852
G1 X94.518 Y135.556 E12.43174
G1 X94.401 Y134.712 E12.46575
G1 X94.379 Y134.493 E12.47454
G1 X94.368 Y134.375 E12.47927
G1 X94.121 Y131.625 E12.58947
G1 X94.067 Y131.167 E12.60787
G1 X94.05 Y131.01 E12.61418
G1 X93.944 Y129.99 E12.65511
G1 X93.886 Y129.045 E12.69289
G1 X93.907 Y128.108 E12.7303
G1 X93.959 Y127.305 E12.76242
G1 X93.973 Y127.122 E12.76974
G1 X94.061 Y126.041 E12.81303
G1 X94.192 Y123.527 E12.91351
G1 X94.253 Y120.986 E13.01495
G1 X94.25 Y118.91 E13.09781
G1 X94.246 Y118.628 E13.10907
G1 X94.212 Y117.361 E13.15965
G1 X94.209 Y117.189 E13.16652
G1 X94.201 Y116.492 E13.19434
G1 X94.258 Y115.227 E13.24488
G1 X94.446 Y113.387 E13.3187
G1 X94.518 Y112.539 E13.35267
G1 X94.533 Y112.373 E13.35932
G1 X94.599 Y111.716 E13.38567
G1 X94.733 Y110.779 E13.42345
G1 X94.946 Y109.857 E13.46122
G1 X95.14 Y109.227 E13.48753
G1 X95.255 Y108.889 E13.50178
G1 X95.335 Y108.661 E13.51142
G1 X95.818 Y107.336 E13.56771
G1 X96.011 Y106.782 E13.59113
G1 X96.059 Y106.646 E13.59688
G1 X96.512 Y105.4 E13.6498
G1 X96.589 Y105.196 E13.6585
G1 X97.072 Y103.944 E13.71206
G1 X97.449 Y103.076 E13.74983
G1 X98.107 Y101.908 E13.80334
G1 X98.368 Y101.503 E13.82257
G1 X98.497 Y101.307 E13.83193
G1 X98.901 Y100.708 E13.86077
G1 X99.462 Y99.947 E13.8985
G1 X100.087 Y99.235 E13.93632
G0 F7500 X100.461 Y99.538
G1 F1500 X101.132 Y98.899 E13.9733
G1 X101.854 Y98.321 E14.01021
G1 X102.624 Y97.807 E14.04716
G1 X103.436 Y97.361 E14.08414
G1 X103.891 Y97.149 E14.10417
G1 X104.122 Y97.048 E14.11423
G1 X104.986 Y96.714 E14.15121
G1 X105.875 Y96.456 E14.18815
G1 X106.783 Y96.275 E14.2251
G1 X107.703 Y96.174 E14.26204
G1 X108.629 Y96.152 E14.29901
G1 X109.3 Y96.186 E14.32583
G1 X110.132 Y96.255 E14.35915
G1 X112.702 Y96.434 E14.46197
G1 X115.237 Y96.539 E14.56324
G1 X117.741 Y96.572 E14.66319
G1 X120.28 Y96.533 E14.76453
G1 X122.798 Y96.424 E14.86513
G1 X124.053 Y96.334 E14.91535
G1 X124.199 Y96.325 E14.92118
G1 X124.892 Y96.285 E14.94889
G1 X125.818 Y96.271 E14.98585
G1 X126.741 Y96.338 E15.02279
G1 X127.656 Y96.484 E15.05977
G1 X128.498 Y96.692 E15.09439
G1 X129.828 Y97.078 E15.14966
G1 X129.999 Y97.129 E15.15678
G1 X130.32 Y97.228 E15.17019
G1 X131.192 Y97.539 E15.20714
G1 X132.296 Y98.062 E15.2559
G1 X132.833 Y98.355 E15.28031
G1 X133.625 Y98.833 E15.31723
G1 X134.374 Y99.378 E15.3542
G1 X135.073 Y99.985 E15.39115
G1 X135.717 Y100.65 E15.4281
G1 X136.301 Y101.369 E15.46507
G1 X136.82 Y102.135 E15.502
G1 X137.165 Y102.735 E15.52963
G1 X137.844 Y104.013 E15.58739
G1 X138.191 Y104.73 E15.61918
G1 X138.449 Y105.317 E15.64477
G1 X138.584 Y105.637 E15.65863
G1 X138.706 Y105.941 E15.6717
G1 X138.9 Y106.465 E15.69401
G1 X139.217 Y107.392 E15.73311
G1 X139.348 Y107.801 E15.75025
G1 X139.446 Y108.13 E15.76395
G1 X139.531 Y108.43 E15.7764
G1 X139.693 Y109.038 E15.80151
G1 X139.833 Y109.634 E15.82594
G1 X139.987 Y110.381 E15.85638
G1 X140.031 Y110.606 E15.86554
G1 X140.086 Y110.905 E15.87767
G1 X140.179 Y111.501 E15.90174
G1 X140.278 Y112.285 E15.93328
G1 X140.302 Y112.495 E15.94172
G1 X140.339 Y112.843 E15.95569
G1 X140.369 Y113.178 E15.96911
G1 X140.435 Y114.062 E16.00449
G1 X140.458 Y114.466 E16.02064
G1 X140.472 Y114.847 E16.03586
G1 X140.467 Y115.75 E16.0719
G1 X140.427 Y116.592 E16.10555
G1 X140.339 Y119.11 E16.20611
G1 X140.322 Y121.655 E16.30768
G1 X140.375 Y124.155 E16.40749
G1 X140.577 Y127.806 E16.55343
G1 X140.607 Y128.202 E16.56928
G1 X140.636 Y129.128 E16.60626
G1 X140.594 Y129.969 E16.63986
G1 X140.534 Y130.633 E16.66647
G1 X140.326 Y133.209 E16.76962
G1 X140.205 Y135.376 E16.85625
G1 X140.114 Y136.297 E16.89318
G1 X139.943 Y137.207 E16.93014
G1 X139.694 Y138.099 E16.9671
G1 X139.37 Y138.966 E17.00404
G1 X138.972 Y139.802 E17.041
G1 X138.503 Y140.6 E17.07794
G1 X138.13 Y141.139 E17.1041
G1 X137.911 Y141.436 E17.11883
G1 X137.33 Y142.157 E17.15579
G1 X136.689 Y142.825 E17.19274
G1 X135.992 Y143.435 E17.22971
G1 X135.247 Y143.982 E17.2666
G1 X135.008 Y144.142 E17.27808
G1 X134.445 Y144.494 E17.30458
G1 X132.147 Y145.834 E17.41075
G1 X129.984 Y147.18 E17.51243
G1 X127.859 Y148.587 E17.61415
G1 X126.297 Y149.674 E17.6901
G1 X125.515 Y150.169 E17.72704
G1 X124.693 Y150.596 E17.76401
G1 X123.838 Y150.95 E17.80095
G1 X122.955 Y151.228 E17.83789
G1 X122.051 Y151.43 E17.87486
G1 X121.134 Y151.553 E17.91179
G1 X120.361 Y151.594 E17.94269
G1 X119.452 Y151.61 E17.97897
G1 X119.182 Y151.612 E17.98975
G1 X118.923 Y151.61 E18.00009
G1 X115.947 Y151.612 E18.11886
G1 X115.786 Y151.611 E18.12529
G1 X115.092 Y151.601 E18.15299
G1 X114.167 Y151.548 E18.18997
G1 X113.251 Y151.415 E18.22691
G1 X112.35 Y151.203 E18.26386
G1 X111.47 Y150.915 E18.30081
G1 X110.618 Y150.552 E18.33778
G1 X109.801 Y150.116 E18.37474
G1 X109.083 Y149.653 E18.40884
G1 X108.36 Y149.145 E18.4441
G1 X108.218 Y149.044 E18.45106
G1 X107.866 Y148.788 E18.46843
G1 X105.771 Y147.306 E18.57085
G1 X103.655 Y145.896 E18.67234
G1 X101.479 Y144.536 E18.77476
G1 X101.028 Y144.267 E18.79571
G1 X100.253 Y143.759 E18.8327
G1 X99.844 Y143.45 E18.85316
G1 X99.387 Y143.087 E18.87645
G1 X98.917 Y142.691 E18.90098
G1 X98.796 Y142.583 E18.90745
G1 X98.132 Y141.937 E18.94443
G1 X97.527 Y141.236 E18.98139
G1 X97.09 Y140.643 E19.01079
G1 X96.803 Y140.224 E19.03106
G1 X96.313 Y139.438 E19.06802
G1 X95.893 Y138.613 E19.10497
G1 X95.546 Y137.755 E19.14191
