;FLAVOR:Marlin
;TIME:876
;Filament used: 0.57198m
;Layer height: 0.2
;MINX:93.549
;MINY:98.32
;MINZ:0.2
;MAXX:141.468
;MAXY:143.68
;MAXZ:5.2
;Generated with Cura_SteamEngine 4.2.1
M140 S55
M105
M190 S55
M104 S200
M105
M109 S200
M82 ;absolute extrusion mode
; Ender 3 Custom Start G-code
M201 X500.00 Y500.00 Z100.00 E5000.00 ;Setup machine max acceleration
M203 X500.00 Y500.00 Z10.00 E50.00 ;Setup machine max feedrate
M204 P500.00 R1000.00 T500.00 ;Setup Print/Retract/Travel acceleration
M205 X8.00 Y8.00 Z0.40 E5.00 ;Setup Jerk
M220 S100 ;Reset Feedrate
M221 S100 ;Reset Flowrate
;
M117 Clean ; Indicate nozzle clean in progress on LCD
M107 ; Turn layer fan off
G21 ; Set to metric [change to G20 if you want Imperial]
G28 ; Home all axes
; ***SET NEW E STEP *** (93 is factory value - 95 mine - start)
G90                          ; Force coordinates to be absolute relative to the origin
M92 E95 ;
; ***SET NEW E STEP *** (93 is factory value - 95 mine - end)
G90                          ; Force coordinates to be absolute relative to the origin
G28                          ; Home X/Y/Z axis
;
G92 E0 ; Reset Extruder
G1 Z2.0 F3000 ;Move Z Axis up
G1 X10.1 Y20 Z0.28 F5000.0 ;Move to start position
G1 X10.1 Y200.0 Z0.28 F1500.0 E15 ;Draw the first line
G1 X10.4 Y200.0 Z0.28 F5000.0 ;Move to side a little
G1 X10.4 Y20 Z0.28 F1500.0 E30 ;Draw the second line
G92 E0 ; Reset Extruder
G1 Z2.0 F3000 ; Move Z Axis up little to prevent scratching of Heat Bed
M117 Printing ; Indicate printing on LCD
; End of custom start GCode
M141 S28
G92 E0
G92 E0
G1 F1500 E-7
;LAYER_COUNT:25
;LAYER:0
M107
M204 S500
M205 X20 Y20
G0 F7500 X99.297 Y101.957 Z0.2
;TYPE:SKIRT
G1 F1500 E0
G1 X99.992 Y101.286 E0.03856
G1 X100.74 Y100.674 E0.07713
G1 X101.537 Y100.127 E0.11571
G1 X102.376 Y99.647 E0.15429
G1 X103.251 Y99.238 E0.19284
G1 X104.158 Y98.903 E0.23143
G1 X105.089 Y98.644 E0.27
G1 X106.038 Y98.463 E0.30856
G1 X107.428 Y98.341 E0.36425
G1 X108.044 Y98.324 E0.38885
G1 X108.366 Y98.32 E0.4017
G1 X126.545 Y98.32 E1.12726
G1 X126.712 Y98.321 E1.13393
G1 X127.413 Y98.331 E1.16191
G1 X128.378 Y98.385 E1.20049
G1 X129.335 Y98.518 E1.23905
G1 X130.278 Y98.73 E1.27762
G1 X131.2 Y99.02 E1.3162
G1 X132.095 Y99.384 E1.35476
G1 X132.957 Y99.821 E1.39334
G1 X133.779 Y100.328 E1.43188
G1 X134.558 Y100.902 E1.4705
G1 X135.286 Y101.537 E1.50906
G1 X135.958 Y102.231 E1.54762
G1 X136.572 Y102.978 E1.58621
G1 X137.121 Y103.773 E1.62477
G1 X137.413 Y104.261 E1.64747
G1 X137.711 Y104.788 E1.67163
G1 X137.805 Y104.957 E1.67935
G1 X138.246 Y105.768 E1.71619
G1 X138.322 Y105.911 E1.72266
G1 X138.636 Y106.508 E1.74958
G1 X139.194 Y107.737 E1.80345
G1 X139.503 Y108.537 E1.83768
G1 X139.577 Y108.733 E1.84604
G1 X139.825 Y109.411 E1.87486
G1 X139.884 Y109.574 E1.88177
G1 X140.106 Y110.21 E1.90866
G1 X140.475 Y111.503 E1.96233
G1 X140.658 Y112.319 E1.99571
G1 X140.699 Y112.509 E2.00346
G1 X140.844 Y113.21 E2.03203
G1 X140.882 Y113.401 E2.03981
G1 X141.012 Y114.087 E2.06767
G1 X141.184 Y115.395 E2.12033
G1 X141.247 Y116.241 E2.15419
G1 X141.26 Y116.45 E2.16254
G1 X141.3 Y117.159 E2.19089
G1 X141.309 Y117.33 E2.19772
G1 X141.339 Y118.049 E2.22644
G1 X141.339 Y119.028 E2.26552
G1 X141.293 Y120.119 E2.3091
G1 X141.282 Y120.331 E2.31757
G1 X141.275 Y120.449 E2.32229
G1 X141.199 Y122.955 E2.42236
G1 X141.193 Y125.441 E2.52158
G1 X141.258 Y127.925 E2.62075
G1 X141.401 Y130.532 E2.72496
G1 X141.446 Y131.234 E2.75304
G1 X141.468 Y132.2 E2.7916
G1 X141.411 Y133.164 E2.83015
G1 X141.274 Y134.121 E2.86873
G1 X141.058 Y135.063 E2.9073
G1 X140.765 Y135.984 E2.94588
G1 X140.397 Y136.878 E2.98446
G1 X139.957 Y137.738 E3.02302
G1 X139.446 Y138.559 E3.06162
G1 X138.87 Y139.335 E3.10019
G1 X138.232 Y140.06 E3.13873
G1 X137.535 Y140.73 E3.17732
G1 X136.786 Y141.341 E3.2159
G1 X135.989 Y141.887 E3.25446
G1 X135.149 Y142.366 E3.29305
G1 X134.273 Y142.773 E3.33161
G1 X133.366 Y143.107 E3.37018
G1 X132.435 Y143.365 E3.40874
G1 X131.485 Y143.544 E3.44732
G1 X130.524 Y143.645 E3.48589
G1 X129.974 Y143.667 E3.50786
G1 X129.212 Y143.679 E3.53828
G1 X129.028 Y143.68 E3.54562
G1 X105.907 Y143.68 E4.46843
G1 X105.739 Y143.679 E4.47514
G1 X105.043 Y143.669 E4.50292
G1 X104.078 Y143.615 E4.54149
G1 X103.121 Y143.482 E4.58006
G1 X102.178 Y143.269 E4.61864
G1 X101.256 Y142.98 E4.65721
G1 X100.361 Y142.615 E4.69578
G1 X99.499 Y142.178 E4.73436
G1 X98.677 Y141.671 E4.7729
G1 X97.899 Y141.098 E4.81147
G1 X97.171 Y140.462 E4.85005
G1 X96.498 Y139.768 E4.88863
G1 X95.885 Y139.021 E4.9272
G1 X95.335 Y138.226 E4.96579
G1 X94.853 Y137.388 E5.00437
G1 X94.443 Y136.514 E5.0429
G1 X94.105 Y135.608 E5.0815
G1 X93.844 Y134.677 E5.12009
G1 X93.661 Y133.728 E5.15866
G1 X93.557 Y132.768 E5.1972
G1 X93.549 Y131.341 E5.25416
G1 X93.587 Y130.658 E5.28146
G1 X93.599 Y130.471 E5.28894
G1 X93.674 Y129.432 E5.33051
G1 X93.779 Y126.966 E5.42903
G1 X93.817 Y124.437 E5.52998
G1 X93.783 Y121.916 E5.6306
G1 X93.71 Y120.028 E5.70601
G1 X93.667 Y119.155 E5.7409
G1 X93.661 Y118.151 E5.78097
G1 X93.689 Y117.389 E5.81141
G1 X93.7 Y117.16 E5.82056
G1 X93.745 Y116.363 E5.85242
G1 X93.755 Y116.204 E5.85878
G1 X93.802 Y115.534 E5.88558
G1 X93.977 Y114.18 E5.94007
G1 X94.187 Y113.07 E5.98516
G1 X94.228 Y112.862 E5.99362
G1 X94.321 Y112.415 E6.01185
G1 X94.35 Y112.278 E6.01743
G1 X94.496 Y111.616 E6.04449
G1 X94.865 Y110.31 E6.09866
G1 X95.168 Y109.435 E6.13562
G1 X95.233 Y109.251 E6.1434
G1 X95.463 Y108.621 E6.17017
G1 X95.523 Y108.461 E6.17699
G1 X95.754 Y107.856 E6.20284
G1 X96.31 Y106.62 E6.25693
G1 X96.731 Y105.813 E6.29326
G1 X96.825 Y105.637 E6.30122
G1 X97.156 Y105.028 E6.32889
G1 X97.243 Y104.871 E6.33605
G1 X97.575 Y104.282 E6.36304
G1 X98.084 Y103.46 E6.40163
G1 X98.659 Y102.684 E6.44017
G1 X99.297 Y101.957 E6.47878
G0 F7500 X99.685 Y102.246
G1 F1500 X100.37 Y101.593 E6.51655
G1 X101.107 Y101 E6.55431
G1 X101.892 Y100.471 E6.59209
G1 X102.719 Y100.011 E6.62986
G1 X103.582 Y99.622 E6.66764
G1 X104.474 Y99.307 E6.7054
G1 X105.39 Y99.068 E6.74318
G1 X106.323 Y98.908 E6.78096
G1 X107.441 Y98.821 E6.82572
G1 X108.057 Y98.804 E6.85031
G1 X108.366 Y98.8 E6.86265
G1 X126.545 Y98.8 E7.58821
G1 X126.705 Y98.801 E7.5946
G1 X127.406 Y98.811 E7.62258
G1 X128.351 Y98.865 E7.66036
G1 X129.288 Y98.998 E7.69813
G1 X130.21 Y99.209 E7.73588
G1 X131.111 Y99.498 E7.77364
G1 X131.985 Y99.862 E7.81143
G1 X132.825 Y100.298 E7.84921
G1 X133.625 Y100.804 E7.88699
G1 X134.379 Y101.375 E7.92473
G1 X135.082 Y102.008 E7.96249
G1 X135.73 Y102.698 E8.00027
G1 X136.317 Y103.441 E8.03806
G1 X136.995 Y104.497 E8.08815
G1 X137.293 Y105.024 E8.11231
G1 X137.383 Y105.187 E8.11975
G1 X137.824 Y105.998 E8.15659
G1 X137.898 Y106.134 E8.16277
G1 X138.212 Y106.731 E8.18969
G1 X138.747 Y107.91 E8.24137
G1 X139.056 Y108.71 E8.2756
G1 X139.126 Y108.898 E8.2836
G1 X139.374 Y109.576 E8.31242
G1 X139.43 Y109.732 E8.31903
G1 X139.652 Y110.368 E8.34592
G1 X140.007 Y111.608 E8.3974
G1 X140.19 Y112.424 E8.43077
G1 X140.229 Y112.606 E8.4382
G1 X140.374 Y113.307 E8.46677
G1 X140.41 Y113.491 E8.47426
G1 X140.54 Y114.177 E8.50212
G1 X140.705 Y115.43 E8.55257
G1 X140.768 Y116.276 E8.58643
G1 X140.781 Y116.477 E8.59446
G1 X140.821 Y117.186 E8.62281
G1 X140.829 Y117.35 E8.62936
G1 X140.859 Y118.069 E8.65808
G1 X140.859 Y119.008 E8.69556
G1 X140.813 Y120.099 E8.73914
G1 X140.803 Y120.302 E8.74725
G1 X140.795 Y120.439 E8.75273
G1 X140.719 Y122.94 E8.8526
G1 X140.713 Y125.453 E8.9529
G1 X140.779 Y127.963 E9.05311
G1 X140.918 Y130.508 E9.15484
G1 X140.967 Y131.265 E9.18512
G1 X140.988 Y132.211 E9.22288
G1 X140.929 Y133.155 E9.26063
G1 X140.791 Y134.091 E9.29839
G1 X140.574 Y135.013 E9.3362
G1 X140.28 Y135.912 E9.37395
G1 X139.911 Y136.784 E9.41174
G1 X139.47 Y137.621 E9.4495
G1 X138.96 Y138.418 E9.48727
G1 X138.385 Y139.169 E9.52502
G1 X137.748 Y139.869 E9.56279
G1 X137.054 Y140.513 E9.60058
G1 X136.308 Y141.096 E9.63837
G1 X135.516 Y141.614 E9.67614
G1 X134.683 Y142.063 E9.71391
G1 X133.815 Y142.44 E9.75168
G1 X132.918 Y142.742 E9.78945
G1 X131.999 Y142.968 E9.82723
G1 X131.065 Y143.115 E9.86496
G1 X129.966 Y143.187 E9.90892
G1 X129.204 Y143.199 E9.93934
G1 X129.028 Y143.2 E9.94636
G1 X105.907 Y143.2 E10.86917
G1 X105.746 Y143.199 E10.8756
G1 X105.05 Y143.189 E10.90338
G1 X104.105 Y143.135 E10.94116
G1 X103.168 Y143.002 E10.97893
G1 X102.246 Y142.79 E11.01669
G1 X101.345 Y142.502 E11.05444
G1 X100.471 Y142.138 E11.09223
G1 X99.631 Y141.701 E11.13002
G1 X98.831 Y141.196 E11.16778
G1 X98.077 Y140.624 E11.20555
G1 X97.374 Y139.991 E11.24331
G1 X96.726 Y139.301 E11.28109
G1 X96.139 Y138.558 E11.31888
G1 X95.617 Y137.769 E11.35664
G1 X95.164 Y136.939 E11.39438
G1 X94.782 Y136.073 E11.43216
G1 X94.474 Y135.178 E11.46994
G1 X94.243 Y134.26 E11.50772
G1 X94.091 Y133.326 E11.54549
G1 X94.018 Y132.382 E11.58328
G1 X94.028 Y131.368 E11.62375
G1 X94.066 Y130.685 E11.65105
G1 X94.078 Y130.506 E11.65821
G1 X94.151 Y129.487 E11.69899
G1 X94.259 Y126.959 E11.79998
G1 X94.297 Y124.438 E11.90061
G1 X94.263 Y121.932 E12.00064
G1 X94.184 Y119.886 E12.08236
G1 X94.147 Y119.131 E12.11253
G1 X94.141 Y118.169 E12.15092
G1 X94.169 Y117.407 E12.18136
G1 X94.179 Y117.187 E12.19015
G1 X94.224 Y116.39 E12.22201
G1 X94.233 Y116.237 E12.22812
G1 X94.28 Y115.567 E12.25493
G1 X94.448 Y114.269 E12.30717
G1 X94.658 Y113.159 E12.35226
G1 X94.698 Y112.96 E12.36036
G1 X94.791 Y112.513 E12.37858
G1 X94.819 Y112.382 E12.38393
G1 X94.965 Y111.72 E12.41099
G1 X95.319 Y110.467 E12.46295
G1 X95.622 Y109.592 E12.49991
G1 X95.684 Y109.416 E12.50736
G1 X95.914 Y108.786 E12.53413
G1 X95.972 Y108.632 E12.54069
G1 X96.203 Y108.027 E12.56654
G1 X96.736 Y106.842 E12.6184
G1 X97.157 Y106.035 E12.65473
G1 X97.247 Y105.867 E12.66234
G1 X97.578 Y105.258 E12.69
G1 X97.661 Y105.106 E12.69691
G1 X97.993 Y104.517 E12.7239
G1 X98.492 Y103.713 E12.76167
G1 X99.058 Y102.954 E12.79946
G1 X99.685 Y102.246 E12.8372
G0 F7500 X100.072 Y102.536
G1 F1500 X100.747 Y101.901 E12.87419
G1 X101.473 Y101.327 E12.91113
G1 X102.246 Y100.818 E12.94807
G1 X103.06 Y100.377 E12.98502
G1 X103.91 Y100.008 E13.022
G1 X104.788 Y99.714 E13.05896
G1 X105.688 Y99.497 E13.09591
G1 X106.603 Y99.359 E13.13284
G1 X107.454 Y99.301 E13.16688
G1 X108.07 Y99.284 E13.19148
G1 X108.366 Y99.28 E13.2033
G1 X126.545 Y99.28 E13.92886
G1 X126.698 Y99.281 E13.93496
G1 X127.399 Y99.291 E13.96295
G1 X128.323 Y99.344 E13.99989
G1 X129.24 Y99.477 E14.03687
G1 X130.141 Y99.688 E14.0738
G1 X131.021 Y99.977 E14.11077
G1 X131.872 Y100.34 E14.1477
G1 X132.69 Y100.775 E14.18467
G1 X133.466 Y101.279 E14.2216
G1 X134.196 Y101.848 E14.25855
G1 X134.875 Y102.479 E14.29554
G1 X135.496 Y103.165 E14.33247
G1 X136.056 Y103.902 E14.36942
G1 X136.577 Y104.733 E14.40856
G1 X136.875 Y105.26 E14.43273
G1 X136.962 Y105.416 E14.43986
G1 X137.403 Y106.227 E14.4767
G1 X137.473 Y106.358 E14.48263
G1 X137.787 Y106.955 E14.50955
G1 X138.299 Y108.083 E14.55899
G1 X138.608 Y108.883 E14.59322
G1 X138.676 Y109.062 E14.60086
G1 X138.924 Y109.74 E14.62968
G1 X138.977 Y109.89 E14.63603
G1 X139.199 Y110.526 E14.66291
G1 X139.538 Y111.713 E14.71218
G1 X139.721 Y112.529 E14.74556
G1 X139.759 Y112.704 E14.75271
G1 X139.904 Y113.405 E14.78128
G1 X139.939 Y113.58 E14.7884
G1 X140.069 Y114.266 E14.81627
G1 X140.226 Y115.466 E14.86457
G1 X140.289 Y116.312 E14.89843
G1 X140.302 Y116.504 E14.90611
G1 X140.342 Y117.213 E14.93445
G1 X140.35 Y117.37 E14.94073
G1 X140.38 Y118.089 E14.96945
G1 X140.379 Y118.988 E15.00533
G1 X140.333 Y120.079 E15.04891
G1 X140.323 Y120.273 E15.05667
G1 X140.316 Y120.395 E15.06155
G1 X140.239 Y122.924 E15.16253
G1 X140.233 Y125.464 E15.26391
G1 X140.299 Y127.966 E15.3638
G1 X140.439 Y130.539 E15.46665
G1 X140.488 Y131.296 E15.49692
G1 X140.507 Y132.221 E15.53385
G1 X140.447 Y133.145 E15.57081
G1 X140.308 Y134.06 E15.60775
G1 X140.09 Y134.96 E15.64471
G1 X139.795 Y135.838 E15.68167
G1 X139.425 Y136.687 E15.71864
G1 X138.984 Y137.501 E15.75559
G1 X138.474 Y138.273 E15.79252
G1 X137.899 Y138.999 E15.82948
G1 X137.264 Y139.673 E15.86644
G1 X136.573 Y140.289 E15.90339
G1 X135.832 Y140.843 E15.94031
G1 X135.045 Y141.332 E15.97729
G1 X134.219 Y141.75 E16.01424
G1 X133.36 Y142.096 E16.0512
G1 X132.475 Y142.366 E16.08813
G1 X131.569 Y142.559 E16.1251
G1 X130.65 Y142.673 E16.16206
G1 X129.959 Y142.707 E16.18968
G1 X129.197 Y142.719 E16.22009
G1 X129.028 Y142.72 E16.22684
G1 X105.907 Y142.72 E17.14965
G1 X105.753 Y142.719 E17.1558
G1 X105.057 Y142.709 E17.18358
G1 X104.133 Y142.656 E17.22052
G1 X103.216 Y142.523 E17.2575
G1 X102.315 Y142.311 E17.29444
G1 X101.435 Y142.023 E17.3314
G1 X100.584 Y141.66 E17.36832
G1 X99.766 Y141.224 E17.40532
G1 X98.99 Y140.72 E17.44225
G1 X98.26 Y140.151 E17.47919
G1 X97.582 Y139.521 E17.51613
G1 X96.96 Y138.834 E17.55312
G1 X96.4 Y138.097 E17.59006
G1 X95.906 Y137.314 E17.62701
G1 X95.482 Y136.491 E17.66396
G1 X95.13 Y135.635 E17.70091
G1 X94.853 Y134.751 E17.73788
G1 X94.653 Y133.847 E17.77483
G1 X94.532 Y132.929 E17.81179
G1 X94.491 Y132.004 E17.84874
G1 X94.508 Y131.394 E17.8731
G1 X94.546 Y130.711 E17.9004
G1 X94.556 Y130.54 E17.90724
G1 X94.633 Y129.473 E17.94994
G1 X94.739 Y126.986 E18.04929
G1 X94.777 Y124.438 E18.15099
G1 X94.743 Y121.906 E18.25206
G1 X94.666 Y119.92 E18.33139
G1 X94.626 Y119.107 E18.36387
G1 X94.62 Y118.186 E18.40063
G1 X94.648 Y117.424 E18.43107
G1 X94.658 Y117.214 E18.43946
G1 X94.703 Y116.417 E18.47132
G1 X94.712 Y116.271 E18.47716
G1 X94.759 Y115.601 E18.50396
G1 X94.92 Y114.358 E18.55399
G1 X95.13 Y113.248 E18.59908
G1 X95.168 Y113.057 E18.60685
G1 X95.261 Y112.61 E18.62507
G1 X95.288 Y112.485 E18.63018
G1 X95.434 Y111.823 E18.65723
G1 X95.772 Y110.624 E18.70695
G1 X96.075 Y109.749 E18.74391
G1 X96.135 Y109.581 E18.75103
G1 X96.365 Y108.951 E18.7778
G1 X96.42 Y108.803 E18.7841
G1 X96.651 Y108.198 E18.80995
G1 X97.162 Y107.064 E18.85959
G1 X97.583 Y106.257 E18.89592
G1 X97.668 Y106.096 E18.90319
G1 X97.999 Y105.487 E18.93085
G1 X98.079 Y105.342 E18.93746
G1 X98.411 Y104.753 E18.96445
G1 X98.9 Y103.967 E19.00139
G1 X99.455 Y103.226 E19.03834
G1 X100.072 Y102.536 E19.07529
G0 F7500 X100.459 Y102.827
G1 F1500 X101.122 Y102.211 E19.11141
G1 X101.837 Y101.656 E19.14753
G1 X102.599 Y101.167 E19.18367
G1 X103.4 Y100.747 E19.21977
G1 X104.235 Y100.399 E19.25587
G1 X105.098 Y100.126 E19.292
G1 X105.982 Y99.931 E19.32813
G1 X106.879 Y99.814 E19.36424
G1 X107.468 Y99.781 E19.38778
G1 X108.084 Y99.764 E19.41238
G1 X108.366 Y99.76 E19.42363
G1 X126.545 Y99.76 E20.1492
G1 X126.691 Y99.761 E20.15502
G1 X127.392 Y99.771 E20.183
G1 X128.295 Y99.824 E20.21911
G1 X129.191 Y99.956 E20.25525
G1 X130.07 Y100.167 E20.29133
G1 X130.928 Y100.455 E20.32746
G1 X131.758 Y100.817 E20.3636
G1 X132.551 Y101.252 E20.3997
G1 X133.304 Y101.754 E20.43582
G1 X134.009 Y102.321 E20.47193
G1 X134.661 Y102.948 E20.50803
G1 X135.256 Y103.63 E20.54415
G1 X135.788 Y104.362 E20.58027
G1 X136.16 Y104.97 E20.60872
G1 X136.458 Y105.497 E20.63288
G1 X136.54 Y105.645 E20.63963
G1 X136.981 Y106.456 E20.67648
G1 X137.048 Y106.581 E20.68214
G1 X137.362 Y107.178 E20.70906
G1 X137.851 Y108.255 E20.75627
G1 X138.16 Y109.055 E20.7905
G1 X138.225 Y109.227 E20.79784
G1 X138.473 Y109.905 E20.82665
G1 X138.524 Y110.048 E20.83271
G1 X138.746 Y110.684 E20.8596
G1 X139.07 Y111.818 E20.90667
G1 X139.253 Y112.634 E20.94005
G1 X139.289 Y112.801 E20.94686
G1 X139.434 Y113.502 E20.97544
G1 X139.467 Y113.669 E20.98223
G1 X139.597 Y114.355 E21.0101
G1 X139.748 Y115.502 E21.05627
G1 X139.811 Y116.348 E21.09013
G1 X139.823 Y116.531 E21.09745
G1 X139.863 Y117.24 E21.12579
G1 X139.87 Y117.39 E21.13179
G1 X139.9 Y118.109 E21.16051
G1 X139.9 Y118.967 E21.19475
G1 X139.854 Y120.058 E21.23833
G1 X139.844 Y120.244 E21.24577
G1 X139.835 Y120.386 E21.25145
G1 X139.759 Y122.908 E21.35215
G1 X139.753 Y125.476 E21.45465
G1 X139.819 Y127.969 E21.55418
G1 X139.962 Y130.608 E21.65967
G1 X140.009 Y131.327 E21.68842
G1 X140.027 Y132.231 E21.72451
G1 X139.966 Y133.134 E21.76063
G1 X139.825 Y134.028 E21.79676
G1 X139.606 Y134.906 E21.83287
G1 X139.31 Y135.761 E21.86899
G1 X138.939 Y136.587 E21.90513
G1 X138.498 Y137.376 E21.9412
G1 X137.988 Y138.124 E21.97733
G1 X137.414 Y138.824 E22.01347
G1 X136.781 Y139.47 E22.04956
