;FLAVOR:Marlin
M117 Time Left 0h24m14s
;TIME:1454
;Filament used: 1.45068m
;Layer height: 0.28
;MINX:74.5
;MINY:99
;MINZ:0.285
;MAXX:160.5
;MAXY:136
;MAXZ:18.765
;POSTPROCESSED
;Generated with Cura_SteamEngine 4.7.1
M140 S50
M105
M190 S50
M104 S200
M105
M109 S200
M82 ;absolute extrusion mode
; Ender 3 Custom Start G-code
G92 E0 ; Reset Extruder
G28 ; Home all axes
G1 Z2.0 F3000 ; Move Z Axis up little to prevent scratching of Heat Bed
G1 X0.1 Y20 Z0.3 F5000.0 ; Move to start position
G1 X0.1 Y200.0 Z0.3 F1500.0 E15 ; Draw the first line
G1 X0.4 Y200.0 Z0.3 F5000.0 ; Move to side a little
G1 X0.4 Y20 Z0.3 F1500.0 E30 ; Draw the second line
G92 E0 ; Reset Extruder
G1 Z2.0 F3000 ; Move Z Axis up little to prevent scratching of Heat Bed
G1 X5 Y20 Z0.3 F5000.0 ; Move over to prevent blob squish
G92 E0
G92 E0
G1 F2700 E-6
;LAYER_COUNT:67
;LAYER:0
M107
M204 S500
M205 X8 Y8
G0 F7500 X79.126 Y101.051 Z0.285
;TYPE:SKIRT
G1 F2700 E0
G1 F1500 X79.912 Y100.539 E0.04224
G1 X80.739 Y100.097 E0.08446
G1 X81.601 Y99.727 E0.12669
G1 X82.491 Y99.431 E0.16893
G1 X83.403 Y99.213 E0.21115
G1 X84.33 Y99.072 E0.25337
G1 X85.201 Y99.013 E0.29267
G1 X85.522 Y99.004 E0.30713
G1 X85.83 Y99 E0.321
G1 X148.793 Y99 E3.15597
G1 X148.951 Y99.001 E3.16308
G1 X149.649 Y99.011 E3.19451
G1 X150.585 Y99.065 E3.23673
G1 X151.513 Y99.197 E3.27893
G1 X152.427 Y99.409 E3.32118
G1 X153.319 Y99.698 E3.3634
G1 X154.184 Y100.061 E3.40563
G1 X155.014 Y100.497 E3.44785
G1 X155.805 Y101.002 E3.4901
G1 X156.549 Y101.573 E3.53233
G1 X157.242 Y102.205 E3.57456
G1 X157.879 Y102.893 E3.61678
G1 X158.454 Y103.634 E3.65901
G1 X158.965 Y104.42 E3.70122
G1 X159.407 Y105.248 E3.74348
G1 X159.776 Y106.11 E3.7857
G1 X160.071 Y107 E3.82792
G1 X160.289 Y107.912 E3.87014
G1 X160.429 Y108.84 E3.9124
G1 X160.487 Y109.701 E3.95125
G1 X160.496 Y110.021 E3.96566
G1 X160.5 Y110.33 E3.97958
G1 X160.499 Y124.4 E4.61309
G1 X160.49 Y125.127 E4.64583
G1 X160.439 Y126.064 E4.68808
G1 X160.307 Y126.992 E4.73029
G1 X160.098 Y127.906 E4.7725
G1 X159.811 Y128.799 E4.81474
G1 X159.449 Y129.665 E4.857
G1 X159.015 Y130.496 E4.89921
G1 X158.511 Y131.287 E4.94144
G1 X157.942 Y132.032 E4.98365
G1 X157.311 Y132.727 E5.02592
G1 X156.624 Y133.365 E5.06813
G1 X155.885 Y133.942 E5.11034
G1 X155.099 Y134.454 E5.15258
G1 X154.273 Y134.897 E5.19478
G1 X153.411 Y135.269 E5.23706
G1 X152.522 Y135.565 E5.27925
G1 X151.61 Y135.785 E5.32149
G1 X150.683 Y135.926 E5.36371
G1 X149.799 Y135.987 E5.4036
G1 X149.478 Y135.996 E5.41806
G1 X149.17 Y136 E5.43193
G1 X86.207 Y136 E8.2669
G1 X85.367 Y135.99 E8.30472
G1 X84.431 Y135.938 E8.34693
G1 X83.502 Y135.806 E8.38918
G1 X82.588 Y135.596 E8.43141
G1 X81.695 Y135.309 E8.47364
G1 X80.83 Y134.946 E8.51588
G1 X79.999 Y134.512 E8.55809
G1 X79.208 Y134.008 E8.60032
G1 X78.463 Y133.438 E8.64256
G1 X77.769 Y132.807 E8.68479
G1 X77.132 Y132.12 E8.72697
G1 X76.555 Y131.38 E8.76922
G1 X76.043 Y130.594 E8.81146
G1 X75.6 Y129.767 E8.8537
G1 X75.229 Y128.906 E8.89592
G1 X74.933 Y128.016 E8.93815
G1 X74.714 Y127.104 E8.98038
G1 X74.573 Y126.177 E9.0226
G1 X74.513 Y125.288 E9.06272
G1 X74.504 Y124.955 E9.07772
G1 X74.5 Y124.658 E9.09109
G1 X74.501 Y110.525 E9.72744
G1 X74.51 Y109.86 E9.75739
G1 X74.563 Y108.924 E9.7996
G1 X74.695 Y107.995 E9.84185
G1 X74.906 Y107.081 E9.88408
G1 X75.194 Y106.189 E9.92629
G1 X75.557 Y105.324 E9.96853
G1 X75.992 Y104.493 E10.01076
G1 X76.496 Y103.703 E10.05295
G1 X77.066 Y102.958 E10.09519
G1 X77.698 Y102.264 E10.13745
G1 X78.386 Y101.627 E10.17967
G1 X79.126 Y101.051 E10.22189
G0 F7500 X79.51 Y101.27
G1 F1500 X80.291 Y100.782 E10.26336
G1 X81.111 Y100.364 E10.3048
G1 X81.965 Y100.019 E10.34627
G1 X82.845 Y99.749 E10.38772
G1 X83.745 Y99.557 E10.42915
G1 X84.659 Y99.443 E10.47062
G1 X85.212 Y99.413 E10.49556
G1 X85.533 Y99.404 E10.51002
G1 X85.83 Y99.4 E10.52339
G1 X148.793 Y99.4 E13.35836
G1 X149.643 Y99.411 E13.39663
G1 X150.562 Y99.464 E13.43808
G1 X151.473 Y99.597 E13.47953
G1 X152.369 Y99.808 E13.52098
G1 X153.243 Y100.096 E13.56242
G1 X154.09 Y100.459 E13.60391
G1 X154.901 Y100.894 E13.64534
G1 X155.671 Y101.398 E13.68678
G1 X156.395 Y101.967 E13.72824
G1 X157.067 Y102.597 E13.76972
G1 X157.682 Y103.282 E13.81117
G1 X158.235 Y104.018 E13.85262
G1 X158.722 Y104.799 E13.89406
G1 X159.139 Y105.62 E13.93552
G1 X159.484 Y106.474 E13.97699
G1 X159.753 Y107.354 E14.01842
G1 X159.945 Y108.255 E14.0599
G1 X160.058 Y109.168 E14.10133
G1 X160.087 Y109.712 E14.12585
G1 X160.096 Y110.032 E14.14027
G1 X160.1 Y110.33 E14.15369
G1 X160.099 Y124.395 E14.78698
G1 X160.09 Y125.122 E14.81971
G1 X160.039 Y126.041 E14.86116
G1 X159.908 Y126.953 E14.90264
G1 X159.698 Y127.849 E14.94408
G1 X159.412 Y128.724 E14.98553
G1 X159.051 Y129.571 E15.02698
G1 X158.617 Y130.383 E15.06844
G1 X158.115 Y131.155 E15.1099
G1 X157.547 Y131.88 E15.15137
G1 X156.919 Y132.553 E15.19282
G1 X156.235 Y133.169 E15.23426
G1 X155.5 Y133.723 E15.2757
G1 X154.72 Y134.212 E15.31716
G1 X153.9 Y134.631 E15.35862
G1 X153.047 Y134.977 E15.40006
G1 X152.167 Y135.248 E15.44152
G1 X151.267 Y135.441 E15.48297
G1 X150.353 Y135.556 E15.52445
G1 X149.788 Y135.587 E15.54992
G1 X149.467 Y135.596 E15.56438
G1 X149.17 Y135.6 E15.57776
G1 X86.207 Y135.6 E18.41272
G1 X85.372 Y135.59 E18.45032
G1 X84.453 Y135.538 E18.49177
G1 X83.542 Y135.407 E18.53321
G1 X82.646 Y135.197 E18.57464
G1 X81.771 Y134.91 E18.61611
G1 X80.924 Y134.548 E18.65758
G1 X80.112 Y134.114 E18.69904
G1 X79.341 Y133.612 E18.74046
G1 X78.616 Y133.044 E18.78193
G1 X77.943 Y132.415 E18.82341
G1 X77.328 Y131.731 E18.86482
G1 X76.774 Y130.996 E18.90627
G1 X76.286 Y130.215 E18.94773
G1 X75.867 Y129.395 E18.98919
G1 X75.521 Y128.542 E19.03064
G1 X75.251 Y127.662 E19.07209
G1 X75.058 Y126.761 E19.11357
G1 X74.944 Y125.848 E19.155
G1 X74.913 Y125.277 E19.18075
G1 X74.904 Y124.944 E19.19575
G1 X74.9 Y124.658 E19.20863
G1 X74.901 Y110.531 E19.84471
G1 X74.91 Y109.866 E19.87465
G1 X74.962 Y108.946 E19.91614
G1 X75.094 Y108.035 E19.95759
G1 X75.305 Y107.139 E19.99904
G1 X75.592 Y106.264 E20.0405
G1 X75.955 Y105.418 E20.08195
G1 X76.389 Y104.606 E20.12341
G1 X76.892 Y103.835 E20.16486
G1 X77.461 Y103.111 E20.20632
G1 X78.089 Y102.439 E20.24773
G1 X78.774 Y101.823 E20.28921
G1 X79.51 Y101.27 E20.33066
G0 F7500 X79.894 Y101.494
G1 F1500 X80.669 Y101.031 E20.37131
G1 X81.482 Y100.638 E20.41197
G1 X82.327 Y100.318 E20.45265
G1 X83.196 Y100.075 E20.49328
G1 X84.084 Y99.909 E20.53395
G1 X85.223 Y99.813 E20.58542
G1 X85.544 Y99.804 E20.59988
G1 X85.83 Y99.8 E20.61276
G1 X148.793 Y99.8 E23.44773
G1 X149.637 Y99.811 E23.48573
G1 X150.539 Y99.864 E23.52641
G1 X151.432 Y99.996 E23.56706
G1 X152.31 Y100.207 E23.60772
G1 X153.166 Y100.495 E23.64838
G1 X153.993 Y100.857 E23.68903
G1 X154.785 Y101.292 E23.72971
G1 X155.536 Y101.794 E23.77039
G1 X156.239 Y102.361 E23.81105
G1 X156.889 Y102.988 E23.85172
G1 X157.481 Y103.67 E23.89238
G1 X158.011 Y104.401 E23.93304
G1 X158.473 Y105.177 E23.9737
G1 X158.866 Y105.99 E24.01436
G1 X159.184 Y106.835 E24.05501
G1 X159.427 Y107.705 E24.09568
G1 X159.592 Y108.593 E24.13635
G1 X159.687 Y109.723 E24.18741
G1 X159.696 Y110.043 E24.20182
G1 X159.7 Y110.33 E24.21475
G1 X159.699 Y124.39 E24.84781
G1 X159.69 Y125.117 E24.88055
G1 X159.639 Y126.019 E24.92122
G1 X159.508 Y126.913 E24.96191
G1 X159.299 Y127.791 E25.00254
G1 X159.013 Y128.648 E25.04322
G1 X158.652 Y129.476 E25.08389
G1 X158.22 Y130.268 E25.12451
G1 X157.719 Y131.02 E25.1652
G1 X157.153 Y131.724 E25.20587
G1 X156.528 Y132.375 E25.24651
G1 X155.847 Y132.969 E25.28719
G1 X155.116 Y133.5 E25.32788
G1 X154.342 Y133.964 E25.36851
G1 X153.529 Y134.358 E25.40919
G1 X152.685 Y134.678 E25.44983
G1 X151.815 Y134.923 E25.49052
G1 X150.928 Y135.089 E25.53116
G1 X149.777 Y135.187 E25.58317
G1 X149.456 Y135.196 E25.59763
G1 X149.17 Y135.2 E25.61051
G1 X86.207 Y135.2 E28.44547
G1 X85.377 Y135.19 E28.48285
G1 X84.476 Y135.139 E28.52348
G1 X83.582 Y135.007 E28.56417
G1 X82.704 Y134.798 E28.60481
G1 X81.847 Y134.511 E28.6455
G1 X81.02 Y134.15 E28.68613
G1 X80.227 Y133.717 E28.72681
G1 X79.476 Y133.216 E28.76746
G1 X78.772 Y132.65 E28.80813
G1 X78.121 Y132.024 E28.8488
G1 X77.528 Y131.343 E28.88946
G1 X76.998 Y130.612 E28.93011
G1 X76.534 Y129.837 E28.97078
G1 X76.14 Y129.024 E29.01146
G1 X75.82 Y128.18 E29.0521
G1 X75.576 Y127.31 E29.09278
G1 X75.41 Y126.422 E29.13346
G1 X75.313 Y125.267 E29.18565
G1 X75.304 Y124.934 E29.20065
G1 X75.3 Y124.658 E29.21308
G1 X75.301 Y110.536 E29.84893
G1 X75.31 Y109.871 E29.87888
G1 X75.362 Y108.969 E29.91956
G1 X75.494 Y108.076 E29.9602
G1 X75.704 Y107.198 E30.00085
G1 X75.991 Y106.341 E30.04154
G1 X76.353 Y105.514 E30.08219
G1 X76.786 Y104.722 E30.12283
G1 X77.288 Y103.971 E30.16351
G1 X77.855 Y103.267 E30.20421
G1 X78.481 Y102.617 E30.24484
G1 X79.162 Y102.024 E30.2855
G1 X79.894 Y101.494 E30.32619
G1 F2700 E24.32619
;MESH:soporte_2_cables.stl
G0 F7500 X143.547 Y117.266
G0 X142.125 Y116.914
G0 X142.311 Y116.961
;TYPE:WALL-INNER
G1 F2700 E30.32619
G1 F1800 X142.246 Y117.5 E30.35063
G1 X142.311 Y118.039 E30.37508
G1 X142.504 Y118.548 E30.39959
G1 X142.812 Y118.995 E30.42403
G1 X143.22 Y119.356 E30.44856
G1 X143.702 Y119.609 E30.47307
G1 X144.226 Y119.738 E30.49737
G1 X144.771 Y119.738 E30.52191
G1 X145.146 Y119.647 E30.53928
G1 X145.303 Y119.607 E30.54658
G1 X145.78 Y119.356 E30.57085
G1 X146.188 Y118.995 E30.59538
G1 X146.496 Y118.548 E30.61982
G1 X146.689 Y118.039 E30.64433
G1 X146.754 Y117.5 E30.66877
G1 X146.689 Y116.961 E30.69322
G1 X146.496 Y116.452 E30.71773
G1 X146.188 Y116.005 E30.74217
G1 X145.78 Y115.644 E30.7667
G1 X145.298 Y115.391 E30.79121
G1 X144.774 Y115.262 E30.81551
G1 X144.229 Y115.262 E30.84005
G1 X143.854 Y115.353 E30.85742
G1 X143.697 Y115.393 E30.86472
G1 X143.22 Y115.644 E30.88899
G1 X142.812 Y116.005 E30.91352
G1 X142.504 Y116.452 E30.93796
G1 X142.311 Y116.961 E30.96247
G0 F7500 X142.702 Y117.057
;TYPE:WALL-OUTER
G1 F1800 X142.649 Y117.5 E30.98155
G1 X142.702 Y117.943 E31.00064
G1 X142.861 Y118.361 E31.01977
G1 X143.114 Y118.728 E31.03883
G1 X143.449 Y119.024 E31.05795
G1 X143.844 Y119.232 E31.07705
G1 X144.166 Y119.31 E31.09122
G1 X144.276 Y119.338 E31.09608
G1 X144.723 Y119.338 E31.1152
G1 X145.049 Y119.259 E31.12955
G1 X145.158 Y119.231 E31.13436
G1 X145.551 Y119.024 E31.15336
G1 X145.886 Y118.728 E31.17248
G1 X146.139 Y118.361 E31.19155
G1 X146.298 Y117.943 E31.21068
G1 X146.351 Y117.5 E31.22976
G1 X146.298 Y117.057 E31.24885
G1 X146.139 Y116.639 E31.26798
G1 X145.886 Y116.272 E31.28704
G1 X145.551 Y115.976 E31.30616
G1 X145.156 Y115.768 E31.32526
G1 X144.834 Y115.69 E31.33943
G1 X144.724 Y115.662 E31.34429
G1 X144.277 Y115.662 E31.36341
G1 X143.951 Y115.741 E31.37776
G1 X143.842 Y115.769 E31.38257
G1 X143.449 Y115.976 E31.40157
G1 X143.114 Y116.272 E31.42069
G1 X142.861 Y116.639 E31.43976
G1 X142.702 Y117.057 E31.45889
G0 F7500 X142.655 Y117.454
G0 X142.218 Y117.401
G1 F2700 E25.45889
G0 F7500 X142.054 Y117.5
G0 X143.519 Y117.5
G0 X91.369 Y117.043
G0 X92.666 Y116.363
G0 X91.241 Y115.542
G0 X90.753 Y115.423
G0 X90.469 Y115.423
G0 X89.22 Y115.644
;TYPE:WALL-INNER
G1 F2700 E31.45889
G1 F1800 X88.812 Y116.005 E31.48342
G1 X88.504 Y116.452 E31.50786
G1 X88.311 Y116.961 E31.53237
G1 X88.246 Y117.5 E31.55681
G1 X88.311 Y118.039 E31.58126
G1 X88.504 Y118.548 E31.60577
G1 X88.812 Y118.995 E31.63021
G1 X89.22 Y119.356 E31.65474
G1 X89.702 Y119.609 E31.67925
G1 X90.226 Y119.738 E31.70355
G1 X90.771 Y119.738 E31.72809
G1 X91.146 Y119.647 E31.74546
G1 X91.303 Y119.607 E31.75276
G1 X91.78 Y119.356 E31.77703
G1 X92.188 Y118.995 E31.80156
G1 X92.496 Y118.548 E31.826
G1 X92.689 Y118.039 E31.85051
G1 X92.754 Y117.5 E31.87495
G1 X92.689 Y116.961 E31.8994
G1 X92.496 Y116.452 E31.92391
G1 X92.188 Y116.005 E31.94835
G1 X91.78 Y115.644 E31.97288
G1 X91.298 Y115.391 E31.99739
G1 X90.774 Y115.262 E32.02169
G1 X90.229 Y115.262 E32.04623
G1 X89.854 Y115.353 E32.0636
G1 X89.697 Y115.393 E32.0709
G1 X89.22 Y115.644 E32.09516
G0 F7500 X89.449 Y115.976
;TYPE:WALL-OUTER
G1 F1800 X89.114 Y116.272 E32.11429
G1 X88.861 Y116.639 E32.13335
G1 X88.702 Y117.057 E32.15248
G1 X88.649 Y117.5 E32.17157
G1 X88.702 Y117.943 E32.19065
G1 X88.861 Y118.361 E32.20978
G1 X89.114 Y118.728 E32.22885
G1 X89.449 Y119.024 E32.24797
G1 X89.844 Y119.232 E32.26707
G1 X90.166 Y119.31 E32.28124
G1 X90.276 Y119.338 E32.28609
G1 X90.723 Y119.338 E32.30521
G1 X91.049 Y119.259 E32.31956
G1 X91.158 Y119.231 E32.32437
G1 X91.551 Y119.024 E32.34337
G1 X91.886 Y118.728 E32.3625
G1 X92.139 Y118.361 E32.38156
G1 X92.298 Y117.943 E32.40069
G1 X92.351 Y117.5 E32.41978
G1 X92.298 Y117.057 E32.43886
G1 X92.139 Y116.639 E32.45799
G1 X91.886 Y116.272 E32.47706
G1 X91.551 Y115.976 E32.49618
G1 X91.156 Y115.768 E32.51528
G1 X90.834 Y115.69 E32.52945
G1 X90.724 Y115.662 E32.5343
G1 X90.277 Y115.662 E32.55342
G1 X89.951 Y115.741 E32.56777
G1 X89.842 Y115.769 E32.57258
G1 X89.449 Y115.976 E32.59158
G0 F7500 X89.15 Y116.24
G0 X88.86 Y115.911
G1 F2700 E26.59158
G0 F7500 X89.111 Y115.486
G0 X86.31 Y115.486
G0 X86.1 Y110.6
;TYPE:WALL-INNER
G1 F2700 E32.59158
G1 F1800 X148.9 Y110.6 E35.41921
G1 X148.9 Y124.4 E36.04057
G1 X86.1 Y124.4 E38.8682
G1 X86.1 Y110.6 E39.48955
G0 F7500 X85.7 Y110.2
;TYPE:WALL-OUTER
G1 F1800 X149.3 Y110.2 E42.21002
G1 X149.3 Y124.8 E42.83453
G1 X85.7 Y124.8 E45.55499
G1 X85.7 Y110.2 E46.1795
G0 F7500 X86.1 Y110.2
G0 X86.14 Y110.64
G0 X86.49 Y110.99
;TYPE:SKIN
G1 F1800 X148.51 Y110.99 E48.97201
G1 X148.51 Y124.01 E49.55825
G1 X86.49 Y124.01 E52.35075
G1 X86.49 Y110.99 E52.93699
G1 F2700 E46.93699
G0 F7500 X86.49 Y110.71
G0 X89.156 Y110.81
G0 X89.156 Y109.335
G0 X90.155 Y116.581
G0 X89.628 Y115.214
G0 X89.156 Y115.553
G0 X88.997 Y115.32
G1 F2700 E52.93699
G1 F1800 X88.518 Y115.744 E52.96579
G1 X88.157 Y116.269 E52.99448
G1 X87.929 Y116.867 E53.0233
G1 X87.854 Y117.5 E53.052
G1 X87.929 Y118.133 E53.0807
G1 X88.157 Y118.731 E53.10952
G1 X88.518 Y119.256 E53.1382
G1 X88.997 Y119.68 E53.16701
G1 X89.563 Y119.976 E53.19577
G1 X90.179 Y120.128 E53.22433
G1 X90.818 Y120.128 E53.25311
G1 X91.444 Y119.974 E53.28213
G1 X92.003 Y119.68 E53.31057
G1 X92.482 Y119.256 E53.33937
G1 X92.843 Y118.731 E53.36806
G1 X93.071 Y118.133 E53.39688
G1 X93.146 Y117.5 E53.42558
G1 X93.071 Y116.867 E53.45428
G1 X92.843 Y116.269 E53.48309
G1 X92.482 Y115.744 E53.51178
G1 X92.003 Y115.32 E53.54059
G1 X91.437 Y115.024 E53.56935
G1 X90.821 Y114.872 E53.59791
G1 X90.182 Y114.872 E53.62668
G1 X89.556 Y115.026 E53.65571
G1 X88.997 Y115.32 E53.68415
G1 F2700 E47.68415
G0 F7500 X89.156 Y115.553
G0 X90.249 Y115.423
G0 X90.892 Y115.458
G0 X91.174 Y115.525
G0 X92.666 Y116.363
G0 X91.369 Y117.043
G0 X143.519 Y117.5
G0 X142.054 Y117.5
G0 X142.135 Y117.501
G0 X141.854 Y117.5
G1 F2700 E53.68415
G1 F1800 X141.929 Y118.133 E53.71285
G1 X142.157 Y118.731 E53.74167
G1 X142.518 Y119.256 E53.77035
G1 X142.997 Y119.68 E53.79916
G1 X143.563 Y119.976 E53.82792
G1 X144.179 Y120.128 E53.85648
G1 X144.818 Y120.128 E53.88526
G1 X145.444 Y119.974 E53.91428
G1 X146.003 Y119.68 E53.94272
G1 X146.482 Y119.256 E53.97152
G1 X146.843 Y118.731 E54.00021
G1 X147.071 Y118.133 E54.02903
G1 X147.146 Y117.5 E54.05773
G1 X147.071 Y116.867 E54.08643
G1 X146.843 Y116.269 E54.11525
G1 X146.482 Y115.744 E54.14393
G1 X146.003 Y115.32 E54.17274
G1 X145.437 Y115.024 E54.2015
G1 X144.821 Y114.872 E54.23006
G1 X144.182 Y114.872 E54.25883
G1 X143.556 Y115.026 E54.28786
G1 X142.997 Y115.32 E54.3163
G1 X142.518 Y115.744 E54.3451
G1 X142.157 Y116.269 E54.37379
G1 X141.929 Y116.867 E54.40261
G1 X141.854 Y117.5 E54.43131
G1 F2700 E48.43131
G0 F7500 X142.135 Y117.501
G0 X142.648 Y116.527
G0 X142.934 Y116.112
G0 X143.313 Y115.778
G0 X143.894 Y115.509
G0 X144.181 Y115.44
G0 X145.889 Y115.486
G0 X148.69 Y115.486
G0 X148.79 Y111.58
G0 X148.349 Y111.58
G1 F2700 E54.43131
G1 F1800 X147.919 Y111.15 E54.45869
G0 F7500 X147.353 Y111.15
G1 F1800 X148.349 Y112.145 E54.52208
G0 F7500 X148.349 Y112.711
G1 F1800 X146.788 Y111.15 E54.62148
G0 F7500 X146.222 Y111.15
G1 F1800 X148.349 Y113.277 E54.75692
G0 F7500 X148.349 Y113.842
G1 F1800 X145.656 Y111.15 E54.92836
G0 F7500 X145.091 Y111.15
G1 F1800 X148.349 Y114.408 E55.13582
G0 F7500 X148.349 Y114.974
