;FLAVOR:Marlin
M117 Time Left 1h03m21s
;TIME:3801
;Filament used: 4.07737m
;Layer height: 0.28
;MINX:26.5
;MINY:99
;MINZ:0.285
;MAXX:208.5
;MAXY:136
;MAXZ:18.765
;POSTPROCESSED
;Generated with Cura_SteamEngine 4.7.1
M140 S50
M105
M190 S50
M104 S200
M105
M109 S200
M82 ;absolute extrusion mode
; Ender 3 Custom Start G-code
G92 E0 ; Reset Extruder
G28 ; Home all axes
G1 Z2.0 F3000 ; Move Z Axis up little to prevent scratching of Heat Bed
G1 X0.1 Y20 Z0.3 F5000.0 ; Move to start position
G1 X0.1 Y200.0 Z0.3 F1500.0 E15 ; Draw the first line
G1 X0.4 Y200.0 Z0.3 F5000.0 ; Move to side a little
G1 X0.4 Y20 Z0.3 F1500.0 E30 ; Draw the second line
G92 E0 ; Reset Extruder
G1 Z2.0 F3000 ; Move Z Axis up little to prevent scratching of Heat Bed
G1 X5 Y20 Z0.3 F5000.0 ; Move over to prevent blob squish
G92 E0
G92 E0
G1 F2700 E-6
;LAYER_COUNT:67
;LAYER:0
M107
M204 S500
M205 X8 Y8
G0 F7500 X33.601 Y99.727 Z0.285
;TYPE:SKIRT
G1 F2700 E0
G1 F1500 X34.491 Y99.431 E0.04223
G1 X35.403 Y99.213 E0.08445
G1 X36.33 Y99.072 E0.12667
G1 X37.201 Y99.013 E0.16598
G1 X37.522 Y99.004 E0.18044
G1 X37.83 Y99 E0.19431
G1 X196.793 Y99 E7.35176
G1 X196.951 Y99.001 E7.35887
G1 X197.649 Y99.011 E7.39031
G1 X198.585 Y99.065 E7.43252
G1 X199.513 Y99.197 E7.47472
G1 X200.427 Y99.409 E7.51697
G1 X201.319 Y99.698 E7.55919
G1 X202.184 Y100.061 E7.60143
G1 X203.014 Y100.497 E7.64364
G1 X203.805 Y101.002 E7.6859
G1 X204.549 Y101.573 E7.72812
G1 X205.242 Y102.205 E7.77035
G1 X205.879 Y102.893 E7.81257
G1 X206.454 Y103.634 E7.8548
G1 X206.965 Y104.42 E7.89701
G1 X207.407 Y105.248 E7.93927
G1 X207.776 Y106.11 E7.98149
G1 X208.071 Y107 E8.02371
G1 X208.289 Y107.912 E8.06593
G1 X208.429 Y108.84 E8.10819
G1 X208.487 Y109.701 E8.14704
G1 X208.496 Y110.021 E8.16146
G1 X208.5 Y110.33 E8.17537
G1 X208.499 Y124.4 E8.80889
G1 X208.49 Y125.127 E8.84162
G1 X208.439 Y126.064 E8.88387
G1 X208.307 Y126.992 E8.92608
G1 X208.098 Y127.906 E8.96829
G1 X207.811 Y128.799 E9.01053
G1 X207.449 Y129.665 E9.05279
G1 X207.015 Y130.496 E9.095
G1 X206.511 Y131.287 E9.13723
G1 X205.942 Y132.032 E9.17944
G1 X205.311 Y132.727 E9.22171
G1 X204.624 Y133.365 E9.26392
G1 X203.885 Y133.942 E9.30614
G1 X203.099 Y134.454 E9.34837
G1 X202.273 Y134.897 E9.39058
G1 X201.411 Y135.269 E9.43285
G1 X200.522 Y135.565 E9.47504
G1 X199.61 Y135.785 E9.51728
G1 X198.683 Y135.926 E9.5595
G1 X197.799 Y135.987 E9.5994
G1 X197.478 Y135.996 E9.61385
G1 X197.17 Y136 E9.62772
G1 X38.207 Y136 E16.78518
G1 X37.367 Y135.99 E16.823
G1 X36.431 Y135.938 E16.86521
G1 X35.502 Y135.806 E16.90746
G1 X34.588 Y135.596 E16.94969
G1 X33.695 Y135.309 E16.99192
G1 X32.83 Y134.946 E17.03416
G1 X31.999 Y134.512 E17.07637
G1 X31.208 Y134.008 E17.1186
G1 X30.463 Y133.438 E17.16084
G1 X29.769 Y132.807 E17.20307
G1 X29.132 Y132.12 E17.24525
G1 X28.555 Y131.38 E17.2875
G1 X28.043 Y130.594 E17.32974
G1 X27.6 Y129.767 E17.37198
G1 X27.229 Y128.906 E17.4142
G1 X26.933 Y128.016 E17.45643
G1 X26.714 Y127.104 E17.49866
G1 X26.573 Y126.177 E17.54088
G1 X26.513 Y125.288 E17.581
G1 X26.504 Y124.955 E17.596
G1 X26.5 Y124.658 E17.60937
G1 X26.501 Y110.525 E18.24572
G1 X26.51 Y109.86 E18.27567
G1 X26.563 Y108.924 E18.31788
G1 X26.695 Y107.995 E18.36013
G1 X26.906 Y107.081 E18.40236
G1 X27.194 Y106.189 E18.44457
G1 X27.557 Y105.324 E18.48681
G1 X27.992 Y104.493 E18.52904
G1 X28.496 Y103.703 E18.57123
G1 X29.066 Y102.958 E18.61347
G1 X29.698 Y102.264 E18.65573
G1 X30.386 Y101.627 E18.69795
G1 X31.126 Y101.051 E18.74017
G1 X31.912 Y100.539 E18.78241
G1 X32.739 Y100.097 E18.82463
G1 X33.601 Y99.727 E18.86687
G0 F7500 X33.965 Y100.019
G1 F1500 X34.845 Y99.749 E18.90831
G1 X35.745 Y99.557 E18.94975
G1 X36.659 Y99.443 E18.99122
G1 X37.212 Y99.413 E19.01615
G1 X37.533 Y99.404 E19.03061
G1 X37.83 Y99.4 E19.04399
G1 X196.793 Y99.4 E26.20144
G1 X197.643 Y99.411 E26.23972
G1 X198.562 Y99.464 E26.28116
G1 X199.473 Y99.597 E26.32262
G1 X200.369 Y99.808 E26.36406
G1 X201.243 Y100.096 E26.4055
G1 X202.09 Y100.459 E26.44699
G1 X202.901 Y100.894 E26.48843
G1 X203.671 Y101.398 E26.52986
G1 X204.395 Y101.967 E26.57133
G1 X205.067 Y102.597 E26.6128
G1 X205.682 Y103.282 E26.65425
G1 X206.235 Y104.018 E26.6957
G1 X206.722 Y104.799 E26.73714
G1 X207.139 Y105.62 E26.7786
G1 X207.484 Y106.474 E26.82007
G1 X207.753 Y107.354 E26.86151
G1 X207.945 Y108.255 E26.90299
G1 X208.058 Y109.168 E26.94441
G1 X208.087 Y109.712 E26.96894
G1 X208.096 Y110.032 E26.98335
G1 X208.1 Y110.33 E26.99677
G1 X208.099 Y124.395 E27.63006
G1 X208.09 Y125.122 E27.6628
G1 X208.039 Y126.041 E27.70424
G1 X207.908 Y126.953 E27.74572
G1 X207.698 Y127.849 E27.78716
G1 X207.412 Y128.724 E27.82861
G1 X207.051 Y129.571 E27.87007
G1 X206.617 Y130.383 E27.91152
G1 X206.115 Y131.155 E27.95298
G1 X205.547 Y131.88 E27.99445
G1 X204.919 Y132.553 E28.0359
G1 X204.235 Y133.169 E28.07735
G1 X203.5 Y133.723 E28.11879
G1 X202.72 Y134.212 E28.16024
G1 X201.9 Y134.631 E28.2017
G1 X201.047 Y134.977 E28.24315
G1 X200.167 Y135.248 E28.28461
G1 X199.267 Y135.441 E28.32605
G1 X198.353 Y135.556 E28.36753
G1 X197.788 Y135.587 E28.39301
G1 X197.467 Y135.596 E28.40747
G1 X197.17 Y135.6 E28.42084
G1 X38.207 Y135.6 E35.57829
G1 X37.372 Y135.59 E35.61589
G1 X36.453 Y135.538 E35.65734
G1 X35.542 Y135.407 E35.69878
G1 X34.646 Y135.197 E35.74021
G1 X33.771 Y134.91 E35.78168
G1 X32.924 Y134.548 E35.82315
G1 X32.112 Y134.114 E35.86461
G1 X31.341 Y133.612 E35.90603
G1 X30.616 Y133.044 E35.9475
G1 X29.943 Y132.415 E35.98898
G1 X29.328 Y131.731 E36.03039
G1 X28.774 Y130.996 E36.07184
G1 X28.286 Y130.215 E36.1133
G1 X27.867 Y129.395 E36.15476
G1 X27.521 Y128.542 E36.19621
G1 X27.251 Y127.662 E36.23766
G1 X27.058 Y126.761 E36.27914
G1 X26.944 Y125.848 E36.32057
G1 X26.913 Y125.277 E36.34632
G1 X26.904 Y124.944 E36.36132
G1 X26.9 Y124.658 E36.3742
G1 X26.901 Y110.531 E37.01028
G1 X26.91 Y109.866 E37.04022
G1 X26.962 Y108.946 E37.08171
G1 X27.094 Y108.035 E37.12316
G1 X27.305 Y107.139 E37.16461
G1 X27.592 Y106.264 E37.20607
G1 X27.955 Y105.418 E37.24752
G1 X28.389 Y104.606 E37.28898
G1 X28.892 Y103.835 E37.33043
G1 X29.461 Y103.111 E37.37189
G1 X30.089 Y102.439 E37.4133
G1 X30.774 Y101.823 E37.45478
G1 X31.51 Y101.27 E37.49623
G1 X32.291 Y100.782 E37.5377
G1 X33.111 Y100.364 E37.57914
G1 X33.965 Y100.019 E37.62061
G0 F7500 X33.482 Y100.638
G1 F1500 X34.327 Y100.318 E37.66129
G1 X35.196 Y100.075 E37.70192
G1 X36.084 Y99.909 E37.7426
G1 X37.223 Y99.813 E37.79406
G1 X37.544 Y99.804 E37.80852
G1 X37.83 Y99.8 E37.8214
G1 X196.793 Y99.8 E44.97885
G1 X197.637 Y99.811 E45.01686
G1 X198.539 Y99.864 E45.05754
G1 X199.432 Y99.996 E45.09819
G1 X200.31 Y100.207 E45.13885
G1 X201.166 Y100.495 E45.17951
G1 X201.993 Y100.857 E45.22016
G1 X202.785 Y101.292 E45.26084
G1 X203.536 Y101.794 E45.30152
G1 X204.239 Y102.361 E45.34218
G1 X204.889 Y102.988 E45.38285
G1 X205.481 Y103.67 E45.42351
G1 X206.011 Y104.401 E45.46416
G1 X206.473 Y105.177 E45.50483
G1 X206.866 Y105.99 E45.54549
G1 X207.184 Y106.835 E45.58614
G1 X207.427 Y107.705 E45.62681
G1 X207.592 Y108.593 E45.66748
G1 X207.687 Y109.723 E45.71854
G1 X207.696 Y110.043 E45.73295
G1 X207.7 Y110.33 E45.74587
G1 X207.699 Y124.39 E46.37894
G1 X207.69 Y125.117 E46.41167
G1 X207.639 Y126.019 E46.45235
G1 X207.508 Y126.913 E46.49304
G1 X207.299 Y127.791 E46.53367
G1 X207.013 Y128.648 E46.57435
G1 X206.652 Y129.476 E46.61502
G1 X206.22 Y130.268 E46.65564
G1 X205.719 Y131.02 E46.69633
G1 X205.153 Y131.724 E46.737
G1 X204.528 Y132.375 E46.77764
G1 X203.847 Y132.969 E46.81832
G1 X203.116 Y133.5 E46.859
G1 X202.342 Y133.964 E46.89964
G1 X201.529 Y134.358 E46.94032
G1 X200.685 Y134.678 E46.98096
G1 X199.815 Y134.923 E47.02165
G1 X198.928 Y135.089 E47.06228
G1 X197.777 Y135.187 E47.1143
G1 X197.456 Y135.196 E47.12876
G1 X197.17 Y135.2 E47.14163
G1 X38.207 Y135.2 E54.29909
G1 X37.377 Y135.19 E54.33646
G1 X36.476 Y135.139 E54.3771
G1 X35.582 Y135.007 E54.41779
G1 X34.704 Y134.798 E54.45842
G1 X33.847 Y134.511 E54.49912
G1 X33.02 Y134.15 E54.53975
G1 X32.227 Y133.717 E54.58043
G1 X31.476 Y133.216 E54.62108
G1 X30.772 Y132.65 E54.66175
G1 X30.121 Y132.024 E54.70241
G1 X29.528 Y131.343 E54.74307
G1 X28.998 Y130.612 E54.78373
G1 X28.534 Y129.837 E54.8244
G1 X28.14 Y129.024 E54.86508
G1 X27.82 Y128.18 E54.90572
G1 X27.576 Y127.31 E54.9464
G1 X27.41 Y126.422 E54.98708
G1 X27.313 Y125.267 E55.03926
G1 X27.304 Y124.934 E55.05426
G1 X27.3 Y124.658 E55.06669
G1 X27.301 Y110.536 E55.70255
G1 X27.31 Y109.871 E55.73249
G1 X27.362 Y108.969 E55.77317
G1 X27.494 Y108.076 E55.81382
G1 X27.704 Y107.198 E55.85447
G1 X27.991 Y106.341 E55.89516
G1 X28.353 Y105.514 E55.93581
G1 X28.786 Y104.722 E55.97645
G1 X29.288 Y103.971 E56.01712
G1 X29.855 Y103.267 E56.05782
G1 X30.481 Y102.617 E56.09846
G1 X31.162 Y102.024 E56.13911
G1 X31.894 Y101.494 E56.17981
G1 X32.669 Y101.031 E56.22045
G1 X33.482 Y100.638 E56.26111
G1 F2700 E50.26111
;MESH:soporte_5_cables.stl
G0 F7500 X191.519 Y117.5
G0 X190.054 Y117.5
G0 X190.246 Y117.5
;TYPE:WALL-INNER
G1 F2700 E56.26111
G1 F1800 X190.311 Y118.039 E56.28556
G1 X190.504 Y118.548 E56.31007
G1 X190.812 Y118.995 E56.33451
G1 X191.22 Y119.356 E56.35904
G1 X191.702 Y119.609 E56.38355
G1 X192.226 Y119.738 E56.40785
G1 X192.771 Y119.738 E56.43239
G1 X193.146 Y119.647 E56.44976
G1 X193.303 Y119.607 E56.45706
G1 X193.78 Y119.356 E56.48133
G1 X194.188 Y118.995 E56.50585
G1 X194.496 Y118.548 E56.5303
G1 X194.689 Y118.039 E56.55481
G1 X194.754 Y117.5 E56.57925
G1 X194.689 Y116.961 E56.6037
G1 X194.496 Y116.452 E56.62821
G1 X194.188 Y116.005 E56.65265
G1 X193.78 Y115.644 E56.67718
G1 X193.298 Y115.391 E56.70169
G1 X192.774 Y115.262 E56.72599
G1 X192.229 Y115.262 E56.75053
G1 X191.854 Y115.353 E56.7679
G1 X191.697 Y115.393 E56.77519
G1 X191.22 Y115.644 E56.79946
G1 X190.812 Y116.005 E56.82399
G1 X190.504 Y116.452 E56.84844
G1 X190.311 Y116.961 E56.87295
G1 X190.246 Y117.5 E56.89739
G0 F7500 X190.649 Y117.5
;TYPE:WALL-OUTER
G1 F1800 X190.702 Y117.943 E56.91647
G1 X190.861 Y118.361 E56.9356
G1 X191.114 Y118.728 E56.95467
G1 X191.449 Y119.024 E56.97379
G1 X191.844 Y119.232 E56.99289
G1 X192.166 Y119.31 E57.00706
G1 X192.276 Y119.338 E57.01192
G1 X192.723 Y119.338 E57.03104
G1 X193.049 Y119.259 E57.04538
G1 X193.158 Y119.231 E57.0502
G1 X193.551 Y119.024 E57.0692
G1 X193.886 Y118.728 E57.08832
G1 X194.139 Y118.361 E57.10739
G1 X194.298 Y117.943 E57.12652
G1 X194.351 Y117.5 E57.1456
G1 X194.298 Y117.057 E57.16468
G1 X194.139 Y116.639 E57.18381
G1 X193.886 Y116.272 E57.20288
G1 X193.551 Y115.976 E57.222
G1 X193.156 Y115.768 E57.2411
G1 X192.834 Y115.69 E57.25527
G1 X192.724 Y115.662 E57.26013
G1 X192.277 Y115.662 E57.27925
G1 X191.951 Y115.741 E57.29359
G1 X191.842 Y115.769 E57.29841
G1 X191.449 Y115.976 E57.31741
G1 X191.114 Y116.272 E57.33653
G1 X190.861 Y116.639 E57.3556
G1 X190.702 Y117.057 E57.37473
G1 X190.649 Y117.5 E57.39381
G0 F7500 X190.696 Y117.897
G0 X190.259 Y117.948
G1 F2700 E51.39381
G0 F7500 X190.054 Y117.5
G0 X191.519 Y117.5
G0 X43.369 Y117.043
G0 X44.666 Y116.363
G0 X43.241 Y115.542
G0 X42.753 Y115.423
G0 X42.346 Y115.423
G0 X41.22 Y115.644
;TYPE:WALL-INNER
G1 F2700 E57.39381
G1 F1800 X40.812 Y116.005 E57.41834
G1 X40.504 Y116.452 E57.44278
G1 X40.311 Y116.961 E57.46729
G1 X40.246 Y117.5 E57.49174
G1 X40.311 Y118.039 E57.51618
G1 X40.504 Y118.548 E57.54069
G1 X40.812 Y118.995 E57.56513
G1 X41.22 Y119.356 E57.58966
G1 X41.702 Y119.609 E57.61417
G1 X42.226 Y119.738 E57.63847
G1 X42.771 Y119.738 E57.66301
G1 X43.146 Y119.647 E57.68038
G1 X43.303 Y119.607 E57.68768
G1 X43.78 Y119.356 E57.71195
G1 X44.188 Y118.995 E57.73648
G1 X44.496 Y118.548 E57.76092
G1 X44.689 Y118.039 E57.78543
G1 X44.754 Y117.5 E57.80988
G1 X44.689 Y116.961 E57.83432
G1 X44.496 Y116.452 E57.85883
G1 X44.188 Y116.005 E57.88327
G1 X43.78 Y115.644 E57.9078
G1 X43.298 Y115.391 E57.93231
G1 X42.774 Y115.262 E57.95661
G1 X42.229 Y115.262 E57.98115
G1 X41.854 Y115.353 E57.99852
G1 X41.697 Y115.393 E58.00582
G1 X41.22 Y115.644 E58.03009
G0 F7500 X41.449 Y115.976
;TYPE:WALL-OUTER
G1 F1800 X41.114 Y116.272 E58.04921
G1 X40.861 Y116.639 E58.06828
G1 X40.702 Y117.057 E58.08741
G1 X40.649 Y117.5 E58.10649
G1 X40.702 Y117.943 E58.12557
G1 X40.861 Y118.361 E58.1447
G1 X41.114 Y118.728 E58.16377
G1 X41.449 Y119.024 E58.18289
G1 X41.844 Y119.232 E58.20199
G1 X42.166 Y119.31 E58.21616
G1 X42.276 Y119.338 E58.22102
G1 X42.723 Y119.338 E58.24014
G1 X43.049 Y119.259 E58.25448
G1 X43.158 Y119.231 E58.2593
G1 X43.551 Y119.024 E58.2783
G1 X43.886 Y118.728 E58.29742
G1 X44.139 Y118.361 E58.31649
G1 X44.298 Y117.943 E58.33562
G1 X44.351 Y117.5 E58.3547
G1 X44.298 Y117.057 E58.37378
G1 X44.139 Y116.639 E58.39291
G1 X43.886 Y116.272 E58.41198
G1 X43.551 Y115.976 E58.4311
G1 X43.156 Y115.768 E58.4502
G1 X42.834 Y115.69 E58.46437
G1 X42.724 Y115.662 E58.46923
G1 X42.277 Y115.662 E58.48835
G1 X41.951 Y115.741 E58.50269
G1 X41.842 Y115.769 E58.50751
G1 X41.449 Y115.976 E58.52651
G0 F7500 X41.15 Y116.24
G0 X40.86 Y115.911
G1 F2700 E52.52651
G0 F7500 X41.111 Y115.486
G0 X38.31 Y115.486
G0 X38.1 Y110.6
;TYPE:WALL-INNER
G1 F2700 E58.52651
G1 F1800 X196.9 Y110.6 E65.67662
G1 X196.9 Y124.4 E66.29798
G1 X38.1 Y124.4 E73.44809
G1 X38.1 Y110.6 E74.06945
G0 F7500 X37.7 Y110.2
;TYPE:WALL-OUTER
G1 F1800 X197.3 Y110.2 E80.89628
G1 X197.3 Y124.8 E81.52079
G1 X37.7 Y124.8 E88.34762
G1 X37.7 Y110.2 E88.97213
G0 F7500 X38.1 Y110.2
G0 X38.14 Y110.64
G0 X38.49 Y110.99
;TYPE:SKIN
G1 F1800 X196.51 Y110.99 E96.08712
G1 X196.51 Y124.01 E96.67336
G1 X38.49 Y124.01 E103.78835
G1 X38.49 Y110.99 E104.37459
G1 F2700 E98.37459
G0 F7500 X38.49 Y110.71
G0 X41.156 Y110.81
G0 X41.156 Y109.335
G0 X42.155 Y116.581
G0 X41.628 Y115.214
G0 X41.156 Y115.553
G0 X40.997 Y115.32
G1 F2700 E104.37459
G1 F1800 X40.518 Y115.744 E104.40339
G1 X40.157 Y116.269 E104.43208
G1 X39.929 Y116.867 E104.4609
G1 X39.854 Y117.5 E104.4896
G1 X39.929 Y118.133 E104.5183
G1 X40.157 Y118.731 E104.54711
G1 X40.518 Y119.256 E104.5758
G1 X40.997 Y119.68 E104.6046
G1 X41.563 Y119.976 E104.63336
G1 X42.179 Y120.128 E104.66193
G1 X42.818 Y120.128 E104.6907
G1 X43.444 Y119.974 E104.71973
G1 X44.003 Y119.68 E104.74817
G1 X44.482 Y119.256 E104.77697
G1 X44.843 Y118.731 E104.80566
G1 X45.071 Y118.133 E104.83447
G1 X45.146 Y117.5 E104.86318
G1 X45.071 Y116.867 E104.89188
G1 X44.843 Y116.269 E104.92069
G1 X44.482 Y115.744 E104.94938
G1 X44.003 Y115.32 E104.97818
G1 X43.437 Y115.024 E105.00694
G1 X42.821 Y114.872 E105.03551
G1 X42.182 Y114.872 E105.06428
G1 X41.556 Y115.026 E105.09331
G1 X40.997 Y115.32 E105.12175
G1 F2700 E99.12175
G0 F7500 X41.156 Y115.553
G0 X42.249 Y115.423
G0 X42.892 Y115.458
G0 X43.174 Y115.525
G0 X44.666 Y116.363
G0 X43.369 Y117.043
G0 X191.519 Y117.5
G0 X190.054 Y117.5
G0 X190.135 Y117.501
G0 X189.854 Y117.5
G1 F2700 E105.12175
G1 F1800 X189.929 Y118.133 E105.15045
G1 X190.157 Y118.731 E105.17926
G1 X190.518 Y119.256 E105.20795
G1 X190.997 Y119.68 E105.23675
G1 X191.563 Y119.976 E105.26551
G1 X192.179 Y120.128 E105.29408
G1 X192.818 Y120.128 E105.32285
G1 X193.444 Y119.974 E105.35188
G1 X194.003 Y119.68 E105.38032
G1 X194.482 Y119.256 E105.40912
G1 X194.843 Y118.731 E105.43781
G1 X195.071 Y118.133 E105.46662
G1 X195.146 Y117.5 E105.49533
G1 X195.071 Y116.867 E105.52403
G1 X194.843 Y116.269 E105.55284
G1 X194.482 Y115.744 E105.58153
G1 X194.003 Y115.32 E105.61033
G1 X193.437 Y115.024 E105.63909
G1 X192.821 Y114.872 E105.66766
G1 X192.182 Y114.872 E105.69643
G1 X191.556 Y115.026 E105.72546
G1 X190.997 Y115.32 E105.7539
G1 X190.518 Y115.744 E105.7827
G1 X190.157 Y116.269 E105.81139
G1 X189.929 Y116.867 E105.8402
G1 X189.854 Y117.5 E105.8689
G1 F2700 E99.8689
G0 F7500 X190.135 Y117.501
G0 X190.648 Y116.527
G0 X190.934 Y116.112
G0 X191.313 Y115.778
G0 X191.894 Y115.509
G0 X192.181 Y115.44
G0 X193.889 Y115.486
G0 X196.69 Y115.486
G0 X196.79 Y111.496
G0 X196.349 Y111.496
G1 F2700 E105.8689
G1 F1800 X196.002 Y111.15 E105.89097
G0 F7500 X195.437 Y111.15
G1 F1800 X196.349 Y112.062 E105.94904
G0 F7500 X196.349 Y112.627
G1 F1800 X194.871 Y111.15 E106.04312
G0 F7500 X194.305 Y111.15
G1 F1800 X196.349 Y113.193 E106.17325
G0 F7500 X196.349 Y113.759
G1 F1800 X193.74 Y111.15 E106.33938
G0 F7500 X193.174 Y111.15
