;FLAVOR:Marlin
M117 Time Left 0h30m20s
;TIME:1820
;Filament used: 0.322446m
;Layer height: 0.12
;MINX:96.806
;MINY:102.668
;MINZ:0.2
;MAXX:138.115
;MAXY:129.811
;MAXZ:15.56
;POSTPROCESSED
;Generated with Cura_SteamEngine 4.10.0
M140 S75
M105
M190 S75
M104 S235
M105
M109 S235
M82 ;absolute extrusion mode
; Ender 3 Custom Start G-code
G92 E0 ; Reset Extruder
G28 ; Home all axes
; ***SET NEW E STEP *** (93 is factory value - 95 mine - start)
G90                          ; Force coordinates to be absolute relative to the origin
M92 E95 ;					 ; ***SET NEW E STEP *** (93 is factory value - 95 mine - end)
G90                          ; Force coordinates to be absolute relative to the origin
G28                          ; Home X/Y/Z axis
G92 E0 ; Reset Extruder
G28 ; Home all axes
G1 Z2.0 F3000 ; Move Z Axis up little to prevent scratching of Heat Bed
G1 X0.1 Y20 Z0.3 F5000.0 ; Move to start position
G1 X0.1 Y200.0 Z0.3 F1500.0 E15 ; Draw the first line
G1 X0.4 Y200.0 Z0.3 F5000.0 ; Move to side a little
G1 X0.4 Y20 Z0.3 F1500.0 E30 ; Draw the second line
G92 E0 ; Reset Extruder
G1 Z2.0 F3000 ; Move Z Axis up little to prevent scratching of Heat Bed
G1 X5 Y20 Z0.3 F5000.0 ; Move over to prevent blob squish
G92 E0
G92 E0
G1 F2700 E-6
;LAYER_COUNT:129
;LAYER:0
M107
M204 S500
M205 X8 Y8
G0 F7500 X100.591 Y105.895 Z0.2
;TYPE:SKIRT
G1 F2700 E0
G1 F1500 X100.958 Y105.596 E0.01496
G1 X101.736 Y105 E0.04592
G1 X102.386 Y104.552 E0.07087
G1 X103.078 Y104.172 E0.09581
G1 X103.489 Y103.988 E0.11004
G1 X104.39 Y103.614 E0.14087
G1 X105.133 Y103.349 E0.16579
G1 X105.9 Y103.16 E0.19075
G1 X106.363 Y103.085 E0.20557
G1 X107.336 Y102.957 E0.23658
G1 X108.123 Y102.893 E0.26153
G1 X108.912 Y102.91 E0.28646
G1 X109.371 Y102.957 E0.30104
G1 X110.343 Y103.085 E0.33202
G1 X111.12 Y103.227 E0.35698
G1 X111.878 Y103.448 E0.38193
G1 X112.313 Y103.613 E0.39663
G1 X113.215 Y103.987 E0.42748
G1 X113.928 Y104.326 E0.45243
G1 X114.603 Y104.735 E0.47736
G1 X114.974 Y105.003 E0.49183
G1 X115.505 Y105.411 E0.51298
G1 X116.48 Y105.282 E0.54406
G1 X117.267 Y105.218 E0.56901
G1 X118.056 Y105.235 E0.59394
G1 X118.52 Y105.282 E0.60868
G1 X119.176 Y105.369 E0.62959
G1 X119.952 Y104.774 E0.66049
G1 X120.602 Y104.326 E0.68543
G1 X121.294 Y103.946 E0.71038
G1 X121.711 Y103.759 E0.72482
G1 X122.612 Y103.386 E0.75563
G1 X123.356 Y103.121 E0.78058
G1 X124.123 Y102.933 E0.80554
G1 X124.571 Y102.861 E0.81987
G1 X125.544 Y102.732 E0.85089
G1 X126.331 Y102.668 E0.87583
G1 X127.12 Y102.684 E0.90077
G1 X127.595 Y102.732 E0.91586
G1 X128.567 Y102.861 E0.94684
G1 X129.344 Y103.004 E0.9718
G1 X130.102 Y103.225 E0.99675
G1 X130.522 Y103.385 E1.01095
G1 X131.424 Y103.758 E1.04179
G1 X132.137 Y104.096 E1.06672
G1 X132.813 Y104.505 E1.09169
G1 X133.186 Y104.774 E1.10622
G1 X133.964 Y105.37 E1.13719
G1 X134.566 Y105.881 E1.16214
G1 X135.113 Y106.451 E1.1871
G1 X135.416 Y106.822 E1.20223
G1 X136.012 Y107.601 E1.23322
G1 X136.459 Y108.252 E1.25818
G1 X136.839 Y108.945 E1.28315
G1 X137.023 Y109.355 E1.29735
G1 X137.396 Y110.255 E1.32813
G1 X137.661 Y110.999 E1.35309
G1 X137.849 Y111.765 E1.37801
G1 X137.922 Y112.216 E1.39244
G1 X138.051 Y113.189 E1.42346
G1 X138.115 Y113.976 E1.44841
G1 X138.099 Y114.765 E1.47334
G1 X138.051 Y115.239 E1.4884
G1 X137.922 Y116.212 E1.51941
G1 X137.779 Y116.989 E1.54437
G1 X137.558 Y117.747 E1.56932
G1 X137.396 Y118.173 E1.58372
G1 X137.023 Y119.073 E1.6145
G1 X136.684 Y119.787 E1.63948
G1 X136.275 Y120.462 E1.66441
G1 X136.012 Y120.827 E1.67863
G1 X135.416 Y121.606 E1.70962
G1 X134.905 Y122.208 E1.73457
G1 X134.336 Y122.755 E1.75951
G1 X133.964 Y123.058 E1.77467
G1 X133.186 Y123.654 E1.80564
G1 X132.536 Y124.102 E1.83058
G1 X131.844 Y124.482 E1.85553
G1 X131.424 Y124.67 E1.87007
G1 X130.522 Y125.043 E1.90091
G1 X129.778 Y125.307 E1.92585
G1 X129.011 Y125.495 E1.9508
G1 X128.567 Y125.567 E1.96502
G1 X127.595 Y125.696 E1.996
G1 X126.808 Y125.76 E2.02095
G1 X126.605 Y125.756 E2.02736
G1 X126.361 Y126.044 E2.03929
G1 X125.791 Y126.591 E2.06425
G1 X125.427 Y126.888 E2.0791
G1 X124.494 Y127.603 E2.11624
G1 X123.843 Y128.051 E2.14121
G1 X123.151 Y128.431 E2.16615
G1 X122.733 Y128.619 E2.18063
G1 X121.651 Y129.067 E2.21764
G1 X120.907 Y129.331 E2.24258
G1 X120.14 Y129.52 E2.26754
G1 X119.694 Y129.592 E2.28182
G1 X118.527 Y129.747 E2.31901
G1 X117.74 Y129.811 E2.34396
G1 X116.95 Y129.796 E2.36893
G1 X116.473 Y129.747 E2.38408
G1 X115.306 Y129.592 E2.42128
G1 X114.529 Y129.449 E2.44624
G1 X113.771 Y129.227 E2.4712
G1 X113.349 Y129.067 E2.48546
G1 X112.267 Y128.619 E2.52246
G1 X111.554 Y128.28 E2.54741
G1 X110.878 Y127.871 E2.57237
G1 X110.506 Y127.603 E2.58686
G1 X109.573 Y126.888 E2.624
G1 X108.972 Y126.377 E2.64892
G1 X108.596 Y125.986 E2.66606
G1 X107.803 Y125.971 E2.69113
G1 X107.328 Y125.922 E2.70621
G1 X106.355 Y125.793 E2.73723
G1 X105.578 Y125.65 E2.76219
G1 X104.82 Y125.429 E2.78714
G1 X104.39 Y125.265 E2.80168
G1 X103.489 Y124.891 E2.8325
G1 X102.776 Y124.552 E2.85745
G1 X102.1 Y124.142 E2.88243
G1 X101.736 Y123.879 E2.89662
G1 X100.958 Y123.283 E2.92759
G1 X100.356 Y122.772 E2.95254
G1 X99.809 Y122.202 E2.9775
G1 X99.513 Y121.839 E2.9923
G1 X98.916 Y121.061 E3.02328
G1 X98.468 Y120.411 E3.04823
G1 X98.087 Y119.719 E3.07319
G1 X97.897 Y119.297 E3.08781
G1 X97.524 Y118.396 E3.11862
G1 X97.259 Y117.652 E3.14358
G1 X97.071 Y116.885 E3.16853
G1 X96.998 Y116.43 E3.18309
G1 X96.87 Y115.458 E3.21407
G1 X96.806 Y114.671 E3.23902
G1 X96.823 Y113.882 E3.26395
G1 X96.87 Y113.423 E3.27853
G1 X96.998 Y112.45 E3.30954
G1 X97.14 Y111.673 E3.3345
G1 X97.36 Y110.915 E3.35944
G1 X97.525 Y110.481 E3.37411
G1 X97.898 Y109.581 E3.40489
G1 X98.237 Y108.867 E3.42987
G1 X98.646 Y108.192 E3.4548
G1 X98.913 Y107.822 E3.46922
G1 X99.51 Y107.043 E3.50023
G1 X100.021 Y106.442 E3.52516
G1 X100.591 Y105.895 E3.55012
G0 F7500 X100.883 Y106.171
G1 F1500 X101.201 Y105.914 E3.56304
G1 X101.979 Y105.318 E3.59401
G1 X102.613 Y104.882 E3.61832
G1 X103.289 Y104.515 E3.64262
G1 X103.642 Y104.357 E3.65484
G1 X104.543 Y103.983 E3.68567
G1 X105.268 Y103.726 E3.70997
G1 X106.015 Y103.545 E3.73426
G1 X106.415 Y103.481 E3.74706
G1 X107.388 Y103.353 E3.77807
G1 X108.155 Y103.293 E3.80238
G1 X108.924 Y103.312 E3.82668
G1 X109.319 Y103.353 E3.83923
G1 X110.291 Y103.481 E3.87021
G1 X111.047 Y103.621 E3.8945
G1 X111.785 Y103.839 E3.91882
G1 X112.159 Y103.982 E3.93147
G1 X113.061 Y104.356 E3.96232
G1 X113.756 Y104.687 E3.98664
G1 X114.412 Y105.089 E4.01095
G1 X114.731 Y105.32 E4.0234
G1 X115.395 Y105.829 E4.04983
G1 X116.532 Y105.679 E4.08607
G1 X117.299 Y105.618 E4.11038
G1 X118.068 Y105.637 E4.13469
G1 X118.468 Y105.679 E4.1474
G1 X119.293 Y105.788 E4.17369
G1 X119.417 Y105.688 E4.17872
G1 X120.195 Y105.092 E4.20969
G1 X120.829 Y104.656 E4.234
G1 X121.505 Y104.289 E4.25831
G1 X121.864 Y104.129 E4.27073
G1 X122.765 Y103.756 E4.30154
G1 X123.49 Y103.499 E4.32584
G1 X124.238 Y103.319 E4.35015
G1 X124.623 Y103.257 E4.36247
G1 X125.596 Y103.128 E4.39349
G1 X126.363 Y103.067 E4.4178
G1 X127.132 Y103.085 E4.4421
G1 X127.543 Y103.128 E4.45516
G1 X128.515 Y103.257 E4.48614
G1 X129.271 Y103.398 E4.51044
G1 X130.008 Y103.616 E4.53473
G1 X130.369 Y103.755 E4.54695
G1 X131.271 Y104.128 E4.57779
G1 X131.965 Y104.458 E4.60207
G1 X132.622 Y104.859 E4.62639
G1 X132.943 Y105.092 E4.63893
G1 X133.721 Y105.688 E4.66989
G1 X134.307 Y106.186 E4.69419
G1 X134.837 Y106.743 E4.71849
G1 X135.098 Y107.065 E4.73158
G1 X135.694 Y107.844 E4.76257
G1 X136.129 Y108.479 E4.78689
G1 X136.496 Y109.155 E4.8112
G1 X136.653 Y109.508 E4.82341
G1 X137.026 Y110.408 E4.85419
G1 X137.283 Y111.133 E4.87849
G1 X137.464 Y111.88 E4.90278
G1 X137.526 Y112.268 E4.9152
G1 X137.655 Y113.241 E4.94621
G1 X137.716 Y114.008 E4.97052
G1 X137.698 Y114.777 E4.99482
G1 X137.655 Y115.187 E5.00785
G1 X137.526 Y116.16 E5.03886
G1 X137.385 Y116.916 E5.06316
G1 X137.167 Y117.653 E5.08745
G1 X137.026 Y118.02 E5.09987
G1 X136.653 Y118.92 E5.13065
G1 X136.322 Y119.614 E5.15495
G1 X135.921 Y120.271 E5.17927
G1 X135.694 Y120.584 E5.19149
G1 X135.098 Y121.363 E5.22248
G1 X134.6 Y121.948 E5.24675
G1 X134.043 Y122.479 E5.27107
G1 X133.721 Y122.74 E5.28416
G1 X132.943 Y123.336 E5.31513
G1 X132.309 Y123.772 E5.33944
G1 X131.633 Y124.139 E5.36375
G1 X131.271 Y124.3 E5.37627
G1 X130.369 Y124.673 E5.40711
G1 X129.644 Y124.93 E5.43141
G1 X128.896 Y125.11 E5.45572
G1 X128.515 Y125.171 E5.46791
G1 X127.543 Y125.3 E5.4989
G1 X126.776 Y125.361 E5.52321
G1 X126.424 Y125.353 E5.53433
G1 X126.056 Y125.784 E5.55224
G1 X125.499 Y126.315 E5.57655
G1 X125.183 Y126.571 E5.5894
G1 X124.25 Y127.286 E5.62655
G1 X123.616 Y127.721 E5.65084
G1 X122.94 Y128.088 E5.67514
G1 X122.58 Y128.249 E5.68761
G1 X121.498 Y128.697 E5.72461
G1 X120.773 Y128.954 E5.74891
G1 X120.025 Y129.134 E5.77322
G1 X119.641 Y129.196 E5.78551
G1 X118.474 Y129.351 E5.82271
G1 X117.708 Y129.412 E5.84699
G1 X116.939 Y129.394 E5.8713
G1 X116.526 Y129.351 E5.88442
G1 X115.359 Y129.196 E5.92161
G1 X114.603 Y129.055 E5.94591
G1 X113.865 Y128.836 E5.97024
G1 X113.502 Y128.697 E5.98252
G1 X112.42 Y128.249 E6.01952
G1 X111.726 Y127.918 E6.04382
G1 X111.069 Y127.517 E6.06814
G1 X110.75 Y127.286 E6.08058
G1 X109.817 Y126.571 E6.11772
G1 X109.231 Y126.072 E6.14204
G1 X108.755 Y125.572 E6.16385
G1 X108.56 Y125.587 E6.17003
G1 X107.791 Y125.569 E6.19434
G1 X107.38 Y125.526 E6.2074
G1 X106.407 Y125.397 E6.23841
G1 X105.651 Y125.256 E6.26271
G1 X104.914 Y125.038 E6.28699
G1 X104.543 Y124.896 E6.29955
G1 X103.642 Y124.522 E6.33037
G1 X102.948 Y124.19 E6.35468
G1 X102.292 Y123.789 E6.37897
G1 X101.979 Y123.561 E6.39121
G1 X101.201 Y122.965 E6.42217
G1 X100.615 Y122.467 E6.44647
G1 X100.085 Y121.91 E6.47077
G1 X99.83 Y121.596 E6.48355
G1 X99.233 Y120.818 E6.51453
G1 X98.797 Y120.184 E6.53885
G1 X98.43 Y119.509 E6.56312
G1 X98.267 Y119.144 E6.57575
G1 X97.894 Y118.243 E6.60657
G1 X97.637 Y117.518 E6.63087
G1 X97.457 Y116.77 E6.65518
G1 X97.394 Y116.378 E6.66772
G1 X97.266 Y115.406 E6.6987
G1 X97.206 Y114.639 E6.72301
G1 X97.225 Y113.87 E6.74732
G1 X97.266 Y113.475 E6.75986
G1 X97.394 Y112.502 E6.79087
G1 X97.534 Y111.745 E6.8152
G1 X97.752 Y111.008 E6.83948
G1 X97.895 Y110.634 E6.85213
G1 X98.268 Y109.734 E6.88292
G1 X98.599 Y109.04 E6.90721
G1 X99 Y108.383 E6.93153
G1 X99.23 Y108.066 E6.94391
G1 X99.827 Y107.287 E6.97492
G1 X100.326 Y106.701 E6.99924
G1 X100.883 Y106.171 E7.02353
G0 F7500 X101.444 Y106.231
G1 F1500 X102.222 Y105.635 E7.0545
G1 X102.839 Y105.213 E7.07812
G1 X103.795 Y104.727 E7.112
G1 X104.696 Y104.353 E7.14283
G1 X105.402 Y104.103 E7.16649
G1 X106.467 Y103.878 E7.20089
G1 X107.44 Y103.75 E7.2319
G1 X108.186 Y103.692 E7.25554
G1 X109.267 Y103.75 E7.28974
G1 X110.239 Y103.878 E7.32072
G1 X110.974 Y104.015 E7.34435
G1 X112.006 Y104.352 E7.37865
G1 X112.908 Y104.726 E7.4095
G1 X113.583 Y105.049 E7.43315
G1 X114.487 Y105.638 E7.46724
G1 X115.264 Y106.234 E7.49818
G1 X115.417 Y106.229 E7.50302
G1 X116.584 Y106.075 E7.54021
G1 X117.33 Y106.017 E7.56385
G1 X118.416 Y106.075 E7.59822
G1 X119.433 Y106.209 E7.63063
G1 X119.66 Y106.005 E7.64027
G1 X120.438 Y105.409 E7.67124
G1 X121.055 Y104.987 E7.69486
G1 X122.017 Y104.498 E7.72896
G1 X122.918 Y104.125 E7.75977
G1 X123.624 Y103.877 E7.78341
G1 X124.676 Y103.654 E7.81739
G1 X125.649 Y103.525 E7.8484
G1 X126.395 Y103.466 E7.87205
G1 X127.49 Y103.525 E7.9067
G1 X128.462 Y103.654 E7.93768
G1 X129.197 Y103.792 E7.96131
G1 X130.216 Y104.124 E7.99517
G1 X131.118 Y104.497 E8.02601
G1 X131.793 Y104.82 E8.04966
G1 X132.7 Y105.409 E8.08383
G1 X133.478 Y106.005 E8.1148
G1 X134.047 Y106.491 E8.13844
G1 X134.78 Y107.309 E8.17314
G1 X135.376 Y108.088 E8.20414
G1 X135.799 Y108.705 E8.22777
G1 X136.284 Y109.661 E8.26165
G1 X136.657 Y110.561 E8.29243
G1 X136.906 Y111.266 E8.31605
G1 X137.129 Y112.321 E8.35012
G1 X137.258 Y113.294 E8.38114
G1 X137.317 Y114.04 E8.40478
G1 X137.258 Y115.134 E8.4394
G1 X137.129 Y116.107 E8.47041
G1 X136.991 Y116.842 E8.49404
G1 X136.657 Y117.867 E8.52811
G1 X136.284 Y118.767 E8.55889
G1 X135.961 Y119.442 E8.58253
G1 X135.376 Y120.34 E8.6164
G1 X134.78 Y121.119 E8.64739
G1 X134.295 Y121.688 E8.67101
G1 X133.478 Y122.423 E8.70574
G1 X132.7 Y123.019 E8.7367
G1 X132.083 Y123.441 E8.76032
G1 X131.118 Y123.931 E8.79452
G1 X130.216 Y124.304 E8.82536
G1 X129.51 Y124.552 E8.849
G1 X128.462 Y124.774 E8.88285
G1 X127.49 Y124.903 E8.91384
G1 X126.744 Y124.962 E8.93748
G1 X126.253 Y124.936 E8.95302
G1 X125.751 Y125.524 E8.97745
G1 X124.94 Y126.253 E9.0119
G1 X124.007 Y126.968 E9.04904
G1 X123.39 Y127.391 E9.07268
G1 X122.427 Y127.88 E9.10681
G1 X121.345 Y128.328 E9.14381
G1 X120.639 Y128.576 E9.16745
G1 X119.589 Y128.799 E9.20137
G1 X118.422 Y128.954 E9.23857
G1 X117.676 Y129.013 E9.26221
G1 X116.578 Y128.954 E9.29696
G1 X115.411 Y128.799 E9.33415
G1 X114.676 Y128.661 E9.35778
G1 X113.655 Y128.328 E9.39172
G1 X112.573 Y127.88 E9.42872
G1 X111.898 Y127.557 E9.45236
G1 X110.993 Y126.968 E9.48648
G1 X110.06 Y126.253 E9.52362
G1 X109.492 Y125.767 E9.54724
G1 X108.942 Y125.155 E9.57324
G1 X108.528 Y125.188 E9.58636
G1 X107.433 Y125.129 E9.62101
G1 X106.46 Y125 E9.65203
G1 X105.725 Y124.862 E9.67566
G1 X104.696 Y124.526 E9.70986
G1 X103.795 Y124.152 E9.74068
G1 X103.121 Y123.829 E9.7643
G1 X102.222 Y123.244 E9.79819
G1 X101.444 Y122.648 E9.82916
G1 X100.875 Y122.162 E9.8528
G1 X100.148 Y121.352 E9.88719
G1 X99.551 Y120.574 E9.91818
G1 X99.128 Y119.957 E9.94181
G1 X98.636 Y118.991 E9.97607
G1 X98.263 Y118.09 E10.00688
G1 X98.015 Y117.384 E10.03052
G1 X97.791 Y116.326 E10.06469
G1 X97.663 Y115.354 E10.09567
G1 X97.605 Y114.608 E10.11931
G1 X97.663 Y113.527 E10.15352
G1 X97.791 Y112.554 E10.18453
G1 X97.928 Y111.819 E10.20815
G1 X98.264 Y110.787 E10.24245
G1 X98.637 Y109.887 E10.27323
G1 X98.96 Y109.212 E10.29687
G1 X99.548 Y108.309 E10.33092
G1 X100.145 Y107.53 E10.36193
G1 X100.631 Y106.961 E10.38558
G1 X101.444 Y106.231 E10.4201
G0 F7500 X101.687 Y106.549
G1 F1500 X102.465 Y105.953 E10.45107
G1 X103.065 Y105.543 E10.47403
G1 X103.949 Y105.096 E10.50533
G1 X104.85 Y104.722 E10.53615
G1 X105.535 Y104.481 E10.5591
G1 X106.519 Y104.274 E10.59087
G1 X107.492 Y104.146 E10.62188
G1 X108.216 Y104.091 E10.64482
G1 X109.215 Y104.146 E10.67643
G1 X110.187 Y104.274 E10.70741
G1 X110.901 Y104.409 E10.73037
G1 X111.853 Y104.721 E10.76203
G1 X112.755 Y105.095 E10.79288
G1 X113.41 Y105.41 E10.81585
G1 X114.244 Y105.955 E10.84733
G1 X115.021 Y106.551 E10.87827
G1 X115.179 Y106.687 E10.88485
G1 X115.47 Y106.626 E10.89425
G1 X116.637 Y106.472 E10.93144
G1 X117.361 Y106.416 E10.95439
G1 X118.363 Y106.472 E10.9861
G1 X119.558 Y106.631 E11.02419
G1 X119.903 Y106.323 E11.0388
G1 X120.681 Y105.727 E11.06977
G1 X121.281 Y105.317 E11.09273
G1 X122.17 Y104.868 E11.1242
G1 X123.071 Y104.495 E11.15501
G1 X123.757 Y104.254 E11.17799
G1 X124.729 Y104.05 E11.20937
G1 X125.702 Y103.921 E11.24038
G1 X126.426 Y103.866 E11.26332
G1 X127.437 Y103.921 E11.29531
G1 X128.409 Y104.05 E11.3263
G1 X129.123 Y104.185 E11.34926
G1 X130.063 Y104.494 E11.38052
G1 X130.965 Y104.867 E11.41136
G1 X131.62 Y105.181 E11.43431
G1 X132.457 Y105.727 E11.46589
G1 X133.235 Y106.323 E11.49686
G1 X133.786 Y106.795 E11.51978
G1 X134.463 Y107.552 E11.55187
G1 X135.059 Y108.331 E11.58286
G1 X135.468 Y108.931 E11.60581
G1 X135.914 Y109.814 E11.63706
G1 X136.287 Y110.714 E11.66785
G1 X136.528 Y111.399 E11.69079
G1 X136.733 Y112.374 E11.72227
G1 X136.862 Y113.347 E11.75328
G1 X136.917 Y114.071 E11.77623
G1 X136.862 Y115.081 E11.80819
G1 X136.733 Y116.054 E11.8392
G1 X136.598 Y116.768 E11.86216
G1 X136.287 Y117.714 E11.89363
G1 X135.914 Y118.614 E11.92441
G1 X135.6 Y119.269 E11.94736
G1 X135.059 Y120.097 E11.97861
G1 X134.463 Y120.876 E12.0096
G1 X133.99 Y121.428 E12.03257
G1 X133.235 Y122.105 E12.06461
G1 X132.457 Y122.701 E12.09558
G1 X131.857 Y123.111 E12.11854
G1 X130.965 Y123.561 E12.15011
G1 X130.063 Y123.934 E12.18095
G1 X129.378 Y124.174 E12.20389
G1 X128.409 Y124.378 E12.23517
G1 X127.437 Y124.507 E12.26616
G1 X126.713 Y124.562 E12.2891
G1 X126.062 Y124.527 E12.3097
G1 X125.92 Y124.712 E12.31707
G1 X125.447 Y125.264 E12.34004
G1 X124.697 Y125.936 E12.37186
G1 X123.764 Y126.651 E12.409
G1 X123.164 Y127.06 E12.43194
