;FLAVOR:Marlin
M117 Time Left 0h21m39s
;TIME:1299
;Filament used: 0.253319m
;Layer height: 0.12
;MINX:107.047
;MINY:107.047
;MINZ:0.2
;MAXX:127.953
;MAXY:127.953
;MAXZ:31.16
;POSTPROCESSED
;Generated with Cura_SteamEngine 4.10.0
M140 S75
M105
M190 S75
M104 S235
M105
M109 S235
M82 ;absolute extrusion mode
; Ender 3 Custom Start G-code
G92 E0 ; Reset Extruder
G28 ; Home all axes
; ***SET NEW E STEP *** (93 is factory value - 95 mine - start)
G90                          ; Force coordinates to be absolute relative to the origin
M92 E95 ;					 ; ***SET NEW E STEP *** (93 is factory value - 95 mine - end)
G90                          ; Force coordinates to be absolute relative to the origin
G28                          ; Home X/Y/Z axis
G92 E0 ; Reset Extruder
G28 ; Home all axes
G1 Z2.0 F3000 ; Move Z Axis up little to prevent scratching of Heat Bed
G1 X0.1 Y20 Z0.3 F5000.0 ; Move to start position
G1 X0.1 Y200.0 Z0.3 F1500.0 E15 ; Draw the first line
G1 X0.4 Y200.0 Z0.3 F5000.0 ; Move to side a little
G1 X0.4 Y20 Z0.3 F1500.0 E30 ; Draw the second line
G92 E0 ; Reset Extruder
G1 Z2.0 F3000 ; Move Z Axis up little to prevent scratching of Heat Bed
G1 X5 Y20 Z0.3 F5000.0 ; Move over to prevent blob squish
G92 E0
G92 E0
G1 F2700 E-6
;LAYER_COUNT:259
;LAYER:0
M107
M204 S500
M205 X8 Y8
G0 F7500 X110.07 Y110.153 Z0.2
;TYPE:SKIRT
G1 F2700 E0
G1 F1500 X110.15 Y110.073 E0.00357
G1 X110.917 Y109.4 E0.03582
G1 X111.424 Y109.011 E0.05601
G1 X112.074 Y108.562 E0.08097
G1 X112.766 Y108.182 E0.10592
G1 X113.197 Y107.989 E0.12084
G1 X113.786 Y107.746 E0.14097
G1 X114.703 Y107.432 E0.1716
G1 X114.809 Y107.403 E0.17507
G1 X115.841 Y107.195 E0.20833
G1 X116.474 Y107.111 E0.22851
G1 X117.261 Y107.047 E0.25346
G1 X118.051 Y107.062 E0.27842
G1 X118.516 Y107.109 E0.29319
G1 X119.148 Y107.192 E0.31333
G1 X120.19 Y107.402 E0.34692
G1 X120.296 Y107.431 E0.35039
G1 X121.219 Y107.747 E0.38122
G1 X121.809 Y107.991 E0.40139
G1 X122.522 Y108.329 E0.42632
G1 X123.198 Y108.738 E0.45129
G1 X123.574 Y109.009 E0.46593
G1 X124.08 Y109.397 E0.48608
G1 X124.849 Y110.072 E0.51841
G1 X124.927 Y110.15 E0.52189
G1 X125.599 Y110.915 E0.55407
G1 X125.989 Y111.423 E0.5743
G1 X126.438 Y112.073 E0.59927
G1 X126.818 Y112.765 E0.62421
G1 X127.011 Y113.196 E0.63913
G1 X127.253 Y113.782 E0.65917
G1 X127.577 Y114.736 E0.691
G1 X127.606 Y114.844 E0.69453
G1 X127.805 Y115.841 E0.72666
G1 X127.889 Y116.474 E0.74683
G1 X127.953 Y117.261 E0.77178
G1 X127.938 Y118.051 E0.79675
G1 X127.891 Y118.516 E0.81152
G1 X127.808 Y119.148 E0.83166
G1 X127.611 Y120.142 E0.86368
G1 X127.583 Y120.247 E0.86711
G1 X127.254 Y121.218 E0.8995
G1 X127.01 Y121.808 E0.91968
G1 X126.672 Y122.521 E0.94461
G1 X126.263 Y123.197 E0.96957
G1 X125.993 Y123.571 E0.98415
G1 X125.606 Y124.076 E1.00425
G1 X124.93 Y124.847 E1.03665
G1 X124.85 Y124.927 E1.04023
G1 X124.083 Y125.6 E1.07247
G1 X123.576 Y125.989 E1.09266
G1 X122.926 Y126.438 E1.11762
G1 X122.234 Y126.818 E1.14257
G1 X121.803 Y127.011 E1.15749
G1 X121.214 Y127.254 E1.17762
G1 X120.297 Y127.568 E1.20825
G1 X120.191 Y127.597 E1.21172
G1 X119.159 Y127.805 E1.24498
G1 X118.526 Y127.889 E1.26516
G1 X117.739 Y127.953 E1.29011
G1 X116.949 Y127.938 E1.31507
G1 X116.484 Y127.891 E1.32984
G1 X115.852 Y127.808 E1.34998
G1 X114.81 Y127.598 E1.38357
G1 X114.704 Y127.569 E1.38704
G1 X113.781 Y127.253 E1.41787
G1 X113.191 Y127.009 E1.43804
G1 X112.478 Y126.671 E1.46297
G1 X111.802 Y126.262 E1.48794
G1 X111.426 Y125.991 E1.50258
G1 X110.92 Y125.603 E1.52273
G1 X110.151 Y124.928 E1.55506
G1 X110.071 Y124.848 E1.55864
G1 X109.396 Y124.079 E1.59097
G1 X109.008 Y123.573 E1.61111
G1 X108.56 Y122.923 E1.63606
G1 X108.18 Y122.231 E1.661
G1 X107.988 Y121.802 E1.67585
G1 X107.745 Y121.213 E1.69599
G1 X107.418 Y120.248 E1.72818
G1 X107.39 Y120.143 E1.73161
G1 X107.195 Y119.159 E1.76331
G1 X107.111 Y118.526 E1.78349
G1 X107.047 Y117.739 E1.80844
G1 X107.062 Y116.949 E1.8334
G1 X107.109 Y116.484 E1.84817
G1 X107.192 Y115.852 E1.86831
G1 X107.389 Y114.858 E1.90033
G1 X107.417 Y114.753 E1.90376
G1 X107.746 Y113.782 E1.93616
G1 X107.99 Y113.192 E1.95633
G1 X108.328 Y112.479 E1.98126
G1 X108.737 Y111.803 E2.00623
G1 X109.007 Y111.429 E2.0208
G1 X109.394 Y110.924 E2.0409
G1 X110.07 Y110.153 E2.0733
G0 F7500 X110.352 Y110.435
G1 F1500 X110.432 Y110.355 E2.07688
G1 X111.16 Y109.717 E2.10746
G1 X111.667 Y109.328 E2.12766
G1 X112.301 Y108.892 E2.15197
G1 X112.977 Y108.524 E2.17629
G1 X113.35 Y108.358 E2.18919
G1 X113.939 Y108.115 E2.20932
G1 X114.808 Y107.818 E2.23834
G1 X114.914 Y107.789 E2.24181
G1 X115.894 Y107.591 E2.2734
G1 X116.527 Y107.507 E2.29358
G1 X117.293 Y107.446 E2.31786
G1 X118.062 Y107.464 E2.34216
G1 X118.464 Y107.506 E2.35493
G1 X119.096 Y107.589 E2.37507
G1 X120.085 Y107.788 E2.40695
G1 X120.191 Y107.817 E2.41042
G1 X121.066 Y108.117 E2.43965
G1 X121.656 Y108.361 E2.45982
G1 X122.351 Y108.691 E2.48413
G1 X123.007 Y109.092 E2.50843
G1 X123.331 Y109.327 E2.52107
G1 X123.837 Y109.715 E2.54122
G1 X124.567 Y110.354 E2.57188
G1 X124.645 Y110.432 E2.57536
G1 X125.282 Y111.159 E2.6059
G1 X125.672 Y111.667 E2.62614
G1 X126.108 Y112.3 E2.65043
G1 X126.476 Y112.976 E2.67474
G1 X126.642 Y113.348 E2.68762
G1 X126.884 Y113.934 E2.70765
G1 X127.191 Y114.84 E2.73787
G1 X127.22 Y114.948 E2.74141
G1 X127.409 Y115.894 E2.77189
G1 X127.493 Y116.527 E2.79207
G1 X127.554 Y117.293 E2.81635
G1 X127.536 Y118.062 E2.84065
G1 X127.494 Y118.464 E2.85342
G1 X127.411 Y119.096 E2.87356
G1 X127.224 Y120.039 E2.90394
G1 X127.196 Y120.144 E2.90737
G1 X126.884 Y121.065 E2.9381
G1 X126.64 Y121.655 E2.95827
G1 X126.31 Y122.35 E2.98258
G1 X125.909 Y123.006 E3.00688
G1 X125.676 Y123.328 E3.01943
G1 X125.289 Y123.833 E3.03954
G1 X124.648 Y124.565 E3.07028
G1 X124.568 Y124.645 E3.07386
G1 X123.84 Y125.283 E3.10444
G1 X123.333 Y125.672 E3.12463
G1 X122.699 Y126.108 E3.14895
G1 X122.023 Y126.476 E3.17327
G1 X121.65 Y126.642 E3.18617
G1 X121.061 Y126.885 E3.2063
G1 X120.192 Y127.182 E3.23532
G1 X120.086 Y127.211 E3.23879
G1 X119.106 Y127.409 E3.27038
G1 X118.473 Y127.493 E3.29055
G1 X117.707 Y127.554 E3.31483
G1 X116.938 Y127.536 E3.33914
G1 X116.536 Y127.494 E3.35191
G1 X115.904 Y127.411 E3.37205
G1 X114.915 Y127.212 E3.40393
G1 X114.809 Y127.183 E3.4074
G1 X113.934 Y126.883 E3.43663
G1 X113.344 Y126.639 E3.4568
G1 X112.649 Y126.309 E3.48111
G1 X111.993 Y125.908 E3.5054
G1 X111.669 Y125.673 E3.51805
G1 X111.163 Y125.285 E3.5382
G1 X110.433 Y124.646 E3.56885
G1 X110.353 Y124.566 E3.57243
G1 X109.714 Y123.836 E3.60308
G1 X109.326 Y123.33 E3.62323
G1 X108.89 Y122.696 E3.64754
G1 X108.522 Y122.02 E3.67186
G1 X108.357 Y121.649 E3.68469
G1 X108.114 Y121.06 E3.70482
G1 X107.805 Y120.145 E3.73534
G1 X107.777 Y120.04 E3.73877
G1 X107.591 Y119.106 E3.76886
G1 X107.507 Y118.473 E3.78904
G1 X107.446 Y117.707 E3.81332
G1 X107.464 Y116.938 E3.83762
G1 X107.506 Y116.536 E3.8504
G1 X107.589 Y115.904 E3.87054
G1 X107.776 Y114.961 E3.90091
G1 X107.804 Y114.856 E3.90435
G1 X108.116 Y113.935 E3.93507
G1 X108.36 Y113.345 E3.95525
G1 X108.69 Y112.65 E3.97956
G1 X109.091 Y111.994 E4.00385
G1 X109.324 Y111.672 E4.01641
G1 X109.711 Y111.167 E4.03651
G1 X110.352 Y110.435 E4.06725
G0 F7500 X110.635 Y110.718
G1 F1500 X110.715 Y110.638 E4.07083
G1 X111.404 Y110.034 E4.09978
G1 X111.911 Y109.645 E4.11997
G1 X112.528 Y109.222 E4.14361
G1 X113.502 Y108.728 E4.17812
G1 X114.091 Y108.485 E4.19825
G1 X114.914 Y108.204 E4.22573
G1 X115.02 Y108.175 E4.2292
G1 X115.946 Y107.988 E4.25905
G1 X116.579 Y107.904 E4.27923
G1 X117.325 Y107.845 E4.30287
G1 X118.411 Y107.903 E4.33723
G1 X119.043 Y107.986 E4.35738
G1 X119.979 Y108.174 E4.38754
G1 X120.085 Y108.203 E4.39101
G1 X120.913 Y108.486 E4.41866
G1 X121.503 Y108.73 E4.43884
G1 X122.178 Y109.053 E4.46248
G1 X123.087 Y109.644 E4.49674
G1 X123.593 Y110.032 E4.51689
G1 X124.284 Y110.637 E4.54591
G1 X124.362 Y110.715 E4.54939
G1 X124.964 Y111.402 E4.57825
G1 X125.354 Y111.91 E4.59849
G1 X125.778 Y112.527 E4.62214
G1 X126.272 Y113.501 E4.65665
G1 X126.514 Y114.087 E4.67668
G1 X126.805 Y114.944 E4.70528
G1 X126.834 Y115.052 E4.70881
G1 X127.012 Y115.946 E4.73762
G1 X127.096 Y116.579 E4.75779
G1 X127.155 Y117.325 E4.78144
G1 X127.097 Y118.411 E4.8158
G1 X127.014 Y119.043 E4.83594
G1 X126.838 Y119.936 E4.8647
G1 X126.81 Y120.041 E4.86814
G1 X126.515 Y120.912 E4.89719
G1 X126.271 Y121.502 E4.91737
G1 X125.948 Y122.177 E4.94101
G1 X125.358 Y123.085 E4.97522
G1 X124.971 Y123.59 E4.99533
G1 X124.365 Y124.282 E5.02439
G1 X124.285 Y124.362 E5.02797
G1 X123.596 Y124.966 E5.05692
G1 X123.089 Y125.355 E5.07711
G1 X122.472 Y125.778 E5.10075
G1 X121.498 Y126.272 E5.13525
G1 X120.909 Y126.515 E5.15539
G1 X120.086 Y126.796 E5.18287
G1 X119.98 Y126.825 E5.18634
G1 X119.054 Y127.012 E5.21619
G1 X118.421 Y127.096 E5.23636
G1 X117.675 Y127.155 E5.26001
G1 X116.589 Y127.097 E5.29437
G1 X115.957 Y127.014 E5.31451
G1 X115.021 Y126.826 E5.34468
G1 X114.915 Y126.797 E5.34815
G1 X114.087 Y126.514 E5.3758
G1 X113.497 Y126.27 E5.39597
G1 X112.822 Y125.947 E5.41962
G1 X111.913 Y125.356 E5.45388
G1 X111.407 Y124.968 E5.47402
G1 X110.716 Y124.363 E5.50304
G1 X110.636 Y124.283 E5.50662
G1 X110.031 Y123.592 E5.53564
G1 X109.643 Y123.086 E5.55579
G1 X109.22 Y122.469 E5.57942
G1 X108.727 Y121.497 E5.61386
G1 X108.484 Y120.908 E5.63399
G1 X108.191 Y120.042 E5.66288
G1 X108.163 Y119.937 E5.66631
G1 X107.988 Y119.054 E5.69475
G1 X107.904 Y118.421 E5.71493
G1 X107.845 Y117.675 E5.73858
G1 X107.903 Y116.589 E5.77294
G1 X107.986 Y115.957 E5.79308
G1 X108.162 Y115.064 E5.82184
G1 X108.19 Y114.959 E5.82527
G1 X108.485 Y114.088 E5.85433
G1 X108.729 Y113.498 E5.8745
G1 X109.052 Y112.823 E5.89815
G1 X109.642 Y111.915 E5.93236
G1 X110.029 Y111.41 E5.95247
G1 X110.635 Y110.718 E5.98153
G0 F7500 X110.918 Y111.001
G1 F1500 X110.998 Y110.921 E5.9851
G1 X111.647 Y110.352 E6.01238
G1 X112.154 Y109.963 E6.03257
G1 X112.754 Y109.553 E6.05553
G1 X113.655 Y109.098 E6.08742
G1 X114.244 Y108.855 E6.10756
G1 X115.019 Y108.59 E6.13344
G1 X115.125 Y108.561 E6.13691
G1 X115.999 Y108.384 E6.16508
G1 X116.632 Y108.3 E6.18526
G1 X117.356 Y108.245 E6.2082
G1 X118.359 Y108.299 E6.23994
G1 X118.991 Y108.382 E6.26008
G1 X119.874 Y108.56 E6.28854
G1 X119.98 Y108.589 E6.29202
G1 X120.76 Y108.856 E6.31807
G1 X121.35 Y109.1 E6.33824
G1 X122.005 Y109.414 E6.36119
G1 X122.844 Y109.962 E6.39285
G1 X123.35 Y110.35 E6.413
G1 X124.001 Y110.92 E6.44034
G1 X124.079 Y110.998 E6.44383
G1 X124.647 Y111.646 E6.47105
G1 X125.037 Y112.154 E6.49129
G1 X125.447 Y112.754 E6.51425
G1 X125.902 Y113.654 E6.54612
G1 X126.144 Y114.24 E6.56615
G1 X126.418 Y115.047 E6.59308
G1 X126.447 Y115.155 E6.59661
G1 X126.616 Y115.999 E6.62381
G1 X126.7 Y116.632 E6.64399
G1 X126.755 Y117.356 E6.66693
G1 X126.701 Y118.359 E6.69867
G1 X126.618 Y118.991 E6.71881
G1 X126.451 Y119.833 E6.74593
G1 X126.423 Y119.938 E6.74936
G1 X126.145 Y120.759 E6.77675
G1 X125.901 Y121.349 E6.79692
G1 X125.587 Y122.004 E6.81988
G1 X125.041 Y122.842 E6.85148
G1 X124.654 Y123.347 E6.87158
G1 X124.082 Y123.999 E6.89899
G1 X124.002 Y124.079 E6.90256
G1 X123.353 Y124.648 E6.92983
G1 X122.846 Y125.037 E6.95003
G1 X122.246 Y125.447 E6.97299
G1 X121.345 Y125.902 E7.00488
G1 X120.756 Y126.145 E7.02501
G1 X119.981 Y126.41 E7.05089
G1 X119.875 Y126.439 E7.05437
G1 X119.001 Y126.616 E7.08254
G1 X118.368 Y126.7 E7.10272
G1 X117.644 Y126.755 E7.12566
G1 X116.641 Y126.701 E7.1574
G1 X116.009 Y126.618 E7.17754
G1 X115.126 Y126.44 E7.206
G1 X115.02 Y126.411 E7.20947
G1 X114.24 Y126.144 E7.23552
G1 X113.65 Y125.9 E7.2557
G1 X112.995 Y125.586 E7.27865
G1 X112.156 Y125.038 E7.31031
G1 X111.65 Y124.65 E7.33046
G1 X110.999 Y124.08 E7.3578
G1 X110.919 Y124 E7.36137
G1 X110.349 Y123.349 E7.38871
G1 X109.961 Y122.843 E7.40886
G1 X109.551 Y122.243 E7.43182
G1 X109.097 Y121.344 E7.46365
G1 X108.854 Y120.755 E7.48378
G1 X108.578 Y119.939 E7.511
G1 X108.55 Y119.834 E7.51443
G1 X108.384 Y119.001 E7.54127
G1 X108.3 Y118.368 E7.56144
G1 X108.245 Y117.644 E7.58439
G1 X108.299 Y116.641 E7.61612
G1 X108.382 Y116.009 E7.63627
G1 X108.549 Y115.167 E7.66339
G1 X108.577 Y115.062 E7.66682
G1 X108.855 Y114.241 E7.69421
G1 X109.099 Y113.651 E7.71438
G1 X109.413 Y112.996 E7.73734
G1 X109.959 Y112.158 E7.76894
G1 X110.346 Y111.653 E7.78904
G1 X110.918 Y111.001 E7.81645
G0 F7500 X111.201 Y111.284
G1 F1500 X111.281 Y111.204 E7.82002
G1 X111.891 Y110.669 E7.84566
G1 X112.398 Y110.28 E7.86585
G1 X112.98 Y109.884 E7.88809
G1 X113.807 Y109.468 E7.91734
G1 X114.396 Y109.225 E7.93748
G1 X115.125 Y108.976 E7.96182
G1 X115.231 Y108.947 E7.96529
G1 X116.051 Y108.781 E7.99172
G1 X116.684 Y108.697 E8.0119
G1 X117.386 Y108.644 E8.03415
G1 X118.307 Y108.696 E8.06329
G1 X118.939 Y108.779 E8.08343
G1 X119.768 Y108.946 E8.11015
G1 X119.874 Y108.975 E8.11363
G1 X120.607 Y109.226 E8.13811
G1 X121.197 Y109.47 E8.15828
G1 X121.832 Y109.775 E8.18054
G1 X122.601 Y110.279 E8.20959
G1 X123.107 Y110.667 E8.22974
G1 X123.718 Y111.203 E8.25542
G1 X123.796 Y111.281 E8.25891
G1 X124.33 Y111.889 E8.28447
G1 X124.72 Y112.397 E8.30471
G1 X125.116 Y112.979 E8.32695
G1 X125.533 Y113.806 E8.35622
G1 X125.775 Y114.392 E8.37625
G1 X126.032 Y115.151 E8.40157
G1 X126.061 Y115.259 E8.4051
G1 X126.219 Y116.051 E8.43062
G1 X126.303 Y116.684 E8.4508
G1 X126.356 Y117.386 E8.47304
G1 X126.304 Y118.307 E8.50219
G1 X126.221 Y118.939 E8.52233
G1 X126.065 Y119.73 E8.54781
G1 X126.037 Y119.835 E8.55124
G1 X125.775 Y120.606 E8.57697
G1 X125.531 Y121.196 E8.59714
G1 X125.226 Y121.831 E8.6194
G1 X124.723 Y122.598 E8.64838
G1 X124.336 Y123.103 E8.66849
G1 X123.799 Y123.716 E8.69424
G1 X123.719 Y123.796 E8.69781
G1 X123.109 Y124.331 E8.72345
G1 X122.602 Y124.72 E8.74364
G1 X122.02 Y125.116 E8.76588
G1 X121.193 Y125.532 E8.79513
G1 X120.604 Y125.775 E8.81526
G1 X119.875 Y126.024 E8.83961
G1 X119.769 Y126.053 E8.84308
G1 X118.949 Y126.219 E8.86951
G1 X118.316 Y126.303 E8.88969
G1 X117.614 Y126.356 E8.91193
G1 X116.693 Y126.304 E8.94108
G1 X116.061 Y126.221 E8.96122
G1 X115.232 Y126.054 E8.98794
G1 X115.126 Y126.025 E8.99141
G1 X114.393 Y125.774 E9.0159
G1 X113.803 Y125.53 E9.03607
G1 X113.168 Y125.225 E9.05833
G1 X112.399 Y124.721 E9.08738
G1 X111.893 Y124.333 E9.10753
G1 X111.282 Y123.797 E9.13321
G1 X111.202 Y123.717 E9.13678
G1 X110.666 Y123.106 E9.16246
G1 X110.278 Y122.6 E9.18261
G1 X109.882 Y122.018 E9.20485
G1 X109.467 Y121.192 E9.23406
G1 X109.224 Y120.603 E9.2542
G1 X108.964 Y119.836 E9.27979
G1 X108.936 Y119.731 E9.28322
G1 X108.781 Y118.949 E9.30841
G1 X108.697 Y118.316 E9.32858
G1 X108.644 Y117.614 E9.35083
G1 X108.696 Y116.693 E9.37998
G1 X108.779 Y116.061 E9.40012
G1 X108.935 Y115.27 E9.42559
G1 X108.963 Y115.165 E9.42903
G1 X109.225 Y114.394 E9.45476
G1 X109.469 Y113.804 E9.47493
G1 X109.774 Y113.169 E9.49719
G1 X110.277 Y112.402 E9.52617
G1 X110.664 Y111.897 E9.54627
G1 X111.201 Y111.284 E9.57202
G0 F7500 X111.484 Y111.567
G1 F1500 X111.564 Y111.487 E9.5756
G1 X112.134 Y110.986 E9.59958
G1 X112.641 Y110.597 E9.61977
G1 X113.205 Y110.215 E9.64129
G1 X113.96 Y109.837 E9.66797
G1 X114.549 Y109.594 E9.6881
G1 X115.23 Y109.362 E9.71083
G1 X115.336 Y109.333 E9.71431
G1 X116.104 Y109.177 E9.73907
G1 X116.737 Y109.093 E9.75924
G1 X117.416 Y109.044 E9.78075
G1 X118.255 Y109.092 E9.80731
G1 X118.887 Y109.175 E9.82745
G1 X119.663 Y109.332 E9.85247
G1 X119.769 Y109.361 E9.85594
G1 X120.455 Y109.595 E9.87884
G1 X121.045 Y109.839 E9.89901
G1 X121.657 Y110.136 E9.92051
G1 X122.357 Y110.596 E9.94697
G1 X122.863 Y110.984 E9.96712
G1 X123.435 Y111.486 E9.99117
G1 X123.513 Y111.564 E9.99465
G1 X124.013 Y112.133 E10.01859
G1 X124.403 Y112.641 E10.03882
G1 X124.785 Y113.205 E10.06035
G1 X125.163 Y113.959 E10.087
G1 X125.405 Y114.545 E10.10703
G1 X125.646 Y115.255 E10.13072
G1 X125.675 Y115.363 E10.13425
G1 X125.823 Y116.104 E10.15813
G1 X125.907 Y116.737 E10.17831
G1 X125.956 Y117.416 E10.19982
G1 X125.908 Y118.255 E10.22637
G1 X125.825 Y118.887 E10.24651
G1 X125.678 Y119.626 E10.27032
G1 X125.65 Y119.731 E10.27375
G1 X125.406 Y120.454 E10.29786
G1 X125.162 Y121.044 E10.31804
G1 X124.865 Y121.656 E10.33953
G1 X124.406 Y122.355 E10.36595
G1 X124.019 Y122.86 E10.38606
G1 X123.516 Y123.433 E10.41015
