;FLAVOR:Marlin
M117 Time Left 0h41m21s
;TIME:2481
;Filament used: 1.43992m
;Layer height: 0.2
;MINX:25.008
;MINY:90.728
;MINZ:0.2
;MAXX:209.987
;MAXY:144.264
;MAXZ:2
;POSTPROCESSED
;Generated with Cura_SteamEngine 4.8.0
M140 S80
M105
M190 S80
M104 S235
M105
M109 S235
M82 ;absolute extrusion mode
; Ender 3 Custom Start G-code
G92 E0 ; Reset Extruder
G28 ; Home all axes
; ***SET NEW E STEP *** (93 is factory value - 95 mine - start)
G90                          ; Force coordinates to be absolute relative to the origin
M92 E95 ;					 ; ***SET NEW E STEP *** (93 is factory value - 95 mine - end)
G90                          ; Force coordinates to be absolute relative to the origin
G28                          ; Home X/Y/Z axis
G92 E0 ; Reset Extruder
G28 ; Home all axes
G1 Z2.0 F3000 ; Move Z Axis up little to prevent scratching of Heat Bed
G1 X0.1 Y20 Z0.3 F5000.0 ; Move to start position
G1 X0.1 Y200.0 Z0.3 F1500.0 E15 ; Draw the first line
G1 X0.4 Y200.0 Z0.3 F5000.0 ; Move to side a little
G1 X0.4 Y20 Z0.3 F1500.0 E30 ; Draw the second line
G92 E0 ; Reset Extruder
G1 Z2.0 F3000 ; Move Z Axis up little to prevent scratching of Heat Bed
G1 X5 Y20 Z0.3 F5000.0 ; Move over to prevent blob squish
G92 E0
G92 E0
G1 F2700 E-5
;LAYER_COUNT:10
;LAYER:0
M107
G0 F6000 X34.148 Y96.33 Z0.2
;TYPE:SKIRT
G1 F2700 E0
G1 F900 X34.755 Y96.136 E0.02119
G1 X35.348 Y95.965 E0.04172
G1 X35.827 Y95.838 E0.0582
G1 X36.031 Y95.789 E0.06518
G1 X36.951 Y95.609 E0.09636
G1 X37.754 Y95.518 E0.12324
G1 X38.267 Y95.478 E0.14035
G1 X40.848 Y95.242 E0.22656
G1 X43.396 Y94.936 E0.31191
G1 X45.85 Y94.571 E0.39443
G1 X48.482 Y94.102 E0.48335
G1 X48.773 Y94.054 E0.49316
G1 X49.622 Y93.953 E0.5216
G1 X50.337 Y93.896 E0.54545
G1 X52.927 Y93.655 E0.63197
G1 X55.421 Y93.353 E0.71553
G1 X57.947 Y92.972 E0.80049
G1 X60.364 Y92.539 E0.88216
G1 X60.665 Y92.489 E0.89231
G1 X61.515 Y92.388 E0.92078
G1 X62.225 Y92.332 E0.94447
G1 X64.82 Y92.09 E1.03115
G1 X67.314 Y91.788 E1.11471
G1 X69.825 Y91.41 E1.19917
G1 X72.327 Y90.963 E1.2837
G1 X73.256 Y90.838 E1.31488
G1 X74.067 Y90.794 E1.34189
G1 X74.579 Y90.785 E1.35892
G1 X74.927 Y90.784 E1.3705
G1 X75.21 Y90.788 E1.37991
G1 X76.128 Y90.839 E1.41049
G1 X77.338 Y90.959 E1.45093
G1 X77.904 Y91.023 E1.46988
G1 X80.388 Y91.235 E1.5528
G1 X82.872 Y91.376 E1.63555
G1 X85.43 Y91.448 E1.72066
G1 X87.919 Y91.448 E1.80345
G1 X90.452 Y91.376 E1.88773
G1 X92.989 Y91.233 E1.97224
G1 X95.483 Y91.021 E2.05549
G1 X97.052 Y90.851 E2.10798
G1 X97.405 Y90.81 E2.1198
G1 X98.318 Y90.743 E2.15025
G1 X98.565 Y90.735 E2.15847
G1 X98.921 Y90.729 E2.17031
G1 X135.629 Y90.728 E3.39123
G1 X136.485 Y90.739 E3.4197
G1 X137.396 Y90.79 E3.45005
G1 X138.435 Y90.892 E3.48477
G1 X140.04 Y91.066 E3.53847
G1 X142.495 Y91.261 E3.62038
G1 X145.063 Y91.393 E3.7059
G1 X147.551 Y91.45 E3.78867
G1 X150.074 Y91.437 E3.87259
G1 X152.596 Y91.352 E3.95652
G1 X155.102 Y91.197 E4.04003
G1 X157.806 Y90.951 E4.13034
G1 X158.716 Y90.855 E4.16077
G1 X159.669 Y90.796 E4.19253
G1 X160.264 Y90.785 E4.21232
G1 X160.647 Y90.784 E4.22506
G1 X160.892 Y90.788 E4.23321
G1 X161.828 Y90.844 E4.2644
G1 X162.715 Y90.971 E4.2942
G1 X163.396 Y91.097 E4.31723
G1 X165.903 Y91.526 E4.40183
G1 X168.428 Y91.885 E4.48666
G1 X170.945 Y92.171 E4.57091
G1 X173.542 Y92.392 E4.6576
G1 X174.62 Y92.538 E4.69378
G1 X175.275 Y92.66 E4.71594
G1 X177.801 Y93.092 E4.80118
G1 X180.326 Y93.451 E4.886
G1 X182.843 Y93.737 E4.97026
G1 X185.44 Y93.958 E5.05695
G1 X186.52 Y94.104 E5.09319
G1 X187.148 Y94.221 E5.11444
G1 X189.736 Y94.665 E5.20177
G1 X192.205 Y95.016 E5.28472
G1 X194.71 Y95.301 E5.36857
G1 X197.305 Y95.521 E5.45519
G1 X198.236 Y95.641 E5.48641
G1 X199.043 Y95.81 E5.51384
G1 X199.567 Y95.941 E5.5318
G1 X199.885 Y96.026 E5.54275
G1 X200.119 Y96.092 E5.55084
G1 X201.01 Y96.385 E5.58203
G1 X201.873 Y96.753 E5.61324
G1 X202.444 Y97.046 E5.63458
G1 X202.979 Y97.341 E5.6549
G1 X203.309 Y97.531 E5.66757
G1 X203.463 Y97.623 E5.67353
G1 X204.247 Y98.138 E5.70473
G1 X204.985 Y98.717 E5.73593
G1 X205.464 Y99.154 E5.7575
G1 X205.846 Y99.523 E5.77516
G1 X206.073 Y99.749 E5.78582
G1 X206.241 Y99.921 E5.79381
G1 X206.867 Y100.619 E5.825
G1 X207.432 Y101.368 E5.8562
G1 X207.803 Y101.945 E5.87902
G1 X208.108 Y102.453 E5.89873
G1 X208.303 Y102.792 E5.91173
G1 X208.397 Y102.962 E5.91819
G1 X208.816 Y103.802 E5.94942
G1 X209.161 Y104.673 E5.98058
G1 X209.339 Y105.232 E6.00009
G1 X209.482 Y105.727 E6.01722
G1 X209.573 Y106.062 E6.02877
G1 X209.637 Y106.313 E6.03739
G1 X209.83 Y107.231 E6.06859
G1 X209.944 Y108.162 E6.09978
G1 X209.976 Y108.836 E6.12223
G1 X209.986 Y109.4 E6.14099
G1 X209.987 Y109.734 E6.1521
G1 X209.984 Y109.971 E6.15998
G1 X209.936 Y110.873 E6.19002
G1 X209.913 Y111.115 E6.19811
G1 X209.882 Y111.398 E6.20758
G1 X209.84 Y111.741 E6.21907
G1 X207.23 Y131.557 E6.88384
G1 X207.127 Y132.267 E6.90771
G1 X206.943 Y133.23 E6.94032
G1 X206.886 Y133.47 E6.94852
G1 X206.778 Y133.889 E6.96291
G1 X206.643 Y134.372 E6.97959
G1 X206.352 Y135.264 E7.0108
G1 X205.987 Y136.127 E7.04196
G1 X205.669 Y136.745 E7.06508
G1 X205.384 Y137.259 E7.08463
G1 X205.216 Y137.552 E7.09586
G1 X205.113 Y137.725 E7.10256
G1 X204.599 Y138.51 E7.13377
G1 X204.02 Y139.248 E7.16497
G1 X203.572 Y139.741 E7.18712
G1 X203.202 Y140.124 E7.20483
G1 X202.957 Y140.37 E7.21638
G1 X202.78 Y140.542 E7.22459
G1 X202.08 Y141.166 E7.25578
G1 X201.33 Y141.729 E7.28697
G1 X200.788 Y142.076 E7.30838
G1 X200.323 Y142.356 E7.32643
G1 X200.012 Y142.537 E7.3384
G1 X199.815 Y142.647 E7.3459
G1 X198.977 Y143.069 E7.37711
G1 X198.107 Y143.418 E7.40829
G1 X197.5 Y143.612 E7.42948
G1 X196.907 Y143.783 E7.45001
G1 X196.527 Y143.886 E7.4631
G1 X196.355 Y143.929 E7.469
G1 X195.436 Y144.117 E7.5002
G1 X194.505 Y144.227 E7.53138
G1 X193.881 Y144.255 E7.55215
G1 X193.37 Y144.264 E7.56915
G1 X192.99 Y144.264 E7.58179
G1 X192.694 Y144.259 E7.59164
G1 X191.758 Y144.204 E7.62282
G1 X190.874 Y144.077 E7.65253
G1 X190.169 Y143.946 E7.67638
G1 X187.668 Y143.518 E7.76077
G1 X185.165 Y143.162 E7.84486
G1 X182.669 Y142.879 E7.92841
G1 X180.064 Y142.657 E8.01536
G1 X178.995 Y142.513 E8.05124
G1 X178.297 Y142.384 E8.07485
G1 X175.803 Y141.957 E8.15901
G1 X173.278 Y141.598 E8.24383
G1 X170.761 Y141.312 E8.32809
G1 X168.164 Y141.091 E8.41478
G1 X167.084 Y140.945 E8.45102
G1 X166.456 Y140.828 E8.47227
G1 X163.868 Y140.384 E8.55961
G1 X161.399 Y140.033 E8.64255
G1 X158.896 Y139.749 E8.72634
G1 X156.289 Y139.527 E8.81336
G1 X155.358 Y139.407 E8.84458
G1 X154.557 Y139.239 E8.8718
G1 X154.032 Y139.108 E8.8898
G1 X153.673 Y139.012 E8.90216
G1 X153.428 Y138.942 E8.91063
G1 X152.584 Y138.663 E8.9402
G1 X152.092 Y138.477 E8.95769
G1 X150.187 Y137.73 E9.02575
G1 X147.863 Y136.892 E9.10792
G1 X145.402 Y136.084 E9.19407
G1 X143.032 Y135.378 E9.27632
G1 X140.618 Y134.734 E9.35942
G1 X138.126 Y134.144 E9.44459
G1 X135.667 Y133.633 E9.52813
G1 X133.184 Y133.192 E9.612
G1 X130.738 Y132.829 E9.69425
G1 X128.191 Y132.523 E9.77957
G1 X125.703 Y132.295 E9.86267
G1 X123.186 Y132.136 E9.94655
G1 X120.654 Y132.049 E10.03082
G1 X118.837 Y132.03 E10.09125
G1 X116.246 Y132.03 E10.17743
G1 X113.638 Y132.067 E10.26418
G1 X111.116 Y132.174 E10.34814
G1 X108.622 Y132.351 E10.4313
G1 X106.122 Y132.599 E10.51486
G1 X103.629 Y132.918 E10.59845
G1 X101.136 Y133.309 E10.68238
G1 X98.646 Y133.772 E10.76662
G1 X96.182 Y134.302 E10.85045
G1 X93.78 Y134.891 E10.93271
G1 X91.324 Y135.567 E11.01743
G1 X88.914 Y136.305 E11.10126
G1 X86.522 Y137.112 E11.18522
G1 X84.171 Y137.979 E11.26857
G1 X83.524 Y138.237 E11.29173
G1 X82.583 Y138.6 E11.32528
G1 X81.663 Y138.909 E11.35756
G1 X81.075 Y139.078 E11.37791
G1 X80.682 Y139.183 E11.39144
G1 X80.452 Y139.24 E11.39932
G1 X79.533 Y139.427 E11.43051
G1 X78.654 Y139.53 E11.45995
G1 X78.16 Y139.568 E11.47643
G1 X75.522 Y139.809 E11.56453
G1 X72.994 Y140.112 E11.64921
G1 X70.541 Y140.477 E11.7317
G1 X67.836 Y140.959 E11.82309
G1 X66.767 Y141.096 E11.85893
G1 X66.107 Y141.148 E11.88095
G1 X63.486 Y141.392 E11.9685
G1 X60.971 Y141.697 E12.05277
G1 X58.513 Y142.066 E12.13544
G1 X56.058 Y142.506 E12.21839
G1 X55.801 Y142.549 E12.22706
G1 X54.865 Y142.663 E12.25842
G1 X54.172 Y142.717 E12.28154
G1 X51.616 Y142.954 E12.36691
G1 X49.135 Y143.255 E12.45004
G1 X46.608 Y143.633 E12.53502
G1 X44.085 Y144.084 E12.62027
G1 X43.155 Y144.21 E12.65148
G1 X42.344 Y144.254 E12.6785
G1 X41.781 Y144.264 E12.69722
G1 X41.394 Y144.264 E12.7101
G1 X41.165 Y144.26 E12.71771
G1 X40.229 Y144.204 E12.7489
G1 X39.301 Y144.068 E12.7801
G1 X38.704 Y143.937 E12.80042
G1 X38.193 Y143.81 E12.81794
G1 X37.86 Y143.722 E12.82939
G1 X37.626 Y143.656 E12.83748
G1 X36.735 Y143.363 E12.86868
G1 X35.872 Y142.995 E12.89988
G1 X35.299 Y142.701 E12.9213
G1 X34.757 Y142.402 E12.94189
G1 X34.439 Y142.22 E12.95407
G1 X34.293 Y142.133 E12.95973
G1 X33.509 Y141.619 E12.99091
G1 X32.771 Y141.04 E13.02211
G1 X32.281 Y140.594 E13.04414
G1 X31.898 Y140.224 E13.06186
G1 X31.652 Y139.979 E13.0734
G1 X31.48 Y139.802 E13.08161
G1 X30.856 Y139.102 E13.1128
G1 X30.293 Y138.352 E13.14399
G1 X29.946 Y137.81 E13.1654
G1 X29.666 Y137.345 E13.18345
G1 X29.48 Y137.025 E13.19576
G1 X29.368 Y136.824 E13.20342
G1 X28.947 Y135.986 E13.23461
G1 X28.599 Y135.115 E13.2658
G1 X28.409 Y134.521 E13.28655
G1 X28.245 Y133.953 E13.30621
G1 X28.141 Y133.57 E13.31941
G1 X28.087 Y133.354 E13.32681
G1 X27.9 Y132.442 E13.35778
G1 X27.829 Y131.987 E13.3731
G1 X27.772 Y131.581 E13.38673
G1 X25.176 Y111.853 E14.04854
G1 X25.089 Y111.114 E14.07329
G1 X25.019 Y110.158 E14.10517
G1 X25.012 Y109.925 E14.11293
G1 X25.008 Y109.422 E14.12966
G1 X25.016 Y108.912 E14.14662
G1 X25.071 Y107.976 E14.17781
G1 X25.205 Y107.048 E14.20899
G1 X25.343 Y106.417 E14.23048
G1 X25.481 Y105.865 E14.2494
G1 X25.568 Y105.538 E14.26066
G1 X25.626 Y105.333 E14.26774
G1 X25.92 Y104.443 E14.29892
G1 X26.288 Y103.58 E14.33012
G1 X26.579 Y103.016 E14.35123
G1 X26.836 Y102.55 E14.36893
G1 X27.028 Y102.216 E14.38174
G1 X27.153 Y102.007 E14.38984
G1 X27.668 Y101.223 E14.42104
G1 X28.248 Y100.486 E14.45223
G1 X28.687 Y100.005 E14.47389
G1 X29.102 Y99.576 E14.49375
G1 X29.349 Y99.328 E14.50539
G1 X29.482 Y99.199 E14.51155
G1 X30.183 Y98.575 E14.54277
G1 X30.934 Y98.014 E14.57394
G1 X31.467 Y97.672 E14.59501
G1 X31.932 Y97.392 E14.61306
G1 X32.243 Y97.211 E14.62503
G1 X32.44 Y97.101 E14.63253
G1 X33.278 Y96.679 E14.66374
G1 X34.148 Y96.33 E14.69492
G0 F6000 X34.313 Y96.696
G1 F900 X34.866 Y96.52 E14.71422
G1 X35.459 Y96.349 E14.73475
G1 X35.92 Y96.227 E14.75061
G1 X36.124 Y96.178 E14.75758
G1 X37.028 Y96.002 E14.78822
G1 X37.784 Y95.916 E14.81352
G1 X38.335 Y95.873 E14.83191
G1 X40.935 Y95.635 E14.91874
G1 X43.396 Y95.34 E15.00118
G1 X45.942 Y94.961 E15.0868
G1 X48.552 Y94.496 E15.17497
G1 X48.836 Y94.449 E15.18455
G1 X49.654 Y94.352 E15.21194
G1 X50.403 Y94.293 E15.23693
G1 X52.941 Y94.057 E15.32171
G1 X55.496 Y93.746 E15.40732
G1 X57.966 Y93.375 E15.49039
G1 X60.434 Y92.932 E15.57379
G1 X60.728 Y92.884 E15.5837
G1 X61.547 Y92.787 E15.61113
G1 X62.29 Y92.728 E15.63592
G1 X64.834 Y92.492 E15.7209
G1 X67.389 Y92.181 E15.8065
G1 X69.877 Y91.807 E15.89018
G1 X72.397 Y91.357 E15.97532
G1 X73.31 Y91.235 E16.00596
G1 X74.074 Y91.194 E16.03141
G1 X74.586 Y91.185 E16.04844
G1 X74.922 Y91.184 E16.05962
G1 X75.205 Y91.188 E16.06903
G1 X76.089 Y91.238 E16.09848
G1 X77.293 Y91.357 E16.13872
G1 X77.823 Y91.417 E16.15646
G1 X80.369 Y91.634 E16.24145
G1 X82.874 Y91.776 E16.3249
G1 X85.419 Y91.848 E16.40958
G1 X87.93 Y91.848 E16.49309
G1 X90.485 Y91.776 E16.57811
G1 X92.975 Y91.636 E16.66106
G1 X95.562 Y91.415 E16.74741
G1 X97.127 Y91.246 E16.79977
G1 X97.451 Y91.208 E16.81062
G1 X98.331 Y91.143 E16.83997
G1 X98.578 Y91.135 E16.84819
G1 X98.921 Y91.129 E16.8596
G1 X135.629 Y91.128 E18.08051
G1 X136.479 Y91.139 E18.10878
G1 X137.357 Y91.188 E18.13803
G1 X138.392 Y91.29 E18.17262
G1 X139.964 Y91.461 E18.22521
G1 X142.517 Y91.663 E18.31039
G1 X145.032 Y91.793 E18.39415
G1 X147.544 Y91.85 E18.47772
G1 X150.091 Y91.837 E18.56244
G1 X152.599 Y91.752 E18.6459
G1 X155.127 Y91.596 E18.73015
G1 X157.884 Y91.345 E18.82222
G1 X158.758 Y91.253 E18.85145
G1 X159.676 Y91.196 E18.88204
G1 X160.271 Y91.185 E18.90184
G1 X160.64 Y91.184 E18.91411
G1 X160.885 Y91.188 E18.92226
G1 X161.804 Y91.243 E18.95288
G1 X162.642 Y91.364 E18.98104
G1 X163.321 Y91.49 E19.00401
G1 X165.852 Y91.923 E19.08942
G1 X168.398 Y92.285 E19.17495
G1 X170.867 Y92.565 E19.25759
G1 X173.508 Y92.79 E19.34575
G1 X174.547 Y92.931 E19.38063
G1 X175.2 Y93.053 E19.40272
G1 X177.75 Y93.489 E19.48876
G1 X180.296 Y93.851 E19.5743
G1 X182.765 Y94.131 E19.65694
G1 X185.406 Y94.356 E19.7451
G1 X186.446 Y94.497 E19.78001
G1 X187.072 Y94.614 E19.80119
G1 X189.678 Y95.06 E19.88912
G1 X192.175 Y95.416 E19.97302
G1 X194.665 Y95.699 E20.05637
G1 X197.272 Y95.92 E20.14339
G1 X198.185 Y96.038 E20.17401
G1 X198.946 Y96.198 E20.19987
G1 X199.47 Y96.329 E20.21783
G1 X199.776 Y96.411 E20.22837
G1 X200.01 Y96.477 E20.23646
G1 X200.885 Y96.765 E20.2671
G1 X201.731 Y97.128 E20.29772
G1 X202.251 Y97.397 E20.31719
G1 X202.786 Y97.692 E20.33751
G1 X203.104 Y97.874 E20.34969
G1 X203.258 Y97.966 E20.35566
G1 X204.027 Y98.472 E20.38628
G1 X204.75 Y99.043 E20.41692
G1 X205.186 Y99.442 E20.43658
G1 X205.568 Y99.811 E20.45424
G1 X205.787 Y100.028 E20.4645
G1 X205.955 Y100.2 E20.47249
G1 X206.569 Y100.886 E20.50311
G1 X207.121 Y101.623 E20.53374
G1 X207.46 Y102.151 E20.55461
G1 X207.765 Y102.659 E20.57432
G1 X207.953 Y102.986 E20.58686
G1 X208.047 Y103.156 E20.59332
G1 X208.457 Y103.98 E20.62393
G1 X208.794 Y104.837 E20.65456
G1 X208.955 Y105.343 E20.67222
G1 X209.098 Y105.838 E20.68936
G1 X209.185 Y106.161 E20.70049
G1 X209.249 Y106.412 E20.7091
G1 X209.438 Y107.313 E20.73972
G1 X209.547 Y108.227 E20.77034
G1 X209.576 Y108.843 E20.79085
G1 X209.586 Y109.407 E20.80961
G1 X209.587 Y109.729 E20.82032
G1 X209.584 Y109.966 E20.8282
G1 X209.537 Y110.835 E20.85715
G1 X209.514 Y111.077 E20.86523
G1 X209.485 Y111.35 E20.87436
G1 X209.443 Y111.689 E20.88573
G1 X206.834 Y131.5 E21.55033
G1 X206.731 Y132.21 E21.57419
G1 X206.554 Y133.137 E21.60558
G1 X206.497 Y133.377 E21.61379
G1 X206.393 Y133.781 E21.62766
G1 X206.258 Y134.264 E21.64434
G1 X205.972 Y135.139 E21.67496
G1 X205.611 Y135.986 E21.70558
G1 X205.319 Y136.551 E21.72674
G1 X205.034 Y137.065 E21.74629
G1 X204.872 Y137.348 E21.75713
G1 X204.769 Y137.521 E21.76383
G1 X204.264 Y138.291 E21.79445
G1 X203.694 Y139.014 E21.82508
G1 X203.285 Y139.463 E21.84528
G1 X202.915 Y139.846 E21.86299
G1 X202.678 Y140.083 E21.87414
G1 X202.501 Y140.255 E21.88235
G1 X201.814 Y140.867 E21.91295
G1 X201.076 Y141.418 E21.94358
G1 X200.582 Y141.734 E21.96308
G1 X200.117 Y142.014 E21.98114
G1 X199.817 Y142.188 E21.99267
G1 X199.62 Y142.298 E22.00018
G1 X198.797 Y142.711 E22.0308
G1 X197.942 Y143.052 E22.06142
G1 X197.389 Y143.228 E22.08072
G1 X196.796 Y143.399 E22.10125
G1 X196.43 Y143.498 E22.11386
G1 X196.258 Y143.541 E22.11976
G1 X195.356 Y143.725 E22.15037
G1 X194.441 Y143.83 E22.18101
G1 X193.874 Y143.855 E22.19988
G1 X193.363 Y143.864 E22.21688
G1 X192.997 Y143.864 E22.22906
G1 X192.701 Y143.859 E22.2389
G1 X191.782 Y143.804 E22.26952
G1 X190.947 Y143.683 E22.29758
G1 X190.302 Y143.563 E22.31941
G1 X187.721 Y143.122 E22.40649
G1 X185.234 Y142.767 E22.49005
G1 X182.712 Y142.482 E22.57447
G1 X180.098 Y142.259 E22.66172
G1 X179.068 Y142.12 E22.69629
G1 X178.372 Y141.991 E22.71984
G1 X175.854 Y141.56 E22.8048
G1 X173.308 Y141.198 E22.89033
G1 X170.839 Y140.918 E22.97298
G1 X168.198 Y140.693 E23.06114
G1 X167.158 Y140.552 E23.09605
G1 X166.532 Y140.435 E23.11723
G1 X163.926 Y139.989 E23.20516
G1 X161.429 Y139.633 E23.28905
G1 X158.939 Y139.35 E23.3724
G1 X156.323 Y139.128 E23.45973
G1 X155.409 Y139.01 E23.49038
G1 X154.654 Y138.851 E23.51604
G1 X154.129 Y138.72 E23.53404
G1 X153.783 Y138.627 E23.54595
G1 X153.538 Y138.557 E23.55443
G1 X152.725 Y138.289 E23.5829
G1 X152.238 Y138.105 E23.60022
G1 X150.332 Y137.357 E23.66832
G1 X147.975 Y136.508 E23.75164
G1 X145.536 Y135.707 E23.83703
G1 X143.144 Y134.994 E23.92004
G1 X140.674 Y134.336 E24.00506
G1 X138.254 Y133.762 E24.08778
G1 X135.72 Y133.236 E24.17386
G1 X133.276 Y132.802 E24.25642
