;FLAVOR:Marlin
M117 Time Left 0h57m53s
;TIME:3473
;Filament used: 1.90258m
;Layer height: 0.2
;MINX:30.363
;MINY:82.731
;MINZ:0.2
;MAXX:217.136
;MAXY:154.045
;MAXZ:2.4
;POSTPROCESSED
;Generated with Cura_SteamEngine 4.7.1
M140 S70
M105
M190 S70
M104 S230
M105
M109 S230
M82 ;absolute extrusion mode
; Ender 3 Custom Start G-code
G92 E0 ; Reset Extruder
G28 ; Home all axes
; ***SET NEW E STEP *** (93 is factory value - 95 mine - start)
G90                          ; Force coordinates to be absolute relative to the origin
M92 E95 ;					 ; ***SET NEW E STEP *** (93 is factory value - 95 mine - end)
G90                          ; Force coordinates to be absolute relative to the origin
G28                          ; Home X/Y/Z axis
G92 E0 ; Reset Extruder								
G28 ; Home all axes		
G1 Z2.0 F3000 ; Move Z Axis up little to prevent scratching of Heat Bed
G1 X0.1 Y20 Z0.3 F5000.0 ; Move to start position
G1 X0.1 Y200.0 Z0.3 F1500.0 E15 ; Draw the first line
G1 X0.4 Y200.0 Z0.3 F5000.0 ; Move to side a little
G1 X0.4 Y20 Z0.3 F1500.0 E30 ; Draw the second line
G92 E0 ; Reset Extruder
G1 Z2.0 F3000 ; Move Z Axis up little to prevent scratching of Heat Bed
G1 X5 Y20 Z0.3 F5000.0 ; Move over to prevent blob squish
G92 E0
G92 E0
G1 F2700 E-6
;LAYER_COUNT:16
;LAYER:0
M107
M204 S500
M205 X8 Y8
G0 F7500 X40.505 Y93.174 Z0.2
;TYPE:SKIRT
G1 F2700 E0
G1 F1500 X41.373 Y92.792 E0.02996
G1 X41.414 Y92.776 E0.03136
G1 X42.013 Y92.562 E0.05145
G1 X42.253 Y92.484 E0.05943
G1 X42.51 Y92.404 E0.06793
G1 X42.832 Y92.308 E0.07855
G1 X43.742 Y92.078 E0.10821
G1 X44.667 Y91.927 E0.13782
G1 X45.257 Y91.872 E0.15654
G1 X45.578 Y91.851 E0.16671
G1 X45.946 Y91.834 E0.17835
G1 X46.26 Y91.824 E0.18828
G1 X47.198 Y91.834 E0.21791
G1 X48.315 Y91.951 E0.2534
G1 X48.74 Y92.024 E0.26703
G1 X49.476 Y92.166 E0.29071
G1 X52.029 Y92.619 E0.37264
G1 X54.501 Y92.986 E0.4516
G1 X57.015 Y93.287 E0.53161
G1 X59.492 Y93.513 E0.6102
G1 X60.623 Y93.585 E0.64601
G1 X61.47 Y93.65 E0.67285
G1 X62.098 Y93.717 E0.6928
G1 X63.203 Y93.868 E0.72804
G1 X64.037 Y93.992 E0.75468
G1 X66.532 Y94.292 E0.83409
G1 X69.046 Y94.522 E0.91385
G1 X71.56 Y94.681 E0.99345
G1 X74.047 Y94.767 E1.07208
G1 X76.606 Y94.783 E1.15294
G1 X79.102 Y94.728 E1.23182
G1 X81.609 Y94.603 E1.31113
G1 X84.14 Y94.404 E1.39135
G1 X86.605 Y94.14 E1.46968
G1 X89.147 Y93.795 E1.55074
G1 X91.596 Y93.391 E1.62917
G1 X94.07 Y92.912 E1.70879
G1 X96.589 Y92.348 E1.79035
G1 X99.087 Y91.714 E1.87179
G1 X100.235 Y91.405 E1.90935
G1 X102.737 Y90.694 E1.99154
G1 X105.15 Y89.934 E2.07147
G1 X107.514 Y89.115 E2.15052
G1 X109.888 Y88.215 E2.23075
G1 X112.213 Y87.26 E2.31017
G1 X114.506 Y86.24 E2.38946
G1 X116.767 Y85.157 E2.46868
G1 X118.425 Y84.299 E2.52766
G1 X119.209 Y83.903 E2.55542
G1 X120.063 Y83.517 E2.58503
G1 X120.947 Y83.204 E2.61466
G1 X121.855 Y82.968 E2.6443
G1 X122.779 Y82.81 E2.67392
G1 X123.714 Y82.731 E2.70357
G1 X124.652 Y82.733 E2.73321
G1 X125.586 Y82.814 E2.76283
G1 X126.51 Y82.974 E2.79246
G1 X127.417 Y83.213 E2.8221
G1 X128.301 Y83.528 E2.85175
G1 X129.262 Y83.973 E2.88521
G1 X131.65 Y85.221 E2.97035
G1 X133.96 Y86.344 E3.05151
G1 X136.224 Y87.367 E3.13001
G1 X138.483 Y88.314 E3.2074
G1 X140.883 Y89.239 E3.28867
G1 X143.281 Y90.086 E3.36903
G1 X145.689 Y90.861 E3.44896
G1 X148.068 Y91.553 E3.52725
G1 X150.529 Y92.193 E3.60759
G1 X152.925 Y92.747 E3.6853
G1 X155.447 Y93.253 E3.76657
G1 X157.947 Y93.682 E3.84672
G1 X160.419 Y94.035 E3.92562
G1 X162.913 Y94.319 E4.00493
G1 X165.428 Y94.533 E4.08469
G1 X167.943 Y94.675 E4.16428
G1 X170.438 Y94.747 E4.24315
G1 X172.96 Y94.747 E4.32284
G1 X175.511 Y94.676 E4.40347
G1 X177.974 Y94.536 E4.48142
G1 X180.512 Y94.321 E4.5619
G1 X182.996 Y94.039 E4.64089
G1 X184.148 Y93.873 E4.67767
G1 X185.439 Y93.701 E4.71882
G1 X186.068 Y93.635 E4.73881
G1 X187.213 Y93.55 E4.77508
G1 X187.965 Y93.504 E4.79889
G1 X190.464 Y93.277 E4.87818
G1 X192.956 Y92.981 E4.95747
G1 X195.49 Y92.606 E5.03841
G1 X197.908 Y92.18 E5.11599
G1 X198.84 Y92.003 E5.14596
G1 X199.768 Y91.867 E5.1756
G1 X200.898 Y91.809 E5.21135
G1 X201.344 Y91.817 E5.22544
G1 X201.586 Y91.826 E5.23309
G1 X201.857 Y91.839 E5.24167
G1 X202.196 Y91.86 E5.2524
G1 X203.129 Y91.958 E5.28204
G1 X204.05 Y92.135 E5.31168
G1 X204.647 Y92.294 E5.3312
G1 X204.967 Y92.389 E5.34174
G1 X205.304 Y92.495 E5.35291
G1 X205.593 Y92.591 E5.36253
G1 X206.469 Y92.924 E5.39214
G1 X207.314 Y93.331 E5.42177
G1 X207.771 Y93.59 E5.43837
G1 X207.985 Y93.718 E5.44625
G1 X208.283 Y93.902 E5.45732
G1 X208.596 Y94.103 E5.46907
G1 X209.363 Y94.643 E5.49871
G1 X210.378 Y95.529 E5.54128
G1 X210.528 Y95.677 E5.54794
G1 X210.86 Y96.019 E5.563
G1 X211.149 Y96.33 E5.57641
G1 X211.758 Y97.044 E5.60607
G1 X212.303 Y97.807 E5.63569
G1 X212.623 Y98.329 E5.65504
G1 X212.771 Y98.586 E5.66441
G1 X212.937 Y98.884 E5.67519
G1 X213.089 Y99.168 E5.68537
G1 X213.545 Y100.128 E5.71895
G1 X213.555 Y100.152 E5.71977
G1 X214.006 Y101.46 E5.76349
G1 X214.076 Y101.714 E5.77181
G1 X214.157 Y102.029 E5.78209
G1 X214.208 Y102.238 E5.78889
G1 X214.399 Y103.202 E5.81994
G1 X214.574 Y104.36 E5.85694
G1 X214.605 Y104.587 E5.86418
G1 X216.968 Y122.782 E6.44392
G1 X217.057 Y123.546 E6.46822
G1 X217.127 Y124.509 E6.49873
G1 X217.133 Y124.722 E6.50546
G1 X217.136 Y125.165 E6.51946
G1 X217.131 Y125.577 E6.53248
G1 X217.08 Y126.514 E6.56213
G1 X216.918 Y127.601 E6.59686
G1 X216.904 Y127.671 E6.59911
G1 X216.819 Y128.062 E6.61176
G1 X216.769 Y128.272 E6.61858
G1 X216.688 Y128.591 E6.62898
G1 X216.6 Y128.917 E6.63964
G1 X216.317 Y129.811 E6.66927
G1 X215.984 Y130.623 E6.697
G1 X215.968 Y130.658 E6.69822
G1 X215.677 Y131.248 E6.71901
G1 X215.559 Y131.47 E6.72695
G1 X215.416 Y131.73 E6.73633
G1 X215.246 Y132.03 E6.74722
G1 X214.749 Y132.826 E6.77687
G1 X214.187 Y133.576 E6.80649
G1 X213.777 Y134.048 E6.82624
G1 X213.563 Y134.281 E6.83624
G1 X213.309 Y134.548 E6.84788
G1 X213.087 Y134.774 E6.85789
G1 X212.402 Y135.415 E6.88753
G1 X211.57 Y136.062 E6.92084
G1 X211.516 Y136.1 E6.92292
G1 X211.179 Y136.328 E6.93578
G1 X211.002 Y136.443 E6.94245
G1 X210.725 Y136.617 E6.95278
G1 X210.434 Y136.794 E6.96355
G1 X209.613 Y137.247 E6.99317
G1 X208.966 Y137.543 E7.01566
G1 X208.923 Y137.561 E7.01713
G1 X208.139 Y137.854 E7.04357
G1 X207.919 Y137.927 E7.0509
G1 X207.661 Y138.009 E7.05945
G1 X207.323 Y138.112 E7.07062
G1 X206.416 Y138.347 E7.10022
G1 X205.239 Y138.533 E7.13787
G1 X204.839 Y138.568 E7.15056
G1 X203.708 Y138.646 E7.18638
G1 X201.122 Y138.863 E7.26838
G1 X198.601 Y139.145 E7.34853
G1 X196.123 Y139.495 E7.42761
G1 X193.637 Y139.917 E7.50728
G1 X193.214 Y140 E7.5209
G1 X192.148 Y140.197 E7.55515
G1 X191.377 Y140.311 E7.57978
G1 X191.288 Y140.321 E7.58261
G1 X190.825 Y140.363 E7.5973
G1 X189.954 Y140.424 E7.62489
G1 X187.349 Y140.641 E7.70748
G1 X184.818 Y140.924 E7.78795
G1 X182.34 Y141.274 E7.86703
G1 X179.873 Y141.693 E7.9461
G1 X179.168 Y141.833 E7.96881
G1 X178.141 Y142.023 E8.00181
G1 X177.443 Y142.129 E8.02412
G1 X177.367 Y142.138 E8.02653
G1 X176.841 Y142.187 E8.04323
G1 X175.826 Y142.258 E8.07537
G1 X174.465 Y142.335 E8.11845
G1 X171.966 Y142.545 E8.19769
G1 X169.475 Y142.825 E8.27689
G1 X166.961 Y143.18 E8.35711
G1 X164.489 Y143.601 E8.43635
G1 X162.014 Y144.094 E8.51609
G1 X159.594 Y144.649 E8.59454
G1 X157.115 Y145.292 E8.67546
G1 X154.699 Y145.991 E8.75493
G1 X152.317 Y146.754 E8.83396
G1 X149.921 Y147.597 E8.91421
G1 X148.183 Y148.259 E8.97298
G1 X147.964 Y148.34 E8.98036
G1 X147.678 Y148.442 E8.98995
G1 X146.782 Y148.719 E9.01958
G1 X145.888 Y148.915 E9.0485
G1 X145.45 Y148.992 E9.06255
G1 X145.055 Y149.054 E9.07519
G1 X144.889 Y149.077 E9.08048
G1 X143.955 Y149.166 E9.11013
G1 X143.026 Y149.175 E9.13948
G1 X142.527 Y149.159 E9.15526
G1 X142.17 Y149.142 E9.16655
G1 X140.926 Y149.062 E9.20594
G1 X138.313 Y148.929 E9.28861
G1 X135.824 Y148.874 E9.36727
G1 X133.273 Y148.889 E9.44788
G1 X130.777 Y148.976 E9.52679
G1 X128.281 Y149.132 E9.60582
G1 X125.767 Y149.361 E9.68558
G1 X123.241 Y149.664 E9.76597
G1 X120.768 Y150.031 E9.84496
G1 X118.293 Y150.471 E9.92439
G1 X115.827 Y150.981 E10.00396
G1 X113.395 Y151.555 E10.08291
G1 X110.968 Y152.203 E10.16229
G1 X107.84 Y153.144 E10.2655
G1 X106.646 Y153.526 E10.30511
G1 X105.741 Y153.774 E10.33476
G1 X104.819 Y153.943 E10.36438
G1 X103.885 Y154.034 E10.39403
G1 X102.948 Y154.045 E10.42364
G1 X102.012 Y153.975 E10.45329
G1 X101.086 Y153.827 E10.48292
G1 X100.176 Y153.6 E10.51256
G1 X99.289 Y153.296 E10.54218
G1 X98.431 Y152.918 E10.57181
G1 X97.896 Y152.636 E10.59092
G1 X96.85 Y152.048 E10.62883
G1 X94.574 Y150.81 E10.7107
G1 X92.34 Y149.678 E10.78983
G1 X90.061 Y148.601 E10.86948
G1 X87.737 Y147.583 E10.94964
G1 X85.408 Y146.639 E11.02905
G1 X83.072 Y145.769 E11.10781
G1 X80.678 Y144.954 E11.18772
G1 X78.27 Y144.209 E11.26736
G1 X75.806 Y143.523 E11.34818
G1 X73.461 Y142.94 E11.42453
G1 X70.898 Y142.381 E11.50742
G1 X69.364 Y142.083 E11.55679
G1 X68.706 Y141.961 E11.57794
G1 X67.369 Y141.695 E11.62101
G1 X64.9 Y141.273 E11.70016
G1 X62.371 Y140.916 E11.78086
G1 X59.913 Y140.638 E11.85902
G1 X57.262 Y140.415 E11.94308
G1 X56.636 Y140.372 E11.96291
G1 X55.398 Y140.215 E12.00234
G1 X53.878 Y139.933 E12.05118
G1 X53.708 Y139.9 E12.05666
G1 X51.183 Y139.475 E12.13756
G1 X48.722 Y139.132 E12.21607
G1 X46.213 Y138.854 E12.29584
G1 X43.797 Y138.653 E12.37244
G1 X42.623 Y138.571 E12.40962
G1 X41.691 Y138.466 E12.43926
G1 X40.568 Y138.23 E12.47552
G1 X40.188 Y138.124 E12.48798
G1 X39.964 Y138.057 E12.49537
G1 X39.648 Y137.957 E12.50584
G1 X39.335 Y137.853 E12.51626
G1 X38.517 Y137.545 E12.54388
G1 X38.491 Y137.534 E12.54477
G1 X37.644 Y137.132 E12.5744
G1 X37.037 Y136.786 E12.59647
G1 X36.782 Y136.63 E12.60592
G1 X36.551 Y136.485 E12.61454
G1 X36.288 Y136.315 E12.62443
G1 X35.522 Y135.773 E12.65408
G1 X34.806 Y135.167 E12.68372
G1 X34.341 Y134.712 E12.70428
G1 X34.125 Y134.488 E12.71411
G1 X33.933 Y134.284 E12.72296
G1 X33.714 Y134.045 E12.7332
G1 X33.11 Y133.328 E12.76283
G1 X32.57 Y132.561 E12.79247
G1 X32.322 Y132.157 E12.80744
G1 X32.21 Y131.965 E12.81447
G1 X32 Y131.587 E12.82813
G1 X31.808 Y131.226 E12.84105
G1 X31.403 Y130.38 E12.87069
G1 X31.072 Y129.503 E12.9003
G1 X30.898 Y128.921 E12.9195
G1 X30.821 Y128.635 E12.92886
G1 X30.752 Y128.363 E12.93772
G1 X30.676 Y128.049 E12.94793
G1 X30.442 Y126.746 E12.98976
G1 X30.366 Y125.568 E13.02706
G1 X30.363 Y125.302 E13.03547
G1 X30.364 Y124.946 E13.04671
G1 X30.369 Y124.709 E13.0542
G1 X30.431 Y123.757 E13.08435
G1 X30.552 Y122.639 E13.11988
G1 X30.58 Y122.406 E13.1273
G1 X32.958 Y104.099 E13.7106
G1 X33.041 Y103.523 E13.72899
G1 X33.234 Y102.519 E13.7613
G1 X33.4 Y101.829 E13.78372
G1 X33.709 Y100.779 E13.8183
G1 X33.724 Y100.736 E13.81974
G1 X34.07 Y99.864 E13.84939
G1 X34.428 Y99.137 E13.87499
G1 X34.565 Y98.883 E13.88411
G1 X34.717 Y98.611 E13.89395
G1 X34.879 Y98.33 E13.9042
G1 X35.382 Y97.538 E13.93385
G1 X35.95 Y96.792 E13.96347
G1 X36.315 Y96.375 E13.98099
G1 X36.523 Y96.149 E13.99069
G1 X36.805 Y95.854 E14.00359
G1 X37.031 Y95.626 E14.01373
G1 X37.719 Y94.989 E14.04335
G1 X38.792 Y94.184 E14.08574
G1 X39 Y94.047 E14.09361
G1 X39.361 Y93.819 E14.1071
G1 X39.682 Y93.625 E14.11895
G1 X40.505 Y93.174 E14.1486
G0 F7500 X40.697 Y93.526
G1 F1500 X41.518 Y93.164 E14.17695
G1 X41.559 Y93.148 E14.17835
G1 X42.137 Y92.942 E14.19773
G1 X42.377 Y92.864 E14.20571
G1 X42.624 Y92.787 E14.21388
G1 X42.946 Y92.691 E14.2245
G1 X43.839 Y92.466 E14.2536
G1 X44.748 Y92.32 E14.28269
G1 X45.283 Y92.272 E14.29966
G1 X45.604 Y92.251 E14.30982
G1 X45.959 Y92.233 E14.32106
G1 X46.273 Y92.223 E14.33098
G1 X47.193 Y92.234 E14.36005
G1 X48.253 Y92.346 E14.39373
G1 X48.665 Y92.417 E14.40694
G1 X49.408 Y92.56 E14.43085
G1 X51.937 Y93.009 E14.51201
G1 X54.461 Y93.384 E14.59264
G1 X56.971 Y93.684 E14.67251
G1 X59.5 Y93.915 E14.75275
G1 X60.744 Y93.995 E14.79214
G1 X61.439 Y94.049 E14.81416
G1 X62.044 Y94.113 E14.83339
G1 X63.016 Y94.245 E14.86438
G1 X63.972 Y94.387 E14.89492
G1 X66.483 Y94.689 E14.97483
G1 X69.017 Y94.921 E15.05523
G1 X71.522 Y95.079 E15.13454
G1 X74.066 Y95.167 E15.21497
G1 X76.612 Y95.183 E15.29542
G1 X79.094 Y95.129 E15.37386
G1 X81.659 Y95.001 E15.45501
G1 X84.142 Y94.805 E15.53371
G1 X86.704 Y94.531 E15.61513
G1 X89.16 Y94.197 E15.69344
G1 X91.666 Y93.784 E15.77369
G1 X94.161 Y93.301 E15.85399
G1 X96.677 Y92.738 E15.93546
G1 X99.209 Y92.095 E16.018
G1 X100.367 Y91.783 E16.05589
G1 X102.861 Y91.075 E16.13781
G1 X105.264 Y90.318 E16.21742
G1 X107.65 Y89.491 E16.29721
G1 X110.033 Y88.588 E16.37773
G1 X112.362 Y87.632 E16.45728
G1 X114.692 Y86.594 E16.53787
G1 X116.932 Y85.522 E16.61634
G1 X118.605 Y84.656 E16.67586
G1 X119.389 Y84.26 E16.70361
G1 X120.228 Y83.881 E16.7327
G1 X121.097 Y83.577 E16.76179
G1 X121.989 Y83.348 E16.79089
G1 X122.897 Y83.198 E16.81997
G1 X123.815 Y83.128 E16.84906
G1 X124.736 Y83.137 E16.87816
G1 X125.652 Y83.226 E16.90724
G1 X126.557 Y83.395 E16.93633
G1 X127.444 Y83.641 E16.96542
G1 X128.306 Y83.963 E16.99449
G1 X129.077 Y84.327 E17.02143
G1 X131.497 Y85.591 E17.1077
G1 X133.756 Y86.69 E17.18708
G1 X136.084 Y87.743 E17.26781
G1 X138.334 Y88.685 E17.34488
G1 X140.785 Y89.629 E17.42787
G1 X143.13 Y90.458 E17.50646
G1 X145.551 Y91.237 E17.58682
G1 X147.961 Y91.938 E17.66613
G1 X150.453 Y92.587 E17.74749
G1 X152.828 Y93.135 E17.82451
G1 X155.372 Y93.646 E17.9065
G1 X157.889 Y94.077 E17.98718
G1 X160.354 Y94.43 E18.06586
G1 X162.87 Y94.716 E18.14587
G1 X165.408 Y94.932 E18.22636
G1 X167.908 Y95.074 E18.30548
G1 X170.461 Y95.147 E18.38618
G1 X172.971 Y95.147 E18.46549
G1 X175.509 Y95.076 E18.54571
G1 X178.032 Y94.933 E18.62556
G1 X180.555 Y94.719 E18.70557
G1 X183.032 Y94.438 E18.78433
G1 X184.314 Y94.254 E18.82526
G1 X185.491 Y94.097 E18.86278
G1 X186.098 Y94.034 E18.88206
G1 X187.237 Y93.949 E18.91815
G1 X187.992 Y93.902 E18.94205
G1 X190.511 Y93.674 E19.02197
G1 X193.025 Y93.375 E19.10196
G1 X195.546 Y93.003 E19.18248
G1 X197.987 Y92.573 E19.2608
G1 X198.915 Y92.396 E19.29065
G1 X199.826 Y92.263 E19.31974
G1 X200.898 Y92.209 E19.35365
G1 X201.329 Y92.216 E19.36727
G1 X201.571 Y92.225 E19.37493
G1 X201.832 Y92.238 E19.38318
G1 X202.171 Y92.259 E19.39391
G1 X203.087 Y92.356 E19.42302
G1 X203.991 Y92.532 E19.45212
G1 X204.533 Y92.677 E19.46985
G1 X204.853 Y92.772 E19.48039
G1 X205.178 Y92.874 E19.49116
G1 X205.467 Y92.97 E19.50078
G1 X206.327 Y93.298 E19.52986
G1 X207.155 Y93.7 E19.55895
G1 X207.566 Y93.933 E19.57387
G1 X207.78 Y94.061 E19.58175
G1 X208.067 Y94.239 E19.59242
G1 X208.38 Y94.44 E19.60418
G1 X209.132 Y94.97 E19.63325
G1 X210.097 Y95.814 E19.67375
G1 X210.247 Y95.962 E19.68041
G1 X210.567 Y96.291 E19.69491
G1 X210.856 Y96.602 E19.70833
G1 X211.453 Y97.303 E19.73742
G1 X211.987 Y98.053 E19.76651
G1 X212.277 Y98.528 E19.7841
G1 X212.425 Y98.785 E19.79347
G1 X212.585 Y99.073 E19.80388
G1 X212.737 Y99.357 E19.81406
G1 X213.176 Y100.282 E19.84641
G1 X213.186 Y100.306 E19.84723
G1 X213.62 Y101.567 E19.88937
G1 X213.69 Y101.821 E19.89769
G1 X213.769 Y102.124 E19.90759
G1 X213.82 Y102.333 E19.91438
G1 X214.003 Y103.262 E19.9443
G1 X214.178 Y104.42 E19.98131
G1 X214.209 Y104.638 E19.98826
G1 X216.554 Y122.689 E20.56342
G1 X216.66 Y123.592 E20.59215
G1 X216.727 Y124.521 E20.62158
G1 X216.733 Y124.734 E20.62831
G1 X216.736 Y125.161 E20.6418
G1 X216.731 Y125.573 E20.65482
G1 X216.68 Y126.492 E20.6839
G1 X216.526 Y127.523 E20.71684
G1 X216.512 Y127.593 E20.7191
G1 X216.43 Y127.969 E20.73126
G1 X216.38 Y128.179 E20.73808
G1 X216.302 Y128.486 E20.74808
G1 X216.214 Y128.812 E20.75875
G1 X215.935 Y129.69 E20.78786
G1 X215.62 Y130.457 E20.81406
G1 X215.604 Y130.492 E20.81528
G1 X215.324 Y131.06 E20.83529
G1 X215.206 Y131.282 E20.84323
G1 X215.068 Y131.533 E20.85228
G1 X214.898 Y131.833 E20.86318
G1 X214.41 Y132.613 E20.89225
G1 X213.856 Y133.349 E20.92136
G1 X213.483 Y133.777 E20.9393
G1 X213.269 Y134.01 E20.94929
G1 X213.024 Y134.268 E20.96053
G1 X212.802 Y134.494 E20.97054
G1 X212.129 Y135.122 E20.99963
G1 X211.34 Y135.735 E21.0312
G1 X211.286 Y135.773 E21.03328
G1 X210.961 Y135.993 E21.04569
G1 X210.784 Y136.108 E21.05235
G1 X210.517 Y136.275 E21.06231
G1 X210.226 Y136.452 E21.07307
G1 X209.42 Y136.896 E21.10214
G1 X208.811 Y137.174 E21.1233
