;FLAVOR:Marlin
M117 Time Left 1h10m57s
;TIME:4257
;Filament used: 1.99095m
;Layer height: 0.2
;MINX:25.337
;MINY:80.266
;MINZ:0.2
;MAXX:212.103
;MAXY:140.966
;MAXZ:2
;POSTPROCESSED
;Generated with Cura_SteamEngine 4.7.1
M140 S70
M105
M190 S70
M104 S230
M105
M109 S230
M82 ;absolute extrusion mode
; Ender 3 Custom Start G-code
G92 E0 ; Reset Extruder
G28 ; Home all axes
; ***SET NEW E STEP *** (93 is factory value - 95 mine - start)
G90                          ; Force coordinates to be absolute relative to the origin
M92 E95 ;					 ; ***SET NEW E STEP *** (93 is factory value - 95 mine - end)
G90                          ; Force coordinates to be absolute relative to the origin
G28                          ; Home X/Y/Z axis
G92 E0 ; Reset Extruder								
G28 ; Home all axes		
G1 Z2.0 F3000 ; Move Z Axis up little to prevent scratching of Heat Bed
G1 X0.1 Y20 Z0.3 F5000.0 ; Move to start position
G1 X0.1 Y200.0 Z0.3 F1500.0 E15 ; Draw the first line
G1 X0.4 Y200.0 Z0.3 F5000.0 ; Move to side a little
G1 X0.4 Y20 Z0.3 F1500.0 E30 ; Draw the second line
G92 E0 ; Reset Extruder
G1 Z2.0 F3000 ; Move Z Axis up little to prevent scratching of Heat Bed
G1 X5 Y20 Z0.3 F5000.0 ; Move over to prevent blob squish
G92 E0
G92 E0
G1 F2700 E-6
;LAYER_COUNT:16
;LAYER:0
M107
M204 S500
M205 X8 Y8
G0 F7500 X35.494 Y81.625 Z0.2
;TYPE:SKIRT
G1 F2700 E0
G1 F1500 X36.485 Y81.196 E0.03412
G1 X36.549 Y81.172 E0.03628
G1 X36.993 Y81.017 E0.05114
G1 X37.201 Y80.949 E0.05805
G1 X37.47 Y80.864 E0.06697
G1 X37.798 Y80.766 E0.07778
G1 X38.707 Y80.536 E0.10741
G1 X39.633 Y80.385 E0.13706
G1 X40.237 Y80.329 E0.15622
G1 X40.546 Y80.309 E0.16601
G1 X40.886 Y80.292 E0.17676
G1 X41.213 Y80.281 E0.1871
G1 X42.151 Y80.29 E0.21674
G1 X43.288 Y80.408 E0.25286
G1 X43.713 Y80.481 E0.26649
G1 X44.449 Y80.623 E0.29017
G1 X47.002 Y81.076 E0.3721
G1 X49.474 Y81.443 E0.45106
G1 X51.988 Y81.744 E0.53106
G1 X54.471 Y81.97 E0.60984
G1 X55.614 Y82.043 E0.64603
G1 X56.44 Y82.107 E0.67221
G1 X57.412 Y82.226 E0.70315
G1 X57.732 Y82.283 E0.71342
G1 X58.804 Y82.489 E0.74791
G1 X58.919 Y82.504 E0.75158
G1 X60.062 Y82.725 E0.78836
G1 X62.564 Y83.137 E0.86848
G1 X65.083 Y83.48 E0.94881
G1 X67.564 Y83.746 E1.02765
G1 X69.037 Y83.862 E1.07434
G1 X69.231 Y83.885 E1.08051
G1 X70.421 Y83.977 E1.11823
G1 X71.664 Y84.145 E1.15786
G1 X71.985 Y84.207 E1.16819
G1 X72.285 Y84.269 E1.17787
G1 X72.573 Y84.333 E1.18719
G1 X73.479 Y84.575 E1.21682
G1 X74.035 Y84.766 E1.2354
G1 X74.326 Y84.875 E1.24521
G1 X76.728 Y85.738 E1.32586
G1 X79.117 Y86.521 E1.4053
G1 X81.547 Y87.243 E1.4854
G1 X83.998 Y87.895 E1.56553
G1 X86.411 Y88.465 E1.64388
G1 X88.857 Y88.971 E1.7228
G1 X91.386 Y89.42 E1.80396
G1 X93.83 Y89.782 E1.88202
G1 X96.37 Y90.085 E1.96285
G1 X98.863 Y90.311 E2.04194
G1 X101.386 Y90.469 E2.12182
G1 X104.209 Y90.562 E2.21107
G1 X105.658 Y90.588 E2.25686
G1 X108.231 Y90.669 E2.3382
G1 X110.705 Y90.676 E2.41637
G1 X112.657 Y90.617 E2.47808
G1 X114.07 Y90.584 E2.52273
G1 X114.382 Y90.581 E2.53259
G1 X115.567 Y90.588 E2.57004
G1 X115.861 Y90.594 E2.57933
G1 X117.57 Y90.571 E2.63333
G1 X117.899 Y90.58 E2.64373
G1 X118.958 Y90.571 E2.67719
G1 X123.371 Y90.572 E2.81663
G1 X124.075 Y90.582 E2.83888
G1 X124.385 Y90.591 E2.84868
G1 X124.713 Y90.605 E2.85905
G1 X127.264 Y90.678 E2.93969
G1 X129.799 Y90.678 E3.01979
G1 X131.599 Y90.629 E3.07668
G1 X132.372 Y90.606 E3.10112
G1 X132.496 Y90.601 E3.10504
G1 X134.248 Y90.547 E3.16042
G1 X136.854 Y90.43 E3.24285
G1 X139.337 Y90.248 E3.32152
G1 X141.826 Y89.994 E3.40057
G1 X144.36 Y89.663 E3.48132
G1 X146.819 Y89.272 E3.55999
G1 X149.321 Y88.8 E3.64044
G1 X151.781 Y88.264 E3.71999
G1 X154.191 Y87.667 E3.79844
G1 X156.614 Y86.993 E3.87791
G1 X159.04 Y86.244 E3.95814
G1 X161.474 Y85.417 E4.03936
G1 X162.694 Y84.972 E4.08039
G1 X163.407 Y84.706 E4.10444
G1 X164.298 Y84.416 E4.13405
G1 X164.791 Y84.291 E4.15012
G1 X165.048 Y84.232 E4.15845
G1 X165.506 Y84.137 E4.17323
G1 X165.857 Y84.072 E4.18451
G1 X167.011 Y83.921 E4.22128
G1 X168.122 Y83.835 E4.25649
G1 X168.312 Y83.822 E4.26251
G1 X168.652 Y83.802 E4.27327
G1 X171.139 Y83.579 E4.35217
G1 X173.667 Y83.28 E4.4326
G1 X176.12 Y82.92 E4.51094
G1 X178.752 Y82.457 E4.59538
G1 X179.808 Y82.256 E4.62934
G1 X181.035 Y82.093 E4.66846
G1 X182.184 Y82.007 E4.70486
G1 X182.963 Y81.958 E4.72952
G1 X185.461 Y81.732 E4.80878
G1 X187.94 Y81.436 E4.88766
G1 X190.439 Y81.068 E4.96748
G1 X192.916 Y80.631 E5.04695
G1 X193.813 Y80.46 E5.0758
G1 X194.741 Y80.324 E5.10544
G1 X195.871 Y80.266 E5.14119
G1 X196.317 Y80.274 E5.15528
G1 X196.559 Y80.283 E5.16294
G1 X196.83 Y80.296 E5.17151
G1 X197.169 Y80.317 E5.18224
G1 X198.102 Y80.415 E5.21188
G1 X199.023 Y80.592 E5.24152
G1 X199.62 Y80.751 E5.26104
G1 X199.94 Y80.846 E5.27159
G1 X200.277 Y80.952 E5.28275
G1 X200.566 Y81.048 E5.29237
G1 X201.442 Y81.381 E5.32198
G1 X202.287 Y81.788 E5.35162
G1 X202.752 Y82.051 E5.3685
G1 X202.989 Y82.193 E5.37723
G1 X203.259 Y82.361 E5.38727
G1 X203.55 Y82.547 E5.39819
G1 X204.318 Y83.085 E5.42782
G1 X205.037 Y83.687 E5.45745
G1 X205.444 Y84.077 E5.47526
G1 X205.636 Y84.271 E5.48388
G1 X205.896 Y84.543 E5.49577
G1 X206.14 Y84.807 E5.50713
G1 X206.747 Y85.522 E5.53676
G1 X207.29 Y86.286 E5.56638
G1 X207.574 Y86.748 E5.58352
G1 X207.714 Y86.989 E5.59232
G1 X207.893 Y87.31 E5.60394
G1 X208.06 Y87.621 E5.61509
G1 X208.468 Y88.465 E5.64471
G1 X208.803 Y89.342 E5.67437
G1 X208.963 Y89.863 E5.69159
G1 X209.041 Y90.142 E5.70075
G1 X209.128 Y90.474 E5.71159
G1 X209.177 Y90.673 E5.71807
G1 X209.373 Y91.659 E5.74983
G1 X209.548 Y92.817 E5.78684
G1 X209.579 Y93.044 E5.79408
G1 X211.944 Y111.263 E6.37457
G1 X212.016 Y111.882 E6.39426
G1 X212.087 Y112.89 E6.42619
G1 X212.103 Y113.56 E6.44737
G1 X212.085 Y114.497 E6.47698
G1 X212.078 Y114.611 E6.48059
G1 X211.981 Y115.544 E6.51023
G1 X211.797 Y116.495 E6.54084
G1 X211.731 Y116.771 E6.5498
G1 X211.656 Y117.068 E6.55948
G1 X211.577 Y117.362 E6.5691
G1 X211.295 Y118.256 E6.59872
G1 X210.942 Y119.117 E6.62812
G1 X210.924 Y119.156 E6.62948
G1 X210.647 Y119.713 E6.64914
G1 X210.531 Y119.931 E6.65694
G1 X210.367 Y120.228 E6.66766
G1 X210.193 Y120.532 E6.67873
G1 X209.693 Y121.326 E6.70837
G1 X209.127 Y122.074 E6.73801
G1 X208.753 Y122.503 E6.756
G1 X208.554 Y122.72 E6.7653
G1 X208.307 Y122.98 E6.77663
G1 X208.074 Y123.218 E6.78715
G1 X207.39 Y123.86 E6.8168
G1 X206.544 Y124.519 E6.85068
G1 X206.49 Y124.557 E6.85277
G1 X206.153 Y124.785 E6.86562
G1 X205.976 Y124.9 E6.87229
G1 X205.71 Y125.068 E6.88223
G1 X205.423 Y125.243 E6.89285
G1 X204.602 Y125.696 E6.92248
G1 X204.003 Y125.973 E6.94333
G1 X203.956 Y125.993 E6.94495
G1 X203.113 Y126.311 E6.97342
G1 X202.893 Y126.384 E6.98074
G1 X202.635 Y126.466 E6.98929
G1 X202.297 Y126.569 E7.00046
G1 X201.39 Y126.804 E7.03006
G1 X200.213 Y126.99 E7.06772
G1 X199.813 Y127.025 E7.0804
G1 X198.682 Y127.103 E7.11622
G1 X196.096 Y127.32 E7.19822
G1 X193.575 Y127.602 E7.27837
G1 X191.097 Y127.952 E7.35745
G1 X188.611 Y128.374 E7.43712
G1 X188.184 Y128.458 E7.45087
G1 X187.121 Y128.654 E7.48503
G1 X186.432 Y128.758 E7.50704
G1 X186.34 Y128.769 E7.50997
G1 X185.799 Y128.82 E7.52714
G1 X184.928 Y128.881 E7.55473
G1 X182.323 Y129.098 E7.63733
G1 X179.792 Y129.381 E7.7178
G1 X177.314 Y129.731 E7.79687
G1 X174.847 Y130.15 E7.87594
G1 X174.142 Y130.29 E7.89865
G1 X173.115 Y130.48 E7.93165
G1 X172.417 Y130.586 E7.95396
G1 X172.341 Y130.595 E7.95638
G1 X171.808 Y130.645 E7.97329
G1 X171.534 Y130.664 E7.98197
G1 X171.252 Y130.68 E7.99089
G1 X170.931 Y130.694 E8.00105
G1 X170.593 Y130.703 E8.01173
G1 X169.514 Y130.717 E8.04583
G1 X166.907 Y130.788 E8.12823
G1 X164.389 Y130.928 E8.20792
G1 X161.912 Y131.136 E8.28646
G1 X159.359 Y131.424 E8.36764
G1 X157.726 Y131.646 E8.41971
G1 X157.541 Y131.67 E8.4256
G1 X156.471 Y131.756 E8.45952
G1 X156.184 Y131.765 E8.46859
G1 X155.842 Y131.77 E8.4794
G1 X151.398 Y131.77 E8.61982
G1 X150.489 Y131.757 E8.64854
G1 X147.826 Y131.757 E8.73269
G1 X147.601 Y131.76 E8.7398
G1 X146.996 Y131.751 E8.75891
G1 X146.876 Y131.746 E8.76271
G1 X146.58 Y131.73 E8.77208
G1 X145.772 Y131.675 E8.79767
G1 X143.132 Y131.531 E8.88121
G1 X140.637 Y131.464 E8.96007
G1 X138.12 Y131.47 E9.0396
G1 X135.645 Y131.545 E9.11784
G1 X133.989 Y131.653 E9.17027
G1 X133.879 Y131.655 E9.17375
G1 X133.879 Y131.657 E9.17381
G1 X133.574 Y131.674 E9.18347
G1 X132.425 Y131.754 E9.21986
G1 X131.824 Y131.793 E9.23889
G1 X131.567 Y131.814 E9.24704
G1 X130.967 Y131.855 E9.26604
G1 X128.497 Y132.098 E9.34446
G1 X125.987 Y132.415 E9.4244
G1 X123.518 Y132.8 E9.50336
G1 X121.004 Y133.263 E9.58413
G1 X118.6 Y133.777 E9.6618
G1 X116.1 Y134.386 E9.74311
G1 X113.682 Y135.049 E9.82233
G1 X111.301 Y135.774 E9.90097
G1 X108.879 Y136.587 E9.9817
G1 X106.548 Y137.443 E10.06016
G1 X105.661 Y137.802 E10.09039
G1 X105.522 Y137.852 E10.09506
G1 X104.257 Y138.349 E10.138
G1 X103.454 Y138.63 E10.16489
G1 X102.165 Y138.943 E10.2068
G1 X100.879 Y139.173 E10.24808
G1 X100.858 Y139.178 E10.24876
G1 X98.62 Y139.599 E10.32071
G1 X96.176 Y140.13 E10.39974
G1 X95.72 Y140.245 E10.4146
G1 X95.57 Y140.277 E10.41944
G1 X94.191 Y140.605 E10.46423
G1 X93.271 Y140.783 E10.49384
G1 X92.345 Y140.882 E10.52327
G1 X91.591 Y140.93 E10.54714
G1 X91.262 Y140.946 E10.55755
G1 X90.667 Y140.966 E10.57636
G1 X89.669 Y140.954 E10.60789
G1 X88.479 Y140.886 E10.64556
G1 X88.25 Y140.871 E10.65281
G1 X87.905 Y140.843 E10.66374
G1 X87.222 Y140.78 E10.68542
G1 X85.922 Y140.581 E10.72697
G1 X84.856 Y140.352 E10.76142
G1 X84.638 Y140.303 E10.76848
G1 X84.295 Y140.222 E10.77962
G1 X83.452 Y140.01 E10.80708
G1 X82.28 Y139.643 E10.84589
G1 X81.414 Y139.317 E10.87513
G1 X80.696 Y139.034 E10.89951
G1 X80.058 Y138.772 E10.9213
G1 X79.159 Y138.354 E10.95263
G1 X78.015 Y137.758 E10.99339
G1 X75.721 Y136.601 E11.07457
G1 X73.447 Y135.536 E11.15391
G1 X71.099 Y134.515 E11.23481
G1 X68.848 Y133.609 E11.31148
G1 X66.411 Y132.71 E11.39356
G1 X64.052 Y131.914 E11.47222
G1 X61.623 Y131.171 E11.55248
G1 X59.208 Y130.505 E11.63164
G1 X56.743 Y129.9 E11.71184
G1 X54.371 Y129.388 E11.78851
G1 X51.815 Y128.913 E11.87066
G1 X50.709 Y128.732 E11.90607
G1 X50.482 Y128.692 E11.91335
G1 X48.852 Y128.39 E11.96573
G1 X48.682 Y128.357 E11.9712
G1 X46.157 Y127.932 E12.05211
G1 X43.696 Y127.589 E12.13062
G1 X41.187 Y127.311 E12.21038
G1 X38.771 Y127.11 E12.28698
G1 X37.597 Y127.028 E12.32417
G1 X36.665 Y126.923 E12.3538
G1 X35.542 Y126.687 E12.39006
G1 X35.162 Y126.581 E12.40253
G1 X34.938 Y126.514 E12.40992
G1 X34.622 Y126.414 E12.42039
G1 X34.309 Y126.31 E12.43081
G1 X33.25 Y125.896 E12.46674
G1 X33.219 Y125.882 E12.46781
G1 X32.004 Y125.239 E12.51125
G1 X31.754 Y125.086 E12.52051
G1 X31.532 Y124.947 E12.52879
G1 X31.267 Y124.776 E12.53875
G1 X30.501 Y124.234 E12.5684
G1 X29.784 Y123.629 E12.59804
G1 X29.324 Y123.18 E12.61835
G1 X29.118 Y122.967 E12.62772
G1 X28.925 Y122.762 E12.63661
G1 X28.699 Y122.516 E12.64717
G1 X28.094 Y121.799 E12.67681
G1 X27.431 Y120.839 E12.71367
G1 X27.214 Y120.474 E12.72709
G1 X27.09 Y120.256 E12.73502
G1 X26.937 Y119.979 E12.74502
G1 X26.793 Y119.708 E12.75471
G1 X26.389 Y118.861 E12.78436
G1 X26.142 Y118.228 E12.80583
G1 X26.115 Y118.152 E12.80838
G1 X25.859 Y117.333 E12.83549
G1 X25.804 Y117.129 E12.84217
G1 X25.732 Y116.847 E12.85137
G1 X25.648 Y116.499 E12.86268
G1 X25.416 Y115.203 E12.90428
G1 X25.34 Y114.025 E12.94158
G1 X25.337 Y113.759 E12.94998
G1 X25.338 Y113.403 E12.96123
G1 X25.343 Y113.166 E12.96872
G1 X25.405 Y112.214 E12.99887
G1 X25.526 Y111.096 E13.0344
G1 X25.554 Y110.864 E13.04178
G1 X27.485 Y95.984 E13.51589
G1 X27.929 Y92.581 E13.62433
G1 X28.014 Y91.988 E13.64325
G1 X28.211 Y90.963 E13.67623
G1 X28.382 Y90.256 E13.69922
G1 X28.724 Y89.116 E13.73682
G1 X28.733 Y89.091 E13.73766
G1 X29.088 Y88.223 E13.76729
G1 X29.409 Y87.582 E13.78995
G1 X29.547 Y87.327 E13.79911
G1 X29.691 Y87.068 E13.80847
G1 X29.853 Y86.787 E13.81872
G1 X30.356 Y85.995 E13.84837
G1 X30.924 Y85.249 E13.87799
G1 X31.289 Y84.832 E13.8955
G1 X31.497 Y84.606 E13.90521
G1 X31.779 Y84.311 E13.9181
G1 X32.005 Y84.083 E13.92825
G1 X32.693 Y83.446 E13.95787
G1 X33.766 Y82.641 E14.00026
G1 X33.974 Y82.504 E14.00813
G1 X34.348 Y82.268 E14.0221
G1 X34.67 Y82.074 E14.03398
G1 X35.494 Y81.625 E14.06363
G0 F7500 X35.685 Y81.976
G1 F1500 X36.625 Y81.571 E14.09597
G1 X36.689 Y81.547 E14.09813
G1 X37.117 Y81.397 E14.11246
G1 X37.325 Y81.329 E14.11937
G1 X37.584 Y81.248 E14.12795
G1 X37.912 Y81.15 E14.13876
G1 X38.805 Y80.925 E14.16786
G1 X39.714 Y80.778 E14.19696
G1 X40.262 Y80.728 E14.21434
G1 X40.571 Y80.708 E14.22413
G1 X40.9 Y80.692 E14.23454
G1 X41.227 Y80.681 E14.24487
G1 X42.147 Y80.69 E14.27394
G1 X43.226 Y80.803 E14.30822
G1 X43.638 Y80.874 E14.32143
G1 X44.381 Y81.017 E14.34534
G1 X46.91 Y81.466 E14.4265
G1 X49.434 Y81.841 E14.50713
G1 X51.944 Y82.141 E14.587
G1 X54.442 Y82.369 E14.66626
G1 X55.745 Y82.453 E14.70751
G1 X56.409 Y82.505 E14.72856
G1 X57.346 Y82.621 E14.75839
G1 X57.656 Y82.676 E14.76834
G1 X58.69 Y82.875 E14.80161
G1 X58.844 Y82.897 E14.80653
G1 X59.999 Y83.12 E14.84369
G1 X62.516 Y83.535 E14.9243
G1 X65.023 Y83.876 E15.00424
G1 X67.523 Y84.144 E15.08369
G1 X69.006 Y84.261 E15.13069
G1 X69.195 Y84.284 E15.13671
G1 X70.39 Y84.376 E15.17458
G1 X71.588 Y84.537 E15.21277
G1 X71.909 Y84.599 E15.2231
G1 X72.198 Y84.659 E15.23243
G1 X72.486 Y84.723 E15.24175
G1 X73.376 Y84.962 E15.27087
G1 X73.895 Y85.141 E15.28821
G1 X74.129 Y85.228 E15.2961
G1 X76.616 Y86.123 E15.37962
G1 X79.016 Y86.909 E15.45941
G1 X81.435 Y87.627 E15.53914
G1 X83.875 Y88.277 E15.61893
G1 X86.344 Y88.86 E15.69909
G1 X88.771 Y89.363 E15.7774
G1 X91.301 Y89.811 E15.85859
G1 X93.83 Y90.186 E15.93937
G1 X96.322 Y90.483 E16.01867
G1 X98.834 Y90.711 E16.09837
G1 X101.349 Y90.868 E16.17799
G1 X104.186 Y90.962 E16.26768
G1 X105.646 Y90.988 E16.31382
G1 X108.218 Y91.068 E16.39512
G1 X110.716 Y91.076 E16.47405
G1 X112.667 Y91.017 E16.53573
G1 X114.08 Y90.984 E16.58039
G1 X114.38 Y90.981 E16.58987
G1 X115.559 Y90.988 E16.62712
G1 X115.858 Y90.994 E16.63657
G1 X117.575 Y90.971 E16.69083
G1 X117.9 Y90.981 E16.7011
G1 X118.962 Y90.971 E16.73466
G1 X123.366 Y90.972 E16.87381
G1 X124.07 Y90.982 E16.89606
G1 X124.368 Y90.991 E16.90548
G1 X124.613 Y91.001 E16.91323
G1 X127.287 Y91.078 E16.99775
G1 X129.81 Y91.078 E17.07747
G1 X131.61 Y91.029 E17.13437
G1 X132.365 Y91.007 E17.15823
G1 X132.508 Y91.001 E17.16276
G1 X134.279 Y90.947 E17.21874
G1 X136.832 Y90.832 E17.29949
G1 X139.406 Y90.643 E17.38104
G1 X141.882 Y90.391 E17.45968
G1 X144.403 Y90.062 E17.54001
G1 X146.919 Y89.661 E17.62051
G1 X149.375 Y89.198 E17.69948
G1 X151.851 Y88.658 E17.77956
G1 X154.289 Y88.054 E17.85892
G1 X156.734 Y87.375 E17.9391
G1 X159.169 Y86.623 E18.01962
G1 X161.613 Y85.792 E18.10119
G1 X162.809 Y85.356 E18.14141
G1 X163.546 Y85.081 E18.16627
G1 X164.422 Y84.797 E18.19536
G1 X164.88 Y84.681 E18.21029
G1 X165.137 Y84.622 E18.21862
G1 X165.579 Y84.53 E18.23289
G1 X165.93 Y84.465 E18.24417
G1 X167.042 Y84.32 E18.2796
G1 X168.336 Y84.221 E18.32061
G1 X168.679 Y84.2 E18.33147
G1 X171.186 Y83.976 E18.41099
G1 X173.705 Y83.678 E18.49114
G1 X176.205 Y83.311 E18.57098
G1 X178.831 Y82.849 E18.65523
G1 X179.883 Y82.649 E18.68907
G1 X181.065 Y82.492 E18.72674
G1 X182.069 Y82.416 E18.75856
G1 X182.953 Y82.361 E18.78654
G1 X185.508 Y82.129 E18.86761
G1 X188.014 Y81.83 E18.94735
G1 X190.49 Y81.465 E19.02643
G1 X192.995 Y81.023 E19.1068
G1 X193.888 Y80.853 E19.13553
G1 X194.799 Y80.72 E19.16462
G1 X195.871 Y80.666 E19.19853
G1 X196.302 Y80.673 E19.21215
G1 X196.544 Y80.682 E19.2198
G1 X196.805 Y80.695 E19.22806
G1 X197.144 Y80.716 E19.23879
G1 X198.06 Y80.813 E19.2679
G1 X198.964 Y80.989 E19.297
G1 X199.506 Y81.134 E19.31472
G1 X199.826 Y81.229 E19.32527
G1 X200.151 Y81.331 E19.33603
G1 X200.44 Y81.427 E19.34566
G1 X201.3 Y81.755 E19.37474
G1 X202.128 Y82.157 E19.40382
G1 X202.546 Y82.394 E19.41901
G1 X202.783 Y82.536 E19.42774
G1 X203.044 Y82.698 E19.43744
G1 X203.335 Y82.884 E19.44835
G1 X204.088 Y83.413 E19.47743
G1 X204.793 Y84.005 E19.50652
G1 X205.16 Y84.359 E19.52263
G1 X205.352 Y84.553 E19.53126
G1 X205.602 Y84.814 E19.54267
G1 X205.846 Y85.078 E19.55403
G1 X206.441 Y85.781 E19.58313
G1 X206.973 Y86.533 E19.61224
