;FLAVOR:Marlin
M117 Time Left 1h13m44s
;TIME:4424
;Filament used: 1.98602m
;Layer height: 0.2
;MINX:24.913
;MINY:104.552
;MINZ:0.2
;MAXX:211.682
;MAXY:164.751
;MAXZ:2
;POSTPROCESSED
;Generated with Cura_SteamEngine 4.7.1
M140 S70
M105
M190 S70
M104 S230
M105
M109 S230
M82 ;absolute extrusion mode
; Ender 3 Custom Start G-code
G92 E0 ; Reset Extruder
G28 ; Home all axes
; ***SET NEW E STEP *** (93 is factory value - 95 mine - start)
G90                          ; Force coordinates to be absolute relative to the origin
M92 E95 ;					 ; ***SET NEW E STEP *** (93 is factory value - 95 mine - end)
G90                          ; Force coordinates to be absolute relative to the origin
G28                          ; Home X/Y/Z axis
G92 E0 ; Reset Extruder								
G28 ; Home all axes		
G1 Z2.0 F3000 ; Move Z Axis up little to prevent scratching of Heat Bed
G1 X0.1 Y20 Z0.3 F5000.0 ; Move to start position
G1 X0.1 Y200.0 Z0.3 F1500.0 E15 ; Draw the first line
G1 X0.4 Y200.0 Z0.3 F5000.0 ; Move to side a little
G1 X0.4 Y20 Z0.3 F1500.0 E30 ; Draw the second line
G92 E0 ; Reset Extruder
G1 Z2.0 F3000 ; Move Z Axis up little to prevent scratching of Heat Bed
G1 X5 Y20 Z0.3 F5000.0 ; Move over to prevent blob squish
G92 E0
G92 E0
G1 F2700 E-6
;LAYER_COUNT:16
;LAYER:0
M107
M204 S500
M205 X8 Y8
G0 F7500 X36.452 Y105.335 Z0.2
;TYPE:SKIRT
G1 F2700 E0
G1 F1500 X36.695 Y105.254 E0.00809
G1 X37.051 Y105.143 E0.01988
G1 X37.409 Y105.037 E0.03167
G1 X38.319 Y104.809 E0.06132
G1 X39.245 Y104.66 E0.09095
G1 X39.8 Y104.608 E0.10856
G1 X40.07 Y104.59 E0.11711
G1 X40.394 Y104.574 E0.12736
G1 X40.744 Y104.561 E0.13843
G1 X41.682 Y104.566 E0.16807
G1 X42.752 Y104.67 E0.20204
G1 X43.254 Y104.754 E0.21812
G1 X44.109 Y104.918 E0.24563
G1 X46.638 Y105.364 E0.32677
G1 X49.131 Y105.732 E0.4064
G1 X51.61 Y106.027 E0.48528
G1 X54.155 Y106.257 E0.56602
G1 X54.986 Y106.308 E0.59233
G1 X55.157 Y106.32 E0.59774
G1 X56.009 Y106.386 E0.62474
G1 X56.921 Y106.495 E0.65377
G1 X57.527 Y106.594 E0.67317
G1 X59.337 Y106.914 E0.73125
G1 X61.785 Y107.275 E0.80943
G1 X64.308 Y107.574 E0.88971
G1 X66.838 Y107.802 E0.96997
G1 X69.314 Y107.955 E1.04836
G1 X71.847 Y108.04 E1.12844
G1 X74.363 Y108.052 E1.20794
G1 X76.86 Y107.994 E1.28686
G1 X79.4 Y107.864 E1.36722
G1 X81.896 Y107.663 E1.44634
G1 X84.417 Y107.39 E1.52646
G1 X86.885 Y107.052 E1.60517
G1 X89.386 Y106.636 E1.68528
G1 X91.814 Y106.162 E1.76345
G1 X93.245 Y105.832 E1.80985
G1 X93.39 Y105.805 E1.81451
G1 X94.692 Y105.516 E1.85665
G1 X95.607 Y105.353 E1.88602
G1 X95.785 Y105.329 E1.89169
G1 X96.089 Y105.292 E1.90137
G1 X96.408 Y105.258 E1.91151
G1 X96.665 Y105.234 E1.91966
G1 X97.28 Y105.183 E1.93916
G1 X98.636 Y105.154 E1.98202
G1 X98.759 Y105.159 E1.98591
G1 X99.241 Y105.189 E2.00116
G1 X99.477 Y105.209 E2.00865
G1 X100.631 Y105.369 E2.04546
G1 X100.854 Y105.412 E2.05264
G1 X101.373 Y105.525 E2.06942
G1 X101.525 Y105.562 E2.07436
G1 X102.426 Y105.823 E2.104
G1 X102.876 Y105.985 E2.11911
G1 X103.27 Y106.137 E2.13246
G1 X105.465 Y107.006 E2.20705
G1 X107.83 Y107.868 E2.28659
G1 X110.213 Y108.66 E2.36593
G1 X112.632 Y109.389 E2.44576
G1 X115.07 Y110.048 E2.52556
G1 X117.496 Y110.632 E2.6044
G1 X119.928 Y111.145 E2.68294
G1 X122.43 Y111.599 E2.76329
G1 X124.957 Y111.984 E2.84405
G1 X127.403 Y112.286 E2.92193
G1 X129.952 Y112.528 E3.00283
G1 X132.453 Y112.694 E3.08203
G1 X134.976 Y112.79 E3.16181
G1 X137.472 Y112.814 E3.24068
G1 X139.987 Y112.768 E3.32016
G1 X142.518 Y112.649 E3.40022
G1 X145.032 Y112.46 E3.47988
G1 X147.515 Y112.202 E3.55875
G1 X150.032 Y111.869 E3.63898
G1 X152.49 Y111.472 E3.71765
G1 X154.979 Y110.998 E3.79771
G1 X157.436 Y110.457 E3.8772
G1 X159.834 Y109.857 E3.95531
G1 X163.712 Y108.743 E4.0828
G1 X164.465 Y108.55 E4.10736
G1 X164.751 Y108.487 E4.11661
G1 X165.036 Y108.428 E4.12581
G1 X165.363 Y108.365 E4.13633
G1 X166.618 Y108.197 E4.17634
G1 X168.066 Y108.089 E4.22222
G1 X168.398 Y108.068 E4.23273
G1 X170.908 Y107.838 E4.31237
G1 X173.416 Y107.536 E4.39219
G1 X175.909 Y107.166 E4.47182
G1 X178.266 Y106.748 E4.54746
G1 X179.387 Y106.535 E4.58351
G1 X180.616 Y106.372 E4.62269
G1 X181.804 Y106.283 E4.66033
G1 X182.575 Y106.235 E4.68474
G1 X185.1 Y106.004 E4.76485
G1 X187.59 Y105.706 E4.84409
G1 X190.063 Y105.339 E4.92309
G1 X192.447 Y104.917 E4.99959
G1 X193.378 Y104.74 E5.02953
G1 X194.535 Y104.583 E5.06642
G1 X195.835 Y104.552 E5.10751
G1 X196.148 Y104.563 E5.11741
G1 X196.536 Y104.583 E5.12968
G1 X196.848 Y104.605 E5.13957
G1 X197.78 Y104.711 E5.1692
G1 X198.699 Y104.896 E5.19882
G1 X199.152 Y105.018 E5.21365
G1 X199.399 Y105.09 E5.22178
G1 X199.709 Y105.185 E5.23202
G1 X200.058 Y105.298 E5.24361
G1 X200.938 Y105.625 E5.27328
G1 X201.885 Y106.078 E5.30645
G1 X202.445 Y106.399 E5.32684
G1 X202.675 Y106.54 E5.33536
G1 X202.851 Y106.65 E5.34192
G1 X203.131 Y106.829 E5.35242
G1 X203.899 Y107.367 E5.38205
G1 X204.618 Y107.969 E5.41168
G1 X205.045 Y108.38 E5.43041
G1 X205.234 Y108.572 E5.43892
G1 X205.473 Y108.823 E5.44987
G1 X205.717 Y109.087 E5.46123
G1 X206.324 Y109.802 E5.49087
G1 X206.867 Y110.566 E5.52048
G1 X207.131 Y110.994 E5.53637
G1 X207.261 Y111.216 E5.5445
G1 X207.465 Y111.58 E5.55768
G1 X207.637 Y111.901 E5.56919
G1 X208.044 Y112.746 E5.59883
G1 X208.377 Y113.617 E5.62829
G1 X208.395 Y113.671 E5.63009
G1 X208.558 Y114.206 E5.64776
G1 X208.618 Y114.422 E5.65484
G1 X208.694 Y114.71 E5.66426
G1 X208.746 Y114.919 E5.67106
G1 X208.946 Y115.923 E5.70341
G1 X209.123 Y117.088 E5.74064
G1 X209.156 Y117.324 E5.74817
G1 X211.521 Y135.547 E6.32879
G1 X211.592 Y136.153 E6.34807
G1 X211.664 Y137.17 E6.38029
G1 X211.68 Y137.839 E6.40143
G1 X211.682 Y138.227 E6.41369
G1 X211.681 Y138.315 E6.41647
G1 X211.631 Y139.251 E6.44609
G1 X211.5 Y140.18 E6.47573
G1 X211.374 Y140.773 E6.49489
G1 X211.302 Y141.071 E6.50458
G1 X211.224 Y141.376 E6.51452
G1 X211.141 Y141.681 E6.52451
G1 X210.856 Y142.575 E6.55416
G1 X210.317 Y143.809 E6.59671
G1 X210.213 Y144.012 E6.60391
G1 X209.987 Y144.43 E6.61893
G1 X209.791 Y144.775 E6.63147
G1 X209.294 Y145.57 E6.66109
G1 X208.73 Y146.319 E6.69072
G1 X208.368 Y146.739 E6.70824
G1 X208.159 Y146.969 E6.71806
G1 X207.919 Y147.224 E6.72912
G1 X207.703 Y147.447 E6.73893
G1 X207.023 Y148.092 E6.76854
G1 X206.179 Y148.757 E6.8025
G1 X206.127 Y148.794 E6.80451
G1 X205.743 Y149.055 E6.81918
G1 X205.546 Y149.183 E6.82661
G1 X205.26 Y149.363 E6.83728
G1 X204.97 Y149.539 E6.848
G1 X204.164 Y149.983 E6.87708
G1 X203.308 Y150.366 E6.90671
G1 X202.686 Y150.592 E6.92762
G1 X202.434 Y150.675 E6.936
G1 X202.183 Y150.754 E6.94432
G1 X201.853 Y150.854 E6.95521
G1 X200.945 Y151.088 E6.98484
G1 X200 Y151.245 E7.01511
G1 X199.951 Y151.251 E7.01667
G1 X199.364 Y151.307 E7.0353
G1 X198.356 Y151.376 E7.06722
G1 X195.705 Y151.595 E7.15127
G1 X193.225 Y151.872 E7.23012
G1 X190.719 Y152.223 E7.31008
G1 X188.238 Y152.643 E7.38958
G1 X187.612 Y152.765 E7.40974
G1 X186.583 Y152.951 E7.44278
G1 X185.38 Y153.1 E7.48108
G1 X184.56 Y153.156 E7.50705
G1 X181.912 Y153.375 E7.591
G1 X179.439 Y153.651 E7.66963
G1 X176.944 Y154.001 E7.74924
G1 X174.488 Y154.416 E7.82794
G1 X173.609 Y154.59 E7.85625
G1 X172.629 Y154.769 E7.88773
G1 X172.311 Y154.822 E7.89791
G1 X171.383 Y154.925 E7.92742
G1 X171.118 Y154.943 E7.93581
G1 X170.851 Y154.958 E7.94426
G1 X170.506 Y154.973 E7.95517
G1 X170.076 Y154.983 E7.96876
G1 X167.466 Y155.054 E8.05126
G1 X164.945 Y155.194 E8.13104
G1 X162.459 Y155.403 E8.20987
G1 X159.954 Y155.685 E8.28952
G1 X157.452 Y156.038 E8.36936
G1 X155.57 Y156.355 E8.42966
G1 X154.639 Y156.471 E8.4593
G1 X153.643 Y156.507 E8.4908
G1 X153.318 Y156.504 E8.50106
G1 X152.017 Y156.414 E8.54227
G1 X151.508 Y156.348 E8.55849
G1 X151.335 Y156.331 E8.56398
G1 X149.353 Y156.085 E8.62709
G1 X146.782 Y155.841 E8.70869
G1 X144.321 Y155.676 E8.78662
G1 X141.761 Y155.577 E8.86757
G1 X139.578 Y155.551 E8.93655
G1 X136.591 Y155.55 E9.03093
G1 X135.672 Y155.537 E9.05998
G1 X132.934 Y155.538 E9.14649
G1 X132.71 Y155.541 E9.15357
G1 X130.172 Y155.616 E9.2338
G1 X127.639 Y155.762 E9.31396
G1 X125.1 Y155.98 E9.39448
G1 X122.634 Y156.263 E9.47291
G1 X120.137 Y156.621 E9.55262
G1 X117.666 Y157.047 E9.63185
G1 X115.218 Y157.539 E9.71074
G1 X112.743 Y158.112 E9.79101
G1 X110.281 Y158.755 E9.87142
G1 X107.899 Y159.45 E9.94982
G1 X105.474 Y160.232 E10.03033
G1 X103.141 Y161.059 E10.10854
G1 X100.734 Y161.989 E10.19007
G1 X98.437 Y162.952 E10.26877
G1 X96.812 Y163.682 E10.32506
G1 X96.552 Y163.795 E10.33402
G1 X95.675 Y164.127 E10.36365
G1 X94.773 Y164.383 E10.39327
G1 X93.852 Y164.562 E10.42292
G1 X92.921 Y164.662 E10.4525
G1 X92.17 Y164.71 E10.47628
G1 X91.844 Y164.726 E10.4866
G1 X91.113 Y164.751 E10.50971
G1 X90.191 Y164.743 E10.53884
G1 X89.889 Y164.728 E10.54839
G1 X89.574 Y164.708 E10.55837
G1 X88.434 Y164.618 E10.5945
G1 X87.804 Y164.56 E10.61449
G1 X86.504 Y164.361 E10.65605
G1 X85.451 Y164.135 E10.69007
G1 X85.231 Y164.086 E10.6972
G1 X84.871 Y164.001 E10.70888
G1 X84.032 Y163.79 E10.73622
G1 X82.861 Y163.423 E10.77499
G1 X81.952 Y163.081 E10.80568
G1 X81.19 Y162.78 E10.83157
G1 X80.527 Y162.508 E10.85421
G1 X79.822 Y162.189 E10.87866
G1 X77.388 Y160.984 E10.96448
G1 X75.08 Y159.924 E11.04473
G1 X72.75 Y158.931 E11.12476
G1 X70.474 Y158.034 E11.20206
G1 X68.046 Y157.159 E11.2836
G1 X65.649 Y156.37 E11.36334
G1 X63.258 Y155.657 E11.44218
G1 X60.84 Y155.011 E11.52126
G1 X58.345 Y154.418 E11.60229
G1 X55.979 Y153.926 E11.67865
G1 X53.45 Y153.474 E11.75982
G1 X50.837 Y153.094 E11.84325
G1 X50.283 Y153.008 E11.86097
G1 X49.968 Y152.954 E11.87107
G1 X48.79 Y152.736 E11.90892
G1 X48.559 Y152.691 E11.91636
G1 X46.08 Y152.265 E11.99583
G1 X43.542 Y151.902 E12.07684
G1 X41.096 Y151.624 E12.15463
G1 X38.285 Y151.385 E12.24377
G1 X37.176 Y151.308 E12.27889
G1 X36.244 Y151.204 E12.30852
G1 X35.324 Y151.02 E12.33817
G1 X34.765 Y150.867 E12.35648
G1 X34.473 Y150.779 E12.36612
G1 X34.168 Y150.683 E12.37622
G1 X33.862 Y150.581 E12.38641
G1 X32.986 Y150.246 E12.41605
G1 X32.04 Y149.783 E12.44932
G1 X31.571 Y149.513 E12.46642
G1 X31.376 Y149.394 E12.47364
G1 X31.112 Y149.228 E12.4835
G1 X30.815 Y149.035 E12.49469
G1 X30.051 Y148.49 E12.52434
G1 X29.174 Y147.729 E12.56103
G1 X28.86 Y147.416 E12.57504
G1 X28.675 Y147.224 E12.58346
G1 X28.49 Y147.028 E12.59198
G1 X28.268 Y146.786 E12.60236
G1 X27.664 Y146.068 E12.632
G1 X26.963 Y145.046 E12.67116
G1 X26.792 Y144.755 E12.68182
G1 X26.673 Y144.546 E12.68942
G1 X26.523 Y144.274 E12.69924
G1 X26.376 Y143.998 E12.70912
G1 X25.971 Y143.152 E12.73876
G1 X25.537 Y141.949 E12.77917
G1 X25.455 Y141.672 E12.78829
G1 X25.319 Y141.168 E12.80479
G1 X25.232 Y140.813 E12.81634
G1 X25.048 Y139.894 E12.84595
G1 X24.943 Y138.962 E12.87559
G1 X24.916 Y138.297 E12.89661
G1 X24.913 Y137.972 E12.90688
G1 X24.915 Y137.641 E12.91734
G1 X24.919 Y137.449 E12.92341
G1 X24.981 Y136.494 E12.95365
G1 X25.102 Y135.376 E12.98918
G1 X25.13 Y135.144 E12.99657
G1 X27.061 Y120.265 E13.47064
G1 X27.511 Y116.815 E13.58058
G1 X27.589 Y116.276 E13.59778
G1 X27.781 Y115.278 E13.6299
G1 X27.959 Y114.538 E13.65394
G1 X28.217 Y113.637 E13.68356
G1 X28.551 Y112.76 E13.71321
G1 X28.927 Y111.974 E13.74074
G1 X29.049 Y111.743 E13.749
G1 X29.269 Y111.347 E13.76331
G1 X29.457 Y111.024 E13.77512
G1 X29.963 Y110.234 E13.80476
G1 X30.807 Y109.177 E13.8475
G1 X30.997 Y108.967 E13.85645
G1 X31.31 Y108.635 E13.87086
G1 X31.545 Y108.396 E13.88146
G1 X32.231 Y107.756 E13.9111
G1 X32.968 Y107.176 E13.94073
G1 X33.436 Y106.858 E13.95861
G1 X33.711 Y106.681 E13.96894
G1 X34.01 Y106.495 E13.98007
G1 X34.277 Y106.335 E13.98991
G1 X35.101 Y105.888 E14.01953
G1 X35.96 Y105.513 E14.04914
G1 X36.452 Y105.335 E14.06567
G0 F7500 X36.579 Y105.715
G1 F1500 X36.822 Y105.634 E14.07377
G1 X37.165 Y105.526 E14.08513
G1 X37.523 Y105.42 E14.09693
G1 X38.416 Y105.197 E14.12601
G1 X39.325 Y105.053 E14.15509
G1 X39.827 Y105.007 E14.17102
G1 X40.097 Y104.989 E14.17957
G1 X40.409 Y104.973 E14.18944
G1 X40.759 Y104.96 E14.20051
G1 X41.679 Y104.966 E14.22958
G1 X42.694 Y105.066 E14.2618
G1 X43.179 Y105.147 E14.27734
G1 X44.042 Y105.312 E14.3051
G1 X46.576 Y105.76 E14.38641
G1 X49.063 Y106.127 E14.46584
G1 X51.598 Y106.428 E14.5465
G1 X54.095 Y106.653 E14.62572
G1 X54.961 Y106.707 E14.65314
G1 X55.978 Y106.785 E14.68537
G1 X56.857 Y106.89 E14.71334
G1 X57.458 Y106.988 E14.73258
G1 X59.282 Y107.31 E14.7911
G1 X61.751 Y107.674 E14.86996
G1 X64.261 Y107.972 E14.94983
G1 X66.776 Y108.199 E15.02962
G1 X69.313 Y108.355 E15.10993
G1 X71.831 Y108.44 E15.18954
G1 X74.371 Y108.452 E15.26979
G1 X76.888 Y108.394 E15.34934
G1 X79.418 Y108.264 E15.42939
G1 X81.939 Y108.062 E15.5093
G1 X84.439 Y107.79 E15.58876
G1 X86.973 Y107.443 E15.66958
G1 X89.423 Y107.036 E15.74805
G1 X91.919 Y106.548 E15.82841
G1 X93.335 Y106.222 E15.87432
G1 X93.463 Y106.198 E15.87844
G1 X94.779 Y105.906 E15.92103
G1 X95.661 Y105.749 E15.94934
G1 X95.839 Y105.725 E15.95501
G1 X96.132 Y105.69 E15.96434
G1 X96.451 Y105.656 E15.97447
G1 X96.698 Y105.632 E15.98231
G1 X97.313 Y105.581 E16.00181
G1 X98.62 Y105.554 E16.04312
G1 X98.743 Y105.559 E16.04701
G1 X99.207 Y105.588 E16.0617
G1 X99.443 Y105.608 E16.06918
G1 X100.555 Y105.762 E16.10465
G1 X100.778 Y105.805 E16.11183
G1 X101.278 Y105.914 E16.128
G1 X101.43 Y105.951 E16.13294
G1 X102.733 Y106.358 E16.17607
G1 X103.123 Y106.509 E16.18929
G1 X105.329 Y107.383 E16.26426
G1 X107.704 Y108.248 E16.34413
G1 X110.087 Y109.039 E16.42346
G1 X112.517 Y109.772 E16.50366
G1 X114.969 Y110.435 E16.58392
G1 X117.393 Y111.018 E16.6627
G1 X119.88 Y111.543 E16.74301
G1 X122.37 Y111.995 E16.82297
G1 X124.885 Y112.378 E16.90336
G1 X127.388 Y112.687 E16.98304
G1 X129.887 Y112.925 E17.06236
G1 X132.448 Y113.094 E17.14346
G1 X134.957 Y113.189 E17.22279
G1 X137.475 Y113.214 E17.30236
G1 X140.013 Y113.168 E17.38256
G1 X142.531 Y113.049 E17.46221
G1 X145.067 Y112.859 E17.54257
G1 X147.572 Y112.599 E17.62215
G1 X150.082 Y112.266 E17.70215
G1 X152.557 Y111.867 E17.78136
G1 X155.068 Y111.389 E17.86213
G1 X157.514 Y110.85 E17.94127
G1 X159.959 Y110.238 E18.02091
G1 X163.826 Y109.127 E18.14804
G1 X164.551 Y108.94 E18.17169
G1 X164.837 Y108.877 E18.18095
G1 X165.112 Y108.82 E18.18982
G1 X165.439 Y108.757 E18.20034
G1 X166.648 Y108.596 E18.23888
G1 X168.091 Y108.488 E18.2846
G1 X168.426 Y108.467 E18.29521
G1 X170.956 Y108.235 E18.37548
G1 X173.451 Y107.935 E18.45489
G1 X175.966 Y107.561 E18.53523
G1 X178.408 Y107.128 E18.61359
G1 X179.462 Y106.928 E18.64749
G1 X180.646 Y106.771 E18.68523
G1 X181.829 Y106.683 E18.72271
G1 X182.6 Y106.635 E18.74712
G1 X185.117 Y106.405 E18.82698
G1 X187.625 Y106.105 E18.90679
G1 X190.155 Y105.729 E18.98761
G1 X192.513 Y105.312 E19.06327
G1 X193.453 Y105.133 E19.09351
G1 X194.569 Y104.982 E19.12909
G1 X195.821 Y104.952 E19.16866
G1 X196.134 Y104.963 E19.17856
G1 X196.508 Y104.982 E19.19039
G1 X196.82 Y105.004 E19.20027
G1 X197.734 Y105.109 E19.22934
G1 X199.04 Y105.402 E19.27163
G1 X199.287 Y105.474 E19.27976
G1 X199.586 Y105.565 E19.28964
G1 X199.935 Y105.678 E19.30123
G1 X200.798 Y106 E19.33033
G1 X201.695 Y106.43 E19.36177
G1 X202.236 Y106.74 E19.38147
G1 X202.466 Y106.881 E19.38999
G1 X202.635 Y106.987 E19.39629
G1 X202.915 Y107.166 E19.4068
G1 X203.669 Y107.695 E19.4359
G1 X204.374 Y108.288 E19.46501
G1 X204.76 Y108.661 E19.48197
G1 X204.949 Y108.853 E19.49048
G1 X205.179 Y109.094 E19.50101
G1 X205.423 Y109.358 E19.51236
G1 X206.018 Y110.061 E19.54147
G1 X206.786 Y111.197 E19.58479
G1 X206.916 Y111.419 E19.59292
G1 X207.112 Y111.769 E19.6056
G1 X207.284 Y112.09 E19.6171
G1 X207.683 Y112.919 E19.64617
G1 X207.997 Y113.744 E19.67407
G1 X208.015 Y113.798 E19.67586
G1 X208.172 Y114.313 E19.69288
G1 X208.232 Y114.529 E19.69996
G1 X208.305 Y114.807 E19.70904
G1 X208.357 Y115.016 E19.71585
G1 X208.551 Y115.983 E19.74701
G1 X208.728 Y117.148 E19.78424
G1 X208.76 Y117.375 E19.79149
G1 X211.108 Y135.462 E20.36778
G1 X211.195 Y136.2 E20.39126
G1 X211.264 Y137.18 E20.4223
G1 X211.28 Y137.849 E20.44345
G1 X211.282 Y138.222 E20.45523
G1 X211.281 Y138.31 E20.45801
G1 X211.231 Y139.23 E20.48712
G1 X211.101 Y140.141 E20.5162
G1 X210.986 Y140.679 E20.53358
G1 X210.914 Y140.977 E20.54327
G1 X210.838 Y141.271 E20.55287
G1 X210.755 Y141.576 E20.56285
