;FLAVOR:Marlin
M117 Time Left 1h16m30s
;TIME:4590
;Filament used: 2.21195m
;Layer height: 0.2
;MINX:24.758
;MINY:82.881
;MINZ:0.2
;MAXX:211.531
;MAXY:143.09
;MAXZ:2
;POSTPROCESSED
;Generated with Cura_SteamEngine 4.7.1
M140 S70
M105
M190 S70
M104 S230
M105
M109 S230
M82 ;absolute extrusion mode
; Ender 3 Custom Start G-code
G92 E0 ; Reset Extruder
G28 ; Home all axes
; ***SET NEW E STEP *** (93 is factory value - 95 mine - start)
G90                          ; Force coordinates to be absolute relative to the origin
M92 E95 ;					 ; ***SET NEW E STEP *** (93 is factory value - 95 mine - end)
G90                          ; Force coordinates to be absolute relative to the origin
G28                          ; Home X/Y/Z axis
G92 E0 ; Reset Extruder								
G28 ; Home all axes		
G1 Z2.0 F3000 ; Move Z Axis up little to prevent scratching of Heat Bed
G1 X0.1 Y20 Z0.3 F5000.0 ; Move to start position
G1 X0.1 Y200.0 Z0.3 F1500.0 E15 ; Draw the first line
G1 X0.4 Y200.0 Z0.3 F5000.0 ; Move to side a little
G1 X0.4 Y20 Z0.3 F1500.0 E30 ; Draw the second line
G92 E0 ; Reset Extruder
G1 Z2.0 F3000 ; Move Z Axis up little to prevent scratching of Heat Bed
G1 X5 Y20 Z0.3 F5000.0 ; Move over to prevent blob squish
G92 E0
G92 E0
G1 F2700 E-6
;LAYER_COUNT:16
;LAYER:0
M107
M204 S500
M205 X8 Y8
G0 F7500 X35.17 Y84.115 Z0.2
;TYPE:SKIRT
G1 F2700 E0
G1 F1500 X36.372 Y83.644 E0.04079
G1 X36.682 Y83.543 E0.05109
G1 X36.978 Y83.451 E0.06089
G1 X37.256 Y83.369 E0.07005
G1 X38.166 Y83.143 E0.09967
G1 X39.318 Y82.97 E0.13648
G1 X39.726 Y82.936 E0.14942
G1 X39.941 Y82.922 E0.15622
G1 X40.27 Y82.906 E0.16663
G1 X40.612 Y82.894 E0.17745
G1 X41.55 Y82.901 E0.20708
G1 X42.696 Y83.019 E0.24349
G1 X43.098 Y83.088 E0.25637
G1 X43.953 Y83.252 E0.28388
G1 X46.482 Y83.698 E0.36502
G1 X48.976 Y84.066 E0.44468
G1 X51.455 Y84.361 E0.52356
G1 X54.001 Y84.591 E0.60434
G1 X54.831 Y84.642 E0.63061
G1 X55.003 Y84.654 E0.63606
G1 X55.855 Y84.72 E0.66306
G1 X56.605 Y84.804 E0.68691
G1 X57.106 Y84.888 E0.70296
G1 X58.291 Y85.115 E0.74108
G1 X58.416 Y85.131 E0.74506
G1 X59.737 Y85.383 E0.78756
G1 X62.223 Y85.787 E0.86714
G1 X64.712 Y86.119 E0.94648
G1 X67.197 Y86.378 E1.02542
G1 X68.434 Y86.473 E1.06462
G1 X68.664 Y86.5 E1.07194
G1 X69.842 Y86.591 E1.10927
G1 X70.598 Y86.676 E1.13331
G1 X71.104 Y86.761 E1.14952
G1 X71.349 Y86.808 E1.15741
G1 X71.65 Y86.87 E1.16712
G1 X71.985 Y86.944 E1.17796
G1 X73.177 Y87.279 E1.21708
G1 X74.051 Y87.579 E1.24628
G1 X75.137 Y87.969 E1.28274
G1 X77.524 Y88.749 E1.36208
G1 X79.894 Y89.45 E1.44018
G1 X82.386 Y90.112 E1.52165
G1 X84.776 Y90.676 E1.59924
G1 X87.262 Y91.187 E1.67943
G1 X89.737 Y91.623 E1.75884
G1 X92.242 Y91.992 E1.83884
G1 X94.748 Y92.289 E1.91858
G1 X97.262 Y92.516 E1.99834
G1 X99.951 Y92.678 E2.08346
G1 X100.482 Y92.702 E2.10025
G1 X102.992 Y92.782 E2.1796
G1 X105.493 Y92.79 E2.25863
G1 X107.454 Y92.731 E2.32062
G1 X108.867 Y92.698 E2.36527
G1 X109.177 Y92.695 E2.37507
G1 X110.432 Y92.701 E2.41472
G1 X110.884 Y92.709 E2.42901
G1 X112.331 Y92.689 E2.47473
G1 X112.556 Y92.695 E2.48185
G1 X113.739 Y92.685 E2.51923
G1 X118.168 Y92.686 E2.65917
G1 X118.873 Y92.696 E2.68145
G1 X119.181 Y92.705 E2.69118
G1 X119.619 Y92.724 E2.70504
G1 X121.74 Y92.843 E2.77216
G1 X124.265 Y92.914 E2.85197
G1 X126.788 Y92.914 E2.93169
G1 X129.267 Y92.843 E3.01006
G1 X131.268 Y92.729 E3.07338
G1 X131.801 Y92.705 E3.09024
G1 X132.122 Y92.695 E3.10039
G1 X133.325 Y92.676 E3.13841
G1 X133.863 Y92.674 E3.15541
G1 X136.38 Y92.597 E3.23497
G1 X138.902 Y92.448 E3.3148
G1 X141.406 Y92.228 E3.39422
G1 X143.9 Y91.938 E3.47356
G1 X146.373 Y91.579 E3.55252
G1 X148.897 Y91.141 E3.63346
G1 X151.327 Y90.646 E3.71182
G1 X153.774 Y90.078 E3.79119
G1 X156.23 Y89.431 E3.87144
G1 X158.619 Y88.73 E3.95011
G1 X161.048 Y87.942 E4.0308
G1 X162.401 Y87.462 E4.07616
G1 X163.111 Y87.219 E4.09987
G1 X164.257 Y86.895 E4.1375
G1 X164.528 Y86.834 E4.14628
G1 X164.896 Y86.757 E4.15816
G1 X165.239 Y86.692 E4.16919
G1 X166.462 Y86.531 E4.20816
G1 X167.911 Y86.423 E4.25407
G1 X168.243 Y86.402 E4.26459
G1 X170.753 Y86.172 E4.34423
G1 X173.261 Y85.87 E4.42404
G1 X175.754 Y85.5 E4.50368
G1 X178.111 Y85.082 E4.57932
G1 X179.232 Y84.869 E4.61537
G1 X180.461 Y84.706 E4.65454
G1 X181.649 Y84.617 E4.69219
G1 X182.42 Y84.569 E4.71659
G1 X184.945 Y84.338 E4.79671
G1 X187.435 Y84.04 E4.87595
G1 X189.908 Y83.673 E4.95494
G1 X192.349 Y83.241 E5.03327
G1 X193.234 Y83.073 E5.06173
G1 X194.162 Y82.937 E5.09137
G1 X195.098 Y82.881 E5.121
G1 X195.669 Y82.886 E5.13904
G1 X195.987 Y82.897 E5.14909
G1 X196.35 Y82.915 E5.16058
G1 X196.66 Y82.936 E5.17039
G1 X197.593 Y83.039 E5.20005
G1 X198.513 Y83.222 E5.22969
G1 X199.012 Y83.355 E5.24601
G1 X199.261 Y83.428 E5.25421
G1 X199.563 Y83.522 E5.2642
G1 X199.911 Y83.635 E5.27576
G1 X200.79 Y83.962 E5.3054
G1 X201.445 Y84.264 E5.32819
G1 X202.215 Y84.688 E5.35596
G1 X202.45 Y84.83 E5.36464
G1 X202.696 Y84.984 E5.37381
G1 X202.98 Y85.166 E5.38447
G1 X203.747 Y85.705 E5.41409
G1 X204.466 Y86.307 E5.44372
G1 X204.823 Y86.649 E5.45934
G1 X205.005 Y86.831 E5.46747
G1 X205.305 Y87.143 E5.48115
G1 X205.561 Y87.42 E5.49306
G1 X206.168 Y88.135 E5.5227
G1 X206.711 Y88.9 E5.55234
G1 X207.004 Y89.376 E5.57
G1 X207.151 Y89.63 E5.57928
G1 X207.317 Y89.929 E5.59008
G1 X207.473 Y90.219 E5.60049
G1 X207.973 Y91.28 E5.63755
G1 X207.984 Y91.307 E5.63847
G1 X208.405 Y92.547 E5.67985
G1 X208.467 Y92.773 E5.68725
G1 X208.536 Y93.037 E5.69587
G1 X208.594 Y93.271 E5.70349
G1 X208.794 Y94.273 E5.73577
G1 X208.964 Y95.398 E5.77172
G1 X208.995 Y95.62 E5.77881
G1 X211.365 Y113.868 E6.36023
G1 X211.452 Y114.612 E6.3839
G1 X211.522 Y115.58 E6.41457
G1 X211.528 Y115.793 E6.4213
G1 X211.531 Y116.237 E6.43533
G1 X211.526 Y116.648 E6.44832
G1 X211.475 Y117.584 E6.47794
G1 X211.253 Y118.954 E6.52179
G1 X211.195 Y119.209 E6.53005
G1 X211.087 Y119.641 E6.54412
G1 X210.988 Y120.007 E6.5561
G1 X210.705 Y120.901 E6.58573
G1 X210.347 Y121.768 E6.61537
G1 X210.077 Y122.309 E6.63448
G1 X209.948 Y122.551 E6.64314
G1 X209.782 Y122.851 E6.65397
G1 X209.607 Y123.156 E6.66508
G1 X209.106 Y123.949 E6.69472
G1 X208.539 Y124.696 E6.72436
G1 X208.217 Y125.068 E6.7399
G1 X208.024 Y125.281 E6.74898
G1 X207.769 Y125.554 E6.76079
G1 X207.543 Y125.787 E6.77104
G1 X206.862 Y126.431 E6.80066
G1 X206.024 Y127.091 E6.83436
G1 X205.972 Y127.128 E6.83638
G1 X205.588 Y127.389 E6.85105
G1 X205.391 Y127.517 E6.85847
G1 X205.148 Y127.67 E6.86755
G1 X204.861 Y127.846 E6.87818
G1 X204.042 Y128.302 E6.9078
G1 X203.254 Y128.659 E6.93514
G1 X202.543 Y128.922 E6.95909
G1 X202.292 Y129.005 E6.96744
G1 X202.028 Y129.088 E6.97619
G1 X201.698 Y129.188 E6.98708
G1 X200.79 Y129.422 E7.01671
G1 X199.793 Y129.586 E7.04864
G1 X199.226 Y129.639 E7.06663
G1 X198.224 Y129.708 E7.09837
G1 X195.586 Y129.926 E7.182
G1 X193.087 Y130.203 E7.26145
G1 X190.588 Y130.553 E7.34118
G1 X188.137 Y130.967 E7.41972
G1 X187.682 Y131.057 E7.43438
G1 X186.476 Y131.277 E7.47311
G1 X186.475 Y131.271 E7.4733
G1 X186.24 Y131.319 E7.48088
G1 X185.235 Y131.434 E7.51285
G1 X184.389 Y131.491 E7.53964
G1 X181.821 Y131.703 E7.62105
G1 X179.312 Y131.981 E7.70082
G1 X176.823 Y132.329 E7.78023
G1 X174.339 Y132.748 E7.85982
G1 X173.438 Y132.926 E7.88884
G1 X172.483 Y133.101 E7.91952
G1 X172.221 Y133.146 E7.92792
G1 X171.226 Y133.259 E7.95956
G1 X170.975 Y133.276 E7.96751
G1 X170.692 Y133.291 E7.97646
G1 X169.789 Y133.329 E8.00502
G1 X167.161 Y133.475 E8.08819
G1 X164.685 Y133.683 E8.1667
G1 X162.163 Y133.968 E8.24689
G1 X159.67 Y134.32 E8.32645
G1 X157.176 Y134.745 E8.40638
G1 X154.71 Y135.237 E8.48584
G1 X152.294 Y135.79 E8.56415
G1 X149.817 Y136.433 E8.64501
G1 X147.443 Y137.121 E8.72311
G1 X144.998 Y137.904 E8.80423
G1 X142.718 Y138.705 E8.88059
G1 X141.477 Y139.158 E8.92233
G1 X140.583 Y139.442 E8.95197
G1 X139.668 Y139.649 E8.98161
G1 X138.739 Y139.777 E9.01124
G1 X137.803 Y139.826 E9.04086
G1 X136.625 Y139.773 E9.07812
G1 X136.442 Y139.755 E9.08393
G1 X136.125 Y139.719 E9.09401
G1 X135.691 Y139.663 E9.10783
G1 X134.973 Y139.564 E9.13074
G1 X132.421 Y139.247 E9.21199
G1 X129.922 Y139.009 E9.29131
G1 X127.389 Y138.84 E9.37152
G1 X124.858 Y138.742 E9.45156
G1 X122.368 Y138.717 E9.53024
G1 X119.846 Y138.762 E9.60994
G1 X117.325 Y138.879 E9.68968
G1 X114.83 Y139.066 E9.76874
G1 X112.334 Y139.323 E9.84802
G1 X109.789 Y139.659 E9.92913
G1 X107.359 Y140.05 E10.0069
G1 X104.866 Y140.523 E10.08708
G1 X102.333 Y141.08 E10.16902
G1 X99.982 Y141.667 E10.24559
G1 X99.665 Y141.753 E10.25597
G1 X98.881 Y141.957 E10.28157
G1 X97.964 Y142.154 E10.3112
G1 X97.034 Y142.272 E10.34082
G1 X96.334 Y142.309 E10.36297
G1 X95.25 Y142.331 E10.39723
G1 X95.027 Y142.333 E10.40428
G1 X93.252 Y142.333 E10.46036
G1 X90.644 Y142.37 E10.54277
G1 X88.122 Y142.477 E10.62253
G1 X85.631 Y142.654 E10.70144
G1 X83.395 Y142.872 E10.77243
G1 X82.248 Y142.998 E10.80889
G1 X81.907 Y143.03 E10.81971
G1 X81.577 Y143.056 E10.83017
G1 X80.713 Y143.09 E10.85749
G1 X80.016 Y143.07 E10.87952
G1 X79.687 Y143.05 E10.88994
G1 X79.342 Y143.023 E10.90087
G1 X78.449 Y142.94 E10.92921
G1 X77.75 Y142.866 E10.95142
G1 X76.822 Y142.727 E10.98107
G1 X76.16 Y142.578 E11.00251
G1 X75.28 Y142.351 E11.03122
G1 X75.093 Y142.301 E11.03734
G1 X74.652 Y142.178 E11.05181
G1 X73.968 Y141.978 E11.07432
G1 X72.896 Y141.604 E11.1102
G1 X72.705 Y141.526 E11.11672
G1 X72.347 Y141.372 E11.12903
G1 X71.972 Y141.203 E11.14203
G1 X71.275 Y140.883 E11.16626
G1 X70.49 Y140.509 E11.19374
G1 X69.96 Y140.238 E11.21254
G1 X69.643 Y140.065 E11.22395
G1 X67.342 Y138.846 E11.30623
G1 X65.106 Y137.74 E11.38505
G1 X62.812 Y136.686 E11.46482
G1 X60.481 Y135.695 E11.54485
G1 X58.145 Y134.776 E11.62417
G1 X55.795 Y133.929 E11.7031
G1 X53.399 Y133.142 E11.78279
G1 X50.964 Y132.417 E11.86306
G1 X48.561 Y131.775 E11.94166
G1 X46.128 Y131.197 E12.02067
G1 X43.646 Y130.683 E12.10076
G1 X41.145 Y130.237 E12.18103
G1 X38.685 Y129.87 E12.25962
G1 X37.915 Y129.781 E12.28411
G1 X37.727 Y129.751 E12.29013
G1 X36.372 Y129.577 E12.33329
G1 X35.448 Y129.419 E12.36291
G1 X34.564 Y129.189 E12.39177
G1 X34.282 Y129.103 E12.40109
G1 X34.012 Y129.017 E12.41004
G1 X33.706 Y128.915 E12.42023
G1 X32.83 Y128.58 E12.44987
G1 X31.918 Y128.136 E12.48192
G1 X31.431 Y127.856 E12.49967
G1 X31.229 Y127.733 E12.50714
G1 X30.972 Y127.572 E12.51672
G1 X30.677 Y127.381 E12.52783
G1 X29.912 Y126.838 E12.55747
G1 X29.196 Y126.232 E12.58711
G1 X28.752 Y125.798 E12.60673
G1 X28.539 Y125.578 E12.6164
G1 X28.337 Y125.365 E12.62568
G1 X28.114 Y125.122 E12.6361
G1 X27.51 Y124.404 E12.66575
G1 X26.97 Y123.638 E12.69536
G1 X26.704 Y123.204 E12.71144
G1 X26.581 Y122.992 E12.71919
G1 X26.404 Y122.675 E12.73066
G1 X26.222 Y122.336 E12.74282
G1 X25.814 Y121.492 E12.77244
G1 X25.48 Y120.616 E12.80206
G1 X25.286 Y119.97 E12.82337
G1 X25.207 Y119.674 E12.83305
G1 X25.137 Y119.397 E12.84208
G1 X25.064 Y119.092 E12.85199
G1 X24.871 Y118.074 E12.88473
G1 X24.778 Y117.14 E12.91438
G1 X24.761 Y116.641 E12.93016
G1 X24.758 Y116.372 E12.93866
G1 X24.759 Y116.017 E12.94988
G1 X24.764 Y115.78 E12.95737
G1 X24.826 Y114.828 E12.98751
G1 X24.947 Y113.71 E13.02304
G1 X24.975 Y113.477 E13.03046
G1 X27.353 Y95.174 E13.61364
G1 X27.437 Y94.592 E13.63222
G1 X27.629 Y93.592 E13.6644
G1 X27.792 Y92.914 E13.68643
G1 X27.964 Y92.282 E13.70713
G1 X27.978 Y92.236 E13.70864
G1 X28.289 Y91.351 E13.73828
G1 X28.805 Y90.244 E13.77688
G1 X28.947 Y89.979 E13.78638
G1 X29.128 Y89.655 E13.7981
G1 X29.291 Y89.374 E13.80837
G1 X29.796 Y88.583 E13.83802
G1 X30.558 Y87.615 E13.87695
G1 X30.78 Y87.369 E13.88742
G1 X30.955 Y87.18 E13.89555
G1 X31.23 Y86.893 E13.90811
G1 X31.444 Y86.678 E13.9177
G1 X32.133 Y86.042 E13.94733
G1 X33.178 Y85.259 E13.98859
G1 X33.39 Y85.119 E13.99661
G1 X33.793 Y84.866 E14.01165
G1 X34.108 Y84.677 E14.02325
G1 X35.17 Y84.115 E14.06122
G0 F7500 X35.338 Y84.479
G1 F1500 X36.496 Y84.024 E14.10053
G1 X36.806 Y83.923 E14.11083
G1 X37.091 Y83.835 E14.12026
G1 X37.369 Y83.753 E14.12942
G1 X38.263 Y83.531 E14.15852
G1 X39.356 Y83.368 E14.19344
G1 X39.752 Y83.335 E14.206
G1 X39.967 Y83.321 E14.2128
G1 X40.284 Y83.306 E14.22283
G1 X40.626 Y83.294 E14.23364
G1 X41.547 Y83.301 E14.26275
G1 X42.634 Y83.414 E14.29728
G1 X43.023 Y83.481 E14.30975
G1 X43.886 Y83.646 E14.33751
G1 X46.425 Y84.095 E14.41898
G1 X48.902 Y84.46 E14.49809
G1 X51.443 Y84.762 E14.57895
G1 X53.942 Y84.988 E14.65823
G1 X54.806 Y85.041 E14.68558
G1 X55.824 Y85.119 E14.71784
G1 X56.547 Y85.2 E14.74083
G1 X57.031 Y85.281 E14.75633
G1 X58.178 Y85.5 E14.79323
G1 X58.341 Y85.524 E14.79844
G1 X59.67 Y85.778 E14.84119
G1 X62.143 Y86.179 E14.92035
G1 X64.654 Y86.514 E15.00039
G1 X67.193 Y86.779 E15.08105
G1 X68.404 Y86.872 E15.11943
G1 X68.629 Y86.899 E15.12659
G1 X69.811 Y86.99 E15.16405
G1 X70.54 Y87.072 E15.18723
G1 X71.029 Y87.154 E15.2029
G1 X71.274 Y87.201 E15.21078
G1 X71.563 Y87.261 E15.2201
G1 X71.898 Y87.335 E15.23095
G1 X73.047 Y87.657 E15.26865
G1 X73.771 Y87.905 E15.29283
G1 X74.983 Y88.339 E15.33351
G1 X77.392 Y89.127 E15.41359
G1 X79.826 Y89.846 E15.49379
G1 X82.263 Y90.493 E15.57346
G1 X84.676 Y91.063 E15.6518
G1 X87.211 Y91.584 E15.73357
G1 X89.681 Y92.019 E15.81282
G1 X92.212 Y92.392 E15.89365
G1 X94.697 Y92.687 E15.97272
G1 X97.202 Y92.913 E16.0522
G1 X99.977 Y93.08 E16.14004
G1 X100.377 Y93.099 E16.15269
G1 X103.013 Y93.183 E16.23602
G1 X105.503 Y93.19 E16.3147
G1 X107.464 Y93.131 E16.37669
G1 X108.877 Y93.098 E16.42135
G1 X109.175 Y93.095 E16.43076
G1 X110.43 Y93.101 E16.47042
G1 X110.882 Y93.109 E16.4847
G1 X112.336 Y93.089 E16.53065
G1 X112.557 Y93.095 E16.53763
G1 X113.742 Y93.085 E16.57508
G1 X118.162 Y93.086 E16.71474
G1 X118.867 Y93.096 E16.73702
G1 X119.164 Y93.104 E16.7464
G1 X119.448 Y93.116 E16.75539
G1 X121.707 Y93.243 E16.82688
G1 X124.254 Y93.314 E16.90739
G1 X126.765 Y93.314 E16.98673
G1 X129.301 Y93.241 E17.06689
G1 X131.157 Y93.135 E17.12563
G1 X131.819 Y93.105 E17.14657
G1 X132.129 Y93.095 E17.15637
G1 X133.332 Y93.076 E17.19438
G1 X133.875 Y93.074 E17.21154
G1 X136.382 Y92.997 E17.29079
G1 X138.921 Y92.847 E17.37116
G1 X141.454 Y92.625 E17.4515
G1 X143.967 Y92.332 E17.53144
G1 X146.462 Y91.971 E17.6111
G1 X148.939 Y91.54 E17.69054
G1 X151.425 Y91.035 E17.77069
G1 X153.869 Y90.467 E17.84998
G1 X156.306 Y89.825 E17.92961
G1 X158.783 Y89.099 E18.01116
G1 X161.158 Y88.328 E18.09006
G1 X162.531 Y87.84 E18.1361
G1 X163.241 Y87.597 E18.15982
G1 X164.345 Y87.285 E18.19606
G1 X164.616 Y87.224 E18.20484
G1 X164.97 Y87.15 E18.21627
G1 X165.313 Y87.085 E18.2273
G1 X166.492 Y86.93 E18.26487
G1 X167.936 Y86.822 E18.31063
G1 X168.271 Y86.801 E18.32123
G1 X170.801 Y86.569 E18.40151
G1 X173.296 Y86.269 E18.48091
G1 X175.811 Y85.895 E18.56125
G1 X178.253 Y85.462 E18.63962
G1 X179.307 Y85.262 E18.67351
G1 X180.491 Y85.105 E18.71125
G1 X181.674 Y85.017 E18.74873
G1 X182.445 Y84.969 E18.77314
G1 X184.962 Y84.739 E18.853
G1 X187.47 Y84.439 E18.93282
G1 X190 Y84.063 E19.01363
G1 X192.416 Y83.636 E19.09116
G1 X193.309 Y83.466 E19.11988
G1 X194.22 Y83.333 E19.14897
G1 X195.139 Y83.28 E19.17805
G1 X195.655 Y83.285 E19.19436
G1 X195.973 Y83.296 E19.20441
G1 X196.323 Y83.314 E19.21549
G1 X196.633 Y83.335 E19.2253
G1 X197.548 Y83.437 E19.2544
G1 X198.451 Y83.618 E19.2835
G1 X198.899 Y83.739 E19.29816
G1 X199.148 Y83.812 E19.30636
G1 X199.44 Y83.902 E19.31601
G1 X199.788 Y84.015 E19.32757
G1 X200.65 Y84.337 E19.35665
G1 X201.266 Y84.622 E19.37809
G1 X202.008 Y85.031 E19.40486
G1 X202.243 Y85.173 E19.41354
G1 X202.48 Y85.32 E19.42235
G1 X202.764 Y85.502 E19.43301
G1 X203.517 Y86.032 E19.46211
G1 X204.54 Y86.932 E19.50516
G1 X204.722 Y87.114 E19.51329
G1 X205.012 Y87.415 E19.5265
G1 X205.268 Y87.692 E19.53841
G1 X205.863 Y88.394 E19.56749
G1 X206.394 Y89.146 E19.59658
G1 X206.657 Y89.576 E19.61251
G1 X206.804 Y89.83 E19.62178
G1 X206.965 Y90.118 E19.6322
G1 X207.121 Y90.408 E19.64261
G1 X207.603 Y91.431 E19.67834
G1 X207.614 Y91.458 E19.67926
G1 X208.019 Y92.653 E19.71913
G1 X208.081 Y92.879 E19.72654
G1 X208.148 Y93.133 E19.73484
G1 X208.206 Y93.367 E19.74245
G1 X208.398 Y94.333 E19.77357
G1 X208.568 Y95.458 E19.80952
G1 X208.598 Y95.672 E19.81635
G1 X208.986 Y98.646 E19.91112
G1 X210.951 Y113.781 E20.39335
