;FLAVOR:Marlin
M117 Time Left 1h05m22s
;TIME:3922
;Filament used: 1.87768m
;Layer height: 0.2
;MINX:25.441
;MINY:105.279
;MINZ:0.2
;MAXX:212.207
;MAXY:165.476
;MAXZ:2
;POSTPROCESSED
;Generated with Cura_SteamEngine 4.7.1
M140 S70
M105
M190 S70
M104 S230
M105
M109 S230
M82 ;absolute extrusion mode
; Ender 3 Custom Start G-code
G92 E0 ; Reset Extruder
G28 ; Home all axes
; ***SET NEW E STEP *** (93 is factory value - 95 mine - start)
G90                          ; Force coordinates to be absolute relative to the origin
M92 E95 ;					 ; ***SET NEW E STEP *** (93 is factory value - 95 mine - end)
G90                          ; Force coordinates to be absolute relative to the origin
G28                          ; Home X/Y/Z axis
G92 E0 ; Reset Extruder								
G28 ; Home all axes		
G1 Z2.0 F3000 ; Move Z Axis up little to prevent scratching of Heat Bed
G1 X0.1 Y20 Z0.3 F5000.0 ; Move to start position
G1 X0.1 Y200.0 Z0.3 F1500.0 E15 ; Draw the first line
G1 X0.4 Y200.0 Z0.3 F5000.0 ; Move to side a little
G1 X0.4 Y20 Z0.3 F1500.0 E30 ; Draw the second line
G92 E0 ; Reset Extruder
G1 Z2.0 F3000 ; Move Z Axis up little to prevent scratching of Heat Bed
G1 X5 Y20 Z0.3 F5000.0 ; Move over to prevent blob squish
G92 E0
G92 E0
G1 F2700 E-6
;LAYER_COUNT:16
;LAYER:0
M107
M204 S500
M205 X8 Y8
G0 F7500 X36.965 Y106.068 Z0.2
;TYPE:SKIRT
G1 F2700 E0
G1 F1500 X37.21 Y105.986 E0.00816
G1 X37.578 Y105.87 E0.02036
G1 X37.936 Y105.764 E0.03215
G1 X38.846 Y105.536 E0.06179
G1 X39.772 Y105.387 E0.09143
G1 X40.327 Y105.335 E0.10904
G1 X40.597 Y105.317 E0.11759
G1 X40.921 Y105.301 E0.12784
G1 X41.271 Y105.288 E0.13891
G1 X42.209 Y105.293 E0.16855
G1 X43.279 Y105.397 E0.20252
G1 X43.781 Y105.481 E0.2186
G1 X44.636 Y105.645 E0.24611
G1 X47.165 Y106.091 E0.32725
G1 X49.658 Y106.459 E0.40687
G1 X52.137 Y106.754 E0.48576
G1 X54.682 Y106.984 E0.5665
G1 X55.528 Y107.036 E0.59328
G1 X55.711 Y107.049 E0.59908
G1 X56.563 Y107.116 E0.62608
G1 X57.756 Y107.276 E0.66411
G1 X58.968 Y107.506 E0.70309
G1 X59.096 Y107.523 E0.70717
G1 X60.7 Y107.824 E0.75874
G1 X63.175 Y108.219 E0.83793
G1 X65.659 Y108.542 E0.91708
G1 X69.195 Y108.882 E1.02932
G1 X70.524 Y108.984 E1.07144
G1 X71.382 Y109.084 E1.09873
G1 X71.797 Y109.156 E1.11204
G1 X72.041 Y109.203 E1.11989
G1 X72.333 Y109.263 E1.12931
G1 X72.668 Y109.337 E1.14015
G1 X73.856 Y109.67 E1.17914
G1 X74.759 Y109.979 E1.20929
G1 X75.633 Y110.292 E1.23863
G1 X78.027 Y111.076 E1.31822
G1 X80.396 Y111.776 E1.39628
G1 X82.892 Y112.439 E1.47788
G1 X85.273 Y113.001 E1.55518
G1 X87.77 Y113.515 E1.63573
G1 X90.254 Y113.953 E1.71543
G1 X92.731 Y114.319 E1.79454
G1 X95.249 Y114.617 E1.87466
G1 X97.778 Y114.845 E1.95489
G1 X100.257 Y114.998 E2.03337
G1 X102.777 Y115.082 E2.11304
G1 X105.541 Y115.093 E2.20038
G1 X105.903 Y115.089 E2.21181
G1 X106.241 Y115.09 E2.22249
G1 X106.459 Y115.095 E2.22938
G1 X109.055 Y115.176 E2.31145
G1 X111.526 Y115.183 E2.38953
G1 X113.456 Y115.124 E2.45054
G1 X114.868 Y115.091 E2.49517
G1 X115.49 Y115.094 E2.51482
G1 X116.904 Y115.142 E2.55952
G1 X117.035 Y115.143 E2.56366
G1 X117.177 Y115.149 E2.56815
G1 X119.725 Y115.191 E2.64867
G1 X122.249 Y115.16 E2.72843
G1 X124.005 Y115.098 E2.78395
G1 X124.605 Y115.089 E2.80291
G1 X125.826 Y115.104 E2.84149
G1 X128.481 Y115.099 E2.92538
G1 X129.054 Y115.086 E2.94349
G1 X129.822 Y115.078 E2.96776
G1 X132.981 Y115.078 E3.06758
G1 X135.589 Y115.041 E3.14999
G1 X138.111 Y114.934 E3.22975
G1 X140.606 Y114.757 E3.30878
G1 X143.104 Y114.509 E3.3881
G1 X145.593 Y114.191 E3.46739
G1 X148.102 Y113.797 E3.54763
G1 X150.568 Y113.338 E3.62689
G1 X153.09 Y112.795 E3.70841
G1 X155.466 Y112.212 E3.78571
G1 X157.913 Y111.538 E3.8659
G1 X160.292 Y110.81 E3.94451
G1 X162.755 Y109.979 E4.02665
G1 X163.273 Y109.791 E4.04406
G1 X163.457 Y109.726 E4.05023
G1 X163.772 Y109.618 E4.06075
G1 X164.972 Y109.281 E4.10013
G1 X165.276 Y109.214 E4.10997
G1 X165.563 Y109.155 E4.11923
G1 X165.89 Y109.092 E4.12975
G1 X167.145 Y108.924 E4.16976
G1 X168.593 Y108.816 E4.21564
G1 X168.925 Y108.795 E4.22615
G1 X171.435 Y108.565 E4.30579
G1 X173.943 Y108.263 E4.38561
G1 X176.436 Y107.893 E4.46524
G1 X178.745 Y107.484 E4.53933
G1 X179.917 Y107.261 E4.57703
G1 X181.143 Y107.099 E4.61611
G1 X182.331 Y107.01 E4.65375
G1 X183.102 Y106.962 E4.67816
G1 X185.627 Y106.731 E4.75827
G1 X188.121 Y106.433 E4.83764
G1 X190.585 Y106.067 E4.91635
G1 X193.002 Y105.639 E4.9939
G1 X193.908 Y105.467 E5.02304
G1 X194.98 Y105.317 E5.05724
G1 X196.362 Y105.279 E5.10093
G1 X196.675 Y105.29 E5.11082
G1 X197.063 Y105.31 E5.1231
G1 X197.375 Y105.332 E5.13298
G1 X198.307 Y105.438 E5.16262
G1 X199.226 Y105.623 E5.19224
G1 X199.679 Y105.745 E5.20706
G1 X199.926 Y105.817 E5.21519
G1 X200.236 Y105.912 E5.22544
G1 X200.585 Y106.025 E5.23703
G1 X201.465 Y106.352 E5.26669
G1 X202.412 Y106.805 E5.29986
G1 X202.972 Y107.126 E5.32026
G1 X203.202 Y107.267 E5.32878
G1 X203.378 Y107.377 E5.33534
G1 X203.658 Y107.556 E5.34584
G1 X204.426 Y108.094 E5.37547
G1 X205.145 Y108.696 E5.4051
G1 X205.572 Y109.107 E5.42383
G1 X205.761 Y109.299 E5.43234
G1 X206 Y109.55 E5.44329
G1 X206.244 Y109.814 E5.45465
G1 X206.851 Y110.529 E5.48428
G1 X207.394 Y111.293 E5.5139
G1 X207.658 Y111.721 E5.52979
G1 X207.788 Y111.943 E5.53792
G1 X207.992 Y112.307 E5.5511
G1 X208.164 Y112.628 E5.56261
G1 X208.571 Y113.473 E5.59224
G1 X208.904 Y114.344 E5.62171
G1 X208.922 Y114.398 E5.62351
G1 X209.085 Y114.933 E5.64118
G1 X209.145 Y115.149 E5.64826
G1 X209.221 Y115.437 E5.65767
G1 X209.273 Y115.646 E5.66448
G1 X209.473 Y116.65 E5.69683
G1 X209.65 Y117.815 E5.73406
G1 X209.683 Y118.05 E5.74156
G1 X212.048 Y136.27 E6.32209
G1 X212.12 Y136.889 E6.34178
G1 X212.191 Y137.901 E6.37383
G1 X212.207 Y138.58 E6.39529
G1 X212.178 Y139.676 E6.42993
G1 X212.169 Y139.794 E6.43367
G1 X212.058 Y140.725 E6.4633
G1 X211.899 Y141.515 E6.48876
G1 X211.844 Y141.745 E6.49623
G1 X211.753 Y142.101 E6.50784
G1 X211.664 Y142.425 E6.51846
G1 X211.387 Y143.292 E6.54722
G1 X211.029 Y144.159 E6.57686
G1 X210.762 Y144.697 E6.59584
G1 X210.636 Y144.934 E6.60432
G1 X210.466 Y145.241 E6.6154
G1 X210.29 Y145.548 E6.62659
G1 X209.789 Y146.341 E6.65622
G1 X209.223 Y147.088 E6.68584
G1 X208.916 Y147.443 E6.70067
G1 X208.76 Y147.616 E6.70803
G1 X208.48 Y147.915 E6.72097
G1 X208.206 Y148.197 E6.73339
G1 X207.525 Y148.842 E6.76303
G1 X206.791 Y149.425 E6.79265
G1 X206.29 Y149.769 E6.81185
G1 X206.024 Y149.941 E6.82186
G1 X205.764 Y150.104 E6.83156
G1 X205.504 Y150.262 E6.84117
G1 X204.692 Y150.71 E6.87047
G1 X203.836 Y151.093 E6.9001
G1 X203.214 Y151.319 E6.92101
G1 X202.962 Y151.402 E6.9294
G1 X202.711 Y151.481 E6.93771
G1 X202.381 Y151.581 E6.94861
G1 X201.473 Y151.815 E6.97824
G1 X200.476 Y151.979 E7.01016
G1 X199.909 Y152.032 E7.02815
G1 X198.907 Y152.101 E7.05989
G1 X196.269 Y152.319 E7.14353
G1 X193.77 Y152.596 E7.22297
G1 X191.271 Y152.946 E7.3027
G1 X188.82 Y153.36 E7.38125
G1 X188.365 Y153.45 E7.3959
G1 X188.185 Y153.484 E7.40169
G1 X187.117 Y153.677 E7.43598
G1 X186.396 Y153.782 E7.459
G1 X185.888 Y153.829 E7.47512
G1 X185.087 Y153.884 E7.50049
G1 X182.448 Y154.102 E7.58416
G1 X179.969 Y154.379 E7.66298
G1 X177.463 Y154.73 E7.74293
G1 X174.957 Y155.154 E7.82324
G1 X173.967 Y155.348 E7.85512
G1 X173.123 Y155.501 E7.88222
G1 X172.561 Y155.588 E7.90019
G1 X171.87 Y155.656 E7.92213
G1 X171.645 Y155.671 E7.92925
G1 X171.372 Y155.685 E7.93789
G1 X171.037 Y155.699 E7.94848
G1 X170.1 Y155.699 E7.97809
G1 X169.598 Y155.677 E7.99397
G1 X167.07 Y155.604 E8.07388
G1 X164.54 Y155.601 E8.15382
G1 X162.018 Y155.67 E8.23354
G1 X159.521 Y155.809 E8.31256
G1 X156.998 Y156.02 E8.39255
G1 X154.479 Y156.304 E8.47265
G1 X152.019 Y156.651 E8.55115
G1 X149.519 Y157.077 E8.63128
G1 X147.047 Y157.571 E8.71093
G1 X144.571 Y158.138 E8.79119
G1 X142.18 Y158.758 E8.86924
G1 X139.729 Y159.468 E8.94987
G1 X137.356 Y160.228 E9.0286
G1 X134.972 Y161.067 E9.10846
G1 X134.75 Y161.151 E9.11596
G1 X133.649 Y161.553 E9.15299
G1 X132.755 Y161.837 E9.18263
G1 X131.84 Y162.043 E9.21227
G1 X130.911 Y162.171 E9.2419
G1 X129.974 Y162.22 E9.27154
G1 X129.078 Y162.191 E9.29987
G1 X128.217 Y162.128 E9.32715
G1 X125.61 Y161.974 E9.40967
G1 X123.087 Y161.897 E9.48942
G1 X120.563 Y161.89 E9.56917
G1 X118.076 Y161.955 E9.64778
G1 X115.556 Y162.091 E9.72752
G1 X113.028 Y162.3 E9.80767
G1 X110.541 Y162.576 E9.88674
G1 X108.024 Y162.928 E9.96704
G1 X105.58 Y163.341 E10.04536
G1 X103.068 Y163.838 E10.12627
G1 X100.629 Y164.394 E10.20531
G1 X99.733 Y164.619 E10.2345
G1 X99.492 Y164.677 E10.24234
G1 X98.343 Y164.939 E10.27957
G1 X98.023 Y165.007 E10.28991
G1 X97.251 Y165.159 E10.31477
G1 X95.973 Y165.333 E10.35552
G1 X94.939 Y165.412 E10.38829
G1 X94.527 Y165.436 E10.40133
G1 X93.786 Y165.471 E10.42477
G1 X92.867 Y165.476 E10.45381
G1 X92.516 Y165.459 E10.46491
G1 X91.731 Y165.408 E10.48977
G1 X90.959 Y165.346 E10.51424
G1 X90.327 Y165.288 E10.53429
G1 X89.036 Y165.092 E10.57555
G1 X88.01 Y164.873 E10.6087
G1 X87.805 Y164.827 E10.61534
G1 X87.441 Y164.742 E10.62715
G1 X86.578 Y164.528 E10.65524
G1 X85.378 Y164.156 E10.69494
G1 X84.745 Y163.919 E10.7163
G1 X83.887 Y163.585 E10.74539
G1 X83.716 Y163.517 E10.7512
G1 X83.056 Y163.247 E10.77374
G1 X82.541 Y163.021 E10.79151
G1 X82.256 Y162.887 E10.80146
G1 X82.082 Y162.803 E10.80756
G1 X80.292 Y161.923 E10.87059
G1 X77.969 Y160.861 E10.95129
G1 X75.661 Y159.884 E11.03048
G1 X73.333 Y158.975 E11.10945
G1 X70.941 Y158.118 E11.18974
G1 X68.531 Y157.332 E11.26983
G1 X66.145 Y156.627 E11.34845
G1 X63.722 Y155.985 E11.42765
G1 X61.287 Y155.412 E11.50669
G1 X58.81 Y154.903 E11.58659
G1 X56.3 Y154.462 E11.66711
G1 X53.843 Y154.101 E11.74558
G1 X51.895 Y153.876 E11.80754
G1 X51.096 Y153.775 E11.83299
G1 X50.475 Y153.678 E11.85285
G1 X48.936 Y153.393 E11.9023
G1 X48.85 Y153.376 E11.90507
G1 X46.345 Y152.952 E11.98535
G1 X43.864 Y152.604 E12.06451
G1 X41.4 Y152.329 E12.14285
G1 X38.842 Y152.115 E12.22396
G1 X37.7 Y152.035 E12.26013
G1 X36.899 Y151.949 E12.28558
G1 X35.977 Y151.777 E12.31522
G1 X35.236 Y151.578 E12.33946
G1 X34.955 Y151.492 E12.34875
G1 X34.695 Y151.41 E12.35736
G1 X34.389 Y151.308 E12.36755
G1 X33.513 Y150.973 E12.39719
G1 X32.547 Y150.5 E12.43117
G1 X32.129 Y150.258 E12.44643
G1 X31.931 Y150.138 E12.45375
G1 X31.624 Y149.945 E12.46521
G1 X31.328 Y149.752 E12.47637
G1 X30.565 Y149.207 E12.506
G1 X29.701 Y148.456 E12.54217
G1 X29.387 Y148.143 E12.55618
G1 X29.202 Y147.951 E12.5646
G1 X29.017 Y147.755 E12.57312
G1 X28.795 Y147.513 E12.5835
G1 X28.191 Y146.795 E12.61314
G1 X27.49 Y145.773 E12.6523
G1 X27.319 Y145.482 E12.66297
G1 X27.2 Y145.273 E12.67057
G1 X27.039 Y144.98 E12.68113
G1 X26.879 Y144.678 E12.69193
G1 X26.476 Y143.831 E12.72157
G1 X26.063 Y142.689 E12.75994
G1 X25.954 Y142.306 E12.77252
G1 X25.896 Y142.088 E12.77965
G1 X25.832 Y141.838 E12.7878
G1 X25.751 Y141.502 E12.79872
G1 X25.571 Y140.582 E12.82834
G1 X25.469 Y139.649 E12.858
G1 X25.448 Y139.167 E12.87324
G1 X25.442 Y138.896 E12.88181
G1 X25.441 Y138.445 E12.89606
G1 X25.448 Y138.075 E12.90775
G1 X25.5 Y137.198 E12.93551
G1 X25.534 Y136.855 E12.9464
G1 X25.572 Y136.524 E12.95693
G1 X27.588 Y120.991 E13.45184
G1 X28.038 Y117.541 E13.56178
G1 X28.116 Y117.002 E13.57898
G1 X28.309 Y116.001 E13.6112
G1 X28.487 Y115.262 E13.63521
G1 X28.745 Y114.361 E13.66483
G1 X29.079 Y113.484 E13.69448
G1 X29.454 Y112.701 E13.72191
G1 X29.576 Y112.47 E13.73017
G1 X29.774 Y112.111 E13.74312
G1 X29.958 Y111.792 E13.75476
G1 X30.461 Y111 E13.7844
G1 X31.03 Y110.254 E13.81405
G1 X31.337 Y109.9 E13.82885
G1 X31.531 Y109.686 E13.83798
G1 X31.837 Y109.363 E13.85204
G1 X32.069 Y109.127 E13.86249
G1 X32.754 Y108.486 E13.89214
G1 X33.407 Y107.968 E13.91847
G1 X33.995 Y107.564 E13.94101
G1 X34.243 Y107.405 E13.95032
G1 X34.511 Y107.239 E13.96028
G1 X34.787 Y107.073 E13.97046
G1 X35.61 Y106.624 E14.00008
G1 X36.469 Y106.247 E14.02972
G1 X36.965 Y106.068 E14.04639
G0 F7500 X37.092 Y106.447
G1 F1500 X37.337 Y106.365 E14.05455
G1 X37.692 Y106.253 E14.06631
G1 X38.05 Y106.147 E14.07811
G1 X38.943 Y105.924 E14.10719
G1 X39.852 Y105.78 E14.13627
G1 X40.354 Y105.734 E14.1522
G1 X40.624 Y105.716 E14.16075
G1 X40.936 Y105.7 E14.17062
G1 X41.286 Y105.687 E14.18169
G1 X42.206 Y105.693 E14.21076
G1 X43.221 Y105.793 E14.24298
G1 X43.706 Y105.874 E14.25852
G1 X44.569 Y106.039 E14.28628
G1 X47.103 Y106.487 E14.36759
G1 X49.59 Y106.854 E14.44702
G1 X52.125 Y107.155 E14.52769
G1 X54.62 Y107.38 E14.60684
G1 X55.504 Y107.435 E14.63483
G1 X56.532 Y107.515 E14.66741
G1 X57.681 Y107.669 E14.70404
G1 X58.853 Y107.892 E14.74173
G1 X59.022 Y107.916 E14.74713
G1 X60.635 Y108.219 E14.79898
G1 X63.132 Y108.617 E14.87888
G1 X65.597 Y108.938 E14.95742
G1 X69.177 Y109.282 E15.07106
G1 X70.494 Y109.383 E15.1128
G1 X71.32 Y109.479 E15.13907
G1 X71.721 Y109.548 E15.15193
G1 X71.965 Y109.595 E15.15978
G1 X72.246 Y109.654 E15.16885
G1 X72.581 Y109.728 E15.17969
G1 X73.727 Y110.049 E15.2173
G1 X74.779 Y110.41 E15.25244
G1 X75.499 Y110.669 E15.27662
G1 X77.895 Y111.453 E15.35627
G1 X80.328 Y112.172 E15.43643
G1 X82.769 Y112.82 E15.51623
G1 X85.172 Y113.388 E15.59425
G1 X87.719 Y113.912 E15.67642
G1 X90.203 Y114.35 E15.75612
G1 X92.695 Y114.718 E15.83571
G1 X95.198 Y115.015 E15.91535
G1 X97.716 Y115.242 E15.99524
G1 X100.256 Y115.398 E16.07564
G1 X102.761 Y115.482 E16.15484
G1 X105.544 Y115.493 E16.24278
G1 X105.907 Y115.489 E16.25425
G1 X106.233 Y115.49 E16.26455
G1 X106.447 Y115.495 E16.27131
G1 X109.042 Y115.575 E16.35334
G1 X111.538 Y115.583 E16.43221
G1 X113.465 Y115.524 E16.49313
G1 X114.877 Y115.491 E16.53775
G1 X115.477 Y115.494 E16.55671
G1 X116.852 Y115.54 E16.60018
G1 X117.017 Y115.543 E16.6054
G1 X117.153 Y115.549 E16.6097
G1 X119.723 Y115.591 E16.69091
G1 X122.224 Y115.561 E16.76994
G1 X124.022 Y115.498 E16.82679
G1 X124.6 Y115.489 E16.84506
G1 X125.822 Y115.504 E16.88367
G1 X128.49 Y115.499 E16.96797
G1 X129.204 Y115.483 E16.99054
G1 X129.719 Y115.478 E17.00681
G1 X132.987 Y115.478 E17.11007
G1 X135.612 Y115.441 E17.19302
G1 X138.12 Y115.334 E17.27234
G1 X140.637 Y115.156 E17.35207
G1 X143.161 Y114.906 E17.43221
G1 X145.669 Y114.585 E17.5121
G1 X148.131 Y114.198 E17.59085
G1 X150.653 Y113.729 E17.6719
G1 X153.165 Y113.189 E17.75309
G1 X155.596 Y112.591 E17.83219
G1 X157.998 Y111.93 E17.91091
G1 X160.432 Y111.185 E17.99134
G1 X162.89 Y110.356 E18.0733
G1 X163.587 Y110.104 E18.09672
G1 X163.902 Y109.996 E18.10724
G1 X165.059 Y109.671 E18.14521
G1 X165.363 Y109.604 E18.15505
G1 X165.639 Y109.547 E18.16396
G1 X165.966 Y109.484 E18.17448
G1 X167.175 Y109.323 E18.21302
G1 X168.618 Y109.215 E18.25874
G1 X168.953 Y109.194 E18.26934
G1 X171.483 Y108.962 E18.34962
G1 X173.978 Y108.662 E18.42902
G1 X176.493 Y108.288 E18.50936
G1 X178.874 Y107.866 E18.58577
G1 X179.991 Y107.654 E18.62169
G1 X181.173 Y107.498 E18.65936
G1 X182.221 Y107.419 E18.69257
G1 X183.127 Y107.362 E18.72126
G1 X185.639 Y107.133 E18.80096
G1 X188.161 Y106.831 E18.88121
G1 X190.677 Y106.457 E18.96159
G1 X193.069 Y106.034 E19.03834
G1 X193.983 Y105.86 E19.06774
G1 X195.016 Y105.716 E19.10069
G1 X196.348 Y105.679 E19.1428
G1 X196.661 Y105.69 E19.15269
G1 X197.035 Y105.709 E19.16453
G1 X197.347 Y105.731 E19.17441
G1 X198.261 Y105.836 E19.20348
G1 X199.567 Y106.129 E19.24577
G1 X199.814 Y106.201 E19.2539
G1 X200.113 Y106.292 E19.26377
G1 X200.462 Y106.405 E19.27536
G1 X201.325 Y106.727 E19.30447
G1 X202.222 Y107.157 E19.3359
G1 X202.763 Y107.467 E19.3556
G1 X202.993 Y107.608 E19.36413
G1 X203.162 Y107.714 E19.37043
G1 X203.442 Y107.893 E19.38093
G1 X204.196 Y108.422 E19.41003
G1 X204.901 Y109.015 E19.43914
G1 X205.287 Y109.388 E19.4561
G1 X205.476 Y109.58 E19.46461
G1 X205.706 Y109.821 E19.47514
G1 X205.95 Y110.085 E19.4865
G1 X206.545 Y110.788 E19.5156
G1 X207.313 Y111.924 E19.55893
G1 X207.443 Y112.146 E19.56706
G1 X207.639 Y112.496 E19.57973
G1 X207.811 Y112.817 E19.59124
G1 X208.21 Y113.646 E19.62031
G1 X208.524 Y114.471 E19.6482
G1 X208.542 Y114.525 E19.65
G1 X208.699 Y115.04 E19.66701
G1 X208.759 Y115.256 E19.67409
G1 X208.832 Y115.534 E19.68318
G1 X208.884 Y115.743 E19.68998
G1 X209.078 Y116.71 E19.72114
G1 X209.255 Y117.875 E19.75838
G1 X209.287 Y118.102 E19.76562
G1 X211.634 Y136.176 E20.3415
