;FLAVOR:Marlin
M117 Time Left 1h06m57s
;TIME:4017
;Filament used: 1.9512m
;Layer height: 0.2
;MINX:27.064
;MINY:94.333
;MINZ:0.2
;MAXX:213.834
;MAXY:154.532
;MAXZ:2
;POSTPROCESSED
;Generated with Cura_SteamEngine 4.7.1
M140 S70
M105
M190 S70
M104 S230
M105
M109 S230
M82 ;absolute extrusion mode
; Ender 3 Custom Start G-code
G92 E0 ; Reset Extruder
G28 ; Home all axes
; ***SET NEW E STEP *** (93 is factory value - 95 mine - start)
G90                          ; Force coordinates to be absolute relative to the origin
M92 E95 ;					 ; ***SET NEW E STEP *** (93 is factory value - 95 mine - end)
G90                          ; Force coordinates to be absolute relative to the origin
G28                          ; Home X/Y/Z axis
G92 E0 ; Reset Extruder								
G28 ; Home all axes		
G1 Z2.0 F3000 ; Move Z Axis up little to prevent scratching of Heat Bed
G1 X0.1 Y20 Z0.3 F5000.0 ; Move to start position
G1 X0.1 Y200.0 Z0.3 F1500.0 E15 ; Draw the first line
G1 X0.4 Y200.0 Z0.3 F5000.0 ; Move to side a little
G1 X0.4 Y20 Z0.3 F1500.0 E30 ; Draw the second line
G92 E0 ; Reset Extruder
G1 Z2.0 F3000 ; Move Z Axis up little to prevent scratching of Heat Bed
G1 X5 Y20 Z0.3 F5000.0 ; Move over to prevent blob squish
G92 E0
G92 E0
G1 F2700 E-6
;LAYER_COUNT:16
;LAYER:0
M107
M204 S500
M205 X8 Y8
G0 F7500 X38.093 Y95.301 Z0.2
;TYPE:SKIRT
G1 F2700 E0
G1 F1500 X38.601 Y95.117 E0.01707
G1 X38.847 Y95.035 E0.02527
G1 X39.195 Y94.926 E0.03679
G1 X39.552 Y94.82 E0.04855
G1 X40.462 Y94.592 E0.0782
G1 X41.387 Y94.442 E0.10781
G1 X41.951 Y94.389 E0.12571
G1 X42.221 Y94.371 E0.13426
G1 X42.546 Y94.355 E0.14454
G1 X42.897 Y94.342 E0.15564
G1 X43.835 Y94.347 E0.18527
G1 X45.002 Y94.466 E0.22234
G1 X45.404 Y94.535 E0.23523
G1 X46.259 Y94.699 E0.26273
G1 X48.788 Y95.145 E0.34388
G1 X51.282 Y95.513 E0.42353
G1 X53.761 Y95.808 E0.50242
G1 X56.307 Y96.038 E0.58319
G1 X57.137 Y96.089 E0.60946
G1 X57.309 Y96.101 E0.61491
G1 X58.161 Y96.167 E0.64191
G1 X58.911 Y96.251 E0.66576
G1 X59.412 Y96.335 E0.68181
G1 X60.597 Y96.562 E0.71993
G1 X60.722 Y96.578 E0.72392
G1 X62.043 Y96.83 E0.76641
G1 X64.529 Y97.234 E0.84599
G1 X67.018 Y97.566 E0.92533
G1 X69.503 Y97.825 E1.00428
G1 X70.74 Y97.92 E1.04348
G1 X70.97 Y97.947 E1.05079
G1 X72.148 Y98.038 E1.08813
G1 X72.904 Y98.123 E1.11216
G1 X73.41 Y98.208 E1.12838
G1 X73.655 Y98.255 E1.13626
G1 X73.956 Y98.317 E1.14597
G1 X74.291 Y98.391 E1.15681
G1 X75.48 Y98.725 E1.19583
G1 X76.27 Y98.996 E1.22222
G1 X77.512 Y99.442 E1.26392
G1 X79.899 Y100.222 E1.34327
G1 X82.269 Y100.923 E1.42136
G1 X84.761 Y101.585 E1.50283
G1 X87.145 Y102.147 E1.58022
G1 X89.643 Y102.661 E1.6608
G1 X92.132 Y103.1 E1.74066
G1 X94.599 Y103.464 E1.81946
G1 X97.133 Y103.764 E1.90008
G1 X99.636 Y103.989 E1.97949
G1 X102.13 Y104.143 E2.05844
G1 X104.654 Y104.227 E2.13824
G1 X107.131 Y104.239 E2.21651
G1 X109.161 Y104.177 E2.28068
G1 X109.242 Y104.178 E2.28324
G1 X110.652 Y104.145 E2.3278
G1 X111.274 Y104.148 E2.34746
G1 X112.408 Y104.186 E2.38331
G1 X112.671 Y104.185 E2.39162
G1 X114.143 Y104.232 E2.43815
G1 X116.642 Y104.24 E2.51711
G1 X119.508 Y104.164 E2.6077
G1 X119.781 Y104.152 E2.61634
G1 X120.718 Y104.152 E2.64594
G1 X121.389 Y104.181 E2.66716
G1 X124.018 Y104.254 E2.75027
G1 X126.53 Y104.254 E2.82964
G1 X129.268 Y104.174 E2.91619
G1 X129.746 Y104.153 E2.93131
G1 X130.66 Y104.151 E2.96019
G1 X133.312 Y104.222 E3.04401
G1 X135.842 Y104.217 E3.12395
G1 X138.355 Y104.143 E3.20339
G1 X140.854 Y103.997 E3.28249
G1 X143.36 Y103.78 E3.36196
G1 X145.893 Y103.487 E3.44253
G1 X148.356 Y103.132 E3.52116
G1 X150.831 Y102.704 E3.60052
G1 X153.321 Y102.2 E3.6808
G1 X155.749 Y101.638 E3.75954
G1 X158.185 Y100.999 E3.83912
G1 X160.612 Y100.29 E3.91901
G1 X163.012 Y99.514 E3.99871
G1 X164.752 Y98.893 E4.05708
G1 X165.412 Y98.667 E4.07913
G1 X166.569 Y98.342 E4.1171
G1 X166.874 Y98.274 E4.12697
G1 X167.187 Y98.209 E4.13707
G1 X167.514 Y98.146 E4.1476
G1 X168.769 Y97.978 E4.1876
G1 X170.217 Y97.87 E4.23348
G1 X170.549 Y97.849 E4.244
G1 X173.059 Y97.619 E4.32364
G1 X175.567 Y97.317 E4.40345
G1 X178.06 Y96.947 E4.48309
G1 X180.417 Y96.529 E4.55873
G1 X181.538 Y96.316 E4.59478
G1 X182.767 Y96.153 E4.63395
G1 X183.955 Y96.064 E4.6716
G1 X184.726 Y96.016 E4.696
G1 X187.251 Y95.785 E4.77612
G1 X189.741 Y95.487 E4.85536
G1 X192.214 Y95.12 E4.93435
G1 X194.598 Y94.698 E5.01085
G1 X195.529 Y94.521 E5.0408
G1 X196.757 Y94.358 E5.07994
G1 X197.989 Y94.333 E5.11887
G1 X198.301 Y94.344 E5.12874
G1 X198.659 Y94.362 E5.14006
G1 X198.968 Y94.383 E5.14985
G1 X199.9 Y94.487 E5.17948
G1 X200.82 Y94.669 E5.20911
G1 X201.305 Y94.799 E5.22498
G1 X201.555 Y94.872 E5.23321
G1 X201.878 Y94.972 E5.24389
G1 X202.225 Y95.085 E5.25542
G1 X203.104 Y95.413 E5.28507
G1 X204.013 Y95.848 E5.31691
G1 X204.578 Y96.17 E5.33746
G1 X204.809 Y96.311 E5.34601
G1 X204.994 Y96.427 E5.35291
G1 X205.273 Y96.605 E5.36336
G1 X206.042 Y97.142 E5.393
G1 X206.762 Y97.743 E5.42263
G1 X207.196 Y98.161 E5.44167
G1 X207.385 Y98.353 E5.45019
G1 X207.624 Y98.604 E5.46114
G1 X207.868 Y98.868 E5.4725
G1 X208.475 Y99.583 E5.50213
G1 X209.018 Y100.347 E5.53175
G1 X209.282 Y100.775 E5.54764
G1 X209.412 Y100.997 E5.55577
G1 X209.616 Y101.361 E5.56895
G1 X209.788 Y101.682 E5.58046
G1 X210.195 Y102.527 E5.61009
G1 X210.528 Y103.398 E5.63956
G1 X210.546 Y103.452 E5.64136
G1 X210.709 Y103.987 E5.65903
G1 X210.769 Y104.203 E5.66611
G1 X210.845 Y104.491 E5.67552
G1 X210.897 Y104.7 E5.68233
G1 X211.097 Y105.705 E5.7147
G1 X211.269 Y106.838 E5.75091
G1 X211.302 Y107.067 E5.75822
G1 X211.69 Y110.042 E5.85302
G1 X213.657 Y125.197 E6.33589
G1 X213.744 Y125.941 E6.35956
G1 X213.815 Y126.958 E6.39177
G1 X213.831 Y127.645 E6.41349
G1 X213.834 Y127.967 E6.42366
G1 X213.794 Y128.904 E6.4533
G1 X213.674 Y129.834 E6.48292
G1 X213.522 Y130.57 E6.50667
G1 X213.447 Y130.878 E6.51669
G1 X213.372 Y131.166 E6.52609
G1 X213.29 Y131.467 E6.53595
G1 X213.005 Y132.361 E6.5656
G1 X212.645 Y133.227 E6.59523
G1 X212.438 Y133.648 E6.61005
G1 X212.319 Y133.877 E6.61821
G1 X212.114 Y134.253 E6.63174
G1 X211.931 Y134.574 E6.64341
G1 X211.432 Y135.368 E6.67305
G1 X210.868 Y136.117 E6.70267
G1 X210.484 Y136.559 E6.72117
G1 X210.286 Y136.775 E6.73043
G1 X210.068 Y137.006 E6.74047
G1 X209.832 Y137.249 E6.75117
G1 X209.151 Y137.893 E6.78078
G1 X208.417 Y138.477 E6.81042
G1 X207.962 Y138.791 E6.82789
G1 X207.725 Y138.946 E6.83684
G1 X207.454 Y139.117 E6.84696
G1 X207.167 Y139.293 E6.8576
G1 X206.348 Y139.749 E6.88722
G1 X205.56 Y140.106 E6.91455
G1 X204.849 Y140.369 E6.93851
G1 X204.598 Y140.452 E6.94686
G1 X204.334 Y140.535 E6.9556
G1 X204.004 Y140.635 E6.9665
G1 X203.096 Y140.869 E6.99613
G1 X202.029 Y141.041 E7.03028
G1 X201.534 Y141.086 E7.04598
G1 X200.519 Y141.156 E7.07813
G1 X197.874 Y141.375 E7.16199
G1 X195.407 Y141.649 E7.24042
G1 X192.909 Y142 E7.32012
G1 X190.428 Y142.419 E7.39963
G1 X190.004 Y142.502 E7.41328
G1 X188.843 Y142.716 E7.45058
G1 X188.091 Y142.828 E7.4746
G1 X188.003 Y142.838 E7.4774
G1 X187.527 Y142.881 E7.4925
G1 X186.652 Y142.942 E7.52022
G1 X184.051 Y143.159 E7.60269
G1 X181.519 Y143.443 E7.68319
G1 X179.041 Y143.792 E7.76226
G1 X176.574 Y144.211 E7.84133
G1 X175.869 Y144.351 E7.86404
G1 X174.842 Y144.541 E7.89704
G1 X174.247 Y144.634 E7.91607
G1 X173.562 Y144.702 E7.93782
G1 X173.24 Y144.724 E7.94802
G1 X172.946 Y144.741 E7.95732
G1 X172.633 Y144.754 E7.96722
G1 X171.681 Y144.752 E7.9973
G1 X170.336 Y144.691 E8.03984
G1 X167.75 Y144.613 E8.12159
G1 X165.219 Y144.606 E8.20156
G1 X162.732 Y144.671 E8.28017
G1 X160.212 Y144.807 E8.35991
G1 X157.648 Y145.019 E8.44121
G1 X156.004 Y145.194 E8.49344
G1 X154.941 Y145.317 E8.52726
G1 X152.305 Y145.659 E8.61124
G1 X149.823 Y146.053 E8.69065
G1 X147.354 Y146.517 E8.77003
G1 X144.879 Y147.055 E8.85006
G1 X142.47 Y147.649 E8.92846
G1 X140.035 Y148.325 E9.00831
G1 X137.625 Y149.068 E9.08799
G1 X135.241 Y149.877 E9.16754
G1 X132.874 Y150.756 E9.24732
G1 X130.097 Y151.883 E9.34201
G1 X129.09 Y152.231 E9.37568
G1 X128.18 Y152.457 E9.40531
G1 X127.253 Y152.605 E9.43497
G1 X126.061 Y152.678 E9.4727
G1 X124.895 Y152.686 E9.50954
G1 X124.597 Y152.684 E9.51896
G1 X122.054 Y152.734 E9.59933
G1 X119.57 Y152.854 E9.67791
G1 X117.043 Y153.047 E9.75799
G1 X114.542 Y153.31 E9.83745
G1 X112.037 Y153.645 E9.9173
G1 X109.436 Y154.069 E10.00057
G1 X108.183 Y154.293 E10.04079
G1 X107.224 Y154.421 E10.07136
G1 X106.287 Y154.466 E10.101
G1 X105.675 Y154.452 E10.12034
G1 X104.838 Y154.41 E10.14682
G1 X102.233 Y154.316 E10.22919
G1 X99.71 Y154.296 E10.30891
G1 X97.186 Y154.348 E10.38868
G1 X94.868 Y154.458 E10.462
G1 X94.434 Y154.482 E10.47574
G1 X93.487 Y154.518 E10.50568
G1 X92.929 Y154.532 E10.52332
G1 X92.252 Y154.528 E10.54471
G1 X91.182 Y154.489 E10.57854
G1 X90.984 Y154.48 E10.5848
G1 X89.883 Y154.42 E10.61964
G1 X89 Y154.359 E10.64761
G1 X88.089 Y154.258 E10.67657
G1 X87.836 Y154.219 E10.68466
G1 X87.549 Y154.17 E10.69386
G1 X87.261 Y154.118 E10.7031
G1 X85.83 Y153.846 E10.74913
G1 X85.162 Y153.71 E10.77067
G1 X83.9 Y153.374 E10.81193
G1 X83.53 Y153.249 E10.82427
G1 X83.031 Y153.071 E10.84101
G1 X82.199 Y152.767 E10.869
G1 X82.022 Y152.701 E10.87497
G1 X81.396 Y152.46 E10.89617
G1 X80.283 Y151.959 E10.93473
G1 X79.931 Y151.776 E10.94727
G1 X77.623 Y150.62 E11.02883
G1 X75.363 Y149.567 E11.10761
G1 X73.017 Y148.554 E11.18835
G1 X70.742 Y147.645 E11.26576
G1 X68.329 Y146.761 E11.34696
G1 X65.964 Y145.971 E11.42575
G1 X63.536 Y145.233 E11.50593
G1 X61.096 Y144.568 E11.58584
G1 X58.678 Y143.981 E11.66446
G1 X56.277 Y143.469 E11.74203
G1 X52.419 Y142.787 E11.86582
G1 X52.118 Y142.736 E11.87547
G1 X50.6 Y142.456 E11.92424
G1 X50.319 Y142.401 E11.93329
G1 X47.813 Y141.982 E12.01357
G1 X45.359 Y141.643 E12.09185
G1 X42.792 Y141.362 E12.17344
G1 X40.624 Y141.182 E12.24218
G1 X39.309 Y141.089 E12.28383
G1 X38.377 Y140.983 E12.31347
G1 X37.458 Y140.798 E12.34309
G1 X36.87 Y140.636 E12.36236
G1 X36.605 Y140.555 E12.37112
G1 X36.322 Y140.464 E12.38051
G1 X35.994 Y140.354 E12.39144
G1 X35.119 Y140.018 E12.42106
G1 X34.261 Y139.602 E12.45119
G1 X34.224 Y139.582 E12.45252
G1 X33.74 Y139.304 E12.47015
G1 X33.541 Y139.183 E12.47751
G1 X33.27 Y139.013 E12.48762
G1 X32.974 Y138.821 E12.49877
G1 X32.21 Y138.277 E12.5284
G1 X31.494 Y137.671 E12.55804
G1 X31.141 Y137.329 E12.57357
G1 X30.952 Y137.138 E12.58206
G1 X30.677 Y136.85 E12.59465
G1 X30.446 Y136.599 E12.60542
G1 X30.17 Y136.288 E12.61856
G1 X29.591 Y135.55 E12.6482
G1 X28.938 Y134.528 E12.68652
G1 X28.778 Y134.244 E12.69682
G1 X28.639 Y133.988 E12.70603
G1 X28.502 Y133.729 E12.71528
G1 X28.099 Y132.882 E12.74492
G1 X27.659 Y131.647 E12.78635
G1 X27.597 Y131.433 E12.79339
G1 X27.474 Y130.97 E12.80852
G1 X27.378 Y130.575 E12.82137
G1 X27.196 Y129.655 E12.851
G1 X27.092 Y128.723 E12.88063
G1 X27.067 Y128.079 E12.901
G1 X27.064 Y127.754 E12.91127
G1 X27.066 Y127.424 E12.92169
G1 X27.07 Y127.231 E12.92779
G1 X27.132 Y126.275 E12.95806
G1 X27.253 Y125.157 E12.99359
G1 X27.281 Y124.924 E13.00101
G1 X29.659 Y106.621 E13.58419
G1 X29.743 Y106.039 E13.60277
G1 X29.939 Y105.019 E13.63559
G1 X30.113 Y104.301 E13.65893
G1 X30.373 Y103.4 E13.68856
G1 X30.708 Y102.524 E13.7182
G1 X31.13 Y101.656 E13.74869
G1 X31.294 Y101.353 E13.75958
G1 X31.442 Y101.089 E13.76914
G1 X31.58 Y100.85 E13.77786
G1 X32.083 Y100.058 E13.80751
G1 X32.909 Y99.014 E13.84957
G1 X33.105 Y98.795 E13.85886
G1 X33.458 Y98.419 E13.87516
G1 X33.693 Y98.18 E13.88575
G1 X34.379 Y97.54 E13.91539
G1 X35.031 Y97.022 E13.9417
G1 X35.619 Y96.618 E13.96424
G1 X35.867 Y96.459 E13.97355
G1 X36.135 Y96.293 E13.98351
G1 X36.411 Y96.127 E13.99369
G1 X37.234 Y95.678 E14.02331
G1 X38.093 Y95.301 E14.05295
G0 F7500 X38.269 Y95.662
G1 F1500 X38.728 Y95.497 E14.06836
G1 X38.974 Y95.415 E14.07656
G1 X39.309 Y95.309 E14.08766
G1 X39.666 Y95.203 E14.09943
G1 X40.559 Y94.98 E14.12851
G1 X41.468 Y94.835 E14.15759
G1 X41.978 Y94.788 E14.17378
G1 X42.248 Y94.77 E14.18233
G1 X42.561 Y94.754 E14.19223
G1 X42.912 Y94.741 E14.20333
G1 X43.832 Y94.747 E14.2324
G1 X44.94 Y94.861 E14.26759
G1 X45.329 Y94.928 E14.28007
G1 X46.192 Y95.093 E14.30783
G1 X48.731 Y95.542 E14.3893
G1 X51.208 Y95.907 E14.46841
G1 X53.749 Y96.209 E14.54926
G1 X56.248 Y96.435 E14.62855
G1 X57.112 Y96.488 E14.6559
G1 X58.13 Y96.566 E14.68816
G1 X58.853 Y96.647 E14.71114
G1 X59.337 Y96.728 E14.72665
G1 X60.484 Y96.947 E14.76355
G1 X60.647 Y96.971 E14.76875
G1 X61.976 Y97.225 E14.81151
G1 X64.449 Y97.626 E14.89067
G1 X66.96 Y97.961 E14.97071
G1 X69.499 Y98.226 E15.05137
G1 X70.71 Y98.319 E15.08975
G1 X70.935 Y98.346 E15.09691
G1 X72.117 Y98.437 E15.13437
G1 X72.846 Y98.519 E15.15755
G1 X73.335 Y98.601 E15.17321
G1 X73.58 Y98.648 E15.18109
G1 X73.869 Y98.708 E15.19042
G1 X74.204 Y98.782 E15.20126
G1 X75.35 Y99.103 E15.23886
G1 X75.987 Y99.321 E15.26014
G1 X77.358 Y99.812 E15.30615
G1 X79.767 Y100.6 E15.38624
G1 X82.201 Y101.319 E15.46643
G1 X84.638 Y101.966 E15.5461
G1 X87.044 Y102.534 E15.62421
G1 X89.592 Y103.058 E15.70641
G1 X92.076 Y103.496 E15.78611
G1 X94.565 Y103.863 E15.8656
G1 X97.083 Y104.162 E15.94572
G1 X99.577 Y104.386 E16.02484
G1 X102.129 Y104.543 E16.10563
G1 X104.638 Y104.627 E16.18495
G1 X107.141 Y104.639 E16.26404
G1 X109.173 Y104.577 E16.32828
G1 X109.249 Y104.578 E16.33068
G1 X110.661 Y104.545 E16.3753
G1 X111.261 Y104.548 E16.39426
G1 X112.513 Y104.59 E16.43385
G1 X112.658 Y104.585 E16.43843
G1 X114.129 Y104.632 E16.48493
G1 X116.652 Y104.64 E16.56465
G1 X119.534 Y104.563 E16.65575
G1 X119.798 Y104.552 E16.6641
G1 X120.701 Y104.552 E16.69263
G1 X121.361 Y104.58 E16.7135
G1 X124.007 Y104.654 E16.79714
G1 X126.542 Y104.654 E16.87724
G1 X129.226 Y104.576 E16.96208
G1 X129.763 Y104.552 E16.97907
G1 X130.644 Y104.55 E17.0069
G1 X130.74 Y104.554 E17.00994
G1 X133.302 Y104.622 E17.09092
G1 X135.853 Y104.617 E17.17152
G1 X138.356 Y104.543 E17.25065
G1 X140.879 Y104.395 E17.3305
G1 X143.435 Y104.174 E17.41157
G1 X145.929 Y103.887 E17.49089
G1 X148.41 Y103.529 E17.57009
G1 X150.906 Y103.097 E17.65013
G1 X153.419 Y102.588 E17.73115
G1 X155.835 Y102.029 E17.8095
G1 X158.303 Y101.382 E17.89012
G1 X160.732 Y100.671 E17.97009
G1 X163.132 Y99.895 E18.04979
G1 X164.886 Y99.27 E18.10862
G1 X165.541 Y99.046 E18.1305
G1 X166.656 Y98.732 E18.1671
G1 X166.961 Y98.664 E18.17697
G1 X167.263 Y98.601 E18.18672
G1 X167.59 Y98.538 E18.19724
G1 X168.799 Y98.377 E18.23578
G1 X170.242 Y98.269 E18.2815
G1 X170.577 Y98.248 E18.29211
G1 X173.107 Y98.016 E18.37238
G1 X175.602 Y97.716 E18.45179
G1 X178.117 Y97.342 E18.53213
G1 X180.559 Y96.909 E18.61049
G1 X181.613 Y96.709 E18.64439
G1 X182.797 Y96.552 E18.68213
G1 X183.98 Y96.464 E18.71961
G1 X184.751 Y96.416 E18.74402
G1 X187.268 Y96.186 E18.82388
G1 X189.776 Y95.886 E18.90369
G1 X192.306 Y95.51 E18.98451
G1 X194.664 Y95.093 E19.06017
G1 X195.604 Y94.914 E19.09041
G1 X196.788 Y94.757 E19.12815
G1 X197.974 Y94.733 E19.16563
G1 X198.286 Y94.744 E19.17549
G1 X198.632 Y94.761 E19.18644
G1 X198.941 Y94.782 E19.19622
G1 X199.856 Y94.885 E19.22532
G1 X201.193 Y95.183 E19.2686
G1 X201.443 Y95.256 E19.27683
G1 X201.754 Y95.352 E19.28711
G1 X202.101 Y95.465 E19.29864
G1 X202.963 Y95.788 E19.32773
G1 X203.825 Y96.2 E19.35792
G1 X204.37 Y96.511 E19.37774
G1 X204.601 Y96.652 E19.3863
G1 X205.058 Y96.942 E19.4034
G1 X205.812 Y97.47 E19.43248
G1 X206.517 Y98.062 E19.46157
G1 X206.911 Y98.442 E19.47887
G1 X207.1 Y98.634 E19.48738
G1 X207.33 Y98.875 E19.49791
G1 X207.574 Y99.139 E19.50926
G1 X208.169 Y99.842 E19.53837
G1 X208.937 Y100.978 E19.58169
G1 X209.067 Y101.2 E19.58982
G1 X209.263 Y101.55 E19.6025
G1 X209.435 Y101.871 E19.614
G1 X209.834 Y102.7 E19.64307
G1 X210.148 Y103.525 E19.67097
G1 X210.166 Y103.579 E19.67276
G1 X210.323 Y104.094 E19.68978
G1 X210.383 Y104.31 E19.69686
G1 X210.456 Y104.588 E19.70594
G1 X210.508 Y104.797 E19.71275
G1 X210.702 Y105.765 E19.74394
G1 X210.874 Y106.898 E19.78015
G1 X210.905 Y107.119 E19.7872
G1 X211.293 Y110.094 E19.882
G1 X213.277 Y125.387 E20.36926
G1 X213.347 Y125.988 E20.38838
G1 X213.415 Y126.967 E20.41939
G1 X213.431 Y127.654 E20.4411
G1 X213.434 Y127.967 E20.45099
G1 X213.394 Y128.887 E20.48009
G1 X213.274 Y129.8 E20.50919
G1 X213.133 Y130.475 E20.53097
G1 X213.058 Y130.783 E20.54099
