;FLAVOR:Marlin
M117 Time Left 1h03m57s
;TIME:3837
;Filament used: 1.74606m
;Layer height: 0.2
;MINX:27.506
;MINY:70.413
;MINZ:0.2
;MAXX:214.272
;MAXY:130.611
;MAXZ:2
;POSTPROCESSED
;Generated with Cura_SteamEngine 4.7.1
M140 S70
M105
M190 S70
M104 S230
M105
M109 S230
M82 ;absolute extrusion mode
; Ender 3 Custom Start G-code
G92 E0 ; Reset Extruder
G28 ; Home all axes
; ***SET NEW E STEP *** (93 is factory value - 95 mine - start)
G90                          ; Force coordinates to be absolute relative to the origin
M92 E95 ;					 ; ***SET NEW E STEP *** (93 is factory value - 95 mine - end)
G90                          ; Force coordinates to be absolute relative to the origin
G28                          ; Home X/Y/Z axis
G92 E0 ; Reset Extruder								
G28 ; Home all axes		
G1 Z2.0 F3000 ; Move Z Axis up little to prevent scratching of Heat Bed
G1 X0.1 Y20 Z0.3 F5000.0 ; Move to start position
G1 X0.1 Y200.0 Z0.3 F1500.0 E15 ; Draw the first line
G1 X0.4 Y200.0 Z0.3 F5000.0 ; Move to side a little
G1 X0.4 Y20 Z0.3 F1500.0 E30 ; Draw the second line
G92 E0 ; Reset Extruder
G1 Z2.0 F3000 ; Move Z Axis up little to prevent scratching of Heat Bed
G1 X5 Y20 Z0.3 F5000.0 ; Move over to prevent blob squish
G92 E0
G92 E0
G1 F2700 E-6
;LAYER_COUNT:16
;LAYER:0
M107
M204 S500
M205 X8 Y8
G0 F7500 X37.675 Y71.758 Z0.2
;TYPE:SKIRT
G1 F2700 E0
G1 F1500 X38.534 Y71.381 E0.02964
G1 X39.03 Y71.202 E0.0463
G1 X39.275 Y71.12 E0.05447
G1 X39.643 Y71.004 E0.06666
G1 X40.001 Y70.898 E0.07845
G1 X40.911 Y70.67 E0.1081
G1 X41.837 Y70.521 E0.13773
G1 X42.392 Y70.469 E0.15535
G1 X42.662 Y70.451 E0.1639
G1 X42.986 Y70.435 E0.17415
G1 X43.336 Y70.422 E0.18521
G1 X44.274 Y70.427 E0.21485
G1 X45.344 Y70.531 E0.24882
G1 X45.846 Y70.615 E0.2649
G1 X46.701 Y70.779 E0.29241
G1 X49.23 Y71.225 E0.37355
G1 X51.723 Y71.593 E0.45318
G1 X54.202 Y71.888 E0.53206
G1 X56.747 Y72.118 E0.6128
G1 X57.593 Y72.17 E0.63958
G1 X57.776 Y72.183 E0.64538
G1 X58.628 Y72.25 E0.67238
G1 X59.821 Y72.41 E0.71042
G1 X61.033 Y72.64 E0.7494
G1 X61.161 Y72.657 E0.75348
G1 X62.765 Y72.958 E0.80504
G1 X65.24 Y73.353 E0.88423
G1 X67.724 Y73.676 E0.96338
G1 X71.26 Y74.016 E1.07563
G1 X72.589 Y74.118 E1.11774
G1 X73.447 Y74.218 E1.14504
G1 X73.862 Y74.29 E1.15834
G1 X74.106 Y74.337 E1.1662
G1 X74.398 Y74.397 E1.17561
G1 X74.733 Y74.471 E1.18645
G1 X75.922 Y74.805 E1.22548
G1 X76.712 Y75.076 E1.25187
G1 X77.954 Y75.522 E1.29356
G1 X80.341 Y76.302 E1.37291
G1 X82.711 Y77.003 E1.451
G1 X85.203 Y77.665 E1.53247
G1 X87.587 Y78.227 E1.60987
G1 X90.085 Y78.741 E1.69045
G1 X92.574 Y79.18 E1.77031
G1 X95.041 Y79.544 E1.8491
G1 X97.575 Y79.844 E1.92973
G1 X100.057 Y80.067 E2.00847
G1 X103.162 Y80.25 E2.10675
G1 X103.648 Y80.27 E2.12212
G1 X106.22 Y80.34 E2.20342
G1 X108.735 Y80.338 E2.28288
G1 X111.362 Y80.26 E2.36593
G1 X112.011 Y80.232 E2.38645
G1 X112.929 Y80.231 E2.41546
G1 X113.794 Y80.266 E2.44281
G1 X116.392 Y80.336 E2.52493
G1 X118.906 Y80.332 E2.60437
G1 X121.575 Y80.251 E2.68874
G1 X121.993 Y80.233 E2.70196
G1 X122.926 Y80.231 E2.73144
G1 X123.979 Y80.274 E2.76474
G1 X124.813 Y80.318 E2.79112
G1 X127.305 Y80.382 E2.86989
G1 X129.823 Y80.375 E2.94945
G1 X132.854 Y80.274 E3.04528
G1 X133.651 Y80.235 E3.07049
G1 X134.284 Y80.222 E3.0905
G1 X134.438 Y80.223 E3.09536
G1 X137.028 Y80.204 E3.1772
G1 X139.55 Y80.114 E3.25694
G1 X142.033 Y79.955 E3.33556
G1 X144.533 Y79.723 E3.41489
G1 X147.051 Y79.417 E3.49503
G1 X149.564 Y79.041 E3.57532
G1 X151.985 Y78.607 E3.65304
G1 X154.511 Y78.08 E3.73457
G1 X156.89 Y77.515 E3.81183
G1 X159.384 Y76.847 E3.89341
G1 X161.772 Y76.133 E3.97217
G1 X164.161 Y75.345 E4.05165
G1 X165.179 Y74.979 E4.08583
G1 X165.839 Y74.752 E4.10789
G1 X167.01 Y74.422 E4.14633
G1 X167.315 Y74.354 E4.1562
G1 X167.628 Y74.289 E4.1663
G1 X167.955 Y74.226 E4.17683
G1 X169.21 Y74.058 E4.21683
G1 X170.658 Y73.95 E4.26271
G1 X170.99 Y73.929 E4.27322
G1 X173.5 Y73.699 E4.35287
G1 X176.008 Y73.397 E4.43268
G1 X178.501 Y73.027 E4.51232
G1 X180.81 Y72.618 E4.58641
G1 X181.982 Y72.395 E4.62411
G1 X183.208 Y72.233 E4.66318
G1 X184.396 Y72.144 E4.70083
G1 X185.167 Y72.096 E4.72523
G1 X187.692 Y71.865 E4.80535
G1 X190.186 Y71.567 E4.88471
G1 X192.65 Y71.201 E4.96342
G1 X195.067 Y70.773 E5.04098
G1 X195.973 Y70.601 E5.07012
G1 X197.045 Y70.451 E5.10432
G1 X198.427 Y70.413 E5.14801
G1 X198.74 Y70.424 E5.1579
G1 X199.128 Y70.444 E5.17018
G1 X199.44 Y70.466 E5.18006
G1 X200.372 Y70.572 E5.2097
G1 X201.291 Y70.757 E5.23932
G1 X201.744 Y70.879 E5.25414
G1 X201.991 Y70.951 E5.26227
G1 X202.301 Y71.046 E5.27252
G1 X202.65 Y71.159 E5.28411
G1 X203.53 Y71.486 E5.31377
G1 X204.477 Y71.939 E5.34694
G1 X205.037 Y72.26 E5.36734
G1 X205.267 Y72.401 E5.37586
G1 X205.443 Y72.511 E5.38242
G1 X205.723 Y72.69 E5.39292
G1 X206.491 Y73.228 E5.42255
G1 X207.21 Y73.83 E5.45218
G1 X207.637 Y74.241 E5.4709
G1 X207.826 Y74.433 E5.47942
G1 X208.065 Y74.684 E5.49037
G1 X208.309 Y74.948 E5.50173
G1 X208.916 Y75.663 E5.53136
G1 X209.459 Y76.427 E5.56098
G1 X209.723 Y76.855 E5.57687
G1 X209.853 Y77.077 E5.585
G1 X210.057 Y77.441 E5.59818
G1 X210.229 Y77.762 E5.60969
G1 X210.636 Y78.607 E5.63932
G1 X210.969 Y79.478 E5.66879
G1 X210.987 Y79.532 E5.67058
G1 X211.15 Y80.067 E5.68826
G1 X211.21 Y80.283 E5.69534
G1 X211.286 Y80.571 E5.70475
G1 X211.338 Y80.78 E5.71156
G1 X211.538 Y81.784 E5.7439
G1 X211.715 Y82.949 E5.78114
G1 X211.748 Y83.184 E5.78863
G1 X214.113 Y101.404 E6.36916
G1 X214.185 Y102.023 E6.38885
G1 X214.256 Y103.034 E6.42088
G1 X214.272 Y103.712 E6.44231
G1 X214.263 Y104.49 E6.46689
G1 X214.258 Y104.596 E6.47024
G1 X214.174 Y105.53 E6.49987
G1 X213.949 Y106.715 E6.53799
G1 X213.888 Y106.962 E6.54602
G1 X213.822 Y107.217 E6.55435
G1 X213.731 Y107.551 E6.56529
G1 X213.446 Y108.444 E6.5949
G1 X213.086 Y109.31 E6.62454
G1 X212.825 Y109.834 E6.64303
G1 X212.68 Y110.106 E6.65277
G1 X212.505 Y110.421 E6.66416
G1 X212.342 Y110.704 E6.67448
G1 X211.84 Y111.496 E6.70411
G1 X211.272 Y112.242 E6.73373
G1 X210.951 Y112.611 E6.74919
G1 X210.792 Y112.786 E6.75666
G1 X210.557 Y113.037 E6.76752
G1 X210.29 Y113.313 E6.77966
G1 X209.61 Y113.959 E6.80929
G1 X208.877 Y114.544 E6.83892
G1 X208.35 Y114.907 E6.85914
G1 X208.082 Y115.08 E6.86922
G1 X207.838 Y115.233 E6.87832
G1 X207.572 Y115.395 E6.88816
G1 X206.751 Y115.848 E6.91779
G1 X205.894 Y116.23 E6.94744
G1 X205.329 Y116.436 E6.96644
G1 X205.065 Y116.524 E6.97523
G1 X204.776 Y116.615 E6.98481
G1 X204.446 Y116.715 E6.9957
G1 X203.538 Y116.949 E7.02533
G1 X202.541 Y117.113 E7.05726
G1 X201.974 Y117.166 E7.07525
G1 X200.972 Y117.235 E7.10699
G1 X198.334 Y117.453 E7.19062
G1 X195.835 Y117.73 E7.27007
G1 X193.336 Y118.08 E7.3498
G1 X190.885 Y118.494 E7.42834
G1 X190.43 Y118.584 E7.443
G1 X190.25 Y118.618 E7.44878
G1 X189.182 Y118.811 E7.48308
G1 X188.461 Y118.916 E7.5061
G1 X187.953 Y118.963 E7.52222
G1 X187.152 Y119.018 E7.54759
G1 X184.513 Y119.236 E7.63126
G1 X182.034 Y119.513 E7.71007
G1 X179.528 Y119.864 E7.79003
G1 X177.022 Y120.288 E7.87034
G1 X176.032 Y120.482 E7.90221
G1 X175.188 Y120.635 E7.92931
G1 X174.626 Y120.722 E7.94728
G1 X173.935 Y120.79 E7.96922
G1 X173.71 Y120.805 E7.97635
G1 X173.431 Y120.82 E7.98518
G1 X173.091 Y120.834 E7.99593
G1 X171.854 Y120.815 E8.03502
G1 X170.719 Y120.734 E8.07097
G1 X168.106 Y120.584 E8.15367
G1 X165.619 Y120.512 E8.23229
G1 X163.095 Y120.51 E8.31204
G1 X160.563 Y120.58 E8.39207
G1 X158.06 Y120.719 E8.47128
G1 X155.56 Y120.93 E8.55056
G1 X153.047 Y121.214 E8.63046
G1 X150.54 Y121.568 E8.71046
G1 X148.076 Y121.989 E8.78945
G1 X145.622 Y122.478 E8.86851
G1 X143.176 Y123.039 E8.9478
G1 X140.7 Y123.683 E9.02864
G1 X138.302 Y124.377 E9.10752
G1 X135.887 Y125.151 E9.18765
G1 X133.549 Y125.974 E9.26597
G1 X132.403 Y126.414 E9.30476
G1 X131.676 Y126.681 E9.32923
G1 X131.161 Y126.855 E9.3464
G1 X130.757 Y126.973 E9.3597
G1 X129.624 Y127.281 E9.3968
G1 X129.262 Y127.374 E9.40861
G1 X126.808 Y128.078 E9.48928
G1 X124.48 Y128.816 E9.56644
G1 X122.273 Y129.581 E9.64025
G1 X121.391 Y129.898 E9.66986
G1 X120.495 Y130.177 E9.69952
G1 X119.827 Y130.332 E9.72118
G1 X118.901 Y130.477 E9.7508
G1 X117.965 Y130.542 E9.78044
G1 X117.117 Y130.532 E9.80724
G1 X116.279 Y130.49 E9.83375
G1 X113.674 Y130.396 E9.91612
G1 X111.151 Y130.376 E9.99584
G1 X108.627 Y130.428 E10.07561
G1 X106.309 Y130.538 E10.14893
G1 X105.875 Y130.562 E10.16267
G1 X105.081 Y130.593 E10.18777
G1 X104.377 Y130.611 E10.21002
G1 X103.701 Y130.608 E10.23138
G1 X102.596 Y130.568 E10.26632
G1 X102.38 Y130.558 E10.27315
G1 X101.19 Y130.491 E10.31081
G1 X100.456 Y130.441 E10.33406
G1 X99.524 Y130.337 E10.36369
G1 X99.291 Y130.301 E10.37114
G1 X99.029 Y130.257 E10.37954
G1 X98.698 Y130.197 E10.39016
G1 X97.272 Y129.926 E10.43603
G1 X96.604 Y129.79 E10.45757
G1 X95.377 Y129.465 E10.49767
G1 X95.209 Y129.41 E10.50326
G1 X94.948 Y129.321 E10.51197
G1 X94.501 Y129.162 E10.52696
G1 X93.665 Y128.856 E10.55509
G1 X92.86 Y128.549 E10.58232
G1 X92.285 Y128.31 E10.60199
G1 X91.29 Y127.863 E10.63646
G1 X91.095 Y127.773 E10.64324
G1 X88.779 Y126.766 E10.72304
G1 X86.452 Y125.832 E10.80227
G1 X84.09 Y124.961 E10.88181
G1 X81.677 Y124.148 E10.96227
G1 X79.259 Y123.408 E11.04217
G1 X76.869 Y122.751 E11.12049
G1 X74.395 Y122.144 E11.20098
G1 X71.979 Y121.624 E11.27906
G1 X69.476 Y121.158 E11.35951
G1 X68.054 Y120.926 E11.40504
G1 X66.829 Y120.735 E11.44421
G1 X66.519 Y120.683 E11.45414
G1 X65.563 Y120.505 E11.48487
G1 X64.412 Y120.276 E11.52195
G1 X61.968 Y119.861 E11.60028
G1 X59.489 Y119.511 E11.67938
G1 X56.966 Y119.228 E11.7596
G1 X54.413 Y119.014 E11.84055
G1 X53.75 Y118.967 E11.86155
G1 X52.529 Y118.811 E11.90045
G1 X51.269 Y118.577 E11.94094
G1 X51.2 Y118.563 E11.94317
G1 X48.717 Y118.135 E12.02278
G1 X46.223 Y117.776 E12.10239
G1 X43.721 Y117.488 E12.18197
G1 X40.927 Y117.25 E12.27057
G1 X39.767 Y117.169 E12.30732
G1 X38.965 Y117.083 E12.3328
G1 X38.043 Y116.911 E12.36244
G1 X37.312 Y116.716 E12.38634
G1 X37.03 Y116.63 E12.39566
G1 X36.76 Y116.544 E12.40461
G1 X36.454 Y116.442 E12.4148
G1 X35.578 Y116.107 E12.44444
G1 X34.632 Y115.644 E12.47772
G1 X34.163 Y115.374 E12.49482
G1 X33.968 Y115.255 E12.50203
G1 X33.704 Y115.089 E12.51189
G1 X33.407 Y114.896 E12.52308
G1 X32.643 Y114.351 E12.55273
G1 X31.929 Y113.744 E12.58234
G1 X31.582 Y113.409 E12.59758
G1 X31.394 Y113.219 E12.60603
G1 X31.12 Y112.932 E12.61857
G1 X30.888 Y112.68 E12.62939
G1 X30.583 Y112.334 E12.64396
G1 X30.006 Y111.594 E12.67361
G1 X29.399 Y110.642 E12.70929
G1 X29.24 Y110.362 E12.71946
G1 X29.073 Y110.056 E12.73048
G1 X28.935 Y109.794 E12.73983
G1 X28.533 Y108.947 E12.76946
G1 X28.178 Y107.98 E12.80201
G1 X28.16 Y107.923 E12.80389
G1 X28.028 Y107.474 E12.81868
G1 X27.973 Y107.27 E12.82536
G1 X27.899 Y106.981 E12.83478
G1 X27.815 Y106.632 E12.84613
G1 X27.635 Y105.712 E12.87575
G1 X27.534 Y104.779 E12.9054
G1 X27.513 Y104.301 E12.92052
G1 X27.507 Y104.03 E12.92908
G1 X27.506 Y103.579 E12.94333
G1 X27.513 Y103.209 E12.95503
G1 X27.565 Y102.332 E12.98278
G1 X27.599 Y101.989 E12.99368
G1 X27.637 Y101.658 E13.0042
G1 X29.653 Y86.125 E13.49912
G1 X30.103 Y82.675 E13.60905
G1 X30.181 Y82.136 E13.62626
G1 X30.374 Y81.135 E13.65847
G1 X30.552 Y80.396 E13.68249
G1 X30.81 Y79.495 E13.7121
G1 X31.144 Y78.618 E13.74175
G1 X31.519 Y77.835 E13.76919
G1 X31.641 Y77.604 E13.77744
G1 X31.839 Y77.245 E13.79039
G1 X32.023 Y76.926 E13.80203
G1 X32.526 Y76.134 E13.83168
G1 X33.095 Y75.388 E13.86132
G1 X33.402 Y75.034 E13.87613
G1 X33.596 Y74.82 E13.88525
G1 X33.902 Y74.497 E13.89931
G1 X34.134 Y74.261 E13.90977
G1 X34.819 Y73.62 E13.93941
G1 X35.472 Y73.102 E13.96575
G1 X36.06 Y72.698 E13.98829
G1 X36.308 Y72.539 E13.9976
G1 X36.576 Y72.373 E14.00756
G1 X36.852 Y72.207 E14.01774
G1 X37.675 Y71.758 E14.04736
G0 F7500 X37.866 Y72.11
G1 F1500 X38.71 Y71.742 E14.07645
G1 X39.157 Y71.581 E14.09146
G1 X39.402 Y71.499 E14.09963
G1 X39.757 Y71.387 E14.11139
G1 X40.115 Y71.281 E14.12319
G1 X41.008 Y71.058 E14.15227
G1 X41.917 Y70.914 E14.18135
G1 X42.419 Y70.868 E14.19728
G1 X42.689 Y70.85 E14.20583
G1 X43.001 Y70.834 E14.2157
G1 X43.351 Y70.821 E14.22676
G1 X44.271 Y70.827 E14.25583
G1 X45.286 Y70.927 E14.28806
G1 X45.771 Y71.008 E14.3036
G1 X46.634 Y71.173 E14.33136
G1 X49.168 Y71.621 E14.41267
G1 X51.655 Y71.988 E14.4921
G1 X54.19 Y72.289 E14.57276
G1 X56.685 Y72.514 E14.65192
G1 X57.569 Y72.569 E14.6799
G1 X58.597 Y72.649 E14.71248
G1 X59.746 Y72.803 E14.74911
G1 X60.918 Y73.026 E14.78681
G1 X61.087 Y73.05 E14.7922
G1 X62.7 Y73.353 E14.84406
G1 X65.197 Y73.751 E14.92395
G1 X67.662 Y74.072 E15.0025
G1 X71.242 Y74.416 E15.11614
G1 X72.559 Y74.517 E15.15787
G1 X73.385 Y74.613 E15.18415
G1 X73.786 Y74.682 E15.19701
G1 X74.03 Y74.729 E15.20486
G1 X74.311 Y74.788 E15.21393
G1 X74.646 Y74.862 E15.22477
G1 X75.792 Y75.183 E15.26237
G1 X76.429 Y75.401 E15.28365
G1 X77.8 Y75.892 E15.32966
G1 X80.209 Y76.68 E15.40975
G1 X82.643 Y77.399 E15.48994
G1 X85.08 Y78.046 E15.56961
G1 X87.486 Y78.614 E15.64772
G1 X90.034 Y79.138 E15.72992
G1 X92.518 Y79.576 E15.80961
G1 X95.007 Y79.943 E15.88911
G1 X97.525 Y80.242 E15.96923
G1 X100 Y80.464 E16.04775
G1 X103.182 Y80.651 E16.14846
G1 X103.62 Y80.669 E16.16231
G1 X106.209 Y80.74 E16.24415
G1 X108.748 Y80.738 E16.32437
G1 X111.393 Y80.659 E16.40799
G1 X112.029 Y80.632 E16.4281
G1 X112.913 Y80.631 E16.45603
G1 X113.768 Y80.666 E16.48307
G1 X116.382 Y80.736 E16.56569
G1 X118.918 Y80.732 E16.64583
G1 X121.53 Y80.653 E16.72839
G1 X122.01 Y80.632 E16.74358
G1 X122.909 Y80.631 E16.77198
G1 X124.098 Y80.68 E16.80958
G1 X124.78 Y80.717 E16.83116
G1 X127.331 Y80.782 E16.91179
G1 X129.837 Y80.775 E16.99098
G1 X132.888 Y80.673 E17.08743
G1 X133.671 Y80.635 E17.1122
G1 X134.281 Y80.622 E17.13148
G1 X134.438 Y80.623 E17.13644
G1 X137.046 Y80.604 E17.21885
G1 X139.552 Y80.514 E17.29808
G1 X142.059 Y80.354 E17.37746
G1 X144.585 Y80.12 E17.45761
G1 X147.127 Y79.811 E17.53853
G1 X149.589 Y79.442 E17.61719
G1 X152.1 Y78.992 E17.69779
G1 X154.572 Y78.477 E17.77758
G1 X157.022 Y77.895 E17.85714
G1 X159.455 Y77.242 E17.93674
G1 X161.907 Y76.51 E18.0176
G1 X164.272 Y75.729 E18.09629
G1 X165.314 Y75.355 E18.13127
G1 X165.969 Y75.13 E18.15316
G1 X167.097 Y74.812 E18.19019
G1 X167.402 Y74.744 E18.20006
G1 X167.704 Y74.681 E18.20981
G1 X168.031 Y74.618 E18.22033
G1 X169.24 Y74.457 E18.25887
G1 X170.683 Y74.349 E18.30459
G1 X171.018 Y74.328 E18.3152
G1 X173.548 Y74.096 E18.39547
G1 X176.043 Y73.796 E18.47487
G1 X178.558 Y73.422 E18.55522
G1 X180.939 Y73 E18.63162
G1 X182.056 Y72.788 E18.66754
G1 X183.238 Y72.632 E18.70522
G1 X184.286 Y72.553 E18.73842
G1 X185.192 Y72.496 E18.76711
G1 X187.704 Y72.267 E18.84681
G1 X190.226 Y71.965 E18.92707
G1 X192.742 Y71.591 E19.00744
G1 X195.134 Y71.168 E19.08419
G1 X196.048 Y70.994 E19.11359
G1 X197.081 Y70.85 E19.14655
G1 X198.413 Y70.813 E19.18865
G1 X198.726 Y70.824 E19.19854
G1 X199.1 Y70.843 E19.21038
G1 X199.412 Y70.865 E19.22026
G1 X200.326 Y70.97 E19.24933
G1 X201.632 Y71.263 E19.29162
G1 X201.879 Y71.335 E19.29975
G1 X202.178 Y71.426 E19.30963
G1 X202.527 Y71.539 E19.32122
G1 X203.39 Y71.861 E19.35032
G1 X204.287 Y72.291 E19.38175
G1 X204.828 Y72.601 E19.40145
G1 X205.058 Y72.742 E19.40998
G1 X205.227 Y72.848 E19.41628
G1 X205.507 Y73.027 E19.42678
G1 X206.261 Y73.556 E19.45589
G1 X206.966 Y74.149 E19.48499
G1 X207.352 Y74.522 E19.50195
G1 X207.541 Y74.714 E19.51047
G1 X207.771 Y74.955 E19.52099
G1 X208.015 Y75.219 E19.53235
G1 X208.61 Y75.922 E19.56145
G1 X209.378 Y77.058 E19.60478
G1 X209.508 Y77.28 E19.61291
G1 X209.704 Y77.63 E19.62558
G1 X209.876 Y77.951 E19.63709
G1 X210.275 Y78.78 E19.66616
G1 X210.589 Y79.605 E19.69405
G1 X210.607 Y79.659 E19.69585
G1 X210.764 Y80.174 E19.71286
G1 X210.824 Y80.39 E19.71995
G1 X210.897 Y80.668 E19.72903
G1 X210.949 Y80.877 E19.73583
G1 X211.143 Y81.844 E19.767
G1 X211.32 Y83.009 E19.80423
G1 X211.352 Y83.236 E19.81147
G1 X213.699 Y101.31 E20.38735
G1 X213.788 Y102.069 E20.4115
G1 X213.856 Y103.044 E20.44238
G1 X213.872 Y103.722 E20.46381
G1 X213.863 Y104.471 E20.48748
G1 X213.858 Y104.577 E20.49083
G1 X213.775 Y105.494 E20.51993
G1 X213.561 Y106.619 E20.55611
G1 X213.5 Y106.866 E20.56415
G1 X213.436 Y107.111 E20.57215
G1 X213.345 Y107.445 E20.58309
