;FLAVOR:Marlin
M117 Time Left 1h11m43s
;TIME:4303
;Filament used: 2.01847m
;Layer height: 0.2
;MINX:30.363
;MINY:91.809
;MINZ:0.2
;MAXX:217.136
;MAXY:153.03
;MAXZ:2
;POSTPROCESSED
;Generated with Cura_SteamEngine 4.7.1
M140 S70
M105
M190 S70
M104 S230
M105
M109 S230
M82 ;absolute extrusion mode
; Ender 3 Custom Start G-code
G92 E0 ; Reset Extruder
G28 ; Home all axes
; ***SET NEW E STEP *** (93 is factory value - 95 mine - start)
G90                          ; Force coordinates to be absolute relative to the origin
M92 E95 ;					 ; ***SET NEW E STEP *** (93 is factory value - 95 mine - end)
G90                          ; Force coordinates to be absolute relative to the origin
G28                          ; Home X/Y/Z axis
G92 E0 ; Reset Extruder								
G28 ; Home all axes		
G1 Z2.0 F3000 ; Move Z Axis up little to prevent scratching of Heat Bed
G1 X0.1 Y20 Z0.3 F5000.0 ; Move to start position
G1 X0.1 Y200.0 Z0.3 F1500.0 E15 ; Draw the first line
G1 X0.4 Y200.0 Z0.3 F5000.0 ; Move to side a little
G1 X0.4 Y20 Z0.3 F1500.0 E30 ; Draw the second line
G92 E0 ; Reset Extruder
G1 Z2.0 F3000 ; Move Z Axis up little to prevent scratching of Heat Bed
G1 X5 Y20 Z0.3 F5000.0 ; Move over to prevent blob squish
G92 E0
G92 E0
G1 F2700 E-6
;LAYER_COUNT:16
;LAYER:0
M107
M204 S500
M205 X8 Y8
G0 F7500 X40.505 Y93.174 Z0.2
;TYPE:SKIRT
G1 F2700 E0
G1 F1500 X41.373 Y92.792 E0.02996
G1 X41.414 Y92.776 E0.03136
G1 X42.013 Y92.562 E0.05145
G1 X42.253 Y92.484 E0.05943
G1 X42.51 Y92.404 E0.06793
G1 X42.832 Y92.308 E0.07855
G1 X43.742 Y92.078 E0.10821
G1 X44.667 Y91.927 E0.13782
G1 X45.257 Y91.872 E0.15654
G1 X45.578 Y91.851 E0.16671
G1 X45.946 Y91.834 E0.17835
G1 X46.26 Y91.824 E0.18828
G1 X47.198 Y91.834 E0.21791
G1 X48.315 Y91.951 E0.2534
G1 X48.74 Y92.024 E0.26703
G1 X49.476 Y92.166 E0.29071
G1 X52.029 Y92.619 E0.37264
G1 X54.501 Y92.986 E0.4516
G1 X57.015 Y93.287 E0.53161
G1 X59.492 Y93.513 E0.6102
G1 X60.623 Y93.585 E0.64601
G1 X61.457 Y93.649 E0.67244
G1 X62.438 Y93.769 E0.70366
G1 X62.758 Y93.826 E0.71393
G1 X63.83 Y94.032 E0.74843
G1 X63.945 Y94.047 E0.75209
G1 X65.088 Y94.268 E0.78887
G1 X67.59 Y94.68 E0.86899
G1 X70.109 Y95.023 E0.94932
G1 X72.59 Y95.289 E1.02816
G1 X74.063 Y95.405 E1.07485
G1 X74.255 Y95.428 E1.08096
G1 X75.447 Y95.52 E1.11874
G1 X76.203 Y95.605 E1.14277
G1 X76.709 Y95.69 E1.15899
G1 X76.954 Y95.737 E1.16687
G1 X77.255 Y95.799 E1.17658
G1 X77.59 Y95.873 E1.18742
G1 X78.784 Y96.209 E1.22661
G1 X79.98 Y96.62 E1.26657
G1 X80.248 Y96.716 E1.27557
G1 X82.664 Y97.509 E1.35591
G1 X85.095 Y98.23 E1.43603
G1 X87.509 Y98.873 E1.51497
G1 X89.9 Y99.438 E1.5926
G1 X92.429 Y99.961 E1.6742
G1 X94.919 Y100.402 E1.7541
G1 X97.386 Y100.767 E1.8329
G1 X99.893 Y101.067 E1.91268
G1 X102.382 Y101.293 E1.99164
G1 X104.91 Y101.45 E2.07168
G1 X107.433 Y101.536 E2.15144
G1 X109.957 Y101.55 E2.23119
G1 X112.454 Y101.494 E2.31011
G1 X114.993 Y101.365 E2.39044
G1 X117.455 Y101.17 E2.46848
G1 X119.99 Y100.896 E2.54904
G1 X122.491 Y100.555 E2.6288
G1 X124.963 Y100.145 E2.70797
G1 X127.429 Y99.665 E2.78735
G1 X129.924 Y99.105 E2.86815
G1 X132.336 Y98.492 E2.94678
G1 X134.738 Y97.808 E3.0257
G1 X137.166 Y97.042 E3.10614
G1 X139.523 Y96.226 E3.18495
G1 X141.904 Y95.324 E3.2654
G1 X143.394 Y94.719 E3.31622
G1 X143.941 Y94.514 E3.33467
G1 X144.891 Y94.186 E3.36643
G1 X145.316 Y94.049 E3.38054
G1 X145.549 Y93.979 E3.38823
G1 X146.458 Y93.748 E3.41786
G1 X147.324 Y93.602 E3.44561
G1 X147.583 Y93.569 E3.45386
G1 X147.844 Y93.539 E3.46216
G1 X147.999 Y93.523 E3.46709
G1 X148.241 Y93.501 E3.47476
G1 X148.933 Y93.445 E3.4967
G1 X149.87 Y93.409 E3.52633
G1 X150.797 Y93.453 E3.55565
G1 X151.548 Y93.52 E3.57948
G1 X151.873 Y93.553 E3.5898
G1 X152.603 Y93.64 E3.61303
G1 X153.215 Y93.731 E3.63258
G1 X153.595 Y93.798 E3.64477
G1 X156.224 Y94.224 E3.72892
G1 X158.697 Y94.554 E3.80775
G1 X161.196 Y94.815 E3.88714
G1 X163.705 Y95.005 E3.96665
G1 X166.203 Y95.125 E4.04567
G1 X168.724 Y95.174 E4.12534
G1 X171.286 Y95.15 E4.2063
G1 X173.77 Y95.058 E4.28484
G1 X176.253 Y94.895 E4.36346
G1 X178.8 Y94.655 E4.4443
G1 X181.294 Y94.349 E4.52369
G1 X183.765 Y93.975 E4.60266
G1 X184.214 Y93.895 E4.61707
G1 X185.138 Y93.745 E4.64664
G1 X186.068 Y93.635 E4.67623
G1 X187.214 Y93.55 E4.71254
G1 X187.964 Y93.504 E4.73629
G1 X190.464 Y93.277 E4.8156
G1 X192.952 Y92.982 E4.89477
G1 X195.495 Y92.605 E4.976
G1 X197.95 Y92.173 E5.05476
G1 X198.837 Y92.004 E5.08329
G1 X199.765 Y91.867 E5.11293
G1 X200.897 Y91.809 E5.14875
G1 X201.344 Y91.817 E5.16287
G1 X201.586 Y91.826 E5.17052
G1 X201.855 Y91.839 E5.17903
G1 X202.195 Y91.86 E5.1898
G1 X203.128 Y91.958 E5.21944
G1 X204.049 Y92.134 E5.24907
G1 X204.657 Y92.297 E5.26896
G1 X204.976 Y92.392 E5.27947
G1 X205.304 Y92.495 E5.29034
G1 X205.593 Y92.591 E5.29996
G1 X206.469 Y92.924 E5.32957
G1 X207.314 Y93.331 E5.35921
G1 X207.771 Y93.59 E5.3758
G1 X207.985 Y93.718 E5.38368
G1 X208.283 Y93.902 E5.39475
G1 X208.596 Y94.103 E5.4065
G1 X209.363 Y94.643 E5.43614
G1 X210.378 Y95.529 E5.47871
G1 X210.528 Y95.677 E5.48537
G1 X210.86 Y96.019 E5.50043
G1 X211.149 Y96.33 E5.51385
G1 X211.758 Y97.044 E5.5435
G1 X212.303 Y97.807 E5.57312
G1 X212.623 Y98.329 E5.59247
G1 X212.771 Y98.586 E5.60184
G1 X212.937 Y98.884 E5.61262
G1 X213.089 Y99.168 E5.6228
G1 X213.578 Y100.209 E5.65914
G1 X213.589 Y100.236 E5.66006
G1 X214.009 Y101.47 E5.70125
G1 X214.078 Y101.721 E5.70947
G1 X214.152 Y102.006 E5.71878
G1 X214.203 Y102.213 E5.72551
G1 X214.399 Y103.204 E5.75743
G1 X214.571 Y104.345 E5.79389
G1 X214.602 Y104.564 E5.80088
G1 X216.968 Y122.782 E6.38135
G1 X217.057 Y123.546 E6.40565
G1 X217.127 Y124.509 E6.43616
G1 X217.133 Y124.722 E6.4429
G1 X217.136 Y125.165 E6.45689
G1 X217.131 Y125.577 E6.46991
G1 X217.08 Y126.514 E6.49956
G1 X216.918 Y127.601 E6.53429
G1 X216.904 Y127.671 E6.53654
G1 X216.819 Y128.062 E6.54919
G1 X216.769 Y128.272 E6.55601
G1 X216.688 Y128.591 E6.56641
G1 X216.6 Y128.917 E6.57708
G1 X216.317 Y129.811 E6.60671
G1 X215.984 Y130.623 E6.63444
G1 X215.968 Y130.658 E6.63565
G1 X215.677 Y131.248 E6.65644
G1 X215.559 Y131.47 E6.66438
G1 X215.416 Y131.73 E6.67376
G1 X215.246 Y132.03 E6.68465
G1 X214.749 Y132.826 E6.7143
G1 X214.187 Y133.576 E6.74392
G1 X213.777 Y134.048 E6.76367
G1 X213.563 Y134.281 E6.77367
G1 X213.309 Y134.548 E6.78531
G1 X213.087 Y134.774 E6.79532
G1 X212.402 Y135.415 E6.82496
G1 X211.57 Y136.062 E6.85827
G1 X211.516 Y136.1 E6.86035
G1 X211.179 Y136.328 E6.87321
G1 X211.002 Y136.443 E6.87988
G1 X210.725 Y136.617 E6.89022
G1 X210.434 Y136.794 E6.90098
G1 X209.613 Y137.247 E6.93061
G1 X208.966 Y137.543 E6.95309
G1 X208.923 Y137.561 E6.95456
G1 X208.139 Y137.854 E6.981
G1 X207.919 Y137.927 E6.98833
G1 X207.661 Y138.009 E6.99688
G1 X207.323 Y138.112 E7.00805
G1 X206.416 Y138.347 E7.03765
G1 X205.239 Y138.533 E7.0753
G1 X204.839 Y138.568 E7.08799
G1 X203.708 Y138.646 E7.12381
G1 X201.122 Y138.863 E7.20581
G1 X198.601 Y139.145 E7.28596
G1 X196.123 Y139.495 E7.36504
G1 X193.637 Y139.917 E7.44471
G1 X193.214 Y140 E7.45833
G1 X192.148 Y140.197 E7.49259
G1 X191.377 Y140.311 E7.51721
G1 X191.288 Y140.321 E7.52004
G1 X190.825 Y140.363 E7.53473
G1 X189.954 Y140.424 E7.56232
G1 X187.349 Y140.641 E7.64491
G1 X184.818 Y140.924 E7.72539
G1 X182.34 Y141.274 E7.80446
G1 X179.873 Y141.693 E7.88353
G1 X179.168 Y141.833 E7.90624
G1 X178.141 Y142.023 E7.93924
G1 X177.443 Y142.129 E7.96155
G1 X177.367 Y142.138 E7.96396
G1 X176.848 Y142.187 E7.98044
G1 X176.593 Y142.205 E7.98851
G1 X176.274 Y142.223 E7.99861
G1 X175.248 Y142.266 E8.03106
G1 X172.663 Y142.41 E8.11286
G1 X170.191 Y142.618 E8.19125
G1 X167.668 Y142.903 E8.27147
G1 X165.136 Y143.261 E8.35227
G1 X163.194 Y143.585 E8.41448
G1 X162.933 Y143.632 E8.42286
G1 X162.627 Y143.682 E8.43266
G1 X161.503 Y143.85 E8.46857
G1 X158.874 Y144.28 E8.55274
G1 X156.402 Y144.757 E8.63229
G1 X153.955 Y145.301 E8.7115
G1 X151.431 Y145.939 E8.79375
G1 X149.119 Y146.593 E8.86967
G1 X146.662 Y147.363 E8.95103
G1 X144.296 Y148.179 E9.03011
G1 X141.956 Y149.061 E9.10913
G1 X139.402 Y150.109 E9.19635
G1 X138.61 Y150.448 E9.22358
G1 X137.733 Y150.78 E9.25321
G1 X136.831 Y151.037 E9.28284
G1 X135.91 Y151.215 E9.31248
G1 X134.964 Y151.316 E9.34254
G1 X134.932 Y151.318 E9.34355
G1 X133.994 Y151.336 E9.3732
G1 X133.382 Y151.305 E9.39256
G1 X132.959 Y151.271 E9.40597
G1 X130.952 Y151.089 E9.46964
G1 X128.434 Y150.932 E9.54936
G1 X125.91 Y150.846 E9.62916
G1 X123.385 Y150.831 E9.70894
G1 X120.9 Y150.887 E9.78748
G1 X118.367 Y151.016 E9.86762
G1 X115.859 Y151.215 E9.94711
G1 X113.362 Y151.484 E10.02647
G1 X110.853 Y151.827 E10.10648
G1 X108.362 Y152.238 E10.18626
G1 X105.876 Y152.721 E10.26628
G1 X105.531 Y152.792 E10.2774
G1 X104.605 Y152.942 E10.30705
G1 X103.785 Y153.009 E10.33304
G1 X103.623 Y153.016 E10.33816
G1 X103.262 Y153.025 E10.34957
G1 X102.762 Y153.03 E10.36537
G1 X101.281 Y153.029 E10.41217
G1 X100.222 Y153.013 E10.44563
G1 X97.955 Y152.949 E10.51729
G1 X95.436 Y152.949 E10.59689
G1 X93.263 Y153.011 E10.66558
G1 X92.064 Y153.029 E10.70346
G1 X91.743 Y153.029 E10.71361
G1 X91.038 Y153.019 E10.73589
G1 X90.729 Y153.01 E10.74565
G1 X90.54 Y153.002 E10.75163
G1 X90.26 Y152.987 E10.76049
G1 X89.826 Y152.957 E10.77424
G1 X88.879 Y152.882 E10.80425
G1 X88.248 Y152.824 E10.82427
G1 X86.959 Y152.628 E10.86547
G1 X85.933 Y152.409 E10.89862
G1 X85.728 Y152.363 E10.90526
G1 X85.364 Y152.278 E10.91707
G1 X84.501 Y152.064 E10.94516
G1 X83.301 Y151.692 E10.98486
G1 X82.668 Y151.455 E11.00622
G1 X81.81 Y151.121 E11.03531
G1 X81.634 Y151.051 E11.04129
G1 X81.097 Y150.831 E11.05963
G1 X80.214 Y150.423 E11.09036
G1 X79.168 Y149.882 E11.12757
G1 X78.975 Y149.779 E11.13449
G1 X78.119 Y149.315 E11.16525
G1 X77.996 Y149.253 E11.1696
G1 X76.596 Y148.492 E11.21995
G1 X74.326 Y147.341 E11.30037
G1 X72.046 Y146.264 E11.38005
G1 X69.745 Y145.255 E11.45943
G1 X67.434 Y144.319 E11.53822
G1 X65.063 Y143.436 E11.61816
G1 X62.682 Y142.625 E11.69764
G1 X60.247 Y141.873 E11.77816
G1 X57.833 Y141.2 E11.85735
G1 X55.451 Y140.608 E11.9349
G1 X52.956 Y140.063 E12.01559
G1 X50.452 Y139.59 E12.09611
G1 X47.974 Y139.194 E12.1754
G1 X45.491 Y138.868 E12.25453
G1 X43.662 Y138.682 E12.31262
G1 X43.597 Y138.673 E12.3147
G1 X42.326 Y138.548 E12.35505
G1 X41.397 Y138.416 E12.3847
G1 X40.689 Y138.261 E12.4076
G1 X40.63 Y138.246 E12.40952
G1 X40.188 Y138.124 E12.42401
G1 X39.964 Y138.057 E12.4314
G1 X39.648 Y137.957 E12.44187
G1 X39.335 Y137.853 E12.45229
G1 X38.517 Y137.545 E12.47991
G1 X38.491 Y137.534 E12.4808
G1 X37.644 Y137.132 E12.51043
G1 X37.037 Y136.786 E12.5325
G1 X36.782 Y136.63 E12.54195
G1 X36.551 Y136.485 E12.55057
G1 X36.288 Y136.315 E12.56046
G1 X35.522 Y135.773 E12.59011
G1 X34.806 Y135.167 E12.61975
G1 X34.341 Y134.712 E12.64031
G1 X34.125 Y134.488 E12.65014
G1 X33.933 Y134.284 E12.65899
G1 X33.714 Y134.045 E12.66923
G1 X33.11 Y133.328 E12.69885
G1 X32.57 Y132.561 E12.72849
G1 X32.322 Y132.157 E12.74347
G1 X32.21 Y131.965 E12.75049
G1 X32 Y131.587 E12.76416
G1 X31.808 Y131.226 E12.77708
G1 X31.403 Y130.38 E12.80671
G1 X31.072 Y129.503 E12.83633
G1 X30.898 Y128.921 E12.85553
G1 X30.821 Y128.635 E12.86488
G1 X30.752 Y128.363 E12.87375
G1 X30.676 Y128.049 E12.88396
G1 X30.442 Y126.746 E12.92579
G1 X30.366 Y125.568 E12.96309
G1 X30.363 Y125.302 E12.97149
G1 X30.364 Y124.946 E12.98274
G1 X30.369 Y124.709 E12.99023
G1 X30.431 Y123.757 E13.02038
G1 X30.552 Y122.639 E13.05591
G1 X30.58 Y122.406 E13.06332
G1 X32.958 Y104.103 E13.64651
G1 X33.042 Y103.521 E13.66509
G1 X33.233 Y102.524 E13.69716
G1 X33.396 Y101.845 E13.71923
G1 X33.618 Y101.053 E13.74522
G1 X33.635 Y101 E13.74697
G1 X33.959 Y100.12 E13.7766
G1 X34.435 Y99.125 E13.81146
G1 X34.573 Y98.87 E13.82062
G1 X34.717 Y98.611 E13.82998
G1 X34.879 Y98.33 E13.84023
G1 X35.382 Y97.538 E13.86987
G1 X35.95 Y96.792 E13.8995
G1 X36.315 Y96.375 E13.91701
G1 X36.523 Y96.149 E13.92672
G1 X36.805 Y95.854 E13.93961
G1 X37.031 Y95.626 E13.94975
G1 X37.719 Y94.989 E13.97938
G1 X38.792 Y94.184 E14.02176
G1 X39 Y94.047 E14.02963
G1 X39.361 Y93.819 E14.04313
G1 X39.682 Y93.625 E14.05498
G1 X40.505 Y93.174 E14.08463
G0 F7500 X40.697 Y93.526
G1 F1500 X41.518 Y93.164 E14.11298
G1 X41.559 Y93.148 E14.11437
G1 X42.137 Y92.942 E14.13376
G1 X42.377 Y92.864 E14.14173
G1 X42.624 Y92.787 E14.14991
G1 X42.946 Y92.691 E14.16053
G1 X43.839 Y92.466 E14.18962
G1 X44.748 Y92.32 E14.21871
G1 X45.283 Y92.272 E14.23569
G1 X45.604 Y92.251 E14.24585
G1 X45.959 Y92.233 E14.25708
G1 X46.273 Y92.223 E14.26701
G1 X47.193 Y92.234 E14.29608
G1 X48.253 Y92.346 E14.32976
G1 X48.665 Y92.417 E14.34297
G1 X49.408 Y92.56 E14.36688
G1 X51.937 Y93.009 E14.44803
G1 X54.461 Y93.384 E14.52866
G1 X56.971 Y93.684 E14.60853
G1 X59.5 Y93.915 E14.68878
G1 X60.742 Y93.995 E14.7281
G1 X61.426 Y94.048 E14.74978
G1 X62.372 Y94.164 E14.77989
G1 X62.682 Y94.219 E14.78984
G1 X63.716 Y94.418 E14.82311
G1 X63.87 Y94.44 E14.82803
G1 X65.025 Y94.663 E14.8652
G1 X67.542 Y95.078 E14.9458
G1 X70.049 Y95.419 E15.02574
G1 X72.549 Y95.687 E15.10519
G1 X74.032 Y95.804 E15.15219
G1 X74.219 Y95.827 E15.15815
G1 X75.416 Y95.919 E15.19608
G1 X76.145 Y96.001 E15.21926
G1 X76.634 Y96.083 E15.23493
G1 X76.879 Y96.13 E15.24281
G1 X77.168 Y96.19 E15.25213
G1 X77.503 Y96.264 E15.26298
G1 X78.655 Y96.587 E15.30078
G1 X79.846 Y96.996 E15.34057
G1 X80.138 Y97.101 E15.35037
G1 X82.541 Y97.889 E15.43028
G1 X84.984 Y98.614 E15.5108
G1 X87.427 Y99.264 E15.59068
G1 X89.824 Y99.832 E15.66851
G1 X92.35 Y100.353 E15.75001
G1 X94.822 Y100.791 E15.82933
G1 X97.352 Y101.166 E15.91014
G1 X99.846 Y101.464 E15.98951
G1 X102.392 Y101.695 E16.07028
G1 X104.872 Y101.849 E16.1488
G1 X107.417 Y101.936 E16.22926
G1 X109.964 Y101.95 E16.30974
G1 X112.483 Y101.893 E16.38935
G1 X114.977 Y101.767 E16.46825
G1 X117.528 Y101.564 E16.54911
G1 X120.051 Y101.292 E16.6293
G1 X122.545 Y100.952 E16.70883
G1 X125.028 Y100.54 E16.78836
G1 X127.495 Y100.06 E16.86777
G1 X130.038 Y99.489 E16.95012
G1 X132.439 Y98.879 E17.02839
G1 X134.853 Y98.192 E17.1077
G1 X137.28 Y97.426 E17.18811
G1 X139.659 Y96.602 E17.26766
G1 X142.07 Y95.689 E17.34912
G1 X143.545 Y95.09 E17.39943
G1 X144.072 Y94.892 E17.41721
G1 X145.022 Y94.564 E17.44897
G1 X145.431 Y94.432 E17.46255
G1 X145.664 Y94.362 E17.47024
G1 X146.557 Y94.136 E17.49934
G1 X147.374 Y93.999 E17.52552
G1 X147.633 Y93.966 E17.53377
G1 X147.885 Y93.937 E17.54178
G1 X148.04 Y93.921 E17.54671
G1 X148.273 Y93.9 E17.5541
G1 X148.965 Y93.844 E17.57604
G1 X149.885 Y93.809 E17.60513
G1 X150.762 Y93.851 E17.63287
G1 X151.513 Y93.918 E17.65669
G1 X151.825 Y93.95 E17.6666
G1 X152.555 Y94.037 E17.68983
G1 X153.146 Y94.125 E17.70871
G1 X153.539 Y94.194 E17.72132
G1 X156.143 Y94.616 E17.80467
G1 X158.635 Y94.949 E17.88411
G1 X161.161 Y95.213 E17.96436
G1 X163.692 Y95.405 E18.04456
G1 X166.212 Y95.525 E18.12428
G1 X168.72 Y95.574 E18.20354
G1 X171.268 Y95.55 E18.28405
G1 X173.814 Y95.456 E18.36455
G1 X176.316 Y95.292 E18.44378
G1 X178.811 Y95.057 E18.52296
G1 X181.335 Y94.747 E18.60331
G1 X183.855 Y94.366 E18.68384
G1 X184.284 Y94.289 E18.69761
G1 X185.202 Y94.14 E18.727
G1 X186.098 Y94.034 E18.75551
G1 X187.238 Y93.949 E18.79163
G1 X187.991 Y93.903 E18.81547
G1 X190.511 Y93.674 E18.89542
G1 X193.021 Y93.376 E18.97528
G1 X195.551 Y93.002 E19.05609
G1 X197.96 Y92.577 E19.13339
G1 X198.912 Y92.396 E19.16401
G1 X199.823 Y92.264 E19.19309
G1 X200.897 Y92.209 E19.22707
G1 X201.329 Y92.216 E19.24072
G1 X201.571 Y92.225 E19.24837
G1 X201.83 Y92.238 E19.25657
G1 X202.17 Y92.259 E19.26733
G1 X203.086 Y92.356 E19.29644
G1 X203.99 Y92.531 E19.32553
G1 X204.542 Y92.68 E19.3436
G1 X204.861 Y92.775 E19.35411
G1 X205.178 Y92.874 E19.36461
G1 X205.467 Y92.97 E19.37423
G1 X206.327 Y93.298 E19.40331
G1 X207.155 Y93.7 E19.4324
G1 X207.566 Y93.933 E19.44732
G1 X207.78 Y94.061 E19.4552
G1 X208.067 Y94.239 E19.46587
G1 X208.38 Y94.44 E19.47763
G1 X209.132 Y94.97 E19.5067
G1 X210.097 Y95.814 E19.5472
G1 X210.247 Y95.962 E19.55386
G1 X210.567 Y96.291 E19.56836
G1 X210.856 Y96.602 E19.58178
G1 X211.453 Y97.303 E19.61087
G1 X211.987 Y98.053 E19.63996
G1 X212.277 Y98.528 E19.65755
G1 X212.425 Y98.785 E19.66692
G1 X212.585 Y99.073 E19.67733
G1 X212.737 Y99.357 E19.68751
G1 X213.208 Y100.36 E19.72252
