;FLAVOR:Marlin
M117 Time Left 0h43m43s
;TIME:2623
;Filament used: 4.4288m
;Layer height: 0.2
;MINX:66.339
;MINY:66.339
;MINZ:0.28
;MAXX:168.653
;MAXY:168.66
;MAXZ:20.48
;POSTPROCESSED
;Generated with Cura_SteamEngine 5.2.1
M140 S80
M105
M190 S80
M104 S225
M105
M109 S225
M82 ;absolute extrusion mode
; Ender 3 Custom Start G-code
G92 E0 ; Reset Extruder
G28 ; Home all axes
G1 Z2.0 F3000 ; Move Z Axis up little to prevent scratching of Heat Bed
G1 X0.1 Y20 Z0.3 F5000.0 ; Move to start position
G1 X0.1 Y200.0 Z0.3 F1500.0 E15 ; Draw the first line
G1 X0.4 Y200.0 Z0.3 F5000.0 ; Move to side a little
G1 X0.4 Y20 Z0.3 F1500.0 E30 ; Draw the second line
G92 E0 ; Reset Extruder
G1 Z2.0 F3000 ; Move Z Axis up little to prevent scratching of Heat Bed
G1 X5 Y20 Z0.3 F5000.0 ; Move over to prevent blob squish
G92 E0
G92 E0
G1 F3300 E-6
;LAYER_COUNT:102
;LAYER:0
M107
M204 S500
M205 X5 Y5
G0 F7500 X93.309 Y93.873 Z0.28
M205 X8 Y8
;TYPE:SKIRT
G1 F3300 E0
G1 F1500 X92.654 Y94.564 E0.04501
G1 X91.932 Y95.372 E0.09624
G1 X91.249 Y96.188 E0.14655
G1 X90.562 Y97.063 E0.19914
G1 X89.99 Y97.838 E0.24468
G1 X89.381 Y98.719 E0.29532
G1 X88.793 Y99.631 E0.34662
G1 X88.243 Y100.548 E0.39717
G1 X87.767 Y101.397 E0.44319
G1 X87.268 Y102.354 E0.49421
G1 X86.792 Y103.342 E0.54606
G1 X86.42 Y104.181 E0.58945
G1 X85.991 Y105.231 E0.64308
G1 X85.61 Y106.252 E0.6946
G1 X85.32 Y107.11 E0.73742
G1 X84.994 Y108.185 E0.79052
G1 X84.71 Y109.234 E0.8419
G1 X84.466 Y110.279 E0.89264
G1 X84.278 Y111.2 E0.93708
G1 X84.085 Y112.32 E0.99081
G1 X83.938 Y113.364 E1.04065
G1 X83.827 Y114.42 E1.09085
G1 X83.751 Y115.408 E1.1377
G1 X83.7 Y116.483 E1.18858
G1 X83.686 Y117.558 E1.23941
G1 X83.701 Y118.523 E1.28504
G1 X83.753 Y119.617 E1.33682
G1 X83.836 Y120.688 E1.3876
G1 X83.939 Y121.627 E1.43226
G1 X84.089 Y122.706 E1.48376
G1 X84.275 Y123.793 E1.5359
G1 X84.454 Y124.678 E1.57859
G1 X84.717 Y125.786 E1.63243
G1 X84.995 Y126.817 E1.68291
G1 X85.322 Y127.895 E1.73617
G1 X85.608 Y128.745 E1.77857
G1 X86.001 Y129.794 E1.83153
G1 X86.411 Y130.8 E1.88289
G1 X86.787 Y131.647 E1.9267
G1 X87.27 Y132.65 E1.97933
G1 X87.769 Y133.608 E2.0304
G1 X88.296 Y134.543 E2.08114
G1 X88.798 Y135.378 E2.1272
G1 X89.382 Y136.283 E2.17812
G1 X90.01 Y137.191 E2.23032
G1 X90.551 Y137.924 E2.27339
G1 X91.242 Y138.803 E2.32625
G1 X91.939 Y139.637 E2.37763
G1 X92.643 Y140.424 E2.42755
G1 X93.319 Y141.136 E2.47397
G1 X94.091 Y141.9 E2.52532
G1 X94.883 Y142.638 E2.5765
G1 X95.6 Y143.264 E2.6215
G1 X96.428 Y143.945 E2.67218
G1 X97.31 Y144.624 E2.72481
G1 X98.181 Y145.251 E2.77555
G1 X98.992 Y145.8 E2.82185
G1 X99.87 Y146.355 E2.87095
G1 X100.832 Y146.919 E2.92367
G1 X101.657 Y147.373 E2.96819
G1 X102.654 Y147.88 E3.02107
G1 X103.612 Y148.331 E3.07113
G1 X104.479 Y148.706 E3.11579
G1 X105.509 Y149.116 E3.1682
G1 X106.522 Y149.482 E3.21913
G1 X107.541 Y149.813 E3.26978
G1 X108.489 Y150.091 E3.31649
G1 X109.514 Y150.356 E3.36654
G1 X110.578 Y150.597 E3.41812
G1 X111.533 Y150.782 E3.4641
G1 X112.581 Y150.954 E3.51431
G1 X113.661 Y151.095 E3.56581
G1 X114.78 Y151.204 E3.61896
G1 X115.667 Y151.263 E3.66099
G1 X116.794 Y151.305 E3.71431
G1 X117.899 Y151.311 E3.76655
G1 X118.791 Y151.289 E3.80873
G1 X119.937 Y151.224 E3.863
G1 X120.977 Y151.135 E3.91235
G1 X122.098 Y150.999 E3.96573
G1 X123.012 Y150.862 E4.00943
G1 X124.067 Y150.67 E4.06012
G1 X125.142 Y150.438 E4.11212
G1 X126.091 Y150.204 E4.15833
G1 X127.089 Y149.925 E4.20732
G1 X128.179 Y149.582 E4.26134
G1 X129.06 Y149.277 E4.30542
G1 X130.071 Y148.889 E4.35661
G1 X131.09 Y148.463 E4.40883
G1 X131.924 Y148.083 E4.45216
G1 X132.932 Y147.586 E4.50529
G1 X133.867 Y147.088 E4.55538
G1 X134.832 Y146.533 E4.60801
G1 X135.619 Y146.049 E4.65169
G1 X136.53 Y145.45 E4.70323
G1 X137.426 Y144.818 E4.75507
G1 X138.202 Y144.234 E4.80099
G1 X139.033 Y143.571 E4.85124
G1 X139.853 Y142.871 E4.90222
G1 X140.678 Y142.119 E4.95499
G1 X141.338 Y141.48 E4.99842
G1 X142.117 Y140.679 E5.05125
G1 X142.835 Y139.892 E5.10161
G1 X143.541 Y139.067 E5.15295
G1 X144.155 Y138.306 E5.19918
G1 X144.795 Y137.456 E5.24948
G1 X145.421 Y136.571 E5.30073
G1 X145.963 Y135.753 E5.34712
G1 X146.511 Y134.866 E5.39641
G1 X147.071 Y133.896 E5.44937
G1 X147.511 Y133.076 E5.49336
G1 X148.006 Y132.081 E5.5459
G1 X148.461 Y131.091 E5.59741
G1 X148.871 Y130.115 E5.64746
G1 X149.214 Y129.228 E5.69242
G1 X149.583 Y128.172 E5.74531
G1 X149.903 Y127.16 E5.79549
G1 X150.165 Y126.231 E5.84112
G1 X150.433 Y125.161 E5.89327
G1 X150.657 Y124.124 E5.94343
G1 X150.845 Y123.11 E5.99218
G1 X150.999 Y122.094 E6.04077
G1 X151.131 Y121.002 E6.09277
G1 X151.218 Y120.035 E6.13867
G1 X151.284 Y118.929 E6.19105
G1 X151.308 Y117.995 E6.23522
G1 X151.349 Y117.449 E6.26111
G1 X151.309 Y117.021 E6.28143
G1 X151.281 Y116.022 E6.32868
G1 X151.217 Y114.964 E6.37879
G1 X151.122 Y113.906 E6.42901
G1 X151 Y112.906 E6.47664
G1 X150.845 Y111.886 E6.52542
G1 X150.655 Y110.866 E6.57447
G1 X150.439 Y109.851 E6.62353
G1 X150.166 Y108.77 E6.67624
G1 X149.909 Y107.859 E6.72099
G1 X149.568 Y106.78 E6.77449
G1 X149.223 Y105.794 E6.82388
G1 X148.879 Y104.905 E6.86894
G1 X148.454 Y103.892 E6.92088
G1 X147.998 Y102.903 E6.97237
G1 X147.514 Y101.928 E7.02383
G1 X147.068 Y101.097 E7.06842
G1 X146.52 Y100.148 E7.12023
G1 X145.958 Y99.238 E7.17079
G1 X145.413 Y98.419 E7.2173
G1 X144.802 Y97.552 E7.26745
G1 X144.133 Y96.666 E7.31993
G1 X143.557 Y95.952 E7.3633
G1 X142.842 Y95.114 E7.41538
G1 X142.11 Y94.314 E7.46665
G1 X141.348 Y93.529 E7.51837
G1 X140.566 Y92.776 E7.5697
G1 X139.856 Y92.132 E7.61501
G1 X139.027 Y91.425 E7.66652
G1 X138.19 Y90.756 E7.71718
G1 X137.45 Y90.201 E7.76091
G1 X136.52 Y89.545 E7.81472
G1 X135.606 Y88.944 E7.86643
G1 X134.83 Y88.467 E7.9095
G1 X133.87 Y87.914 E7.96188
G1 X132.903 Y87.398 E8.01369
G1 X131.952 Y86.931 E8.06378
G1 X131.087 Y86.537 E8.10872
G1 X130.065 Y86.11 E8.16109
G1 X129.048 Y85.72 E8.21258
G1 X128.152 Y85.409 E8.25742
G1 X127.121 Y85.085 E8.30851
G1 X126.052 Y84.786 E8.36099
G1 X125.164 Y84.568 E8.40422
G1 X124.073 Y84.333 E8.45698
G1 X123.019 Y84.141 E8.50763
G1 X121.932 Y83.979 E8.55959
G1 X120.978 Y83.866 E8.60501
G1 X119.93 Y83.775 E8.65474
G1 X118.812 Y83.712 E8.70768
G1 X117.749 Y83.688 E8.75795
G1 X116.781 Y83.695 E8.80372
G1 X115.682 Y83.735 E8.85571
G1 X114.638 Y83.808 E8.90519
G1 X113.678 Y83.904 E8.9508
G1 X112.569 Y84.048 E9.00367
G1 X111.526 Y84.219 E9.05364
G1 X110.583 Y84.402 E9.09905
G1 X109.519 Y84.643 E9.15063
G1 X108.464 Y84.916 E9.20215
G1 X107.424 Y85.222 E9.2534
G1 X106.536 Y85.515 E9.29761
G1 X105.476 Y85.897 E9.35088
G1 X104.499 Y86.285 E9.40058
G1 X103.607 Y86.671 E9.44653
G1 X102.64 Y87.127 E9.49707
G1 X101.652 Y87.63 E9.54949
G1 X100.719 Y88.143 E9.59983
G1 X99.901 Y88.627 E9.64476
G1 X98.965 Y89.219 E9.69712
G1 X98.064 Y89.831 E9.74862
G1 X97.307 Y90.377 E9.79274
G1 X96.436 Y91.049 E9.84475
G1 X95.613 Y91.725 E9.8951
G1 X94.876 Y92.368 E9.94134
G1 X94.089 Y93.101 E9.99219
G1 X93.309 Y93.873 E10.04407
M205 X5 Y5
G0 F7500 X93.007 Y93.538
M205 X8 Y8
G1 F1500 X92.328 Y94.254 E10.09073
G1 X91.585 Y95.086 E10.14346
G1 X90.907 Y95.895 E10.19336
G1 X90.21 Y96.782 E10.2467
G1 X89.622 Y97.579 E10.29352
G1 X89.007 Y98.469 E10.34467
G1 X88.412 Y99.391 E10.39655
G1 X87.844 Y100.34 E10.44883
G1 X87.377 Y101.171 E10.4939
G1 X86.854 Y102.174 E10.54738
G1 X86.389 Y103.142 E10.59815
G1 X85.99 Y104.042 E10.64469
G1 X85.576 Y105.054 E10.69639
G1 X85.192 Y106.084 E10.74836
G1 X84.894 Y106.968 E10.79246
G1 X84.563 Y108.058 E10.84631
G1 X84.271 Y109.137 E10.89916
G1 X84.026 Y110.181 E10.94986
G1 X83.833 Y111.132 E10.99574
G1 X83.647 Y112.208 E11.04736
G1 X83.492 Y113.314 E11.10016
G1 X83.376 Y114.408 E11.15217
G1 X83.304 Y115.353 E11.19698
G1 X83.25 Y116.48 E11.25032
G1 X83.236 Y117.559 E11.30134
G1 X83.251 Y118.519 E11.34673
G1 X83.304 Y119.641 E11.39983
G1 X83.389 Y120.74 E11.45195
G1 X83.495 Y121.708 E11.49798
G1 X83.643 Y122.766 E11.54849
G1 X83.832 Y123.868 E11.60135
G1 X84.016 Y124.783 E11.64548
G1 X84.279 Y125.89 E11.69927
G1 X84.56 Y126.932 E11.75029
G1 X84.885 Y128.005 E11.8033
G1 X85.193 Y128.92 E11.84894
G1 X85.578 Y129.948 E11.90084
G1 X85.991 Y130.963 E11.95264
G1 X86.396 Y131.875 E11.99982
G1 X86.855 Y132.827 E12.04979
G1 X87.374 Y133.824 E12.10293
G1 X87.913 Y134.781 E12.15485
G1 X88.408 Y135.604 E12.20026
G1 X89.008 Y136.533 E12.25254
G1 X89.642 Y137.45 E12.30525
G1 X90.199 Y138.205 E12.3496
G1 X90.891 Y139.085 E12.40253
G1 X91.592 Y139.923 E12.45418
G1 X92.331 Y140.751 E12.50665
G1 X92.994 Y141.448 E12.55213
G1 X93.77 Y142.216 E12.60375
G1 X94.575 Y142.966 E12.65576
G1 X95.319 Y143.616 E12.70247
G1 X96.152 Y144.302 E12.75349
G1 X97.022 Y144.972 E12.8054
G1 X97.931 Y145.626 E12.85835
G1 X98.726 Y146.163 E12.9037
G1 X99.65 Y146.748 E12.95541
G1 X100.603 Y147.307 E13.00764
G1 X101.45 Y147.772 E13.05332
G1 X102.447 Y148.279 E13.1062
G1 X103.442 Y148.748 E13.15821
G1 X104.295 Y149.117 E13.20214
G1 X105.351 Y149.537 E13.25587
G1 X106.382 Y149.91 E13.30771
G1 X107.408 Y150.243 E13.35871
G1 X108.352 Y150.519 E13.4052
G1 X109.427 Y150.798 E13.45771
G1 X110.494 Y151.039 E13.50943
G1 X111.442 Y151.223 E13.55508
G1 X112.51 Y151.398 E13.60625
G1 X113.622 Y151.543 E13.65926
G1 X114.738 Y151.652 E13.71228
G1 X115.654 Y151.714 E13.75568
G1 X116.775 Y151.755 E13.80871
G1 X117.876 Y151.761 E13.86077
G1 X118.86 Y151.736 E13.9073
G1 X119.935 Y151.676 E13.95821
G1 X121.039 Y151.581 E14.01059
G1 X122.151 Y151.446 E14.06355
G1 X123.058 Y151.31 E14.10691
G1 X124.189 Y151.105 E14.16125
G1 X125.236 Y150.878 E14.2119
G1 X126.188 Y150.644 E14.25825
G1 X127.251 Y150.346 E14.31044
G1 X128.319 Y150.01 E14.36337
G1 X129.189 Y149.709 E14.4069
G1 X130.245 Y149.304 E14.46037
G1 X131.262 Y148.879 E14.51248
G1 X132.136 Y148.48 E14.5579
G1 X133.117 Y147.998 E14.60958
G1 X134.089 Y147.479 E14.66167
G1 X135.051 Y146.926 E14.71413
G1 X135.875 Y146.419 E14.75987
G1 X136.787 Y145.819 E14.81148
G1 X137.691 Y145.182 E14.86376
G1 X138.45 Y144.611 E14.90867
G1 X139.336 Y143.903 E14.96229
G1 X140.163 Y143.197 E15.01369
G1 X140.976 Y142.457 E15.06567
G1 X141.656 Y141.799 E15.1104
G1 X142.438 Y140.994 E15.16346
G1 X143.177 Y140.185 E15.21526
G1 X143.896 Y139.344 E15.26757
G1 X144.504 Y138.589 E15.3134
G1 X145.153 Y137.728 E15.36438
G1 X145.815 Y136.791 E15.41862
G1 X146.317 Y136.033 E15.4616
G1 X146.918 Y135.062 E15.51559
G1 X147.469 Y134.107 E15.56771
G1 X147.908 Y133.288 E15.61165
G1 X148.41 Y132.281 E15.66484
G1 X148.872 Y131.276 E15.71714
G1 X149.295 Y130.267 E15.76886
G1 X149.635 Y129.389 E15.81337
G1 X150.007 Y128.324 E15.86671
G1 X150.333 Y127.293 E15.91783
G1 X150.604 Y126.329 E15.96517
G1 X150.864 Y125.294 E16.01562
G1 X151.106 Y124.175 E16.06975
G1 X151.286 Y123.201 E16.11658
G1 X151.446 Y122.147 E16.16698
G1 X151.576 Y121.074 E16.21808
G1 X151.666 Y120.07 E16.26573
G1 X151.734 Y118.938 E16.31935
G1 X151.758 Y118.006 E16.36342
G1 X151.796 Y117.519 E16.38652
G1 X151.759 Y117.008 E16.41074
G1 X151.73 Y115.981 E16.45931
G1 X151.667 Y114.933 E16.50895
G1 X151.574 Y113.902 E16.55789
G1 X151.442 Y112.819 E16.60947
G1 X151.29 Y111.821 E16.6572
G1 X151.091 Y110.753 E16.70856
G1 X150.879 Y109.755 E16.75679
G1 X150.598 Y108.647 E16.81083
G1 X150.339 Y107.725 E16.85611
G1 X149.995 Y106.638 E16.91001
G1 X149.641 Y105.625 E16.96075
G1 X149.304 Y104.755 E17.00485
G1 X148.86 Y103.696 E17.05914
G1 X148.414 Y102.729 E17.10949
G1 X147.911 Y101.718 E17.16288
G1 X147.458 Y100.872 E17.20824
G1 X146.913 Y99.928 E17.25978
G1 X146.332 Y98.988 E17.31202
G1 X145.788 Y98.168 E17.35855
G1 X145.153 Y97.269 E17.41058
G1 X144.506 Y96.412 E17.46135
G1 X143.884 Y95.641 E17.50818
G1 X143.169 Y94.803 E17.56026
G1 X142.448 Y94.015 E17.61076
G1 X141.665 Y93.209 E17.66388
G1 X140.879 Y92.453 E17.71544
G1 X140.168 Y91.807 E17.76086
G1 X139.329 Y91.092 E17.81297
G1 X138.439 Y90.38 E17.86686
G1 X137.699 Y89.825 E17.91059
G1 X136.791 Y89.185 E17.96311
G1 X135.862 Y88.575 E18.01565
G1 X135.034 Y88.065 E18.06163
G1 X134.093 Y87.523 E18.11297
G1 X133.101 Y86.994 E18.16612
G1 X132.136 Y86.52 E18.21695
G1 X131.286 Y86.133 E18.2611
G1 X130.238 Y85.694 E18.31482
G1 X129.195 Y85.295 E18.36761
G1 X128.272 Y84.975 E18.4138
G1 X127.246 Y84.652 E18.46465
G1 X126.193 Y84.357 E18.51635
G1 X125.258 Y84.128 E18.56186
G1 X124.16 Y83.891 E18.61497
G1 X123.102 Y83.698 E18.66581
G1 X121.984 Y83.531 E18.71925
G1 X121.038 Y83.42 E18.76429
G1 X119.929 Y83.323 E18.81692
G1 X118.847 Y83.262 E18.86815
G1 X117.756 Y83.238 E18.91974
G1 X116.762 Y83.245 E18.96674
G1 X115.693 Y83.284 E19.01731
G1 X114.56 Y83.364 E19.07101
G1 X113.61 Y83.459 E19.11615
G1 X112.528 Y83.599 E19.16773
G1 X111.436 Y83.777 E19.22004
G1 X110.499 Y83.959 E19.26516
G1 X109.401 Y84.208 E19.31839
G1 X108.347 Y84.481 E19.36986
G1 X107.289 Y84.793 E19.42201
G1 X106.374 Y85.094 E19.46755
G1 X105.345 Y85.465 E19.51927
G1 X104.315 Y85.874 E19.57166
G1 X103.424 Y86.26 E19.61757
G1 X102.445 Y86.722 E19.66875
G1 X101.444 Y87.23 E19.72182
G1 X100.5 Y87.75 E19.77277
G1 X99.634 Y88.262 E19.82033
G1 X98.736 Y88.831 E19.87059
G1 X97.819 Y89.452 E19.92295
G1 X97.033 Y90.02 E19.9688
G1 X96.141 Y90.708 E20.02206
G1 X95.325 Y91.378 E20.07197
G1 X94.576 Y92.032 E20.11898
G1 X93.767 Y92.786 E20.17127
G1 X93.007 Y93.538 E20.22181
M205 X5 Y5
G0 F7500 X92.674 Y93.235
M205 X8 Y8
G1 F1500 X91.983 Y93.964 E20.2693
G1 X91.266 Y94.767 E20.32019
G1 X90.535 Y95.64 E20.37403
G1 X89.829 Y96.538 E20.42803
G1 X89.29 Y97.269 E20.47097
G1 X88.623 Y98.234 E20.52643
G1 X88.031 Y99.152 E20.57807
G1 X87.452 Y100.119 E20.63136
G1 X86.982 Y100.955 E20.6767
G1 X86.459 Y101.96 E20.73026
G1 X85.975 Y102.965 E20.783
G1 X85.583 Y103.85 E20.82876
G1 X85.158 Y104.888 E20.88179
G1 X84.768 Y105.935 E20.93461
G1 X84.454 Y106.865 E20.98101
G1 X84.127 Y107.944 E21.03432
G1 X83.842 Y108.998 E21.08594
G1 X83.584 Y110.098 E21.13935
G1 X83.393 Y111.038 E21.1847
G1 X83.198 Y112.169 E21.23896
G1 X83.044 Y113.262 E21.29115
G1 X82.929 Y114.357 E21.3432
G1 X82.854 Y115.329 E21.38929
G1 X82.8 Y116.458 E21.44273
G1 X82.786 Y117.56 E21.49483
G1 X82.801 Y118.547 E21.5415
G1 X82.854 Y119.662 E21.59427
G1 X82.939 Y120.762 E21.64643
G1 X83.047 Y121.751 E21.69347
G1 X83.204 Y122.872 E21.74698
G1 X83.39 Y123.953 E21.79884
G1 X83.579 Y124.888 E21.84394
G1 X83.841 Y125.994 E21.89767
G1 X84.136 Y127.086 E21.95115
G1 X84.458 Y128.148 E22.00362
G1 X84.759 Y129.044 E22.0483
G1 X85.155 Y130.103 E22.10176
G1 X85.584 Y131.154 E22.15542
G1 X85.983 Y132.052 E22.20188
G1 X86.459 Y133.042 E22.25381
G1 X86.979 Y134.039 E22.30698
G1 X87.531 Y135.018 E22.36011
G1 X88.019 Y135.83 E22.4049
G1 X88.634 Y136.784 E22.45856
G1 X89.274 Y137.708 E22.5117
G1 X89.847 Y138.485 E22.55734
G1 X90.528 Y139.351 E22.60943
G1 X91.272 Y140.241 E22.66427
G1 X91.987 Y141.042 E22.71503
G1 X92.667 Y141.757 E22.76168
G1 X93.465 Y142.547 E22.81477
G1 X94.297 Y143.322 E22.86852
G1 X95.002 Y143.937 E22.91275
G1 X95.88 Y144.66 E22.96653
G1 X96.75 Y145.33 E23.01844
G1 X97.681 Y146 E23.07267
G1 X98.475 Y146.537 E23.11799
G1 X99.405 Y147.125 E23.17001
G1 X100.402 Y147.71 E23.22466
G1 X101.231 Y148.165 E23.26936
G1 X102.252 Y148.685 E23.32353
G1 X103.26 Y149.159 E23.37619
G1 X104.14 Y149.54 E23.42153
G1 X105.166 Y149.949 E23.47375
G1 X106.241 Y150.337 E23.52778
G1 X107.284 Y150.676 E23.57963
G1 X108.237 Y150.955 E23.62658
G1 X109.308 Y151.232 E23.67888
G1 X110.41 Y151.481 E23.73229
G1 X111.352 Y151.664 E23.77766
G1 X112.472 Y151.848 E23.83132
G1 X113.549 Y151.988 E23.88266
G1 X114.696 Y152.1 E23.93715
G1 X115.641 Y152.164 E23.98193
G1 X116.756 Y152.205 E24.03468
G1 X117.885 Y152.211 E24.08805
G1 X118.863 Y152.187 E24.13431
G1 X119.964 Y152.125 E24.18644
G1 X121.103 Y152.027 E24.24049
G1 X122.198 Y151.894 E24.29264
G1 X123.147 Y151.751 E24.33801
G1 X124.271 Y151.547 E24.39202
G1 X125.33 Y151.318 E24.44324
G1 X126.301 Y151.079 E24.49052
G1 X127.375 Y150.779 E24.54324
G1 X128.459 Y150.438 E24.59696
G1 X129.373 Y150.121 E24.6427
G1 X130.378 Y149.736 E24.69358
G1 X131.445 Y149.289 E24.74827
G1 X132.335 Y148.884 E24.7945
G1 X133.326 Y148.396 E24.84672
G1 X134.313 Y147.87 E24.8996
G1 X135.27 Y147.319 E24.95181
G1 X136.116 Y146.798 E24.99878
G1 X137.058 Y146.179 E25.05207
G1 X137.94 Y145.557 E25.10309
