;FLAVOR:Marlin
M117 Time Left 0h45m41s
;TIME:2741
;Filament used: 4.45419m
;Layer height: 0.2
;MINX:56.327
;MINY:56.328
;MINZ:0.28
;MAXX:178.668
;MAXY:178.673
;MAXZ:16.08
;POSTPROCESSED
;Generated with Cura_SteamEngine 5.2.1
M140 S80
M105
M190 S80
M104 S225
M105
M109 S225
M82 ;absolute extrusion mode
; Ender 3 Custom Start G-code
G92 E0 ; Reset Extruder
G28 ; Home all axes
G1 Z2.0 F3000 ; Move Z Axis up little to prevent scratching of Heat Bed
G1 X0.1 Y20 Z0.3 F5000.0 ; Move to start position
G1 X0.1 Y200.0 Z0.3 F1500.0 E15 ; Draw the first line
G1 X0.4 Y200.0 Z0.3 F5000.0 ; Move to side a little
G1 X0.4 Y20 Z0.3 F1500.0 E30 ; Draw the second line
G92 E0 ; Reset Extruder
G1 Z2.0 F3000 ; Move Z Axis up little to prevent scratching of Heat Bed
G1 X5 Y20 Z0.3 F5000.0 ; Move over to prevent blob squish
G92 E0
G92 E0
G1 F3300 E-6
;LAYER_COUNT:80
;LAYER:0
M107
M204 S500
M205 X5 Y5
G0 F7500 X86.768 Y86.258 Z0.28
M205 X8 Y8
;TYPE:SKIRT
G1 F3300 E0
G1 F1500 X85.877 Y87.159 E0.05991
G1 X85.086 Y88.006 E0.1147
G1 X84.264 Y88.938 E0.17345
G1 X83.472 Y89.886 E0.23185
G1 X82.739 Y90.814 E0.28776
G1 X81.972 Y91.843 E0.34844
G1 X81.314 Y92.779 E0.40253
G1 X80.629 Y93.814 E0.46121
G1 X79.97 Y94.872 E0.52013
G1 X79.358 Y95.921 E0.57755
G1 X78.777 Y96.982 E0.63474
G1 X78.213 Y98.082 E0.69318
G1 X77.696 Y99.168 E0.75005
G1 X77.201 Y100.282 E0.80768
G1 X76.736 Y101.413 E0.86549
G1 X76.311 Y102.536 E0.92226
G1 X75.898 Y103.725 E0.98177
G1 X75.535 Y104.874 E1.03873
G1 X75.204 Y106.032 E1.09567
G1 X74.893 Y107.246 E1.15492
G1 X74.635 Y108.391 E1.21041
G1 X74.392 Y109.617 E1.2695
G1 X74.19 Y110.819 E1.32713
G1 X74.018 Y112.045 E1.38565
G1 X73.886 Y113.223 E1.4417
G1 X73.783 Y114.459 E1.50033
G1 X73.715 Y115.677 E1.55801
G1 X73.681 Y116.89 E1.61538
G1 X73.681 Y118.124 E1.67372
G1 X73.715 Y119.348 E1.73161
G1 X73.784 Y120.554 E1.78872
G1 X73.884 Y121.761 E1.84597
G1 X74.022 Y122.99 E1.90444
G1 X74.191 Y124.194 E1.96192
G1 X74.393 Y125.387 E2.01913
G1 X74.634 Y126.606 E2.07787
G1 X74.9 Y127.786 E2.13506
G1 X75.2 Y128.953 E2.19203
G1 X75.544 Y130.157 E2.25123
G1 X75.903 Y131.293 E2.30755
G1 X76.302 Y132.44 E2.36497
G1 X76.739 Y133.593 E2.42326
G1 X77.207 Y134.733 E2.48152
G1 X77.694 Y135.831 E2.53831
G1 X78.217 Y136.927 E2.59572
G1 X78.784 Y138.032 E2.65444
G1 X79.365 Y139.091 E2.71155
G1 X79.987 Y140.155 E2.76981
G1 X80.624 Y141.178 E2.82679
G1 X81.303 Y142.203 E2.88491
G1 X82.008 Y143.206 E2.94288
G1 X82.718 Y144.159 E2.99906
G1 X83.491 Y145.137 E3.058
G1 X84.287 Y146.089 E3.11666
G1 X85.073 Y146.98 E3.17284
G1 X85.91 Y147.873 E3.2307
G1 X86.773 Y148.747 E3.28877
G1 X87.657 Y149.591 E3.34655
G1 X88.554 Y150.403 E3.40375
G1 X89.488 Y151.202 E3.46186
G1 X90.433 Y151.965 E3.51929
G1 X91.388 Y152.695 E3.57612
G1 X92.394 Y153.417 E3.63466
G1 X93.417 Y154.114 E3.69318
G1 X94.431 Y154.76 E3.75002
G1 X95.459 Y155.377 E3.8067
G1 X96.563 Y155.998 E3.86659
G1 X97.618 Y156.555 E3.92299
G1 X98.705 Y157.09 E3.98027
G1 X99.808 Y157.593 E4.03758
G1 X100.982 Y158.091 E4.09787
G1 X102.07 Y158.517 E4.15311
G1 X103.242 Y158.938 E4.21199
G1 X104.408 Y159.323 E4.27004
G1 X105.532 Y159.658 E4.32549
G1 X106.735 Y159.981 E4.38438
G1 X107.922 Y160.264 E4.44207
G1 X109.159 Y160.522 E4.50181
G1 X110.324 Y160.733 E4.55778
G1 X111.489 Y160.909 E4.61349
G1 X112.749 Y161.065 E4.67351
G1 X113.964 Y161.181 E4.73121
G1 X115.143 Y161.26 E4.78708
G1 X116.41 Y161.311 E4.84703
G1 X117.591 Y161.325 E4.90287
G1 X118.837 Y161.305 E4.96178
G1 X120.012 Y161.253 E5.01739
G1 X121.244 Y161.164 E5.07578
G1 X122.49 Y161.039 E5.13499
G1 X123.676 Y160.888 E5.19151
G1 X124.865 Y160.701 E5.24841
G1 X126.091 Y160.474 E5.30736
G1 X127.304 Y160.214 E5.36601
G1 X128.462 Y159.932 E5.42236
G1 X129.659 Y159.604 E5.48103
G1 X130.786 Y159.262 E5.53672
G1 X131.986 Y158.86 E5.59655
G1 X133.123 Y158.446 E5.65375
G1 X134.243 Y158 E5.71075
G1 X135.353 Y157.522 E5.76788
G1 X136.474 Y157.003 E5.82629
G1 X137.591 Y156.449 E5.88523
G1 X138.637 Y155.892 E5.94126
G1 X139.719 Y155.274 E6.00017
G1 X140.741 Y154.655 E6.05666
G1 X141.775 Y153.987 E6.11486
G1 X142.77 Y153.306 E6.17186
G1 X143.77 Y152.579 E6.23031
G1 X144.723 Y151.845 E6.28718
G1 X145.689 Y151.057 E6.34612
G1 X146.601 Y150.269 E6.4031
G1 X147.485 Y149.462 E6.45969
G1 X148.378 Y148.599 E6.5184
G1 X149.234 Y147.724 E6.57627
G1 X150.061 Y146.83 E6.63385
G1 X150.875 Y145.904 E6.69214
G1 X151.634 Y144.986 E6.74845
G1 X152.407 Y143.996 E6.80783
G1 X153.111 Y143.042 E6.86389
G1 X153.823 Y142.019 E6.92281
G1 X154.498 Y140.991 E6.98095
G1 X155.105 Y140.005 E7.03569
G1 X155.741 Y138.907 E7.09568
G1 X156.329 Y137.821 E7.15407
G1 X156.857 Y136.777 E7.20938
G1 X157.397 Y135.632 E7.26923
G1 X157.877 Y134.537 E7.32575
G1 X158.336 Y133.41 E7.38329
G1 X158.758 Y132.278 E7.4404
G1 X159.161 Y131.098 E7.49935
G1 X159.529 Y129.92 E7.5577
G1 X159.848 Y128.782 E7.61357
G1 X160.156 Y127.552 E7.67352
G1 X160.417 Y126.373 E7.73061
G1 X160.647 Y125.183 E7.78791
G1 X160.844 Y123.975 E7.84578
G1 X161.005 Y122.785 E7.90255
G1 X161.135 Y121.578 E7.95994
G1 X161.235 Y120.31 E8.02008
G1 X161.294 Y119.161 E8.07447
G1 X161.321 Y118.015 E8.12866
G1 X161.364 Y117.444 E8.15574
G1 X161.321 Y116.978 E8.17786
G1 X161.295 Y115.849 E8.23125
G1 X161.233 Y114.653 E8.28787
G1 X161.138 Y113.443 E8.34525
G1 X161.004 Y112.196 E8.40454
G1 X160.844 Y111.018 E8.46075
G1 X160.65 Y109.832 E8.51756
G1 X160.411 Y108.594 E8.57717
G1 X160.141 Y107.379 E8.63602
G1 X159.853 Y106.231 E8.69197
G1 X159.523 Y105.058 E8.74958
G1 X159.15 Y103.865 E8.80868
G1 X158.763 Y102.736 E8.8651
G1 X158.333 Y101.584 E8.92324
G1 X157.867 Y100.436 E8.98181
G1 X157.386 Y99.341 E9.03835
G1 X156.863 Y98.232 E9.09632
G1 X156.306 Y97.133 E9.15457
G1 X155.745 Y96.101 E9.2101
G1 X155.102 Y94.99 E9.27079
G1 X154.48 Y93.98 E9.32687
G1 X153.814 Y92.966 E9.38423
G1 X153.109 Y91.953 E9.44257
G1 X152.387 Y90.976 E9.50001
G1 X151.618 Y89.994 E9.55898
G1 X150.877 Y89.097 E9.61398
G1 X150.05 Y88.156 E9.67321
G1 X149.211 Y87.25 E9.73159
G1 X148.379 Y86.4 E9.78782
G1 X147.492 Y85.544 E9.8461
G1 X146.6 Y84.731 E9.90316
G1 X145.667 Y83.926 E9.96142
G1 X144.713 Y83.148 E10.01961
G1 X143.759 Y82.413 E10.07655
G1 X142.766 Y81.692 E10.13457
G1 X141.771 Y81.011 E10.19157
G1 X140.723 Y80.335 E10.25053
G1 X139.686 Y79.706 E10.30787
G1 X138.626 Y79.103 E10.36553
G1 X137.56 Y78.535 E10.42263
G1 X136.465 Y77.992 E10.48041
G1 X135.348 Y77.473 E10.53865
G1 X134.269 Y77.011 E10.59414
G1 X133.076 Y76.537 E10.65483
G1 X131.96 Y76.13 E10.71099
G1 X130.793 Y75.74 E10.76916
G1 X129.657 Y75.396 E10.82527
G1 X128.465 Y75.07 E10.8837
G1 X127.242 Y74.773 E10.9432
G1 X126.068 Y74.521 E10.99997
G1 X124.867 Y74.299 E11.05771
G1 X123.682 Y74.114 E11.11441
G1 X122.485 Y73.96 E11.17147
G1 X121.211 Y73.834 E11.23199
G1 X120.026 Y73.748 E11.28816
G1 X118.825 Y73.696 E11.345
G1 X117.574 Y73.675 E11.40415
G1 X116.392 Y73.689 E11.46003
G1 X115.138 Y73.739 E11.51937
G1 X113.959 Y73.819 E11.57524
G1 X112.721 Y73.938 E11.63403
G1 X111.5 Y74.088 E11.69219
G1 X110.312 Y74.269 E11.74901
G1 X109.124 Y74.484 E11.80609
G1 X107.905 Y74.74 E11.86497
G1 X106.716 Y75.024 E11.92277
G1 X105.522 Y75.345 E11.98122
G1 X104.402 Y75.679 E12.03648
G1 X103.212 Y76.071 E12.09571
G1 X102.056 Y76.488 E12.15381
G1 X100.943 Y76.924 E12.21032
G1 X99.807 Y77.406 E12.26866
G1 X98.69 Y77.918 E12.32675
G1 X97.618 Y78.445 E12.38323
G1 X96.519 Y79.025 E12.44198
G1 X95.463 Y79.62 E12.49928
G1 X94.433 Y80.239 E12.5561
G1 X93.392 Y80.904 E12.6145
G1 X92.359 Y81.606 E12.67354
G1 X91.404 Y82.293 E12.72916
G1 X90.422 Y83.043 E12.78758
G1 X89.482 Y83.804 E12.84476
G1 X88.536 Y84.612 E12.90358
G1 X87.643 Y85.421 E12.96054
G1 X86.768 Y86.258 E13.01779
M205 X5 Y5
G0 F7500 X86.455 Y85.935
M205 X8 Y8
G1 F1500 X85.565 Y86.835 E13.07763
G1 X84.737 Y87.721 E13.13496
G1 X83.92 Y88.648 E13.19338
G1 X83.125 Y89.599 E13.25198
G1 X82.376 Y90.548 E13.30914
G1 X81.624 Y91.557 E13.36863
G1 X80.929 Y92.545 E13.42574
G1 X80.241 Y93.586 E13.48473
G1 X79.579 Y94.649 E13.54394
G1 X78.986 Y95.665 E13.59955
G1 X78.369 Y96.791 E13.66026
G1 X77.816 Y97.87 E13.71758
G1 X77.288 Y98.978 E13.7756
G1 X76.783 Y100.115 E13.83442
G1 X76.316 Y101.253 E13.89258
G1 X75.883 Y102.396 E13.95036
G1 X75.471 Y103.584 E14.00981
G1 X75.114 Y104.714 E14.06584
G1 X74.761 Y105.948 E14.12652
G1 X74.455 Y107.144 E14.18488
G1 X74.191 Y108.314 E14.24159
G1 X73.951 Y109.524 E14.29991
G1 X73.744 Y110.755 E14.35892
G1 X73.574 Y111.966 E14.41674
G1 X73.435 Y113.206 E14.47573
G1 X73.333 Y114.429 E14.53375
G1 X73.266 Y115.64 E14.59109
G1 X73.231 Y116.877 E14.64959
G1 X73.231 Y118.137 E14.70916
G1 X73.265 Y119.352 E14.76663
G1 X73.334 Y120.571 E14.82435
G1 X73.44 Y121.849 E14.88498
G1 X73.574 Y123.034 E14.94136
G1 X73.745 Y124.258 E14.99979
G1 X73.953 Y125.485 E15.05862
G1 X74.188 Y126.674 E15.11592
G1 X74.465 Y127.904 E15.17553
G1 X74.766 Y129.071 E15.23251
G1 X75.106 Y130.263 E15.29111
G1 X75.479 Y131.444 E15.34966
G1 X75.883 Y132.606 E15.40783
G1 X76.317 Y133.75 E15.46567
G1 X76.795 Y134.913 E15.52512
G1 X77.287 Y136.021 E15.58243
G1 X77.826 Y137.153 E15.64171
G1 X78.369 Y138.21 E15.69789
G1 X78.984 Y139.332 E15.75838
G1 X79.595 Y140.378 E15.81565
G1 X80.236 Y141.406 E15.87293
G1 X80.94 Y142.469 E15.9332
G1 X81.631 Y143.452 E15.99001
G1 X82.373 Y144.448 E16.04873
G1 X83.144 Y145.424 E16.10753
G1 X83.941 Y146.377 E16.16627
G1 X84.759 Y147.304 E16.22472
G1 X85.579 Y148.179 E16.28141
G1 X86.434 Y149.045 E16.33894
G1 X87.362 Y149.931 E16.3996
G1 X88.241 Y150.728 E16.4557
G1 X89.211 Y151.557 E16.51602
G1 X90.135 Y152.303 E16.57217
G1 X91.138 Y153.07 E16.63186
G1 X92.148 Y153.794 E16.69061
G1 X93.148 Y154.475 E16.74781
G1 X94.189 Y155.139 E16.80619
G1 X95.26 Y155.782 E16.86524
G1 X96.335 Y156.386 E16.92354
G1 X97.396 Y156.947 E16.98028
G1 X98.521 Y157.5 E17.03955
G1 X99.662 Y158.021 E17.09885
G1 X100.784 Y158.497 E17.15647
G1 X101.927 Y158.944 E17.21449
G1 X103.069 Y159.355 E17.27187
G1 X104.28 Y159.754 E17.33215
G1 X105.421 Y160.094 E17.38844
G1 X106.632 Y160.419 E17.44772
G1 X107.826 Y160.704 E17.50575
G1 X109.061 Y160.962 E17.5654
G1 X110.245 Y161.176 E17.62228
G1 X111.441 Y161.357 E17.67947
G1 X112.688 Y161.511 E17.73887
G1 X113.925 Y161.63 E17.79763
G1 X115.132 Y161.711 E17.85482
G1 X116.387 Y161.76 E17.9142
G1 X117.593 Y161.775 E17.97122
G1 X118.829 Y161.755 E18.02966
G1 X120.063 Y161.7 E18.08806
G1 X121.286 Y161.612 E18.14603
G1 X122.513 Y161.489 E18.20433
G1 X123.739 Y161.333 E18.26276
G1 X124.98 Y161.138 E18.32215
G1 X126.166 Y160.918 E18.37917
G1 X127.397 Y160.654 E18.4387
G1 X128.579 Y160.366 E18.49621
G1 X129.755 Y160.044 E18.55386
G1 X130.958 Y159.679 E18.61329
G1 X132.13 Y159.287 E18.67172
G1 X133.266 Y158.873 E18.72888
G1 X134.414 Y158.416 E18.7873
G1 X135.565 Y157.921 E18.84653
G1 X136.677 Y157.405 E18.90449
G1 X137.774 Y156.861 E18.96238
G1 X138.856 Y156.285 E19.02033
G1 X139.944 Y155.664 E19.07955
G1 X140.977 Y155.038 E19.13666
G1 X142.027 Y154.36 E19.19575
G1 X143.047 Y153.662 E19.25418
G1 X144.033 Y152.944 E19.31185
G1 X145.018 Y152.185 E19.37064
G1 X145.969 Y151.41 E19.42864
G1 X146.878 Y150.624 E19.48545
G1 X147.819 Y149.766 E19.54565
G1 X148.694 Y148.919 E19.60323
G1 X149.568 Y148.027 E19.66227
G1 X150.375 Y147.155 E19.71844
G1 X151.232 Y146.179 E19.77985
G1 X151.985 Y145.269 E19.83569
G1 X152.755 Y144.282 E19.89487
G1 X153.492 Y143.284 E19.95352
G1 X154.184 Y142.29 E20.01078
G1 X154.878 Y141.232 E20.0706
G1 X155.508 Y140.208 E20.12745
G1 X156.132 Y139.132 E20.18625
G1 X156.707 Y138.07 E20.24335
G1 X157.27 Y136.956 E20.30236
G1 X157.801 Y135.832 E20.36113
G1 X158.297 Y134.7 E20.41956
G1 X158.764 Y133.55 E20.47824
G1 X159.183 Y132.427 E20.53491
G1 X159.594 Y131.225 E20.59496
G1 X159.95 Y130.083 E20.65152
G1 X160.293 Y128.861 E20.71152
G1 X160.584 Y127.699 E20.76815
G1 X160.854 Y126.482 E20.82709
G1 X161.093 Y125.24 E20.88688
G1 X161.29 Y124.035 E20.94461
G1 X161.453 Y122.831 E21.00205
G1 X161.586 Y121.592 E21.06096
G1 X161.681 Y120.377 E21.11858
G1 X161.744 Y119.16 E21.17619
G1 X161.771 Y118.026 E21.22982
G1 X161.809 Y117.517 E21.25395
G1 X161.771 Y116.968 E21.27997
G1 X161.745 Y115.829 E21.33383
G1 X161.68 Y114.595 E21.39225
G1 X161.586 Y113.394 E21.44921
G1 X161.452 Y112.156 E21.50808
G1 X161.286 Y110.934 E21.56638
G1 X161.091 Y109.742 E21.62349
G1 X160.85 Y108.493 E21.68362
G1 X160.588 Y107.316 E21.74063
G1 X160.279 Y106.083 E21.80073
G1 X159.949 Y104.912 E21.85824
G1 X159.577 Y103.724 E21.9171
G1 X159.18 Y102.564 E21.97506
G1 X158.757 Y101.431 E22.03224
G1 X158.286 Y100.271 E22.09143
G1 X157.798 Y99.159 E22.14884
G1 X157.268 Y98.038 E22.20746
G1 X156.707 Y96.93 E22.26618
G1 X156.12 Y95.848 E22.32438
G1 X155.515 Y94.804 E22.38142
G1 X154.85 Y93.724 E22.44138
G1 X154.191 Y92.72 E22.49816
G1 X153.472 Y91.687 E22.55767
G1 X152.749 Y90.708 E22.6152
G1 X152 Y89.751 E22.67266
G1 X151.195 Y88.779 E22.73232
G1 X150.364 Y87.831 E22.79192
G1 X149.562 Y86.966 E22.84769
G1 X148.677 Y86.062 E22.9075
G1 X147.826 Y85.24 E22.96344
G1 X146.878 Y84.376 E23.02408
G1 X145.948 Y83.573 E23.08217
G1 X145.031 Y82.825 E23.13812
G1 X144.016 Y82.044 E23.19866
G1 X143.027 Y81.325 E23.25647
G1 X142.011 Y80.63 E23.31467
G1 X140.969 Y79.958 E23.37329
G1 X139.901 Y79.31 E23.43235
G1 X138.86 Y78.719 E23.48894
G1 X137.756 Y78.131 E23.54808
G1 X136.668 Y77.59 E23.60552
G1 X135.541 Y77.067 E23.66426
G1 X134.413 Y76.584 E23.72227
G1 X133.265 Y76.127 E23.78069
G1 X132.082 Y75.696 E23.84021
G1 X130.956 Y75.32 E23.89634
G1 X129.754 Y74.956 E23.95571
G1 X128.548 Y74.626 E24.01483
G1 X127.377 Y74.341 E24.0718
G1 X126.17 Y74.083 E24.13016
G1 X124.95 Y73.857 E24.18882
G1 X123.735 Y73.667 E24.24696
G1 X122.517 Y73.511 E24.30501
G1 X121.287 Y73.389 E24.36345
G1 X120.041 Y73.299 E24.42251
G1 X118.817 Y73.245 E24.48043
G1 X117.576 Y73.225 E24.53911
G1 X116.369 Y73.24 E24.59618
G1 X115.127 Y73.289 E24.65494
G1 X113.917 Y73.37 E24.71227
G1 X112.663 Y73.491 E24.77183
G1 X111.446 Y73.641 E24.82981
G1 X110.238 Y73.824 E24.88757
G1 X109.019 Y74.045 E24.94614
G1 X107.817 Y74.298 E25.00421
G1 X106.604 Y74.587 E25.06316
G1 X105.419 Y74.906 E25.12118
G1 X104.242 Y75.257 E25.17925
G1 X103.092 Y75.636 E25.23649
G1 X101.893 Y76.069 E25.29676
G1 X100.776 Y76.507 E25.35349
G1 X99.616 Y76.998 E25.41304
G1 X98.519 Y77.501 E25.47009
G1 X97.397 Y78.053 E25.52921
G1 X96.303 Y78.63 E25.58768
G1 X95.253 Y79.222 E25.64467
G1 X94.174 Y79.87 E25.70418
G1 X93.153 Y80.522 E25.76145
G1 X92.12 Y81.224 E25.8205
G1 X91.111 Y81.95 E25.87926
G1 X90.147 Y82.687 E25.93663
G1 X89.206 Y83.448 E25.99385
G1 X88.224 Y84.287 E26.05491
G1 X87.354 Y85.075 E26.11041
G1 X86.455 Y85.935 E26.16922
M205 X5 Y5
G0 F7500 X86.124 Y85.629
M205 X8 Y8
G1 F1500 X85.251 Y86.512 E26.22793
G1 X84.389 Y87.434 E26.2876
G1 X83.589 Y88.342 E26.34481
G1 X82.78 Y89.309 E26.40442
G1 X82.013 Y90.281 E26.46296
G1 X81.263 Y91.287 E26.52228
G1 X80.549 Y92.304 E26.58103
G1 X79.869 Y93.332 E26.6393
G1 X79.204 Y94.4 E26.69878
G1 X78.582 Y95.465 E26.75709
G1 X77.969 Y96.585 E26.81745
G1 X77.418 Y97.659 E26.87452
G1 X76.88 Y98.788 E26.93365
G1 X76.358 Y99.964 E26.99447
G1 X75.904 Y101.069 E27.05095
G1 X75.458 Y102.246 E27.11046
G1 X75.053 Y103.412 E27.16882
G1 X74.676 Y104.608 E27.2281
G1 X74.329 Y105.822 E27.28779
G1 X74.018 Y107.034 E27.34695
G1 X73.755 Y108.198 E27.40337
G1 X73.504 Y109.47 E27.46467
G1 X73.299 Y110.687 E27.52301
G1 X73.13 Y111.892 E27.58054
G1 X72.988 Y113.155 E27.64063
G1 X72.884 Y114.406 E27.69997
G1 X72.815 Y115.638 E27.75831
G1 X72.781 Y116.865 E27.81634
G1 X72.781 Y118.149 E27.87705
G1 X72.815 Y119.355 E27.93408
G1 X72.888 Y120.644 E27.99512
G1 X72.99 Y121.869 E28.05324
G1 X73.129 Y123.104 E28.11199
G1 X73.3 Y124.327 E28.17038
G1 X73.505 Y125.539 E28.22849
G1 X73.752 Y126.787 E28.28864
G1 X74.018 Y127.969 E28.34592
G1 X74.341 Y129.224 E28.40718
G1 X74.674 Y130.39 E28.46451
G1 X75.049 Y131.575 E28.52327
G1 X75.468 Y132.782 E28.58368
G1 X75.902 Y133.926 E28.64152
G1 X76.364 Y135.051 E28.69902
G1 X76.879 Y136.211 E28.75902
G1 X77.422 Y137.35 E28.81868
G1 X77.984 Y138.445 E28.87687
G1 X78.58 Y139.532 E28.93548
G1 X79.22 Y140.627 E28.99544
G1 X79.874 Y141.677 E29.05392
G1 X80.548 Y142.695 E29.11164
G1 X81.271 Y143.722 E29.17102
