;FLAVOR:Marlin
M117 Time Left 0h15m07s
;TIME:907
;Filament used: 0.314239m
;Layer height: 0.2
;MINX:97.087
;MINY:104.575
;MINZ:0.28
;MAXX:137.907
;MAXY:130.425
;MAXZ:24.08
;POSTPROCESSED
;Generated with Cura_SteamEngine 5.2.1
M140 S80
M105
M190 S80
M104 S235
M105
M109 S235
M82 ;absolute extrusion mode
; Ender 3 Custom Start G-code
G92 E0 ; Reset Extruder
G28 ; Home all axes
G1 Z2.0 F3000 ; Move Z Axis up little to prevent scratching of Heat Bed
G1 X0.1 Y20 Z0.3 F5000.0 ; Move to start position
G1 X0.1 Y200.0 Z0.3 F1500.0 E15 ; Draw the first line
G1 X0.4 Y200.0 Z0.3 F5000.0 ; Move to side a little
G1 X0.4 Y20 Z0.3 F1500.0 E30 ; Draw the second line
G92 E0 ; Reset Extruder
G1 Z2.0 F3000 ; Move Z Axis up little to prevent scratching of Heat Bed
G1 X5 Y20 Z0.3 F5000.0 ; Move over to prevent blob squish
G92 E0
G92 E0
G1 F3300 E-6
;LAYER_COUNT:120
;LAYER:0
M107
M204 S500
M205 X5 Y5
G0 F7500 X101.375 Y107.892 Z0.28
M205 X8 Y8
;TYPE:SKIRT
G1 F3300 E0
G1 F1500 X102.468 Y107.006 E0.06652
G1 X103.361 Y106.421 E0.11699
G1 X103.908 Y106.116 E0.1466
G1 X104.14 Y105.995 E0.15897
G1 X104.994 Y105.595 E0.20355
G1 X105.582 Y105.368 E0.23335
G1 X105.82 Y105.284 E0.24528
G1 X106.722 Y105.008 E0.28988
G1 X107.422 Y104.85 E0.32381
G1 X107.682 Y104.8 E0.33632
G1 X108.615 Y104.661 E0.38092
G1 X109.556 Y104.602 E0.4255
G1 X110.782 Y104.577 E0.48347
G1 X124.286 Y104.575 E1.1219
G1 X124.868 Y104.582 E1.14942
G1 X125.807 Y104.621 E1.19385
G1 X126.746 Y104.707 E1.23843
G1 X128.09 Y104.972 E1.30319
G1 X128.437 Y105.063 E1.32015
G1 X129.338 Y105.341 E1.36473
G1 X130.48 Y105.819 E1.42326
G1 X130.807 Y105.978 E1.44045
G1 X131.637 Y106.426 E1.48504
G1 X132.382 Y106.906 E1.52694
G1 X133.207 Y107.532 E1.5759
G1 X133.854 Y108.108 E1.61686
G1 X134.519 Y108.777 E1.66145
G1 X135.004 Y109.343 E1.69669
G1 X135.576 Y110.094 E1.74132
G1 X136.021 Y110.782 E1.78006
G1 X136.486 Y111.602 E1.82463
G1 X136.778 Y112.221 E1.85698
G1 X136.88 Y112.455 E1.86905
G1 X137.39 Y113.86 E1.93972
G1 X137.646 Y114.899 E1.99031
G1 X137.789 Y115.765 E2.0318
G1 X137.887 Y116.703 E2.07639
G1 X137.907 Y117.559 E2.11687
G1 X137.901 Y117.948 E2.13526
G1 X137.846 Y118.889 E2.17983
G1 X137.712 Y119.823 E2.22444
G1 X137.46 Y120.88 E2.27581
G1 X137.365 Y121.207 E2.29191
G1 X136.887 Y122.547 E2.35917
G1 X136.423 Y123.522 E2.41022
G1 X136.064 Y124.15 E2.44442
G1 X135.923 Y124.379 E2.45713
G1 X135.395 Y125.16 E2.5017
G1 X134.875 Y125.815 E2.54124
G1 X134.244 Y126.516 E2.58583
G1 X133.675 Y127.061 E2.62308
G1 X132.634 Y127.911 E2.68662
G1 X132.394 Y128.084 E2.7006
G1 X131.607 Y128.602 E2.74515
G1 X130.778 Y129.052 E2.78974
G1 X129.861 Y129.451 E2.83702
G1 X129.309 Y129.662 E2.86496
G1 X128.415 Y129.961 E2.90953
G1 X127.498 Y130.183 E2.95413
G1 X126.566 Y130.327 E2.99872
G1 X125.581 Y130.392 E3.04539
G1 X123.969 Y130.425 E3.12161
G1 X110.557 Y130.424 E3.7557
G1 X109.766 Y130.406 E3.7931
G1 X109.171 Y130.377 E3.82127
G1 X108.232 Y130.291 E3.86585
G1 X107.308 Y130.131 E3.91018
G1 X106.303 Y129.874 E3.95922
G1 X105.562 Y129.625 E3.99618
G1 X104.178 Y129.03 E4.0674
G1 X103.225 Y128.496 E4.11905
G1 X102.555 Y128.053 E4.15702
G1 X101.729 Y127.418 E4.20628
G1 X101.1 Y126.852 E4.24628
G1 X100.438 Y126.18 E4.29088
G1 X99.958 Y125.617 E4.32586
G1 X99.389 Y124.865 E4.37044
G1 X98.928 Y124.146 E4.41082
G1 X98.469 Y123.322 E4.45541
G1 X98.126 Y122.587 E4.49376
G1 X97.755 Y121.611 E4.54312
G1 X97.516 Y120.801 E4.58305
G1 X97.305 Y119.881 E4.62767
G1 X97.186 Y119.096 E4.66521
G1 X97.101 Y118.157 E4.70978
G1 X97.087 Y117.426 E4.74435
G1 X97.123 Y116.483 E4.78897
G1 X97.2 Y115.801 E4.82141
G1 X97.238 Y115.536 E4.83407
G1 X97.411 Y114.609 E4.87865
G1 X97.632 Y113.787 E4.91889
G1 X98.136 Y112.387 E4.98924
G1 X98.61 Y111.408 E5.04066
G1 X98.994 Y110.749 E5.07672
G1 X99.145 Y110.509 E5.09013
G1 X99.68 Y109.732 E5.13473
G1 X100.161 Y109.136 E5.17094
G1 X100.796 Y108.439 E5.21552
G1 X101.375 Y107.892 E5.25317
M205 X5 Y5
G0 F7500 X101.678 Y108.224
M205 X8 Y8
G1 F1500 X102.731 Y107.371 E5.31724
G1 X103.608 Y106.798 E5.36677
G1 X104.349 Y106.394 E5.40667
G1 X105.185 Y106.003 E5.4503
G1 X105.97 Y105.709 E5.48993
G1 X106.854 Y105.439 E5.53363
G1 X107.507 Y105.292 E5.56528
G1 X107.767 Y105.242 E5.57779
G1 X108.681 Y105.107 E5.62147
G1 X109.565 Y105.052 E5.66335
G1 X110.791 Y105.027 E5.72132
G1 X124.286 Y105.025 E6.35933
G1 X124.862 Y105.032 E6.38656
G1 X125.785 Y105.071 E6.43024
G1 X126.705 Y105.155 E6.47391
G1 X127.976 Y105.407 E6.53517
G1 X128.323 Y105.498 E6.55213
G1 X129.206 Y105.771 E6.59583
G1 X130.283 Y106.224 E6.65106
G1 X130.61 Y106.383 E6.66825
G1 X131.423 Y106.822 E6.71194
G1 X132.128 Y107.278 E6.75163
G1 X132.935 Y107.891 E6.79954
G1 X133.548 Y108.438 E6.83838
G1 X134.199 Y109.094 E6.88208
G1 X134.658 Y109.631 E6.91548
G1 X135.217 Y110.366 E6.95913
G1 X135.639 Y111.02 E6.99593
G1 X136.094 Y111.824 E7.03961
G1 X136.366 Y112.4 E7.06972
G1 X136.468 Y112.634 E7.08179
G1 X136.958 Y113.988 E7.14987
G1 X137.208 Y115.006 E7.19942
G1 X137.344 Y115.831 E7.23895
G1 X137.439 Y116.75 E7.28263
G1 X137.457 Y117.552 E7.32056
G1 X137.451 Y117.941 E7.33895
G1 X137.397 Y118.863 E7.38262
G1 X137.263 Y119.777 E7.42629
G1 X137.028 Y120.754 E7.4738
G1 X136.933 Y121.081 E7.4899
G1 X136.473 Y122.372 E7.55469
G1 X136.017 Y123.328 E7.60476
G1 X135.681 Y123.914 E7.6367
G1 X135.54 Y124.143 E7.64941
G1 X135.022 Y124.908 E7.69309
G1 X134.528 Y125.529 E7.73061
G1 X133.909 Y126.215 E7.77429
G1 X133.37 Y126.73 E7.80954
G1 X132.371 Y127.546 E7.87052
G1 X132.131 Y127.719 E7.88451
G1 X131.359 Y128.226 E7.92817
G1 X130.546 Y128.665 E7.97185
G1 X129.701 Y129.03 E8.01537
G1 X129.149 Y129.241 E8.04331
G1 X128.272 Y129.534 E8.08702
G1 X127.374 Y129.749 E8.13068
G1 X126.46 Y129.886 E8.17437
G1 X125.571 Y129.942 E8.21649
G1 X123.969 Y129.975 E8.29224
G1 X110.563 Y129.974 E8.92604
G1 X109.788 Y129.956 E8.96269
G1 X109.193 Y129.927 E8.99085
G1 X108.273 Y129.842 E9.03453
G1 X107.4 Y129.691 E9.07642
G1 X106.415 Y129.438 E9.1245
G1 X105.714 Y129.201 E9.15948
G1 X104.379 Y128.628 E9.22816
G1 X103.446 Y128.103 E9.27878
G1 X102.736 Y127.625 E9.31924
G1 X102.004 Y127.061 E9.36293
G1 X101.407 Y126.523 E9.40092
G1 X100.759 Y125.864 E9.44462
G1 X100.305 Y125.331 E9.47772
G1 X99.749 Y124.593 E9.5214
G1 X99.312 Y123.91 E9.55974
G1 X98.862 Y123.103 E9.60342
G1 X98.504 Y122.315 E9.64434
G1 X98.176 Y121.451 E9.68803
G1 X97.95 Y120.682 E9.72593
G1 X97.744 Y119.781 E9.76962
G1 X97.632 Y119.037 E9.80519
G1 X97.531 Y117.57 E9.87471
G1 X97.573 Y116.501 E9.92529
G1 X97.645 Y115.865 E9.95555
G1 X97.683 Y115.6 E9.96821
G1 X97.854 Y114.692 E10.01189
G1 X98.064 Y113.913 E10.05003
G1 X98.55 Y112.565 E10.11778
G1 X99.015 Y111.605 E10.16821
G1 X99.375 Y110.988 E10.20198
G1 X99.526 Y110.748 E10.21539
G1 X100.051 Y109.988 E10.25906
G1 X100.506 Y109.425 E10.29328
G1 X101.129 Y108.742 E10.33699
G1 X101.678 Y108.224 E10.37267
M205 X5 Y5
G0 F7500 X101.982 Y108.557
M205 X8 Y8
G1 F1500 X102.994 Y107.735 E10.43431
G1 X103.854 Y107.176 E10.4828
G1 X104.557 Y106.793 E10.52065
G1 X105.376 Y106.411 E10.56337
G1 X106.12 Y106.133 E10.60092
G1 X106.985 Y105.87 E10.64367
G1 X107.592 Y105.734 E10.67308
G1 X107.852 Y105.684 E10.68559
G1 X108.747 Y105.553 E10.72836
G1 X109.575 Y105.502 E10.76758
G1 X111.009 Y105.475 E10.83538
G1 X124.286 Y105.475 E11.46308
G1 X124.855 Y105.482 E11.48999
G1 X125.763 Y105.52 E11.53295
G1 X126.663 Y105.604 E11.57569
G1 X127.862 Y105.842 E11.63348
G1 X128.209 Y105.933 E11.65044
G1 X129.072 Y106.201 E11.69316
G1 X130.086 Y106.628 E11.74518
G1 X130.413 Y106.787 E11.76237
G1 X131.208 Y107.218 E11.80512
G1 X131.872 Y107.648 E11.84252
G1 X132.662 Y108.249 E11.88945
G1 X133.243 Y108.768 E11.92628
G1 X134.23 Y109.809 E11.9941
G1 X134.858 Y110.639 E12.04331
G1 X135.258 Y111.258 E12.07815
G1 X135.701 Y112.045 E12.12085
G1 X135.953 Y112.58 E12.1488
G1 X136.055 Y112.814 E12.16087
G1 X136.526 Y114.114 E12.22624
G1 X136.771 Y115.114 E12.27492
G1 X136.899 Y115.896 E12.31238
G1 X136.991 Y116.796 E12.35515
G1 X137.007 Y117.545 E12.39057
G1 X137.001 Y117.934 E12.40896
G1 X136.947 Y118.836 E12.45168
G1 X136.813 Y119.731 E12.49447
G1 X136.596 Y120.629 E12.53815
G1 X136.501 Y120.956 E12.55424
G1 X136.059 Y122.198 E12.61657
G1 X135.61 Y123.134 E12.66565
G1 X135.298 Y123.678 E12.6953
G1 X135.157 Y123.907 E12.70801
G1 X134.649 Y124.655 E12.75076
G1 X134.181 Y125.242 E12.78625
G1 X133.575 Y125.913 E12.829
G1 X133.064 Y126.399 E12.86234
G1 X132.108 Y127.181 E12.92073
G1 X131.868 Y127.354 E12.93472
G1 X131.112 Y127.849 E12.97744
G1 X130.315 Y128.276 E13.02019
G1 X129.54 Y128.61 E13.06008
G1 X128.988 Y128.821 E13.08802
G1 X128.13 Y129.106 E13.13077
G1 X127.25 Y129.314 E13.17352
G1 X126.355 Y129.444 E13.21627
G1 X125.561 Y129.493 E13.25388
G1 X124.193 Y129.523 E13.31857
G1 X110.57 Y129.524 E13.96263
G1 X109.81 Y129.507 E13.99857
G1 X109.215 Y129.478 E14.02673
G1 X108.315 Y129.394 E14.06947
G1 X107.49 Y129.251 E14.10905
G1 X106.527 Y129.002 E14.15608
G1 X105.865 Y128.777 E14.18913
G1 X104.583 Y128.227 E14.25509
G1 X103.667 Y127.711 E14.30479
G1 X102.995 Y127.257 E14.34313
G1 X102.279 Y126.704 E14.3859
G1 X101.713 Y126.194 E14.42192
G1 X100.734 Y125.153 E14.48948
G1 X100.108 Y124.322 E14.53867
G1 X99.695 Y123.674 E14.575
G1 X99.256 Y122.884 E14.61773
G1 X98.917 Y122.137 E14.65651
G1 X98.597 Y121.291 E14.69927
G1 X98.384 Y120.562 E14.73518
G1 X98.183 Y119.681 E14.7779
G1 X98.078 Y118.977 E14.81155
G1 X97.981 Y117.566 E14.87842
G1 X98.023 Y116.519 E14.92795
G1 X98.091 Y115.929 E14.95603
G1 X98.129 Y115.664 E14.96869
G1 X98.296 Y114.775 E15.01145
G1 X98.496 Y114.039 E15.04751
G1 X98.963 Y112.743 E15.11264
G1 X99.42 Y111.801 E15.16214
G1 X99.755 Y111.228 E15.19352
G1 X99.906 Y110.988 E15.20692
G1 X100.421 Y110.245 E15.24966
G1 X100.851 Y109.714 E15.28197
G1 X101.461 Y109.046 E15.32474
G1 X101.982 Y108.557 E15.35852
M205 X5 Y5
G1 F3300 E9.35852
;MESH:traba_puerta.stl
G0 F7500 X108.385 Y115.641
G0 X109.139 Y116.453
G0 X109.049 Y117.486
G1 F3300 E15.35852
G0 F7500 X108.893 Y117.502
M205 X8 Y8
;TYPE:WALL-INNER
G1 F1500 X108.933 Y117.789 E15.37374
G1 X109.138 Y118.191 E15.39744
G1 X109.364 Y118.404 E15.41376
G1 X109.77 Y118.581 E15.43702
G1 X110.037 Y118.6 E15.45108
G1 X124.959 Y118.6 E16.23494
G1 X125.225 Y118.581 E16.24895
G1 X125.634 Y118.403 E16.27238
G1 X125.784 Y118.261 E16.28323
G1 X125.981 Y117.985 E16.30104
G1 X126.064 Y117.784 E16.31247
G1 X126.103 Y117.504 E16.32732
G1 X126.085 Y117.361 E16.33489
G1 X126.066 Y117.225 E16.3421
G1 X125.916 Y116.865 E16.36259
G1 X125.629 Y116.594 E16.38332
G1 X125.278 Y116.442 E16.40342
G1 X124.968 Y116.401 E16.41984
G1 X110.037 Y116.4 E17.20417
G1 X109.77 Y116.419 E17.21823
G1 X109.361 Y116.597 E17.24166
G1 X109.145 Y116.796 E17.25709
G1 X108.972 Y117.116 E17.2762
G1 X108.893 Y117.502 E17.2969
M205 X5 Y5
G0 F7500 X109.127 Y117.502
G0 X109.506 Y116.783
G0 X109.208 Y116.363
M205 X8 Y8
;TYPE:WALL-OUTER
G1 F1500 X108.931 Y116.62 E17.31476
G1 X108.724 Y116.956 E17.33342
G1 X108.614 Y117.494 E17.35938
G1 X108.666 Y117.863 E17.377
G1 X108.776 Y118.128 E17.39056
G1 X108.923 Y118.367 E17.40383
G1 X109.21 Y118.637 E17.42246
G1 X109.704 Y118.852 E17.44793
G1 X110.028 Y118.875 E17.46328
G1 X124.968 Y118.875 E18.16961
G1 X125.291 Y118.852 E18.18492
G1 X125.787 Y118.637 E18.21047
G1 X125.993 Y118.443 E18.22385
G1 X126.223 Y118.119 E18.24264
G1 X126.332 Y117.856 E18.2561
G1 X126.381 Y117.505 E18.27285
G1 X126.357 Y117.325 E18.28144
G1 X126.334 Y117.152 E18.28969
G1 X126.212 Y116.86 E18.30465
G1 X126.076 Y116.637 E18.317
G1 X125.783 Y116.361 E18.33603
G1 X125.363 Y116.178 E18.35769
G1 X124.977 Y116.126 E18.3761
G1 X110.028 Y116.125 E19.08285
G1 X109.704 Y116.148 E19.0982
G1 X109.208 Y116.363 E19.12376
M205 X5 Y5
G0 F7500 X109.062 Y116.499
G0 X109.399 Y116.866
G0 X109.074 Y117.729
G0 X109.199 Y117.712
M205 X8 Y8
;TYPE:SKIN
G1 F1500 X109.355 Y118.018 E19.13387
G1 X109.519 Y118.173 E19.1405
G1 X109.87 Y118.327 E19.15178
G1 X125.124 Y118.327 E19.6005
G1 X125.528 Y118.151 E19.61347
G1 X125.793 Y117.776 E19.62698
G1 X125.816 Y117.409 E19.63779
G1 X125.8 Y117.297 E19.64112
G1 X125.642 Y116.984 E19.65144
G1 X125.474 Y116.825 E19.65824
G1 X125.201 Y116.706 E19.667
G1 X124.918 Y116.674 E19.67538
G1 X109.869 Y116.673 E20.11807
G1 X109.512 Y116.828 E20.12952
G1 X109.362 Y116.967 E20.13554
G1 X109.234 Y117.201 E20.14338
G1 X109.17 Y117.51 E20.15267
G1 X109.199 Y117.712 E20.15867
M205 X5 Y5
G0 F7500 X109.49 Y117.04
M205 X8 Y8
G1 F1500 X125.499 Y117.04 E20.62961
M205 X5 Y5
G0 F7500 X125.655 Y117.32
M205 X8 Y8
G1 F1500 X109.353 Y117.32 E21.10916
M205 X5 Y5
G0 F7500 X109.324 Y117.6
M205 X8 Y8
G1 F1500 X125.661 Y117.6 E21.58974
M205 X5 Y5
G0 F7500 X125.547 Y117.88
M205 X8 Y8
G1 F1500 X109.441 Y117.88 E22.06353
M205 X5 Y5
G0 F7500 X109.837 Y118.16
M205 X8 Y8
G1 F1500 X125.154 Y118.16 E22.51411
M205 X5 Y5
;MESH:NONMESH
G0 F600 X125.154 Y118.16 Z0.48
G0 F7500 X125.259 Y118.403
G0 X109.821 Y118.373
G0 X109.381 Y118.13
G0 X109.138 Y117.733
G0 X109.177 Y117.202
G0 X108.586 Y116.998
M117 Time Left 0h14m39s
;TIME_ELAPSED:27.514236
;LAYER:1
M106 S42.5
M205 X14 Y14
;TYPE:WALL-INNER
;MESH:traba_puerta.stl
G1 F1896.4 X108.502 Y117.411 E22.53076
G1 X108.53 Y117.795 E22.54597
G1 X108.674 Y118.2 E22.56294
G1 X108.913 Y118.53 E22.57904
G1 X109.229 Y118.784 E22.59505
G1 X109.582 Y118.938 E22.61026
G1 X110.01 Y119 E22.62734
G1 X125.118 Y119 E23.22405
G1 X125.411 Y118.939 E23.23587
G1 X125.765 Y118.785 E23.25112
G1 X125.948 Y118.656 E23.25996
G1 X126.21 Y118.379 E23.27502
G1 X126.38 Y118.099 E23.28796
G1 X126.464 Y117.8 E23.30023
G1 X126.505 Y117.503 E23.31207
G1 X126.464 Y117.203 E23.32403
G1 X126.368 Y116.88 E23.33734
G1 X126.224 Y116.643 E23.34829
G1 X126.095 Y116.484 E23.35638
G1 X125.765 Y116.214 E23.37322
G1 X125.386 Y116.055 E23.38945
G1 X125.153 Y116.006 E23.39885
G1 X109.877 Y116.001 E24.0022
G1 X109.581 Y116.062 E24.01414
G1 X109.207 Y116.228 E24.0303
G1 X108.912 Y116.471 E24.0454
G1 X108.766 Y116.65 E24.05452
G1 X108.586 Y116.998 E24.06999
M205 X12.5 Y12.5
G0 F8250 X108.797 Y117.073
G0 X109.066 Y116.615
G0 X109.31 Y116.446
G0 X109.576 Y116.303
G0 X109.404 Y115.818
M205 X14 Y14
;TYPE:WALL-OUTER
G1 F1580.3 X109.063 Y115.993 E24.08362
G1 X108.71 Y116.282 E24.09983
G1 X108.473 Y116.575 E24.11323
G1 X108.325 Y116.906 E24.12612
G1 X108.227 Y117.274 E24.13966
G1 X108.227 Y117.608 E24.15153
G1 X108.319 Y118.069 E24.16824
G1 X108.468 Y118.418 E24.18173
G1 X108.711 Y118.719 E24.19548
G1 X109.086 Y119.02 E24.21257
G1 X109.506 Y119.203 E24.22886
G1 X109.85 Y119.275 E24.24135
G1 X125.145 Y119.275 E24.78504
G1 X125.486 Y119.204 E24.79742
G1 X125.907 Y119.022 E24.81372
G1 X126.122 Y118.87 E24.82308
G1 X126.435 Y118.538 E24.8393
G1 X126.634 Y118.21 E24.85294
G1 X126.734 Y117.857 E24.86598
G1 X126.782 Y117.503 E24.87868
G1 X126.734 Y117.145 E24.89152
G1 X126.622 Y116.768 E24.9055
G1 X126.449 Y116.484 E24.91732
G1 X126.296 Y116.296 E24.92594
G1 X126.006 Y116.027 E24.94
G1 X125.571 Y115.812 E24.95725
G1 X125.181 Y115.731 E24.9714
G1 X109.85 Y115.726 E25.51637
G1 X109.404 Y115.818 E25.53256
M205 X12.5 Y12.5
G0 F8250 X109.226 Y115.909
G0 X109.03 Y116.727
M205 X14 Y14
;TYPE:SKIN
G1 F1475 X108.841 Y117.103 E25.54187
G1 X108.762 Y117.502 E25.55086
G1 X108.837 Y117.881 E25.55941
G1 X108.914 Y118.067 E25.56386
G1 X109.113 Y118.34 E25.57133
G1 X109.37 Y118.547 E25.57863
G1 X109.657 Y118.673 E25.58557
G1 X110.024 Y118.727 E25.59377
G1 X124.969 Y118.727 E25.92432
G1 X125.338 Y118.673 E25.93257
G1 X125.709 Y118.511 E25.94153
G1 X125.988 Y118.215 E25.95052
G1 X126.124 Y117.991 E25.95632
G1 X126.196 Y117.741 E25.96207
G1 X126.208 Y117.654 E25.96402
G1 X126.241 Y117.411 E25.96944
G1 X126.115 Y116.99 E25.97916
G1 X126.003 Y116.807 E25.98391
G1 X125.704 Y116.49 E25.99354
G1 X125.419 Y116.354 E26.00053
G1 X125.119 Y116.28 E26.00736
G1 X109.907 Y116.275 E26.34382
G1 X109.66 Y116.326 E26.3494
G1 X109.349 Y116.464 E26.35693
G1 X109.03 Y116.727 E26.36607
M205 X12.5 Y12.5
G0 F8250 X108.953 Y116.649
G0 X109.639 Y116.265
G0 X110.072 Y116.211
G0 X125.252 Y116.242
G0 X125.739 Y116.467
G0 X126.253 Y117.02
G0 X126 Y117.095
M205 X14 Y14
G1 F1475 X126 Y117.911 E26.38412
M205 X12.5 Y12.5
G0 F8250 X125.72 Y118.295
M205 X14 Y14
