;FLAVOR:Marlin
;TIME:3529
;Filament used: 3.01814m
;Layer height: 0.2
;MINX:95.375
;MINY:100.356
;MINZ:0.2
;MAXX:139.211
;MAXY:141.643
;MAXZ:30
;Generated with Cura_SteamEngine 4.3.0
M140 S50
M105
M190 S50
M104 S205
M105
M109 S205
M82 ;absolute extrusion mode
; Ender 3 Custom Start G-code
M201 X500.00 Y500.00 Z100.00 E5000.00 ;Setup machine max acceleration
M203 X500.00 Y500.00 Z10.00 E50.00 ;Setup machine max feedrate
M204 P500.00 R1000.00 T500.00 ;Setup Print/Retract/Travel acceleration
M205 X8.00 Y8.00 Z0.40 E5.00 ;Setup Jerk
M220 S100 ;Reset Feedrate
M221 S100 ;Reset Flowrate
M117 Clean ; Indicate nozzle clean in progress on LCD
M107 ; Turn layer fan off
G21 ; Set to metric [change to G20 if you want Imperial]
G28 ; Home all axes
G90                          ; Force coordinates to be absolute relative to the origin
M92 E95 ;
G90                          ; Force coordinates to be absolute relative to the origin
G28                          ; Home X/Y/Z axis
G92 E0 ; Reset Extruder
G1 Z2.0 F3000 ;Move Z Axis up
G1 X10.1 Y20 Z0.28 F5000.0 ;Move to start position
G1 X10.1 Y200.0 Z0.28 F1500.0 E15 ;Draw the first line
G1 X10.4 Y200.0 Z0.28 F5000.0 ;Move to side a little
G1 X10.4 Y20 Z0.28 F1500.0 E30 ;Draw the second line
G92 E0 ; Reset Extruder
G1 Z2.0 F3000 ; Move Z Axis up little to prevent scratching of Heat Bed
M117 Printing ; Indicate printing on LCD
G92 E0
G92 E0
G1 F1500 E-6
;LAYER_COUNT:150
;LAYER:0
M107
M204 S500
M205 X20 Y20
G0 F7500 X99.4 Y104.021 Z0.2
;TYPE:SKIRT
G1 F1500 E0
G1 X100.127 Y103.415 E0.03777
G1 X100.902 Y102.872 E0.07554
G1 X101.72 Y102.396 E0.11332
G1 X102.575 Y101.991 E0.15108
G1 X103.462 Y101.66 E0.18886
G1 X104.373 Y101.405 E0.22662
G1 X105.262 Y101.234 E0.26275
G1 X106.063 Y101.113 E0.29509
G1 X106.228 Y101.089 E0.30174
G1 X107.25 Y100.95 E0.34291
G1 X108.398 Y100.755 E0.38938
G1 X108.582 Y100.726 E0.39682
G1 X109.995 Y100.51 E0.45387
G1 X111.393 Y100.385 E0.50989
G1 X112.499 Y100.356 E0.55404
G1 X113.084 Y100.356 E0.57739
G1 X113.315 Y100.362 E0.58662
G1 X113.492 Y100.368 E0.59368
G1 X115.738 Y100.462 E0.68341
G1 X118.247 Y100.495 E0.78355
G1 X120.882 Y100.456 E0.88873
G1 X121.607 Y100.469 E0.91768
G1 X124.084 Y100.593 E1.01666
G1 X124.668 Y100.638 E1.04004
G1 X126.09 Y100.784 E1.09709
G1 X126.226 Y100.798 E1.10255
G1 X126.765 Y100.86 E1.1242
G1 X126.906 Y100.877 E1.12987
G1 X127.86 Y100.999 E1.16826
G1 X128.018 Y101.021 E1.17463
G1 X128.928 Y101.151 E1.21131
G1 X129.31 Y101.2 E1.22669
G1 X130.242 Y101.361 E1.26444
G1 X131.158 Y101.6 E1.30222
G1 X132.05 Y101.916 E1.33999
G1 X132.913 Y102.305 E1.37777
G1 X133.739 Y102.767 E1.41554
G1 X134.524 Y103.296 E1.45332
G1 X135.53 Y104.133 E1.50556
G1 X135.656 Y104.251 E1.51245
G1 X136.319 Y104.927 E1.55024
G1 X136.922 Y105.656 E1.588
G1 X137.462 Y106.433 E1.62576
G1 X137.934 Y107.253 E1.66353
G1 X138.335 Y108.11 E1.70129
G1 X138.663 Y108.998 E1.73907
G1 X138.914 Y109.911 E1.77686
G1 X139.087 Y110.841 E1.81462
G1 X139.197 Y112.168 E1.86776
G1 X139.202 Y112.385 E1.87643
G1 X139.205 Y112.621 E1.88585
G1 X139.211 Y115.724 E2.00969
G1 X139.211 Y115.767 E2.01141
G1 X139.192 Y126.124 E2.42478
G1 X139.191 Y126.271 E2.43065
G1 X139.181 Y126.936 E2.45719
G1 X139.152 Y127.583 E2.48304
G1 X139.089 Y128.447 E2.51762
G1 X139.079 Y128.572 E2.52262
G1 X139.002 Y129.486 E2.55923
G1 X138.99 Y129.623 E2.56472
G1 X138.941 Y130.13 E2.58505
G1 X138.81 Y131.068 E2.62285
G1 X138.601 Y131.991 E2.66062
G1 X138.314 Y132.893 E2.6984
G1 X137.953 Y133.767 E2.73614
G1 X137.518 Y134.608 E2.77394
G1 X137.015 Y135.409 E2.81169
G1 X136.207 Y136.445 E2.86412
G1 X136.084 Y136.585 E2.87156
G1 X135.43 Y137.269 E2.90933
G1 X134.72 Y137.895 E2.94711
G1 X133.961 Y138.46 E2.98488
G1 X133.156 Y138.958 E3.02266
G1 X132.328 Y139.378 E3.05971
G1 X131.016 Y139.978 E3.11729
G1 X130.888 Y140.036 E3.1229
G1 X130.49 Y140.212 E3.14027
G1 X129.609 Y140.558 E3.17805
G1 X128.702 Y140.828 E3.21582
G1 X127.773 Y141.021 E3.25369
G1 X126.743 Y141.19 E3.29535
G1 X126.588 Y141.215 E3.30161
G1 X125.519 Y141.375 E3.34476
G1 X124.121 Y141.495 E3.40076
G1 X123.261 Y141.515 E3.43509
G1 X122.989 Y141.518 E3.44595
G1 X122.085 Y141.517 E3.48203
G1 X121.944 Y141.516 E3.48766
G1 X119.757 Y141.486 E3.57495
G1 X117.223 Y141.523 E3.6761
G1 X114.619 Y141.636 E3.78013
G1 X113.852 Y141.643 E3.81074
G1 X112.577 Y141.611 E3.86165
G1 X112.329 Y141.603 E3.87155
G1 X110.932 Y141.537 E3.92737
G1 X109.99 Y141.452 E3.96512
G1 X109.427 Y141.363 E3.98787
G1 X108.301 Y141.155 E4.03357
G1 X108.125 Y141.121 E4.04073
G1 X107.514 Y140.998 E4.0656
G1 X106.595 Y140.772 E4.10337
G1 X106.087 Y140.611 E4.12464
G1 X104.051 Y139.912 E4.21056
G1 X103.787 Y139.818 E4.22174
G1 X103.456 Y139.695 E4.23584
G1 X102.583 Y139.328 E4.27364
G1 X101.745 Y138.889 E4.31139
G1 X100.947 Y138.38 E4.34917
G1 X100.194 Y137.806 E4.38696
G1 X99.637 Y137.31 E4.41673
G1 X99.493 Y137.173 E4.42466
G1 X98.836 Y136.493 E4.4624
G1 X98.238 Y135.759 E4.50019
G1 X97.704 Y134.977 E4.53798
G1 X97.239 Y134.153 E4.57574
G1 X96.844 Y133.293 E4.61352
G1 X96.524 Y132.403 E4.65126
G1 X96.28 Y131.488 E4.68906
G1 X96.114 Y130.557 E4.7268
G1 X96.06 Y130.084 E4.74581
G1 X96.002 Y129.458 E4.7709
G1 X95.695 Y126.707 E4.88138
G1 X95.685 Y126.61 E4.88527
G1 X95.618 Y125.959 E4.91139
G1 X95.57 Y125.313 E4.93724
G1 X95.534 Y124.502 E4.96964
G1 X95.381 Y121.925 E5.07268
G1 X95.375 Y120.693 E5.12185
G1 X95.517 Y117.911 E5.23303
G1 X95.588 Y114.32 E5.37638
G1 X95.593 Y113.063 E5.42655
G1 X95.595 Y112.899 E5.4331
G1 X95.607 Y112.243 E5.45929
G1 X95.664 Y111.299 E5.49703
G1 X95.801 Y110.362 E5.53483
G1 X96.016 Y109.441 E5.57258
G1 X96.309 Y108.541 E5.61035
G1 X96.676 Y107.668 E5.64815
G1 X97.116 Y106.83 E5.68593
G1 X97.625 Y106.032 E5.7237
G1 X98.199 Y105.28 E5.76146
G1 X98.598 Y104.827 E5.78555
G1 X98.728 Y104.687 E5.79318
G1 X99.4 Y104.021 E5.83094
G0 F7500 X99.738 Y104.363
G1 F1500 X100.451 Y103.772 E5.8679
G1 X101.211 Y103.244 E5.90484
G1 X102.015 Y102.784 E5.94181
G1 X102.855 Y102.395 E5.97876
G1 X103.726 Y102.08 E6.01572
G1 X104.62 Y101.841 E6.05266
G1 X105.334 Y101.708 E6.08165
G1 X106.135 Y101.587 E6.11398
G1 X106.292 Y101.565 E6.12031
G1 X107.335 Y101.423 E6.16232
G1 X108.478 Y101.229 E6.20859
G1 X108.654 Y101.2 E6.21571
G1 X110.067 Y100.984 E6.27276
G1 X111.406 Y100.865 E6.32641
G1 X112.512 Y100.836 E6.37057
G1 X113.071 Y100.836 E6.39288
G1 X113.302 Y100.842 E6.4021
G1 X113.472 Y100.847 E6.40889
G1 X115.747 Y100.942 E6.49977
G1 X118.247 Y100.975 E6.59956
G1 X120.889 Y100.936 E6.70502
G1 X121.583 Y100.948 E6.73272
G1 X124.06 Y101.072 E6.83171
G1 X124.619 Y101.115 E6.85409
G1 X126.041 Y101.261 E6.91114
G1 X126.171 Y101.275 E6.91636
G1 X126.71 Y101.337 E6.93801
G1 X126.845 Y101.354 E6.94344
G1 X127.799 Y101.476 E6.98183
G1 X127.951 Y101.496 E6.98795
G1 X128.888 Y101.629 E7.02572
G1 X129.248 Y101.676 E7.04021
G1 X130.161 Y101.835 E7.0772
G1 X131.056 Y102.071 E7.11414
G1 X131.927 Y102.384 E7.15108
G1 X132.768 Y102.771 E7.18803
G1 X133.573 Y103.228 E7.22498
G1 X134.335 Y103.754 E7.26193
G1 X135.202 Y104.483 E7.30714
G1 X135.328 Y104.601 E7.31403
G1 X135.976 Y105.263 E7.35101
G1 X136.564 Y105.978 E7.38795
G1 X137.088 Y106.741 E7.4249
G1 X137.545 Y107.546 E7.46184
G1 X137.93 Y108.388 E7.4988
G1 X138.242 Y109.26 E7.53576
G1 X138.477 Y110.155 E7.57269
G1 X138.634 Y111.068 E7.60967
G1 X138.717 Y112.179 E7.65413
G1 X138.722 Y112.396 E7.6628
G1 X138.725 Y112.622 E7.67182
G1 X138.731 Y115.725 E7.79566
G1 X138.731 Y115.766 E7.7973
G1 X138.712 Y126.123 E8.21067
G1 X138.711 Y126.264 E8.2163
G1 X138.701 Y126.929 E8.24284
G1 X138.674 Y127.548 E8.26757
G1 X138.611 Y128.412 E8.30215
G1 X138.601 Y128.532 E8.30695
G1 X138.524 Y129.446 E8.34356
G1 X138.512 Y129.577 E8.34881
G1 X138.463 Y130.084 E8.36914
G1 X138.335 Y131.001 E8.4061
G1 X138.127 Y131.903 E8.44304
G1 X137.843 Y132.784 E8.47999
G1 X137.483 Y133.638 E8.51698
G1 X137.051 Y134.457 E8.55393
G1 X136.551 Y135.235 E8.59085
G1 X135.846 Y136.128 E8.63626
G1 X135.723 Y136.268 E8.64369
G1 X135.083 Y136.937 E8.68065
G1 X134.387 Y137.548 E8.71761
G1 X133.641 Y138.096 E8.75455
G1 X132.851 Y138.578 E8.79149
G1 X132.128 Y138.942 E8.8238
G1 X130.816 Y139.542 E8.88138
G1 X130.694 Y139.597 E8.88672
G1 X130.296 Y139.773 E8.90409
G1 X129.433 Y140.111 E8.94108
G1 X128.545 Y140.373 E8.97803
G1 X127.696 Y140.548 E9.01263
G1 X126.666 Y140.717 E9.05429
G1 X126.517 Y140.74 E9.06031
G1 X125.448 Y140.9 E9.10345
G1 X124.11 Y141.015 E9.15705
G1 X123.25 Y141.035 E9.19138
G1 X122.989 Y141.038 E9.2018
G1 X122.085 Y141.037 E9.23788
G1 X121.951 Y141.036 E9.24323
G1 X119.757 Y141.006 E9.3308
G1 X117.229 Y141.043 E9.43171
G1 X114.598 Y141.157 E9.53682
G1 X113.864 Y141.164 E9.56612
G1 X112.589 Y141.132 E9.61702
G1 X112.352 Y141.123 E9.62649
G1 X110.955 Y141.057 E9.68231
G1 X110.033 Y140.973 E9.71926
G1 X109.514 Y140.891 E9.74023
G1 X108.388 Y140.683 E9.78593
G1 X108.219 Y140.65 E9.7928
G1 X107.608 Y140.527 E9.81768
G1 X106.71 Y140.305 E9.8546
G1 X106.243 Y140.157 E9.87415
G1 X104.207 Y139.458 E9.96007
G1 X103.954 Y139.368 E9.97079
G1 X103.623 Y139.245 E9.98488
G1 X102.77 Y138.885 E10.02183
G1 X101.951 Y138.453 E10.05879
G1 X101.172 Y137.952 E10.09576
G1 X100.44 Y137.386 E10.13269
G1 X99.968 Y136.963 E10.15798
G1 X99.824 Y136.826 E10.16592
G1 X99.181 Y136.159 E10.20289
G1 X98.599 Y135.44 E10.23981
G1 X98.08 Y134.672 E10.27681
G1 X97.63 Y133.864 E10.31372
G1 X97.251 Y133.019 E10.35068
G1 X96.947 Y132.144 E10.38766
G1 X96.719 Y131.247 E10.4246
G1 X96.538 Y130.04 E10.47331
G1 X96.48 Y129.413 E10.49844
G1 X96.172 Y126.654 E10.60924
G1 X96.162 Y126.56 E10.61301
G1 X96.095 Y125.909 E10.63913
G1 X96.05 Y125.292 E10.66383
G1 X96.015 Y124.522 E10.69459
G1 X95.86 Y121.897 E10.79954
G1 X95.855 Y120.718 E10.8466
G1 X95.996 Y117.946 E10.95738
G1 X96.068 Y114.332 E11.10165
G1 X96.073 Y113.065 E11.15222
G1 X96.075 Y112.908 E11.15848
G1 X96.087 Y112.252 E11.18467
G1 X96.144 Y111.328 E11.22162
G1 X96.28 Y110.412 E11.25858
G1 X96.495 Y109.512 E11.29551
G1 X96.787 Y108.633 E11.33248
G1 X97.153 Y107.783 E11.36942
G1 X97.592 Y106.967 E11.4064
G1 X98.099 Y106.193 E11.44333
G1 X98.949 Y105.154 E11.49691
G1 X99.079 Y105.014 E11.50453
G1 X99.738 Y104.363 E11.5415
G0 F7500 X100.076 Y104.705
G1 F1500 X100.774 Y104.129 E11.57762
G1 X101.52 Y103.617 E11.61374
G1 X102.308 Y103.173 E11.64984
G1 X103.133 Y102.8 E11.68597
G1 X103.987 Y102.502 E11.72207
G1 X104.864 Y102.28 E11.75818
G1 X105.405 Y102.183 E11.78012
G1 X106.206 Y102.062 E11.81245
G1 X106.357 Y102.04 E11.81854
G1 X107.416 Y101.896 E11.8612
G1 X108.558 Y101.702 E11.90743
G1 X108.727 Y101.675 E11.91426
G1 X110.14 Y101.459 E11.97131
G1 X111.419 Y101.345 E12.02256
G1 X112.525 Y101.316 E12.06672
G1 X113.059 Y101.315 E12.08803
G1 X113.29 Y101.321 E12.09725
G1 X113.452 Y101.327 E12.10372
G1 X115.721 Y101.422 E12.19436
G1 X118.248 Y101.455 E12.29523
G1 X120.896 Y101.416 E12.40093
G1 X121.559 Y101.428 E12.4274
G1 X124.036 Y101.552 E12.52638
G1 X124.57 Y101.593 E12.54776
G1 X125.992 Y101.739 E12.60481
G1 X126.116 Y101.752 E12.60979
G1 X126.655 Y101.814 E12.63144
G1 X126.784 Y101.83 E12.63663
G1 X127.738 Y101.952 E12.67502
G1 X127.883 Y101.971 E12.68085
G1 X128.827 Y102.105 E12.71891
G1 X129.187 Y102.152 E12.7334
G1 X130.078 Y102.308 E12.7695
G1 X130.952 Y102.542 E12.80561
G1 X131.803 Y102.852 E12.84176
G1 X132.622 Y103.235 E12.87785
G1 X133.404 Y103.69 E12.91396
G1 X134.144 Y104.212 E12.9501
G1 X134.874 Y104.834 E12.98838
G1 X135 Y104.952 E12.99527
G1 X135.632 Y105.599 E13.03137
G1 X136.205 Y106.299 E13.06747
G1 X136.714 Y107.048 E13.10362
G1 X137.155 Y107.838 E13.13973
G1 X137.524 Y108.664 E13.17583
G1 X137.819 Y109.519 E13.21193
G1 X138.037 Y110.398 E13.24808
G1 X138.177 Y111.292 E13.2842
G1 X138.237 Y112.19 E13.32012
G1 X138.242 Y112.407 E13.32878
G1 X138.245 Y112.623 E13.3374
G1 X138.251 Y115.726 E13.46125
G1 X138.251 Y115.765 E13.46281
G1 X138.232 Y126.122 E13.87618
G1 X138.231 Y126.257 E13.88156
G1 X138.221 Y126.922 E13.90811
G1 X138.195 Y127.513 E13.93172
G1 X138.132 Y128.377 E13.9663
G1 X138.123 Y128.492 E13.9709
G1 X138.046 Y129.406 E14.00751
G1 X138.035 Y129.531 E14.01252
G1 X137.986 Y130.038 E14.03285
G1 X137.859 Y130.934 E14.06897
G1 X137.653 Y131.815 E14.10508
G1 X137.371 Y132.675 E14.1412
G1 X137.014 Y133.506 E14.1773
G1 X136.585 Y134.303 E14.21342
G1 X136.087 Y135.059 E14.24955
G1 X135.486 Y135.812 E14.28801
G1 X135.363 Y135.952 E14.29545
G1 X134.736 Y136.604 E14.33155
G1 X134.054 Y137.199 E14.36767
G1 X133.322 Y137.732 E14.40381
G1 X132.547 Y138.197 E14.43988
G1 X131.929 Y138.505 E14.46744
G1 X130.617 Y139.105 E14.52502
G1 X130.499 Y139.158 E14.53019
G1 X130.101 Y139.334 E14.54756
G1 X129.258 Y139.663 E14.58367
G1 X128.39 Y139.917 E14.61977
G1 X127.618 Y140.074 E14.65121
G1 X126.588 Y140.243 E14.69287
G1 X126.446 Y140.265 E14.69861
G1 X125.377 Y140.425 E14.74175
G1 X124.099 Y140.535 E14.79295
G1 X123.239 Y140.555 E14.82728
G1 X122.99 Y140.558 E14.83722
G1 X122.086 Y140.557 E14.8733
G1 X121.958 Y140.556 E14.87841
G1 X119.757 Y140.526 E14.96626
G1 X117.201 Y140.563 E15.06829
G1 X114.577 Y140.677 E15.17312
G1 X113.876 Y140.684 E15.2011
G1 X112.601 Y140.652 E15.252
G1 X112.375 Y140.644 E15.26103
G1 X110.978 Y140.578 E15.31685
G1 X110.077 Y140.495 E15.35296
G1 X109.601 Y140.419 E15.3722
G1 X108.475 Y140.211 E15.4179
G1 X108.314 Y140.18 E15.42444
G1 X107.703 Y140.057 E15.44932
G1 X106.399 Y139.703 E15.50325
G1 X104.363 Y139.004 E15.58916
G1 X104.121 Y138.918 E15.59942
G1 X103.79 Y138.795 E15.61351
G1 X102.957 Y138.442 E15.64962
G1 X102.158 Y138.018 E15.68572
G1 X101.399 Y137.524 E15.72186
G1 X100.687 Y136.966 E15.75797
G1 X100.299 Y136.615 E15.77885
G1 X100.155 Y136.478 E15.78678
G1 X99.527 Y135.826 E15.82291
G1 X98.96 Y135.121 E15.85902
G1 X98.457 Y134.369 E15.89513
G1 X98.023 Y133.575 E15.93125
G1 X97.66 Y132.746 E15.96737
G1 X97.372 Y131.888 E16.00349
G1 X97.16 Y131.008 E16.03962
G1 X97.016 Y129.996 E16.08042
G1 X96.958 Y129.363 E16.10579
G1 X96.649 Y126.6 E16.21675
G1 X96.64 Y126.511 E16.22032
G1 X96.573 Y125.86 E16.24644
G1 X96.529 Y125.27 E16.27006
G1 X96.493 Y124.475 E16.30182
G1 X96.339 Y121.869 E16.40601
G1 X96.334 Y120.742 E16.45099
G1 X96.476 Y117.947 E16.56269
G1 X96.548 Y114.343 E16.70656
G1 X96.553 Y113.066 E16.75753
G1 X96.555 Y112.917 E16.76348
G1 X96.567 Y112.261 E16.78967
G1 X96.623 Y111.358 E16.82578
G1 X96.759 Y110.463 E16.86191
G1 X96.974 Y109.584 E16.89802
G1 X97.265 Y108.727 E16.93415
G1 X97.631 Y107.9 E16.97024
G1 X98.068 Y107.107 E17.00638
G1 X98.574 Y106.357 E17.04249
G1 X99.301 Y105.48 E17.08796
G1 X99.431 Y105.34 E17.09558
G1 X100.076 Y104.705 E17.13171
G1 F1500 E11.13171
G0 F7500 X107.035 Y112.54
G1 F1500 E17.13171
G1 X108.335 Y112.54 E17.18359
G1 X108.506 Y112.468 E17.191
G1 X108.643 Y112.329 E17.19879
G1 X109.124 Y112.329 E17.21798
G1 X109.35 Y112.494 E17.22915
G1 X109.492 Y112.54 E17.23511
G1 X109.596 Y112.54 E17.23926
G1 X109.582 Y116.016 E17.378
G1 X109.582 Y116.018 E17.37808
G1 X109.633 Y129.46 E17.91458
G1 X109.449 Y129.46 E17.92192
G1 X109.178 Y129.185 E17.93733
G1 X109.1 Y129.132 E17.9411
G1 X109.002 Y129.091 E17.94534
G1 X108.909 Y129.072 E17.94913
G1 X108.547 Y129.072 E17.96357
G1 X108.456 Y129.006 E17.96806
G1 X108.315 Y128.96 E17.97398
G1 X107.444 Y128.96 E18.00874
G1 X107.435 Y125.673 E18.13994
G1 X107.395 Y125.542 E18.1454
G1 X107.337 Y125.48 E18.14879
G1 X107.18 Y125.365 E18.15656
G1 X107.001 Y124.815 E18.17964
G1 X107.084 Y124.56 E18.19035
G1 X107.084 Y124.412 E18.19625
G1 X106.991 Y124.126 E18.20826
G1 X107.235 Y123.134 E18.24903
G1 X107.242 Y123.076 E18.25136
G1 X107.24 Y122.601 E18.27032
G1 X107.222 Y122.51 E18.27402
G1 X107 Y121.972 E18.29725
G1 X106.797 Y121.201 E18.32907
G1 X107.22 Y119.922 E18.38284
G1 X107.232 Y119.846 E18.38591
G1 X107.231 Y119.513 E18.3992
G1 X107.203 Y119.401 E18.40381
G1 X107.044 Y119.102 E18.41732
G1 X107.029 Y114.464 E18.60244
G1 X107.035 Y112.54 E18.67923
G0 F7500 X107.513 Y113.02
G1 F1500 X108.335 Y113.02 E18.71204
G1 X108.571 Y112.98 E18.72159
G1 X108.842 Y112.809 E18.73438
G1 X108.967 Y112.809 E18.73937
G1 X109.067 Y112.882 E18.74431
G1 X109.115 Y112.906 E18.74645
G1 X109.102 Y116.014 E18.8705
G1 X109.102 Y116.02 E18.87074
G1 X109.15 Y128.641 E19.37448
