;FLAVOR:Marlin
;TIME:5664
;Filament used: 3.15901m
;Layer height: 0.2
;MINX:92.021
;MINY:96.296
;MINZ:0.2
;MAXX:143.192
;MAXY:145.701
;MAXZ:21.4
;Generated with Cura_SteamEngine 4.3.0
M140 S50
M105
M190 S50
M104 S205
M105
M109 S205
M82 ;absolute extrusion mode
; Ender 3 Custom Start G-code
M201 X500.00 Y500.00 Z100.00 E5000.00 ;Setup machine max acceleration
M203 X500.00 Y500.00 Z10.00 E50.00 ;Setup machine max feedrate
M204 P500.00 R1000.00 T500.00 ;Setup Print/Retract/Travel acceleration
M205 X8.00 Y8.00 Z0.40 E5.00 ;Setup Jerk
M220 S100 ;Reset Feedrate
M221 S100 ;Reset Flowrate
M117 Clean ; Indicate nozzle clean in progress on LCD
M107 ; Turn layer fan off
G21 ; Set to metric [change to G20 if you want Imperial]
G28 ; Home all axes
G90                          ; Force coordinates to be absolute relative to the origin
M92 E95 ;
G90                          ; Force coordinates to be absolute relative to the origin
G28                          ; Home X/Y/Z axis
G92 E0 ; Reset Extruder
G1 Z2.0 F3000 ;Move Z Axis up
G1 X10.1 Y20 Z0.28 F5000.0 ;Move to start position
G1 X10.1 Y200.0 Z0.28 F1500.0 E15 ;Draw the first line
G1 X10.4 Y200.0 Z0.28 F5000.0 ;Move to side a little
G1 X10.4 Y20 Z0.28 F1500.0 E30 ;Draw the second line
G92 E0 ; Reset Extruder
G1 Z2.0 F3000 ; Move Z Axis up little to prevent scratching of Heat Bed
M117 Printing ; Indicate printing on LCD
G92 E0
G92 E0
G1 F1500 E-6
;LAYER_COUNT:107
;LAYER:0
M107
M204 S500
M205 X20 Y20
G0 F7500 X99.654 Y99.808 Z0.2
;TYPE:SKIRT
G1 F1500 E0
G1 X100.338 Y99.155 E0.03774
G1 X101.076 Y98.561 E0.07555
G1 X101.736 Y98.11 E0.10746
G1 X101.823 Y98.055 E0.11157
G1 X102.644 Y97.584 E0.14934
G1 X103.501 Y97.183 E0.18711
G1 X104.389 Y96.856 E0.22488
G1 X105.302 Y96.606 E0.26266
G1 X106.232 Y96.433 E0.30041
G1 X107.575 Y96.324 E0.35419
G1 X108.631 Y96.302 E0.39635
G1 X108.864 Y96.3 E0.40565
G1 X110.306 Y96.3 E0.4632
G1 X111.932 Y96.311 E0.5281
G1 X117.513 Y96.3 E0.75085
G1 X117.528 Y96.3 E0.75145
G1 X124.104 Y96.296 E1.01391
G1 X124.13 Y96.296 E1.01495
G1 X126.511 Y96.3 E1.10998
G1 X126.655 Y96.301 E1.11573
G1 X127.344 Y96.311 E1.14323
G1 X128.288 Y96.365 E1.18097
G1 X129.225 Y96.498 E1.21874
G1 X130.148 Y96.71 E1.25654
G1 X131.049 Y96.999 E1.2943
G1 X131.922 Y97.363 E1.33206
G1 X132.719 Y97.775 E1.36786
G1 X132.828 Y97.837 E1.37287
G1 X133.63 Y98.339 E1.41063
G1 X134.386 Y98.907 E1.44837
G1 X135.093 Y99.537 E1.48617
G1 X135.743 Y100.225 E1.52395
G1 X136.333 Y100.964 E1.56169
G1 X136.983 Y101.96 E1.60916
G1 X137.115 Y102.188 E1.61967
G1 X137.251 Y102.431 E1.63079
G1 X137.557 Y102.992 E1.65629
G1 X138.853 Y105.297 E1.76183
G1 X140.421 Y107.896 E1.88298
G1 X141.077 Y108.944 E1.93233
G1 X141.545 Y109.767 E1.97011
G1 X141.942 Y110.626 E2.00788
G1 X142.372 Y111.875 E2.06061
G1 X142.593 Y112.666 E2.09338
G1 X142.67 Y112.957 E2.1054
G1 X142.862 Y113.723 E2.13692
G1 X143.053 Y114.65 E2.17469
G1 X143.165 Y115.589 E2.21244
G1 X143.192 Y116.813 E2.2613
G1 X143.167 Y117.575 E2.29173
G1 X143.088 Y118.585 E2.33216
G1 X143.034 Y119.021 E2.3497
G1 X142.921 Y119.74 E2.37875
G1 X142.78 Y120.48 E2.40881
G1 X142.776 Y120.502 E2.40971
G1 X142.268 Y123.142 E2.51701
G1 X141.871 Y125.572 E2.61528
G1 X141.536 Y128.063 E2.7156
G1 X141.267 Y130.601 E2.81746
G1 X141.072 Y133.132 E2.91878
G1 X140.978 Y134.911 E2.98988
G1 X140.889 Y135.854 E3.02769
G1 X140.72 Y136.785 E3.06545
G1 X140.473 Y137.698 E3.1032
G1 X140.046 Y138.832 E3.15156
G1 X140.002 Y138.932 E3.15592
G1 X139.584 Y139.781 E3.19369
G1 X139.097 Y140.592 E3.23145
G1 X138.542 Y141.359 E3.26924
G1 X137.925 Y142.077 E3.30702
G1 X137.499 Y142.507 E3.33118
G1 X137.427 Y142.576 E3.33516
G1 X136.717 Y143.202 E3.37294
G1 X135.956 Y143.765 E3.41072
G1 X135.151 Y144.262 E3.44848
G1 X134.307 Y144.689 E3.48623
G1 X133.429 Y145.043 E3.52402
G1 X132.525 Y145.322 E3.56178
G1 X131.6 Y145.524 E3.59956
G1 X130.662 Y145.647 E3.63732
G1 X129.879 Y145.688 E3.66862
G1 X129.322 Y145.698 E3.69085
G1 X129.126 Y145.7 E3.69867
G1 X126.805 Y145.701 E3.79131
G1 X126.799 Y145.701 E3.79155
G1 X106.023 Y145.7 E4.62076
G1 X105.864 Y145.699 E4.62711
G1 X105.166 Y145.689 E4.65497
G1 X104.221 Y145.635 E4.69275
G1 X103.284 Y145.502 E4.73052
G1 X102.361 Y145.291 E4.76831
G1 X101.46 Y145.002 E4.80608
G1 X100.587 Y144.638 E4.84383
G1 X99.747 Y144.201 E4.88162
G1 X98.947 Y143.696 E4.91938
G1 X98.192 Y143.124 E4.95719
G1 X97.545 Y142.546 E4.99181
G1 X97.428 Y142.433 E4.9983
G1 X96.776 Y141.747 E5.03608
G1 X96.184 Y141.009 E5.07384
G1 X95.656 Y140.224 E5.1116
G1 X95.197 Y139.396 E5.14938
G1 X94.809 Y138.533 E5.18715
G1 X94.495 Y137.64 E5.22493
G1 X94.258 Y136.724 E5.26269
G1 X94.099 Y135.791 E5.30047
G1 X94.031 Y135.083 E5.32886
G1 X93.981 Y134.291 E5.36053
G1 X93.973 Y134.14 E5.36656
G1 X93.927 Y133.222 E5.40325
G1 X93.735 Y130.745 E5.50241
G1 X93.465 Y128.193 E5.60483
G1 X93.136 Y125.754 E5.70306
G1 X92.72 Y123.217 E5.80567
G1 X92.334 Y121.171 E5.88877
G1 X92.315 Y121.072 E5.89279
G1 X92.197 Y120.415 E5.91944
G1 X92.07 Y119.477 E5.95721
G1 X92.021 Y118.532 E5.99498
G1 X92.053 Y117.586 E6.03276
G1 X92.165 Y116.646 E6.07054
G1 X92.355 Y115.719 E6.10831
G1 X92.523 Y115.12 E6.13314
G1 X92.725 Y114.468 E6.16038
G1 X92.829 Y114.148 E6.17381
G1 X93.04 Y113.533 E6.19976
G1 X93.365 Y112.698 E6.23553
G1 X93.408 Y112.6 E6.2398
G1 X94.435 Y110.171 E6.34505
G1 X95.71 Y106.855 E6.48685
G1 X95.88 Y106.385 E6.5068
G1 X95.94 Y106.222 E6.51373
G1 X96.178 Y105.594 E6.54053
G1 X96.713 Y104.398 E6.59283
G1 X97.186 Y103.488 E6.63376
G1 X97.296 Y103.281 E6.64312
G1 X97.595 Y102.734 E6.668
G1 X97.665 Y102.609 E6.67371
G1 X97.963 Y102.08 E6.69795
G1 X98.462 Y101.276 E6.73571
G1 X99.027 Y100.517 E6.77348
G1 X99.654 Y99.808 E6.81126
G0 F7500 X100.041 Y100.098
G1 F1500 X100.715 Y99.463 E6.84821
G1 X101.442 Y98.889 E6.88518
G1 X101.993 Y98.516 E6.91174
G1 X102.08 Y98.461 E6.91585
G1 X102.883 Y98 E6.95281
G1 X103.723 Y97.611 E6.98975
G1 X104.593 Y97.295 E7.0267
G1 X105.488 Y97.056 E7.06367
G1 X106.399 Y96.895 E7.10059
G1 X107.585 Y96.804 E7.14807
G1 X108.641 Y96.782 E7.19022
G1 X108.864 Y96.78 E7.19912
G1 X110.303 Y96.78 E7.25656
G1 X111.93 Y96.791 E7.3215
G1 X117.514 Y96.78 E7.54437
G1 X117.528 Y96.78 E7.54492
G1 X124.104 Y96.776 E7.80739
G1 X124.129 Y96.776 E7.80838
G1 X126.51 Y96.78 E7.90342
G1 X126.648 Y96.781 E7.90892
G1 X127.337 Y96.791 E7.93643
G1 X128.261 Y96.845 E7.97337
G1 X129.177 Y96.977 E8.01031
G1 X130.079 Y97.189 E8.04729
G1 X130.958 Y97.478 E8.08422
G1 X131.81 Y97.841 E8.12118
G1 X132.481 Y98.192 E8.1514
G1 X132.59 Y98.254 E8.15641
G1 X133.374 Y98.746 E8.19335
G1 X134.113 Y99.304 E8.23031
G1 X134.801 Y99.924 E8.26727
G1 X135.433 Y100.6 E8.30421
G1 X136.004 Y101.329 E8.34117
G1 X136.567 Y102.201 E8.3826
G1 X136.699 Y102.429 E8.39311
G1 X136.83 Y102.661 E8.40374
G1 X137.179 Y103.301 E8.43284
G1 X138.432 Y105.528 E8.53483
G1 X140.02 Y108.16 E8.65752
G1 X140.67 Y109.199 E8.70643
G1 X141.127 Y110.004 E8.74338
G1 X141.513 Y110.846 E8.78035
G1 X141.91 Y112.004 E8.8292
G1 X142.131 Y112.795 E8.86198
G1 X142.204 Y113.074 E8.87349
G1 X142.396 Y113.84 E8.90501
G1 X142.582 Y114.747 E8.94197
G1 X142.69 Y115.666 E8.9789
G1 X142.712 Y116.798 E9.02409
G1 X142.687 Y117.56 E9.05452
G1 X142.612 Y118.526 E9.09319
G1 X142.558 Y118.962 E9.11072
G1 X142.45 Y119.65 E9.13852
G1 X142.309 Y120.39 E9.16858
G1 X142.305 Y120.411 E9.16944
G1 X141.802 Y123.021 E9.27553
G1 X141.394 Y125.514 E9.37635
G1 X141.053 Y128.052 E9.47856
G1 X140.791 Y130.526 E9.57785
G1 X140.595 Y133.069 E9.67965
G1 X140.499 Y134.886 E9.75227
G1 X140.41 Y135.808 E9.78924
G1 X140.243 Y136.718 E9.82617
G1 X139.997 Y137.611 E9.86314
G1 X139.606 Y138.638 E9.907
G1 X139.562 Y138.738 E9.91136
G1 X139.153 Y139.569 E9.94832
G1 X138.674 Y140.361 E9.98527
G1 X138.128 Y141.109 E10.02223
G1 X137.52 Y141.807 E10.05917
G1 X137.167 Y142.161 E10.07913
G1 X137.095 Y142.23 E10.08311
G1 X136.4 Y142.841 E10.12004
G1 X135.654 Y143.39 E10.15701
G1 X134.864 Y143.872 E10.19395
G1 X134.035 Y144.285 E10.23091
G1 X133.174 Y144.624 E10.26784
G1 X132.286 Y144.888 E10.30482
G1 X131.379 Y145.074 E10.34177
G1 X130.46 Y145.181 E10.3787
G1 X129.87 Y145.208 E10.40227
G1 X129.313 Y145.218 E10.42451
G1 X129.126 Y145.22 E10.43197
G1 X126.805 Y145.221 E10.52461
G1 X126.799 Y145.221 E10.52485
G1 X106.023 Y145.22 E11.35406
G1 X105.87 Y145.219 E11.36017
G1 X105.172 Y145.209 E11.38803
G1 X104.248 Y145.156 E11.42497
G1 X103.332 Y145.023 E11.46191
G1 X102.43 Y144.812 E11.49888
G1 X101.551 Y144.523 E11.53581
G1 X100.699 Y144.16 E11.57278
G1 X99.882 Y143.725 E11.60972
G1 X99.105 Y143.221 E11.64668
G1 X98.375 Y142.651 E11.68365
G1 X97.879 Y142.201 E11.71038
G1 X97.762 Y142.088 E11.71687
G1 X97.124 Y141.416 E11.75386
G1 X96.547 Y140.693 E11.79077
G1 X96.034 Y139.922 E11.82774
G1 X95.59 Y139.109 E11.86471
G1 X95.218 Y138.262 E11.90163
G1 X94.92 Y137.385 E11.9386
G1 X94.699 Y136.486 E11.97555
G1 X94.556 Y135.571 E12.01251
G1 X94.51 Y135.052 E12.03331
G1 X94.46 Y134.26 E12.06498
G1 X94.452 Y134.116 E12.07074
G1 X94.406 Y133.197 E12.10746
G1 X94.209 Y130.656 E12.20918
G1 X93.947 Y128.181 E12.30852
G1 X93.605 Y125.651 E12.41041
G1 X93.199 Y123.169 E12.51079
G1 X92.805 Y121.082 E12.59556
G1 X92.788 Y120.987 E12.59941
G1 X92.67 Y120.33 E12.62605
G1 X92.546 Y119.413 E12.66299
G1 X92.501 Y118.488 E12.69995
G1 X92.537 Y117.563 E12.7369
G1 X92.652 Y116.644 E12.77386
G1 X92.846 Y115.739 E12.8108
G1 X92.981 Y115.263 E12.83055
G1 X93.183 Y114.611 E12.85779
G1 X93.283 Y114.304 E12.87068
G1 X93.494 Y113.689 E12.89663
G1 X93.805 Y112.89 E12.93085
G1 X93.846 Y112.795 E12.93498
G1 X94.88 Y110.352 E13.04086
G1 X96.154 Y107.038 E13.18257
G1 X96.331 Y106.548 E13.20336
G1 X96.389 Y106.392 E13.21
G1 X96.627 Y105.764 E13.23681
G1 X97.139 Y104.619 E13.28687
G1 X97.612 Y103.709 E13.3278
G1 X97.718 Y103.511 E13.33676
G1 X98.017 Y102.964 E13.36164
G1 X98.083 Y102.845 E13.36708
G1 X98.381 Y102.316 E13.39131
G1 X98.87 Y101.529 E13.42829
G1 X99.425 Y100.788 E13.46524
G1 X100.041 Y100.098 E13.50216
G0 F7500 X100.428 Y100.389
G1 F1500 X101.091 Y99.773 E13.53828
G1 X101.806 Y99.218 E13.5744
G1 X102.249 Y98.922 E13.59567
G1 X102.336 Y98.867 E13.59978
G1 X103.122 Y98.417 E13.63592
G1 X103.944 Y98.039 E13.67204
G1 X104.796 Y97.735 E13.70814
G1 X105.672 Y97.507 E13.74427
G1 X106.564 Y97.358 E13.78036
G1 X107.595 Y97.284 E13.82162
G1 X108.651 Y97.262 E13.86377
G1 X108.864 Y97.26 E13.87228
G1 X110.299 Y97.26 E13.92955
G1 X111.927 Y97.271 E13.99453
G1 X117.515 Y97.26 E14.21756
G1 X117.529 Y97.26 E14.21812
G1 X124.105 Y97.256 E14.48058
G1 X124.128 Y97.256 E14.4815
G1 X126.509 Y97.26 E14.57653
G1 X126.641 Y97.261 E14.5818
G1 X127.33 Y97.271 E14.6093
G1 X128.233 Y97.324 E14.6454
G1 X129.128 Y97.457 E14.68152
G1 X130.008 Y97.668 E14.71763
G1 X130.866 Y97.956 E14.75376
G1 X131.695 Y98.319 E14.78988
G1 X132.244 Y98.609 E14.81466
G1 X132.353 Y98.671 E14.81966
G1 X133.119 Y99.153 E14.85578
G1 X133.839 Y99.7 E14.89187
G1 X134.509 Y100.309 E14.92801
G1 X135.122 Y100.975 E14.96414
G1 X135.674 Y101.692 E15.00025
G1 X136.152 Y102.441 E15.03572
G1 X136.284 Y102.669 E15.04623
G1 X136.409 Y102.891 E15.0564
G1 X136.752 Y103.519 E15.08496
G1 X138.039 Y105.808 E15.18977
G1 X139.591 Y108.382 E15.30973
G1 X140.263 Y109.454 E15.36023
G1 X140.709 Y110.241 E15.39633
G1 X141.084 Y111.065 E15.43247
G1 X141.447 Y112.134 E15.47753
G1 X141.668 Y112.925 E15.51031
G1 X141.739 Y113.19 E15.52126
G1 X141.931 Y113.956 E15.55277
G1 X142.112 Y114.843 E15.58891
G1 X142.214 Y115.742 E15.62502
G1 X142.232 Y116.782 E15.66653
G1 X142.207 Y117.544 E15.69696
G1 X142.135 Y118.467 E15.73391
G1 X142.081 Y118.903 E15.75145
G1 X141.978 Y119.561 E15.77803
G1 X141.837 Y120.301 E15.8081
G1 X141.833 Y120.32 E15.80887
G1 X141.328 Y122.943 E15.91548
G1 X140.918 Y125.45 E16.01687
G1 X140.581 Y127.962 E16.11803
G1 X140.313 Y130.489 E16.21945
G1 X140.116 Y133.05 E16.32197
G1 X140.02 Y134.861 E16.39435
G1 X139.932 Y135.761 E16.43044
G1 X139.765 Y136.651 E16.46659
G1 X139.521 Y137.522 E16.50269
G1 X139.167 Y138.445 E16.54214
G1 X139.123 Y138.545 E16.5465
G1 X138.722 Y139.356 E16.58261
G1 X138.251 Y140.129 E16.61874
G1 X137.714 Y140.857 E16.65485
G1 X136.835 Y141.814 E16.70671
G1 X136.763 Y141.883 E16.71069
G1 X136.083 Y142.48 E16.74681
G1 X135.352 Y143.014 E16.78294
G1 X134.578 Y143.482 E16.81904
G1 X133.765 Y143.879 E16.85515
G1 X132.92 Y144.203 E16.89127
G1 X132.05 Y144.452 E16.92739
G1 X131.161 Y144.622 E16.96351
G1 X129.862 Y144.728 E17.01553
G1 X129.305 Y144.738 E17.03776
G1 X129.125 Y144.74 E17.04495
G1 X126.804 Y144.741 E17.13758
G1 X126.8 Y144.741 E17.13774
G1 X106.024 Y144.74 E17.96696
G1 X105.877 Y144.739 E17.97283
G1 X105.179 Y144.729 E18.00069
G1 X104.276 Y144.676 E18.03679
G1 X103.381 Y144.544 E18.0729
G1 X102.501 Y144.333 E18.10902
G1 X101.643 Y144.045 E18.14514
G1 X100.814 Y143.682 E18.18126
G1 X100.02 Y143.248 E18.21737
G1 X99.268 Y142.745 E18.25348
G1 X98.562 Y142.178 E18.28962
G1 X98.212 Y141.856 E18.30861
G1 X98.095 Y141.743 E18.3151
G1 X97.473 Y141.086 E18.35121
G1 X96.911 Y140.377 E18.38732
G1 X96.413 Y139.621 E18.42345
G1 X95.985 Y138.824 E18.45955
G1 X95.628 Y137.992 E18.49569
G1 X95.347 Y137.132 E18.5318
G1 X95.142 Y136.251 E18.5679
G1 X94.989 Y135.022 E18.61733
G1 X94.939 Y134.23 E18.64901
G1 X94.932 Y134.092 E18.65452
G1 X94.886 Y133.173 E18.69125
G1 X94.69 Y130.641 E18.79261
G1 X94.421 Y128.104 E18.89443
G1 X94.084 Y125.604 E18.99511
G1 X93.665 Y123.048 E19.09849
G1 X93.277 Y120.993 E19.18196
G1 X93.26 Y120.902 E19.18565
G1 X93.142 Y120.245 E19.2123
G1 X93.022 Y119.348 E19.24842
G1 X92.981 Y118.444 E19.28453
G1 X93.02 Y117.54 E19.32065
G1 X93.139 Y116.643 E19.35676
G1 X93.44 Y115.405 E19.40761
G1 X93.642 Y114.753 E19.43486
G1 X93.737 Y114.46 E19.44715
G1 X93.948 Y113.845 E19.4731
G1 X94.245 Y113.081 E19.50582
G1 X94.295 Y112.967 E19.51079
G1 X95.324 Y110.533 E19.61626
G1 X96.598 Y107.221 E19.75789
G1 X96.782 Y106.711 E19.77953
G1 X96.838 Y106.562 E19.78588
G1 X97.076 Y105.934 E19.81268
G1 X97.565 Y104.84 E19.86051
G1 X98.038 Y103.93 E19.90145
G1 X98.139 Y103.741 E19.91
G1 X98.438 Y103.194 E19.93488
G1 X98.501 Y103.08 E19.94008
G1 X98.799 Y102.551 E19.96431
G1 X99.278 Y101.783 E20.00044
G1 X99.822 Y101.06 E20.03655
G1 X100.428 Y100.389 E20.07264
G1 F1500 E14.07264
G0 F7500 X107.896 Y107.74
G1 F1500 E20.07264
G1 X110.403 Y107.74 E20.1727
G1 X109.638 Y108.739 E20.22292
G1 X109.617 Y108.773 E20.22451
G1 X108.619 Y110.669 E20.31003
G1 X108.603 Y110.706 E20.31164
G1 X107.934 Y112.746 E20.39732
G1 X107.925 Y112.786 E20.39896
G1 X107.609 Y114.903 E20.48439
G1 X107.606 Y114.942 E20.48595
G1 X107.645 Y117.072 E20.57098
G1 X107.649 Y117.113 E20.57262
G1 X108.053 Y119.238 E20.65895
G1 X108.064 Y119.277 E20.66057
G1 X108.809 Y121.282 E20.74594
G1 X108.826 Y121.318 E20.74753
G1 X109.899 Y123.176 E20.83316
G1 X109.922 Y123.209 E20.83477
G1 X110.883 Y124.376 E20.89511
G1 X107.571 Y129.109 E21.12567
G1 X107.539 Y129.175 E21.1286
G1 X107.471 Y129.391 E21.13764
G1 X107.46 Y129.463 E21.14054
G1 X107.46 Y134.26 E21.332
G1 X105.44 Y134.26 E21.41262
G1 X105.441 Y129.503 E21.60249
G1 X105.497 Y128.937 E21.62519
G1 X105.673 Y128.403 E21.64763
G1 X105.969 Y127.87 E21.67196
G1 X106.553 Y127.052 E21.71208
G1 X106.562 Y127.039 E21.71271
G1 X106.713 Y126.795 E21.72416
G1 X107.359 Y125.878 E21.76893
G1 X107.403 Y125.748 E21.77441
G1 X107.368 Y125.616 E21.77986
G1 X107.267 Y125.523 E21.78534
G1 X107.163 Y125.5 E21.78959
G1 X106.742 Y125.5 E21.80639
G1 X105.758 Y124.782 E21.85501
G1 X104.954 Y123.312 E21.92188
G1 X104.335 Y121.61 E21.99416
G1 X103.696 Y119.667 E22.0758
G1 X103.458 Y118.45 E22.12529
G1 X103.832 Y117.302 E22.17348
G1 X104.798 Y116.598 E22.22119
G1 X105.362 Y116.598 E22.2437
G1 X105.493 Y116.559 E22.24916
G1 X105.582 Y116.454 E22.25465
G1 X105.601 Y116.336 E22.25942
G1 X105.573 Y116.031 E22.27164
G1 X105.697 Y113.746 E22.36298
G1 X106.122 Y111.698 E22.44646
G1 X106.886 Y109.592 E22.53587
G1 X107.896 Y107.74 E22.62007
G0 F7500 X108.18 Y108.22
G1 F1500 X109.431 Y108.22 E22.67
G1 X109.257 Y108.447 E22.68141
G1 X109.192 Y108.55 E22.68628
G1 X108.194 Y110.446 E22.77179
G1 X108.147 Y110.557 E22.7766
G1 X107.478 Y112.597 E22.86229
G1 X107.45 Y112.715 E22.86713
