;FLAVOR:Marlin
;TIME:741
;Filament used: 0.484617m
;Layer height: 0.2
;MINX:94.6
;MINY:107.65
;MINZ:0.2
;MAXX:137.3
;MAXY:146.051
;MAXZ:11.2
;Generated with Cura_SteamEngine 4.3.0
M140 S50
M105
M190 S50
M104 S205
M105
M109 S205
M82 ;absolute extrusion mode
; Ender 3 Custom Start G-code
M201 X500.00 Y500.00 Z100.00 E5000.00 ;Setup machine max acceleration
M203 X500.00 Y500.00 Z10.00 E50.00 ;Setup machine max feedrate
M204 P500.00 R1000.00 T500.00 ;Setup Print/Retract/Travel acceleration
M205 X8.00 Y8.00 Z0.40 E5.00 ;Setup Jerk
M220 S100 ;Reset Feedrate
M221 S100 ;Reset Flowrate
M117 Clean ; Indicate nozzle clean in progress on LCD
M107 ; Turn layer fan off
G21 ; Set to metric [change to G20 if you want Imperial]
G28 ; Home all axes
G90                          ; Force coordinates to be absolute relative to the origin
M92 E95 ;
G90                          ; Force coordinates to be absolute relative to the origin
G28                          ; Home X/Y/Z axis
G92 E0 ; Reset Extruder
G1 Z2.0 F3000 ;Move Z Axis up
G1 X10.1 Y20 Z0.28 F5000.0 ;Move to start position
G1 X10.1 Y200.0 Z0.28 F1500.0 E15 ;Draw the first line
G1 X10.4 Y200.0 Z0.28 F5000.0 ;Move to side a little
G1 X10.4 Y20 Z0.28 F1500.0 E30 ;Draw the second line
G92 E0 ; Reset Extruder
G1 Z2.0 F3000 ; Move Z Axis up little to prevent scratching of Heat Bed
M117 Printing ; Indicate printing on LCD
G92 E0
G92 E0
G1 F1500 E-6
;LAYER_COUNT:56
;LAYER:0
M107
M204 S500
M205 X20 Y20
G0 F7500 X101.649 Y110.428 Z0.2
;TYPE:SKIRT
G1 F1500 E0
G1 X102.387 Y109.836 E0.03776
G1 X103.173 Y109.308 E0.07555
G1 X104 Y108.848 E0.11332
G1 X104.863 Y108.46 E0.15109
G1 X105.756 Y108.146 E0.18887
G1 X106.672 Y107.909 E0.22663
G1 X107.605 Y107.75 E0.26441
G1 X108.82 Y107.662 E0.31303
G1 X109.378 Y107.652 E0.3353
G1 X109.579 Y107.65 E0.34332
G1 X125.276 Y107.65 E0.96983
G1 X125.436 Y107.651 E0.97621
G1 X126.134 Y107.661 E1.00407
G1 X127.079 Y107.715 E1.04185
G1 X128.016 Y107.848 E1.07962
G1 X128.939 Y108.059 E1.11741
G1 X129.84 Y108.348 E1.15518
G1 X130.713 Y108.712 E1.19293
G1 X131.553 Y109.149 E1.23072
G1 X132.353 Y109.654 E1.26848
G1 X133.108 Y110.226 E1.30629
G1 X133.753 Y110.803 E1.34083
G1 X133.869 Y110.915 E1.34726
G1 X134.522 Y111.6 E1.38503
G1 X135.114 Y112.338 E1.4228
G1 X135.642 Y113.124 E1.46059
G1 X136.102 Y113.951 E1.49836
G1 X136.49 Y114.814 E1.53612
G1 X136.804 Y115.707 E1.5739
G1 X137.041 Y116.623 E1.61167
G1 X137.2 Y117.556 E1.64944
G1 X137.288 Y118.754 E1.69739
G1 X137.298 Y119.268 E1.7179
G1 X137.3 Y119.486 E1.72661
G1 X137.3 Y122.326 E1.83996
G1 X137.299 Y122.486 E1.84634
G1 X137.289 Y123.184 E1.8742
G1 X137.235 Y124.129 E1.91198
G1 X137.102 Y125.066 E1.94975
G1 X136.891 Y125.989 E1.98754
G1 X136.602 Y126.89 E2.02531
G1 X136.242 Y127.754 E2.06267
G1 X135.859 Y128.576 E2.09886
G1 X135.775 Y128.753 E2.10668
G1 X135.438 Y129.445 E2.1374
G1 X134.405 Y131.728 E2.23741
G1 X133.426 Y134.063 E2.33847
G1 X132.536 Y136.373 E2.43727
G1 X131.755 Y138.571 E2.53037
G1 X131.4 Y139.448 E2.56813
G1 X130.973 Y140.293 E2.60592
G1 X130.477 Y141.098 E2.64366
G1 X129.914 Y141.859 E2.68144
G1 X129.288 Y142.569 E2.71922
G1 X128.605 Y143.224 E2.75699
G1 X127.869 Y143.819 E2.79476
G1 X127.086 Y144.35 E2.83252
G1 X126.26 Y144.813 E2.87032
G1 X125.399 Y145.205 E2.90808
G1 X124.507 Y145.522 E2.94586
G1 X123.592 Y145.763 E2.98362
G1 X122.66 Y145.926 E3.02139
G1 X122.176 Y145.979 E3.04082
G1 X121.844 Y146.008 E3.05412
G1 X120.87 Y146.05 E3.09303
G1 X106.51 Y146.051 E3.66617
G1 X106.344 Y146.05 E3.6728
G1 X105.665 Y146.04 E3.6999
G1 X104.72 Y145.986 E3.73768
G1 X103.783 Y145.852 E3.77546
G1 X102.861 Y145.64 E3.81322
G1 X101.96 Y145.351 E3.85098
G1 X101.086 Y144.987 E3.88877
G1 X100.247 Y144.55 E3.92652
G1 X99.447 Y144.044 E3.96431
G1 X98.693 Y143.473 E4.00205
G1 X97.99 Y142.839 E4.03984
G1 X97.343 Y142.149 E4.07759
G1 X96.756 Y141.406 E4.11538
G1 X96.234 Y140.617 E4.15314
G1 X95.781 Y139.786 E4.19092
G1 X95.399 Y138.92 E4.22869
G1 X95.092 Y138.025 E4.26646
G1 X94.862 Y137.107 E4.30423
G1 X94.709 Y136.173 E4.34201
G1 X94.636 Y135.212 E4.38047
G1 X94.606 Y134.306 E4.41665
G1 X94.6 Y133.935 E4.43146
G1 X94.6 Y131.857 E4.5144
G1 X94.601 Y131.696 E4.52082
G1 X94.611 Y130.999 E4.54865
G1 X94.665 Y130.054 E4.58642
G1 X94.798 Y129.118 E4.62416
G1 X95.105 Y127.868 E4.67553
G1 X95.521 Y126.515 E4.73203
G1 X96.249 Y124.017 E4.83587
G1 X96.885 Y121.572 E4.93671
G1 X97.449 Y119.132 E5.03666
G1 X97.932 Y116.75 E5.13367
G1 X98.159 Y115.831 E5.17145
G1 X98.463 Y114.935 E5.20921
G1 X98.842 Y114.068 E5.24698
G1 X99.292 Y113.235 E5.28477
G1 X99.811 Y112.444 E5.32252
G1 X100.395 Y111.699 E5.36031
G1 X100.852 Y111.197 E5.3874
G1 X100.964 Y111.081 E5.39384
G1 X101.649 Y110.428 E5.43161
G0 F7500 X101.98 Y110.776
G1 F1500 X102.704 Y110.199 E5.46856
G1 X103.475 Y109.686 E5.50552
G1 X104.287 Y109.242 E5.54246
G1 X105.135 Y108.869 E5.57943
G1 X106.011 Y108.571 E5.61636
G1 X106.91 Y108.35 E5.65331
G1 X107.825 Y108.207 E5.69028
G1 X108.829 Y108.142 E5.73043
G1 X109.387 Y108.132 E5.75271
G1 X109.579 Y108.13 E5.76037
G1 X125.276 Y108.13 E6.38687
G1 X125.43 Y108.131 E6.39302
G1 X126.128 Y108.141 E6.42088
G1 X127.052 Y108.194 E6.45782
G1 X127.968 Y108.327 E6.49476
G1 X128.87 Y108.538 E6.53173
G1 X129.749 Y108.827 E6.56866
G1 X130.601 Y109.19 E6.60563
G1 X131.418 Y109.625 E6.64257
G1 X132.195 Y110.129 E6.67953
G1 X132.925 Y110.699 E6.7165
G1 X133.42 Y111.148 E6.74317
G1 X133.536 Y111.26 E6.74961
G1 X134.174 Y111.931 E6.78656
G1 X134.751 Y112.655 E6.82351
G1 X135.264 Y113.426 E6.86048
G1 X135.708 Y114.238 E6.89741
G1 X136.081 Y115.086 E6.93439
G1 X136.379 Y115.962 E6.97132
G1 X136.6 Y116.861 E7.00827
G1 X136.743 Y117.776 E7.04523
G1 X136.808 Y118.763 E7.08471
G1 X136.818 Y119.277 E7.10523
G1 X136.82 Y119.486 E7.11357
G1 X136.82 Y122.326 E7.22692
G1 X136.819 Y122.48 E7.23307
G1 X136.809 Y123.178 E7.26093
G1 X136.756 Y124.102 E7.29787
G1 X136.623 Y125.018 E7.33481
G1 X136.412 Y125.92 E7.37178
G1 X136.123 Y126.799 E7.40871
G1 X135.807 Y127.552 E7.44131
G1 X135.424 Y128.374 E7.4775
G1 X135.344 Y128.542 E7.48493
G1 X135.005 Y129.237 E7.51579
G1 X133.955 Y131.559 E7.6175
G1 X132.983 Y133.877 E7.71782
G1 X132.078 Y136.225 E7.81826
G1 X131.302 Y138.41 E7.9108
G1 X130.955 Y139.268 E7.94774
G1 X130.535 Y140.093 E7.98469
G1 X130.045 Y140.879 E8.02166
G1 X129.489 Y141.62 E8.05863
G1 X128.872 Y142.309 E8.09555
G1 X128.197 Y142.943 E8.13251
G1 X127.47 Y143.517 E8.16948
G1 X126.697 Y144.025 E8.2064
G1 X125.882 Y144.465 E8.24336
G1 X125.032 Y144.833 E8.28033
G1 X124.154 Y145.126 E8.31727
G1 X123.254 Y145.343 E8.35422
G1 X122.134 Y145.5 E8.39936
G1 X121.802 Y145.529 E8.41266
G1 X120.87 Y145.57 E8.4499
G1 X106.51 Y145.571 E9.02304
G1 X106.351 Y145.57 E9.02938
G1 X105.672 Y145.56 E9.05648
G1 X104.748 Y145.506 E9.09343
G1 X103.832 Y145.373 E9.13037
G1 X102.93 Y145.161 E9.16735
G1 X102.051 Y144.873 E9.20427
G1 X101.199 Y144.509 E9.24125
G1 X100.382 Y144.074 E9.27819
G1 X99.606 Y143.569 E9.31514
G1 X98.876 Y142.999 E9.35211
G1 X98.198 Y142.369 E9.38905
G1 X97.577 Y141.682 E9.42601
G1 X97.017 Y140.945 E9.46295
G1 X96.524 Y140.161 E9.49992
G1 X96.099 Y139.339 E9.53685
G1 X95.747 Y138.482 E9.57383
G1 X95.471 Y137.599 E9.61075
G1 X95.271 Y136.694 E9.64774
G1 X95.151 Y135.777 E9.68465
G1 X95.116 Y135.196 E9.70789
G1 X95.086 Y134.29 E9.74407
G1 X95.08 Y133.935 E9.75824
G1 X95.08 Y131.857 E9.84117
G1 X95.081 Y131.703 E9.84732
G1 X95.091 Y131.006 E9.87514
G1 X95.144 Y130.082 E9.91208
G1 X95.277 Y129.166 E9.94902
G1 X95.563 Y128.009 E9.99659
G1 X95.997 Y126.596 E10.05559
G1 X96.716 Y124.131 E10.15807
G1 X97.35 Y121.694 E10.25858
G1 X97.922 Y119.22 E10.35992
G1 X98.403 Y116.846 E10.4566
G1 X98.626 Y115.947 E10.49357
G1 X98.926 Y115.071 E10.53053
G1 X99.3 Y114.224 E10.56748
G1 X99.746 Y113.413 E10.60442
G1 X100.26 Y112.643 E10.64137
G1 X100.839 Y111.92 E10.67834
G1 X101.197 Y111.53 E10.69947
G1 X101.309 Y111.414 E10.70591
G1 X101.98 Y110.776 E10.74286
G0 F7500 X102.311 Y111.125
G1 F1500 X103.02 Y110.563 E10.77897
G1 X103.776 Y110.065 E10.8151
G1 X104.573 Y109.637 E10.85121
G1 X105.404 Y109.28 E10.88731
G1 X106.264 Y108.998 E10.92343
G1 X107.146 Y108.793 E10.95957
G1 X108.042 Y108.667 E10.99568
G1 X108.838 Y108.622 E11.0275
G1 X109.396 Y108.612 E11.04978
G1 X109.579 Y108.61 E11.05708
G1 X125.276 Y108.61 E11.68358
G1 X125.423 Y108.611 E11.68945
G1 X126.121 Y108.621 E11.71731
G1 X127.024 Y108.674 E11.75342
G1 X127.919 Y108.806 E11.78952
G1 X128.799 Y109.017 E11.82564
G1 X129.657 Y109.305 E11.86176
G1 X130.486 Y109.668 E11.89788
G1 X131.28 Y110.102 E11.934
G1 X132.032 Y110.605 E11.97011
G1 X132.738 Y111.172 E12.00625
G1 X133.087 Y111.493 E12.02517
G1 X133.203 Y111.605 E12.03161
G1 X133.825 Y112.262 E12.06772
G1 X134.387 Y112.971 E12.10383
G1 X134.885 Y113.727 E12.13996
G1 X135.313 Y114.524 E12.17607
G1 X135.67 Y115.355 E12.21217
G1 X135.952 Y116.215 E12.24829
G1 X136.157 Y117.097 E12.28443
G1 X136.283 Y117.993 E12.32054
G1 X136.328 Y118.773 E12.35173
G1 X136.338 Y119.287 E12.37224
G1 X136.34 Y119.486 E12.38019
G1 X136.34 Y122.326 E12.49354
G1 X136.339 Y122.473 E12.4994
G1 X136.329 Y123.171 E12.52727
G1 X136.276 Y124.074 E12.56337
G1 X136.144 Y124.969 E12.59948
G1 X135.933 Y125.849 E12.63559
G1 X135.645 Y126.707 E12.67172
G1 X135.372 Y127.349 E12.69956
G1 X134.989 Y128.171 E12.73576
G1 X134.912 Y128.332 E12.74288
G1 X134.565 Y129.044 E12.77449
G1 X133.536 Y131.318 E12.87411
G1 X132.529 Y133.721 E12.9781
G1 X131.629 Y136.056 E13.07798
G1 X130.85 Y138.249 E13.17086
G1 X130.51 Y139.088 E13.207
G1 X130.097 Y139.893 E13.24311
G1 X129.614 Y140.658 E13.27922
G1 X129.066 Y141.378 E13.31533
G1 X128.456 Y142.047 E13.35146
G1 X127.79 Y142.659 E13.38756
G1 X127.073 Y143.21 E13.42366
G1 X126.309 Y143.696 E13.45979
G1 X125.506 Y144.112 E13.49589
G1 X124.669 Y144.456 E13.53201
G1 X123.804 Y144.725 E13.56816
G1 X122.92 Y144.916 E13.60426
G1 X122.092 Y145.022 E13.63758
G1 X121.76 Y145.051 E13.65088
G1 X120.87 Y145.09 E13.68643
G1 X106.51 Y145.091 E14.25957
G1 X106.358 Y145.09 E14.26564
G1 X105.679 Y145.08 E14.29274
G1 X104.776 Y145.027 E14.32884
G1 X103.881 Y144.894 E14.36496
G1 X103.001 Y144.682 E14.40109
G1 X102.143 Y144.394 E14.43721
G1 X101.314 Y144.032 E14.47331
G1 X100.521 Y143.597 E14.50941
G1 X99.768 Y143.094 E14.54555
G1 X99.063 Y142.527 E14.58166
G1 X98.411 Y141.899 E14.61779
G1 X97.817 Y141.217 E14.65389
G1 X97.286 Y140.485 E14.68998
G1 X96.821 Y139.708 E14.72613
G1 X96.426 Y138.894 E14.76224
G1 X96.105 Y138.048 E14.79835
G1 X95.86 Y137.177 E14.83446
G1 X95.693 Y136.288 E14.87057
G1 X95.596 Y135.18 E14.91496
G1 X95.566 Y134.274 E14.95114
G1 X95.56 Y133.935 E14.96467
G1 X95.56 Y131.857 E15.04761
G1 X95.561 Y131.71 E15.05348
G1 X95.571 Y131.013 E15.0813
G1 X95.624 Y130.11 E15.1174
G1 X95.756 Y129.215 E15.15351
G1 X96.022 Y128.15 E15.19732
G1 X96.461 Y126.722 E15.25695
G1 X97.168 Y124.295 E15.35784
G1 X97.825 Y121.772 E15.4619
G1 X98.384 Y119.35 E15.56111
G1 X98.873 Y116.941 E15.65921
G1 X99.092 Y116.063 E15.69533
G1 X99.388 Y115.208 E15.73144
G1 X99.757 Y114.382 E15.76755
G1 X100.199 Y113.592 E15.80368
G1 X100.708 Y112.844 E15.83979
G1 X101.542 Y111.863 E15.89118
G1 X101.654 Y111.747 E15.89762
G1 X102.311 Y111.125 E15.93373
G1 F1500 E9.93373
G0 F7500 X109.1 Y119.05
;TYPE:SUPPORT-INTERFACE
G1 F1500 E15.93373
G1 X109.449 Y119.05 E15.94766
G1 X109.1 Y119.399 E15.96736
G1 X109.1 Y119.05 E15.98129
G1 F1500 E9.98129
G0 F7500 X109.1 Y122.6
G1 F1500 E15.98129
G1 X109.45 Y122.95 E16.00104
G1 X109.1 Y122.95 E16.01501
G1 X109.1 Y122.6 E16.02898
G1 F1500 E10.02898
G0 F7500 X125.549 Y122.95
G1 F1500 E16.02898
G1 X125.9 Y122.599 E16.04879
G1 X125.9 Y122.95 E16.0628
G1 X125.549 Y122.95 E16.07681
G1 F1500 E10.07681
G0 F7500 X125.549 Y119.05
G1 F1500 E16.07681
G1 X125.9 Y119.05 E16.09082
G1 X125.9 Y119.401 E16.10483
G1 X125.549 Y119.05 E16.12464
G1 F1500 E10.12464
;MESH:tapa_para_puerta.stl
G0 F7500 X109.939 Y119.889
;TYPE:WALL-OUTER
G1 F1500 E16.12464
G1 X125.06 Y119.89 E16.72815
G1 X125.06 Y122.11 E16.81676
G1 X109.94 Y122.111 E17.42023
G1 X109.939 Y119.889 E17.50891
G0 F7500 X110.419 Y120.369
;TYPE:WALL-INNER
G1 F1500 X124.58 Y120.37 E18.07411
G1 X124.58 Y121.63 E18.1244
G1 X110.42 Y121.631 E18.68956
G1 X110.419 Y120.369 E18.73992
G0 F7500 X110.899 Y120.849
G1 F1500 X124.1 Y120.85 E19.26681
G1 X124.1 Y121.15 E19.27878
G1 X110.9 Y121.151 E19.80562
G1 X110.899 Y120.849 E19.81767
G1 F1500 E13.81767
;MESH:tapa_para_pared.stl
G0 F7500 X106.04 Y134.611
;TYPE:WALL-OUTER
G1 F1500 E19.81767
G1 X106.04 Y131.39 E19.94623
G1 X120.96 Y131.39 E20.54172
G1 X120.96 Y134.61 E20.67024
G1 X106.04 Y134.611 E21.26573
G0 F7500 X106.52 Y134.131
;TYPE:WALL-INNER
G1 F1500 X106.52 Y131.87 E21.35597
G1 X120.48 Y131.87 E21.91314
G1 X120.48 Y134.13 E22.00334
G1 X106.52 Y134.131 E22.56052
G0 F7500 X107 Y133.651
G1 F1500 X107 Y132.35 E22.61244
G1 X120 Y132.35 E23.1313
G1 X120 Y133.65 E23.18319
G1 X107 Y133.651 E23.70204
G0 F7500 X107.48 Y133.171
G1 F1500 X107.48 Y132.83 E23.71565
G1 X119.52 Y132.83 E24.1962
G1 X119.52 Y133.17 E24.20977
G1 X107.48 Y133.171 E24.69031
G1 F1500 E18.69031
;MESH:NONMESH
G0 F300 X107.48 Y133.171 Z0.4
G0 F7500 X108.899 Y119.188
;TIME_ELAPSED:34.993833
;LAYER:1
M140 S50
M106 S255
;TYPE:SUPPORT-INTERFACE
G1 F1500 E24.69031
G1 X109.034 Y119.323 E24.69666
G0 F8250 X108.998 Y119.936
G1 F1500 X108.899 Y120.035 E24.70132
G1 F1500 E18.70132
G0 F8250 X109.985 Y118.949
G1 F1500 E24.70132
G1 X110.085 Y118.849 E24.70602
G1 F1500 E18.70602
G0 F8250 X111.955 Y118.85
G1 F1500 E24.70602
G1 X112.054 Y118.948 E24.71065
G0 F8250 X113.38 Y118.949
G1 F1500 X113.479 Y118.849 E24.71533
G1 F1500 E18.71533
G0 F8250 X115.35 Y118.85
G1 F1500 E24.71533
G1 X115.448 Y118.948 E24.71994
G0 F8250 X116.774 Y118.949
G1 F1500 X116.873 Y118.849 E24.72462
G1 F1500 E18.72462
G0 F8250 X118.744 Y118.85
G1 F1500 E24.72462
G1 X118.843 Y118.949 E24.72928
G0 F8250 X120.167 Y118.949
G1 F1500 X120.267 Y118.849 E24.73398
G1 F1500 E18.73398
G0 F8250 X122.138 Y118.85
G1 F1500 E24.73398
G1 X122.237 Y118.949 E24.73864
G0 F8250 X123.561 Y118.949
G1 F1500 X123.662 Y118.849 E24.74337
G1 F1500 E18.74337
G0 F8250 X125.532 Y118.85
G1 F1500 E24.74337
G1 X126.099 Y119.417 E24.77004
G0 F8250 X126.099 Y119.806
G1 F1500 X125.999 Y119.905 E24.77472
G1 F1500 E18.77472
G0 F8250 X125.963 Y122.675
G1 F1500 E24.77472
G1 X126.099 Y122.811 E24.78111
G1 F1500 E18.78111
G0 F8250 X123.043 Y123.149
G1 F1500 E24.78111
G1 X122.944 Y123.05 E24.78577
G0 F8250 X122.855 Y123.05
G1 F1500 X122.755 Y123.149 E24.79045
G1 F1500 E18.79045
G0 F8250 X119.649 Y123.149
G1 F1500 E24.79045
G1 X119.55 Y123.05 E24.79511
G0 F8250 X119.461 Y123.05
G1 F1500 X119.361 Y123.149 E24.79979
G1 F1500 E18.79979
G0 F8250 X116.255 Y123.149
G1 F1500 E24.79979
G1 X116.156 Y123.05 E24.80444
G0 F8250 X116.067 Y123.05
G1 F1500 X115.967 Y123.149 E24.80913
G1 F1500 E18.80913
G0 F8250 X112.861 Y123.149
G1 F1500 E24.80913
G1 X112.762 Y123.05 E24.81378
G0 F8250 X112.672 Y123.05
G1 F1500 X112.573 Y123.149 E24.81844
G1 F1500 E18.81844
G0 F8250 X109.466 Y123.149
G1 F1500 E24.81844
G1 X108.899 Y122.582 E24.84511
G0 F8250 X109.343 Y122.985
G1 F1500 X109.179 Y123.149 E24.85282
;MESH:tapa_para_puerta.stl
G0 F8250 X109.699 Y122.351
;TYPE:WALL-OUTER
G1 F1500 X109.699 Y119.649 E24.94269
G1 X125.3 Y119.65 E25.46158
G1 X125.3 Y122.35 E25.55139
G1 X109.699 Y122.351 E26.07028
G0 F8250 X110.099 Y121.951
;TYPE:WALL-INNER
G1 F2250 X110.099 Y120.049 E26.13354
G1 X124.9 Y120.05 E26.62582
G1 X124.9 Y121.95 E26.68901
G1 X110.099 Y121.951 E27.1813
G0 F8250 X110.499 Y121.551
G1 F2250 X110.499 Y120.449 E27.21795
G1 X124.5 Y120.45 E27.68363
G1 X124.5 Y121.55 E27.72021
G1 X110.499 Y121.551 E28.18589
G0 F8250 X110.899 Y121.151
G1 F2250 X110.899 Y120.849 E28.19593
G1 X124.1 Y120.85 E28.635
G1 X124.1 Y121.15 E28.64498
G1 X110.899 Y121.151 E29.08404
G1 F1500 E23.08404
;MESH:tapa_para_pared.stl
G0 F8250 X105.8 Y134.851
;TYPE:WALL-OUTER
G1 F1500 E29.08404
G1 X105.8 Y131.15 E29.20714
G1 X121.2 Y131.15 E29.71935
G1 X121.2 Y134.85 E29.84241
G1 X105.8 Y134.851 E30.35461
G0 F8250 X106.2 Y134.451
;TYPE:WALL-INNER
G1 F2250 X106.2 Y131.55 E30.4511
G1 X120.8 Y131.55 E30.9367
G1 X120.8 Y134.45 E31.03315
