;FLAVOR:Marlin
;TIME:5399
;Filament used: 4.57255m
;Layer height: 0.2
;MINX:39.462
;MINY:84.779
;MINZ:0.2
;MAXX:195.55
;MAXY:150.227
;MAXZ:13.4
;Generated with Cura_SteamEngine 4.5.0
M140 S60
M105
M190 S60
M104 S200
M105
M109 S200
M82 ;absolute extrusion mode
; Ender 3 Custom Start G-code
G92 E0 ; Reset Extruder
G28 ; Home all axes
G1 Z2.0 F3000 ; Move Z Axis up little to prevent scratching of Heat Bed
G1 X0.1 Y20 Z0.3 F5000.0 ; Move to start position
G1 X0.1 Y200.0 Z0.3 F1500.0 E15 ; Draw the first line
G1 X0.4 Y200.0 Z0.3 F5000.0 ; Move to side a little
G1 X0.4 Y20 Z0.3 F1500.0 E30 ; Draw the second line
G92 E0 ; Reset Extruder
G1 Z2.0 F3000 ; Move Z Axis up little to prevent scratching of Heat Bed
G1 X5 Y20 Z0.3 F5000.0 ; Move over to prevent blob squish
G92 E0
G92 E0
G1 F2700 E-5
;LAYER_COUNT:67
;LAYER:0
M107
G0 F6000 X53.293 Y87.053 Z0.2
;TYPE:SKIRT
G1 F2700 E0
G1 F1200 X53.869 Y86.71 E0.0223
G1 X54.498 Y86.361 E0.04622
G1 X55.337 Y85.942 E0.07741
G1 X56.208 Y85.595 E0.1086
G1 X56.997 Y85.352 E0.13606
G1 X57.701 Y85.164 E0.16029
G1 X58.617 Y84.961 E0.1915
G1 X59.546 Y84.837 E0.22267
G1 X60.24 Y84.796 E0.24579
G1 X60.866 Y84.779 E0.26662
G1 X61.804 Y84.794 E0.29782
G1 X62.608 Y84.87 E0.32468
G1 X63.001 Y84.922 E0.33787
G1 X63.925 Y85.085 E0.36908
G1 X64.46 Y85.217 E0.3874
G1 X64.939 Y85.348 E0.40392
G1 X65.832 Y85.633 E0.4351
G1 X66.674 Y85.983 E0.46543
G1 X67.595 Y86.411 E0.4992
G1 X69.899 Y87.445 E0.5832
G1 X72.276 Y88.433 E0.66882
G1 X74.595 Y89.317 E0.75136
G1 X76.946 Y90.141 E0.83422
G1 X79.385 Y90.917 E0.91935
G1 X81.776 Y91.606 E1.00211
G1 X84.236 Y92.239 E1.08659
G1 X86.712 Y92.804 E1.17106
G1 X89.114 Y93.277 E1.25249
G1 X91.658 Y93.706 E1.3383
G1 X94.108 Y94.048 E1.42057
G1 X96.625 Y94.328 E1.50481
G1 X99.135 Y94.534 E1.58857
G1 X101.616 Y94.669 E1.67121
G1 X105.307 Y94.742 E1.794
G1 X181.843 Y94.742 E4.33959
G1 X182.001 Y94.743 E4.34485
G1 X182.699 Y94.753 E4.36807
G1 X183.569 Y94.8 E4.39705
G1 X184.329 Y94.883 E4.42247
G1 X185.254 Y95.039 E4.45367
G1 X186.279 Y95.308 E4.48892
G1 X186.501 Y95.378 E4.49666
G1 X187.162 Y95.608 E4.51994
G1 X188.029 Y95.966 E4.55114
G1 X189.145 Y96.564 E4.59325
G1 X189.509 Y96.787 E4.60745
G1 X190.287 Y97.311 E4.63865
G1 X191.194 Y98.056 E4.67768
G1 X191.361 Y98.209 E4.68522
G1 X191.798 Y98.632 E4.70545
G1 X191.969 Y98.807 E4.71358
G1 X192.595 Y99.505 E4.74477
G1 X193.262 Y100.406 E4.78205
G1 X193.373 Y100.573 E4.78872
G1 X193.725 Y101.134 E4.81075
G1 X194.179 Y101.954 E4.84193
G1 X194.694 Y103.164 E4.88566
G1 X194.85 Y103.601 E4.9011
G1 X195.127 Y104.497 E4.93229
G1 X195.327 Y105.413 E4.96347
G1 X195.42 Y106.059 E4.98518
G1 X195.469 Y106.491 E4.99964
G1 X195.538 Y107.563 E5.03537
G1 X195.55 Y108.453 E5.06497
G1 X195.549 Y109.153 E5.08826
G1 X195.53 Y110.172 E5.12215
G1 X195.474 Y111.47 E5.16537
G1 X195.444 Y112.027 E5.18392
G1 X195.375 Y114.539 E5.2675
G1 X195.378 Y117.065 E5.35152
G1 X195.463 Y119.803 E5.44263
G1 X195.534 Y121.491 E5.49882
G1 X195.549 Y122.525 E5.53321
G1 X195.548 Y123.167 E5.55457
G1 X195.54 Y123.832 E5.57669
G1 X195.481 Y124.844 E5.6104
G1 X195.433 Y125.303 E5.62575
G1 X195.296 Y126.231 E5.65695
G1 X195.08 Y127.144 E5.68816
G1 X194.937 Y127.613 E5.70446
G1 X194.811 Y127.994 E5.71781
G1 X194.479 Y128.871 E5.749
G1 X194.097 Y129.671 E5.77849
G1 X193.981 Y129.891 E5.78676
G1 X193.512 Y130.695 E5.81772
G1 X193.396 Y130.876 E5.82487
G1 X192.857 Y131.644 E5.85607
G1 X192.314 Y132.297 E5.88432
G1 X192.153 Y132.476 E5.89233
G1 X191.685 Y132.965 E5.91484
G1 X191.509 Y133.138 E5.92305
G1 X190.813 Y133.766 E5.95423
G1 X189.862 Y134.471 E5.9936
G1 X189.694 Y134.582 E6.0003
G1 X189.124 Y134.937 E6.02263
G1 X188.302 Y135.387 E6.0538
G1 X187.151 Y135.877 E6.09541
G1 X186.717 Y136.033 E6.11075
G1 X185.822 Y136.312 E6.14193
G1 X184.906 Y136.514 E6.17313
G1 X184.344 Y136.598 E6.19203
G1 X183.587 Y136.681 E6.21736
G1 X182.734 Y136.728 E6.24577
G1 X181.948 Y136.74 E6.27192
G1 X133.172 Y136.741 E7.89421
G1 X130.564 Y136.778 E7.98096
G1 X128.043 Y136.885 E8.06489
G1 X125.56 Y137.061 E8.14768
G1 X123.04 Y137.312 E8.23191
G1 X120.537 Y137.632 E8.31584
G1 X118.076 Y138.018 E8.39869
G1 X115.569 Y138.484 E8.4835
G1 X113.114 Y139.013 E8.56703
G1 X110.706 Y139.603 E8.64949
G1 X108.25 Y140.279 E8.73422
G1 X105.84 Y141.017 E8.81805
G1 X103.448 Y141.824 E8.90201
G1 X101.09 Y142.693 E8.98559
G1 X98.775 Y143.623 E9.06857
G1 X96.465 Y144.628 E9.15236
G1 X94.132 Y145.721 E9.23805
G1 X93.406 Y146.082 E9.26502
G1 X91.628 Y146.949 E9.33081
G1 X91.276 Y147.113 E9.34373
G1 X90.617 Y147.406 E9.36771
G1 X90.262 Y147.557 E9.38054
G1 X89.471 Y147.876 E9.40891
G1 X89.123 Y148.009 E9.4213
G1 X88.382 Y148.279 E9.44753
G1 X88.019 Y148.404 E9.4603
G1 X87.232 Y148.66 E9.48783
G1 X86.866 Y148.772 E9.50056
G1 X86.027 Y149.013 E9.52959
G1 X85.654 Y149.113 E9.54244
G1 X84.925 Y149.295 E9.56743
G1 X84.565 Y149.379 E9.57972
G1 X83.72 Y149.56 E9.60846
G1 X83.291 Y149.643 E9.623
G1 X82.505 Y149.779 E9.64953
G1 X82.169 Y149.832 E9.66084
G1 X81.334 Y149.95 E9.68889
G1 X80.948 Y149.997 E9.70182
G1 X80.189 Y150.077 E9.72721
G1 X79.805 Y150.111 E9.74003
G1 X78.963 Y150.17 E9.7681
G1 X78.573 Y150.19 E9.78109
G1 X77.702 Y150.22 E9.81008
G1 X77.323 Y150.227 E9.82269
G1 X76.578 Y150.227 E9.84747
G1 X76.2 Y150.221 E9.86004
G1 X75.327 Y150.191 E9.88909
G1 X74.934 Y150.17 E9.90218
G1 X74.094 Y150.111 E9.93019
G1 X73.713 Y150.078 E9.94291
G1 X72.953 Y149.998 E9.96833
G1 X72.566 Y149.95 E9.9813
G1 X71.731 Y149.832 E10.00934
G1 X71.379 Y149.776 E10.0212
G1 X70.594 Y149.639 E10.0477
G1 X70.198 Y149.563 E10.06112
G1 X69.351 Y149.383 E10.08992
G1 X68.97 Y149.295 E10.10292
G1 X68.242 Y149.113 E10.12788
G1 X67.873 Y149.013 E10.1406
G1 X67.034 Y148.772 E10.16963
G1 X66.672 Y148.662 E10.18221
G1 X65.884 Y148.406 E10.20977
G1 X65.517 Y148.279 E10.22269
G1 X64.776 Y148.009 E10.24892
G1 X64.423 Y147.874 E10.26149
G1 X63.633 Y147.555 E10.28982
G1 X63.276 Y147.403 E10.30273
G1 X62.616 Y147.109 E10.32676
G1 X62.273 Y146.949 E10.33935
G1 X61.405 Y146.526 E10.37147
G1 X61.064 Y146.353 E10.38418
G1 X60.437 Y146.02 E10.4078
G1 X60.095 Y145.83 E10.42081
G1 X59.316 Y145.38 E10.45073
G1 X58.992 Y145.186 E10.46329
G1 X58.377 Y144.802 E10.48741
G1 X58.045 Y144.586 E10.50058
G1 X57.296 Y144.08 E10.53064
G1 X56.984 Y143.861 E10.54332
G1 X56.346 Y143.397 E10.56956
G1 X56.051 Y143.175 E10.58184
G1 X55.383 Y142.654 E10.61002
G1 X55.079 Y142.408 E10.62302
G1 X54.496 Y141.919 E10.64833
G1 X54.199 Y141.66 E10.66144
G1 X53.548 Y141.073 E10.69059
G1 X53.276 Y140.82 E10.70295
G1 X52.706 Y140.27 E10.72929
G1 X52.431 Y139.995 E10.74223
G1 X51.87 Y139.414 E10.76909
G1 X51.611 Y139.137 E10.7817
G1 X51.046 Y138.51 E10.80978
G1 X50.791 Y138.216 E10.82272
G1 X50.254 Y137.576 E10.85051
G1 X50.009 Y137.274 E10.86344
G1 X49.547 Y136.682 E10.88842
G1 X49.318 Y136.377 E10.9011
G1 X48.793 Y135.654 E10.93082
G1 X48.577 Y135.346 E10.94333
G1 X48.124 Y134.675 E10.97026
G1 X47.91 Y134.345 E10.98334
G1 X47.503 Y133.693 E11.00891
G1 X47.308 Y133.369 E11.02148
G1 X46.861 Y132.595 E11.05121
G1 X46.674 Y132.256 E11.06409
G1 X45.3 Y129.671 E11.16146
G1 X44.039 Y127.426 E11.2471
G1 X42.762 Y125.29 E11.32987
G1 X41.716 Y123.645 E11.39471
G1 X41.296 Y122.925 E11.42243
G1 X41.171 Y122.691 E11.43125
G1 X40.678 Y121.639 E11.4699
G1 X40.475 Y121.138 E11.48787
G1 X40.063 Y119.922 E11.53058
G1 X39.93 Y119.438 E11.54727
G1 X39.72 Y118.524 E11.57846
G1 X39.621 Y117.881 E11.6001
G1 X39.548 Y117.294 E11.61978
G1 X39.466 Y116.132 E11.65852
G1 X39.462 Y115.907 E11.66601
G1 X39.471 Y115.185 E11.69002
G1 X39.536 Y114.27 E11.72053
G1 X39.582 Y113.863 E11.73415
G1 X39.698 Y113.084 E11.76035
G1 X39.736 Y112.88 E11.76725
G1 X40.005 Y111.762 E11.8055
G1 X40.177 Y111.183 E11.82559
G1 X40.483 Y110.296 E11.85679
G1 X40.664 Y109.86 E11.8725
G1 X40.823 Y109.501 E11.88555
G1 X41.202 Y108.73 E11.91413
G1 X42.479 Y106.364 E12.00355
G1 X43.619 Y104.104 E12.08774
G1 X44.691 Y101.821 E12.17163
G1 X45.682 Y99.545 E12.25419
G1 X46.634 Y97.18 E12.33899
G1 X47.724 Y94.222 E12.44384
G1 X48.004 Y93.496 E12.46972
G1 X48.378 Y92.636 E12.50091
G1 X49.042 Y91.462 E12.54577
G1 X49.472 Y90.8 E12.57203
G1 X50.016 Y90.036 E12.60322
G1 X50.623 Y89.321 E12.63442
G1 X51.295 Y88.655 E12.66588
G1 X51.804 Y88.192 E12.68877
G1 X52.524 Y87.591 E12.71996
G1 X53.293 Y87.053 E12.75118
G0 F6000 X53.536 Y87.373
G1 F1200 X54.063 Y87.06 E12.77156
G1 X54.692 Y86.711 E12.79549
G1 X55.516 Y86.3 E12.82612
G1 X56.372 Y85.962 E12.85673
G1 X57.1 Y85.739 E12.88205
G1 X57.804 Y85.551 E12.90629
G1 X58.703 Y85.352 E12.93691
G1 X59.616 Y85.232 E12.96754
G1 X60.251 Y85.196 E12.98869
G1 X60.877 Y85.179 E13.00952
G1 X61.798 Y85.194 E13.04016
G1 X62.555 Y85.267 E13.06545
G1 X62.948 Y85.319 E13.07864
G1 X63.855 Y85.479 E13.10927
G1 X64.354 Y85.602 E13.12636
G1 X64.833 Y85.733 E13.14288
G1 X65.71 Y86.015 E13.17352
G1 X66.506 Y86.346 E13.20219
G1 X67.35 Y86.738 E13.23314
G1 X69.774 Y87.826 E13.32152
G1 X72.117 Y88.8 E13.40591
G1 X74.457 Y89.692 E13.4892
G1 X76.861 Y90.534 E13.57392
G1 X79.235 Y91.29 E13.65679
G1 X81.703 Y92.001 E13.74221
G1 X84.119 Y92.623 E13.82519
G1 X86.611 Y93.191 E13.9102
G1 X89.083 Y93.678 E13.994
G1 X91.573 Y94.098 E14.07799
G1 X94.076 Y94.448 E14.16205
G1 X96.584 Y94.726 E14.24597
G1 X99.116 Y94.935 E14.33047
G1 X101.586 Y95.068 E14.41275
G1 X105.299 Y95.142 E14.53627
G1 X181.843 Y95.142 E17.08213
G1 X181.995 Y95.143 E17.08718
G1 X182.693 Y95.153 E17.1104
G1 X183.532 Y95.198 E17.13835
G1 X183.745 Y95.218 E17.14546
G1 X184.28 Y95.28 E17.16338
G1 X185.188 Y95.433 E17.194
G1 X186.159 Y95.69 E17.22741
G1 X186.381 Y95.76 E17.23515
G1 X187.025 Y95.984 E17.25783
G1 X187.876 Y96.336 E17.28846
G1 X188.936 Y96.905 E17.32847
G1 X189.3 Y97.128 E17.34267
G1 X190.064 Y97.643 E17.37332
G1 X190.924 Y98.351 E17.41037
G1 X191.091 Y98.504 E17.4179
G1 X191.511 Y98.912 E17.43738
G1 X191.682 Y99.087 E17.44551
G1 X192.297 Y99.773 E17.47616
G1 X192.929 Y100.627 E17.51149
G1 X193.04 Y100.794 E17.51816
G1 X193.383 Y101.342 E17.53967
G1 X193.828 Y102.148 E17.57029
G1 X194.317 Y103.298 E17.61185
G1 X194.473 Y103.735 E17.62728
G1 X194.745 Y104.615 E17.65792
G1 X194.939 Y105.515 E17.68854
G1 X195.022 Y106.104 E17.70832
G1 X195.071 Y106.536 E17.72279
G1 X195.138 Y107.57 E17.75725
G1 X195.15 Y108.453 E17.78662
G1 X195.149 Y109.147 E17.8097
G1 X195.13 Y110.155 E17.84323
G1 X195.074 Y111.448 E17.88628
G1 X195.044 Y111.993 E17.90443
G1 X194.975 Y114.529 E17.98881
G1 X194.978 Y117.077 E18.07356
G1 X195.064 Y119.82 E18.16484
G1 X195.134 Y121.497 E18.22066
G1 X195.149 Y122.525 E18.25486
G1 X195.148 Y123.163 E18.27608
G1 X195.14 Y123.828 E18.2982
G1 X195.084 Y124.802 E18.33065
G1 X195.036 Y125.261 E18.346
G1 X194.9 Y126.172 E18.37663
G1 X194.557 Y127.487 E18.42183
G1 X194.431 Y127.868 E18.43518
G1 X194.104 Y128.729 E18.46581
G1 X193.743 Y129.484 E18.49365
G1 X193.627 Y129.704 E18.50192
G1 X193.175 Y130.48 E18.53179
G1 X193.059 Y130.661 E18.53894
G1 X192.53 Y131.413 E18.56952
G1 X192.016 Y132.03 E18.59623
G1 X191.855 Y132.209 E18.60424
G1 X191.405 Y132.679 E18.62588
G1 X191.229 Y132.852 E18.63409
G1 X190.545 Y133.469 E18.66472
G1 X189.641 Y134.137 E18.70211
G1 X189.473 Y134.248 E18.70881
G1 X188.917 Y134.594 E18.73059
G1 X188.109 Y135.036 E18.76122
G1 X187.016 Y135.5 E18.80071
G1 X186.582 Y135.656 E18.81605
G1 X185.702 Y135.93 E18.84671
G1 X184.803 Y136.126 E18.87731
G1 X184.295 Y136.201 E18.89439
G1 X183.55 Y136.283 E18.91932
G1 X182.727 Y136.329 E18.94673
G1 X181.948 Y136.34 E18.97265
G1 X133.166 Y136.341 E20.59514
G1 X130.541 Y136.378 E20.68246
G1 X128.033 Y136.485 E20.76595
G1 X125.529 Y136.662 E20.84944
G1 X122.986 Y136.915 E20.93444
G1 X120.491 Y137.234 E21.0181
G1 X117.972 Y137.629 E21.10291
G1 X115.523 Y138.085 E21.18576
G1 X113.041 Y138.62 E21.27021
G1 X110.577 Y139.223 E21.35458
G1 X108.132 Y139.896 E21.43892
G1 X105.732 Y140.631 E21.52241
G1 X103.318 Y141.445 E21.60714
G1 X100.951 Y142.318 E21.69105
G1 X98.615 Y143.256 E21.77478
G1 X96.272 Y144.276 E21.85977
G1 X93.995 Y145.342 E21.94339
G1 X93.231 Y145.723 E21.97179
G1 X91.453 Y146.59 E22.03758
G1 X91.113 Y146.748 E22.05005
G1 X90.454 Y147.041 E22.07404
G1 X90.113 Y147.186 E22.08636
G1 X89.322 Y147.505 E22.11473
G1 X88.986 Y147.633 E22.12669
G1 X88.245 Y147.903 E22.15292
G1 X87.895 Y148.024 E22.16523
G1 X87.108 Y148.28 E22.19276
G1 X86.755 Y148.388 E22.20504
G1 X85.916 Y148.629 E22.23407
G1 X85.558 Y148.725 E22.2464
G1 X84.829 Y148.907 E22.27139
G1 X84.481 Y148.988 E22.28327
G1 X83.636 Y149.169 E22.31202
G1 X83.223 Y149.249 E22.32601
G1 X82.113 Y149.436 E22.36345
G1 X81.278 Y149.554 E22.3915
G1 X80.906 Y149.6 E22.40396
G1 X80.147 Y149.68 E22.42935
G1 X79.777 Y149.712 E22.4417
G1 X78.935 Y149.771 E22.46977
G1 X78.559 Y149.791 E22.4823
G1 X77.688 Y149.821 E22.51128
G1 X77.323 Y149.827 E22.52342
G1 X76.578 Y149.827 E22.5482
G1 X76.214 Y149.821 E22.56031
G1 X75.341 Y149.791 E22.58936
G1 X74.962 Y149.771 E22.60199
G1 X74.122 Y149.712 E22.63
G1 X73.755 Y149.68 E22.64225
G1 X72.995 Y149.6 E22.66767
G1 X72.622 Y149.554 E22.68017
G1 X71.787 Y149.436 E22.70821
G1 X71.448 Y149.382 E22.71963
G1 X70.663 Y149.245 E22.74613
G1 X70.282 Y149.171 E22.75904
G1 X69.435 Y148.991 E22.78784
G1 X69.067 Y148.907 E22.8004
G1 X68.339 Y148.725 E22.82536
G1 X67.984 Y148.629 E22.83759
G1 X67.145 Y148.388 E22.86662
G1 X66.796 Y148.281 E22.87876
G1 X66.008 Y148.025 E22.90632
G1 X65.654 Y147.903 E22.91877
G1 X64.913 Y147.633 E22.94501
G1 X64.573 Y147.503 E22.95711
G1 X63.783 Y147.184 E22.98545
G1 X63.439 Y147.038 E22.99788
G1 X62.779 Y146.744 E23.02191
G1 X62.448 Y146.59 E23.03405
G1 X61.58 Y146.167 E23.06617
G1 X61.252 Y146 E23.07841
G1 X60.625 Y145.667 E23.10202
G1 X60.295 Y145.484 E23.11457
G1 X59.516 Y145.034 E23.14449
G1 X59.204 Y144.846 E23.15661
G1 X58.589 Y144.462 E23.18072
G1 X58.269 Y144.254 E23.19342
G1 X57.52 Y143.748 E23.22348
G1 X57.219 Y143.538 E23.23569
G1 X56.581 Y143.074 E23.26193
G1 X56.297 Y142.859 E23.27378
G1 X55.629 Y142.338 E23.30195
G1 X55.336 Y142.101 E23.31449
G1 X54.753 Y141.612 E23.33979
G1 X54.467 Y141.363 E23.35241
G1 X53.816 Y140.776 E23.38156
G1 X53.554 Y140.532 E23.39347
G1 X52.984 Y139.982 E23.41981
G1 X52.719 Y139.717 E23.43228
G1 X52.158 Y139.136 E23.45914
G1 X51.908 Y138.869 E23.47131
G1 X51.343 Y138.242 E23.49938
G1 X51.098 Y137.959 E23.51183
G1 X50.561 Y137.319 E23.53962
G1 X50.325 Y137.027 E23.5521
G1 X49.863 Y136.435 E23.57708
G1 X49.642 Y136.142 E23.58929
G1 X49.117 Y135.419 E23.619
G1 X48.909 Y135.122 E23.63106
G1 X48.456 Y134.451 E23.65799
G1 X48.249 Y134.133 E23.67061
G1 X47.842 Y133.481 E23.69618
G1 X47.655 Y133.169 E23.70827
G1 X47.208 Y132.395 E23.738
G1 X47.027 Y132.069 E23.7504
G1 X45.653 Y129.484 E23.84777
G1 X44.389 Y127.231 E23.93369
G1 X43.083 Y125.049 E24.01827
G1 X42.054 Y123.43 E24.08208
G1 X41.648 Y122.736 E24.10882
G1 X41.523 Y122.502 E24.11764
G1 X41.049 Y121.489 E24.15484
G1 X40.846 Y120.988 E24.17282
G1 X40.449 Y119.816 E24.21398
G1 X40.316 Y119.332 E24.23067
G1 X40.111 Y118.434 E24.26131
G1 X40.018 Y117.831 E24.2816
G1 X39.945 Y117.244 E24.30128
G1 X39.866 Y116.124 E24.33862
G1 X39.862 Y115.899 E24.34611
G1 X39.864 Y115.402 E24.36264
G1 X39.87 Y115.196 E24.36949
G1 X39.933 Y114.315 E24.39887
G1 X39.979 Y113.908 E24.41249
G1 X40.091 Y113.157 E24.43775
G1 X40.129 Y112.953 E24.44465
G1 X40.389 Y111.875 E24.48153
G1 X40.561 Y111.296 E24.50162
G1 X41.03 Y110.022 E24.54677
G1 X41.189 Y109.663 E24.55983
G1 X41.554 Y108.92 E24.58736
G1 X42.826 Y106.564 E24.67642
G1 X43.978 Y104.281 E24.76147
G1 X45.042 Y102.014 E24.84476
G1 X46.072 Y99.647 E24.93062
G1 X47 Y97.342 E25.01326
G1 X48.097 Y94.366 E25.11876
G1 X48.377 Y93.64 E25.14464
G1 X48.745 Y92.796 E25.17526
G1 X49.378 Y91.68 E25.21793
G1 X49.808 Y91.018 E25.24419
G1 X50.342 Y90.268 E25.27481
G1 X50.94 Y89.568 E25.30543
G1 X51.564 Y88.951 E25.33462
G1 X52.073 Y88.488 E25.35751
G1 X52.781 Y87.898 E25.38816
G1 X53.536 Y87.373 E25.41874
G0 F6000 X53.78 Y87.692
G1 F1200 X54.257 Y87.41 E25.43717
G1 X54.886 Y87.061 E25.4611
G1 X55.695 Y86.658 E25.49116
G1 X56.535 Y86.328 E25.52118
G1 X57.203 Y86.125 E25.5444
G1 X57.907 Y85.937 E25.56863
G1 X58.789 Y85.743 E25.59867
G1 X59.685 Y85.628 E25.62872
