;FLAVOR:Marlin
;TIME:3914
;Filament used: 3.67437m
;Layer height: 0.2
;MINX:34.016
;MINY:79.016
;MINZ:0.2
;MAXX:200.984
;MAXY:155.984
;MAXZ:2
;Generated with Cura_SteamEngine 4.5.0
M140 S60
M105
M190 S60
M104 S205
M105
M109 S205
M82 ;absolute extrusion mode
; Ender 3 Custom Start G-code
G92 E0 ; Reset Extruder
G28 ; Home all axes
G1 Z2.0 F3000 ; Move Z Axis up little to prevent scratching of Heat Bed
G1 X0.1 Y20 Z0.3 F5000.0 ; Move to start position
G1 X0.1 Y200.0 Z0.3 F1500.0 E15 ; Draw the first line
G1 X0.4 Y200.0 Z0.3 F5000.0 ; Move to side a little
G1 X0.4 Y20 Z0.3 F1500.0 E30 ; Draw the second line
G92 E0 ; Reset Extruder
G1 Z2.0 F3000 ; Move Z Axis up little to prevent scratching of Heat Bed
G1 X5 Y20 Z0.3 F5000.0 ; Move over to prevent blob squish
G92 E0
G92 E0
G1 F1500 E-6
;LAYER_COUNT:10
;LAYER:0
M107
M204 S500
M205 X20 Y20
G0 F7500 X52.482 Y84.627 Z0.2
;TYPE:SKIRT
G1 F1500 E0
G1 X52.809 Y84.43 E0.0127
G1 X53.698 Y83.917 E0.04684
G1 X54.031 Y83.733 E0.05949
G1 X54.817 Y83.315 E0.0891
G1 X55.165 Y83.138 E0.10208
G1 X56.13 Y82.668 E0.13778
G1 X56.477 Y82.506 E0.15052
G1 X57.246 Y82.164 E0.17851
G1 X57.576 Y82.024 E0.19044
G1 X58.499 Y81.649 E0.22357
G1 X58.89 Y81.498 E0.23751
G1 X59.839 Y81.154 E0.27109
G1 X60.184 Y81.036 E0.28321
G1 X61.026 Y80.762 E0.31267
G1 X61.401 Y80.647 E0.32571
G1 X62.382 Y80.366 E0.35965
G1 X62.746 Y80.269 E0.37218
G1 X63.627 Y80.049 E0.40238
G1 X63.99 Y79.965 E0.41478
G1 X64.976 Y79.754 E0.44831
G1 X65.394 Y79.673 E0.46247
G1 X66.647 Y79.46 E0.50475
G1 X67.627 Y79.322 E0.53766
G1 X68.002 Y79.276 E0.55023
G1 X68.936 Y79.177 E0.58147
G1 X69.332 Y79.142 E0.59469
G1 X70.31 Y79.074 E0.6273
G1 X70.69 Y79.055 E0.63995
G1 X71.609 Y79.023 E0.67054
G1 X71.992 Y79.016 E0.68328
G1 X73.007 Y79.016 E0.71704
G1 X73.389 Y79.023 E0.72974
G1 X74.693 Y79.075 E0.77315
G1 X75.669 Y79.143 E0.80569
G1 X76.062 Y79.177 E0.81881
G1 X76.997 Y79.276 E0.85008
G1 X77.373 Y79.322 E0.86268
G1 X78.353 Y79.46 E0.8956
G1 X78.717 Y79.518 E0.90786
G1 X79.619 Y79.676 E0.93831
G1 X80.008 Y79.751 E0.95149
G1 X80.996 Y79.961 E0.98509
G1 X81.377 Y80.049 E0.99809
G1 X82.257 Y80.269 E1.02826
G1 X82.618 Y80.366 E1.04069
G1 X83.599 Y80.647 E1.07463
G1 X83.97 Y80.761 E1.08754
G1 X84.813 Y81.035 E1.11703
G1 X85.159 Y81.153 E1.12918
G1 X86.106 Y81.496 E1.16268
G1 X86.497 Y81.646 E1.17661
G1 X87.421 Y82.021 E1.20978
G1 X87.77 Y82.17 E1.2224
G1 X88.538 Y82.513 E1.25038
G1 X88.87 Y82.668 E1.26256
G1 X90.557 Y83.49 E1.32498
G1 X92.847 Y84.567 E1.40915
G1 X95.185 Y85.586 E1.49398
G1 X97.517 Y86.526 E1.5776
G1 X99.869 Y87.398 E1.66103
G1 X102.24 Y88.2 E1.74428
G1 X104.669 Y88.947 E1.82881
G1 X107.096 Y89.618 E1.91256
G1 X109.544 Y90.223 E1.99643
G1 X112.01 Y90.755 E2.08033
G1 X114.44 Y91.21 E2.16256
G1 X116.94 Y91.606 E2.24675
G1 X119.456 Y91.93 E2.33112
G1 X121.949 Y92.181 E2.41446
G1 X124.492 Y92.364 E2.49926
G1 X126.954 Y92.472 E2.58122
G1 X129.506 Y92.511 E2.66611
G1 X132.001 Y92.478 E2.7491
G1 X134.546 Y92.374 E2.83382
G1 X137.042 Y92.199 E2.91704
G1 X139.531 Y91.955 E3.00022
G1 X142.041 Y91.638 E3.08437
G1 X144.518 Y91.252 E3.16775
G1 X147.016 Y90.791 E3.25224
G1 X149.421 Y90.276 E3.33404
G1 X151.946 Y89.661 E3.42048
G1 X152.599 Y89.485 E3.44297
G1 X153.134 Y89.35 E3.46132
G1 X154.052 Y89.16 E3.4925
G1 X154.983 Y89.048 E3.52369
G1 X155.633 Y89.018 E3.54533
G1 X156.743 Y89 E3.58226
G1 X172.503 Y89.004 E4.10644
G1 X172.887 Y89.011 E4.11921
G1 X173.795 Y89.043 E4.14943
G1 X174.183 Y89.063 E4.16235
G1 X174.792 Y89.106 E4.18266
G1 X175.14 Y89.137 E4.19428
G1 X175.705 Y89.195 E4.21317
G1 X176.125 Y89.246 E4.22724
G1 X176.859 Y89.35 E4.2519
G1 X177.217 Y89.406 E4.26395
G1 X177.673 Y89.486 E4.27935
G1 X178.054 Y89.56 E4.29226
G1 X178.752 Y89.708 E4.31599
G1 X179.133 Y89.796 E4.32899
G1 X179.654 Y89.926 E4.34685
G1 X180.029 Y90.027 E4.35977
G1 X180.711 Y90.223 E4.38337
G1 X181.062 Y90.33 E4.39558
G1 X181.519 Y90.478 E4.41155
G1 X181.89 Y90.606 E4.42461
G1 X182.547 Y90.845 E4.44786
G1 X182.909 Y90.983 E4.46074
G1 X183.488 Y91.217 E4.48152
G1 X183.86 Y91.376 E4.49497
G1 X184.394 Y91.615 E4.51443
G1 X184.709 Y91.762 E4.52599
G1 X185.178 Y91.99 E4.54334
G1 X185.527 Y92.167 E4.55635
G1 X186.224 Y92.537 E4.5826
G1 X186.574 Y92.731 E4.59591
G1 X186.918 Y92.93 E4.60913
G1 X187.243 Y93.126 E4.62175
G1 X187.905 Y93.54 E4.64772
G1 X188.222 Y93.746 E4.66029
G1 X188.661 Y94.042 E4.6779
G1 X188.973 Y94.26 E4.69056
G1 X189.524 Y94.66 E4.71321
G1 X189.835 Y94.894 E4.72615
G1 X190.233 Y95.205 E4.74295
G1 X190.532 Y95.447 E4.75575
G1 X191.061 Y95.891 E4.77872
G1 X191.35 Y96.143 E4.79147
G1 X191.792 Y96.541 E4.81125
G1 X192.062 Y96.792 E4.82351
G1 X192.497 Y97.211 E4.8436
G1 X192.789 Y97.503 E4.85734
G1 X193.208 Y97.938 E4.87743
G1 X193.459 Y98.208 E4.88969
G1 X193.857 Y98.65 E4.90947
G1 X194.109 Y98.939 E4.92222
G1 X194.553 Y99.468 E4.94519
G1 X194.795 Y99.767 E4.95799
G1 X195.106 Y100.165 E4.97479
G1 X195.336 Y100.471 E4.98752
G1 X195.735 Y101.02 E5.01009
G1 X195.961 Y101.342 E5.02318
G1 X196.258 Y101.783 E5.04086
G1 X196.46 Y102.095 E5.05322
G1 X196.874 Y102.757 E5.07919
G1 X197.077 Y103.095 E5.0923
G1 X197.265 Y103.421 E5.10482
G1 X197.444 Y103.743 E5.11707
G1 X197.825 Y104.458 E5.14402
G1 X198.002 Y104.805 E5.15698
G1 X198.23 Y105.272 E5.17426
G1 X198.395 Y105.625 E5.18722
G1 X198.634 Y106.162 E5.20677
G1 X198.771 Y106.486 E5.21847
G1 X199.006 Y107.063 E5.23919
G1 X199.163 Y107.471 E5.25373
G1 X199.401 Y108.129 E5.27701
G1 X199.522 Y108.481 E5.28939
G1 X199.67 Y108.938 E5.30536
G1 X199.777 Y109.289 E5.31757
G1 X199.973 Y109.971 E5.34117
G1 X200.077 Y110.361 E5.35459
G1 X200.204 Y110.873 E5.37214
G1 X200.285 Y111.223 E5.38409
G1 X200.436 Y111.93 E5.40813
G1 X200.514 Y112.327 E5.42159
G1 X200.594 Y112.783 E5.43699
G1 X200.65 Y113.141 E5.44904
G1 X200.754 Y113.875 E5.4737
G1 X200.805 Y114.291 E5.48764
G1 X200.863 Y114.854 E5.50646
G1 X200.894 Y115.209 E5.51831
G1 X200.937 Y115.82 E5.53869
G1 X200.957 Y116.201 E5.55138
G1 X200.977 Y116.764 E5.57011
G1 X200.984 Y117.155 E5.58312
G1 X200.984 Y117.844 E5.60604
G1 X200.977 Y118.234 E5.61901
G1 X200.957 Y118.798 E5.63778
G1 X200.937 Y119.181 E5.65054
G1 X200.894 Y119.791 E5.67088
G1 X200.863 Y120.145 E5.68269
G1 X200.805 Y120.708 E5.70152
G1 X200.755 Y121.122 E5.71539
G1 X200.651 Y121.857 E5.74008
G1 X200.593 Y122.221 E5.75234
G1 X200.513 Y122.676 E5.7677
G1 X200.44 Y123.053 E5.78048
G1 X200.292 Y123.751 E5.80421
G1 X200.204 Y124.132 E5.81721
G1 X200.074 Y124.653 E5.83507
G1 X199.974 Y125.024 E5.84785
G1 X199.778 Y125.707 E5.87149
G1 X199.668 Y126.069 E5.88407
G1 X199.52 Y126.525 E5.90002
G1 X199.396 Y126.884 E5.91265
G1 X199.157 Y127.542 E5.93593
G1 X199.017 Y127.909 E5.949
G1 X198.783 Y128.488 E5.96977
G1 X198.627 Y128.853 E5.98297
G1 X198.388 Y129.388 E6.00246
G1 X198.234 Y129.719 E6.0146
G1 X198.006 Y130.187 E6.03192
G1 X197.833 Y130.527 E6.0446
G1 X197.463 Y131.224 E6.07085
G1 X197.262 Y131.586 E6.08462
G1 X197.063 Y131.929 E6.09781
G1 X196.878 Y132.235 E6.1097
G1 X196.464 Y132.898 E6.1357
G1 X196.261 Y133.212 E6.14814
G1 X195.965 Y133.652 E6.16578
G1 X195.734 Y133.982 E6.17917
G1 X195.334 Y134.532 E6.20179
G1 X195.108 Y134.832 E6.21429
G1 X194.798 Y135.229 E6.23104
G1 X194.552 Y135.532 E6.24402
G1 X194.107 Y136.062 E6.26704
G1 X193.858 Y136.349 E6.27967
G1 X193.461 Y136.79 E6.29941
G1 X193.208 Y137.061 E6.31174
G1 X192.788 Y137.497 E6.33188
G1 X192.497 Y137.789 E6.34559
G1 X192.063 Y138.207 E6.36563
G1 X191.794 Y138.457 E6.37784
G1 X191.351 Y138.856 E6.39767
G1 X191.059 Y139.11 E6.41054
G1 X190.531 Y139.553 E6.43347
G1 X190.237 Y139.791 E6.44605
G1 X189.847 Y140.096 E6.46252
G1 X189.54 Y140.328 E6.47532
G1 X188.983 Y140.733 E6.49822
G1 X188.663 Y140.957 E6.51121
G1 X188.221 Y141.255 E6.52894
G1 X187.905 Y141.46 E6.54147
G1 X187.243 Y141.874 E6.56744
G1 X186.918 Y142.07 E6.58006
G1 X186.574 Y142.269 E6.59328
G1 X186.224 Y142.463 E6.60659
G1 X185.527 Y142.833 E6.63284
G1 X185.187 Y143.006 E6.64553
G1 X184.719 Y143.234 E6.66284
G1 X184.365 Y143.398 E6.67582
G1 X183.829 Y143.636 E6.69532
G1 X183.505 Y143.774 E6.70703
G1 X182.897 Y144.021 E6.72886
G1 X182.518 Y144.167 E6.74237
G1 X181.993 Y144.358 E6.76095
G1 X181.625 Y144.485 E6.7739
G1 X180.965 Y144.699 E6.79698
G1 X180.612 Y144.807 E6.80925
G1 X180.066 Y144.964 E6.82815
G1 X179.689 Y145.065 E6.84113
G1 X179.132 Y145.204 E6.86023
G1 X178.772 Y145.287 E6.87251
G1 X178.076 Y145.436 E6.89619
G1 X177.647 Y145.519 E6.91072
G1 X177.19 Y145.598 E6.92615
G1 X176.859 Y145.65 E6.93729
G1 X176.125 Y145.754 E6.96195
G1 X175.707 Y145.805 E6.97595
G1 X175.143 Y145.863 E6.99481
G1 X174.79 Y145.894 E7.0066
G1 X174.179 Y145.937 E7.02697
G1 X173.795 Y145.957 E7.03976
G1 X172.601 Y145.996 E7.07949
G1 X172.161 Y146 E7.09413
G1 X122.074 Y146 E8.76003
G1 X119.466 Y146.037 E8.84678
G1 X116.945 Y146.144 E8.9307
G1 X114.45 Y146.321 E9.01389
G1 X111.95 Y146.569 E9.09745
G1 X109.457 Y146.888 E9.18105
G1 X106.964 Y147.279 E9.26498
G1 X104.474 Y147.742 E9.34922
G1 X102.011 Y148.272 E9.43301
G1 X99.615 Y148.86 E9.51507
G1 X97.145 Y149.539 E9.60027
G1 X94.742 Y150.275 E9.68386
G1 X92.35 Y151.082 E9.76782
G1 X90.005 Y151.946 E9.85094
G1 X88.615 Y152.505 E9.90077
G1 X86.373 Y153.4 E9.98106
G1 X86.051 Y153.523 E9.99253
G1 X85.223 Y153.824 E10.02183
G1 X84.868 Y153.946 E10.03431
G1 X83.949 Y154.245 E10.06646
G1 X83.574 Y154.36 E10.0795
G1 X82.617 Y154.634 E10.11261
G1 X82.254 Y154.731 E10.12511
G1 X81.373 Y154.951 E10.15531
G1 X81.01 Y155.035 E10.1677
G1 X80.024 Y155.246 E10.20124
G1 X79.606 Y155.327 E10.2154
G1 X78.353 Y155.54 E10.25767
G1 X77.373 Y155.678 E10.29059
G1 X76.998 Y155.724 E10.30316
G1 X76.064 Y155.823 E10.3344
G1 X75.668 Y155.858 E10.34762
G1 X74.69 Y155.926 E10.38022
G1 X74.31 Y155.945 E10.39288
G1 X73.391 Y155.977 E10.42346
G1 X73.008 Y155.984 E10.4362
G1 X71.993 Y155.984 E10.46996
G1 X71.611 Y155.977 E10.48267
G1 X70.69 Y155.945 E10.51332
G1 X70.307 Y155.925 E10.52608
G1 X69.331 Y155.857 E10.55862
G1 X68.938 Y155.823 E10.57174
G1 X68.003 Y155.724 E10.60301
G1 X67.627 Y155.678 E10.61561
G1 X66.647 Y155.54 E10.64853
G1 X66.283 Y155.482 E10.66079
G1 X65.381 Y155.324 E10.69124
G1 X64.992 Y155.249 E10.70442
G1 X64.004 Y155.039 E10.73802
G1 X63.623 Y154.951 E10.75102
G1 X62.743 Y154.731 E10.78119
G1 X62.383 Y154.634 E10.79359
G1 X61.426 Y154.36 E10.8267
G1 X61.051 Y154.245 E10.83975
G1 X60.132 Y153.946 E10.87189
G1 X59.777 Y153.824 E10.88437
G1 X58.949 Y153.523 E10.91368
G1 X58.583 Y153.382 E10.92672
G1 X57.552 Y152.965 E10.96371
G1 X57.191 Y152.812 E10.97675
G1 X56.461 Y152.486 E11.00334
G1 X56.134 Y152.333 E11.01535
G1 X55.17 Y151.864 E11.05101
G1 X54.817 Y151.685 E11.06417
G1 X54.031 Y151.267 E11.09378
G1 X53.698 Y151.083 E11.10643
G1 X52.809 Y150.57 E11.14057
G1 X52.482 Y150.373 E11.15327
G1 X51.75 Y149.916 E11.18197
G1 X51.42 Y149.702 E11.19505
G1 X50.555 Y149.118 E11.22977
G1 X50.245 Y148.901 E11.24235
G1 X49.492 Y148.354 E11.27331
G1 X49.182 Y148.12 E11.28623
G1 X48.417 Y147.522 E11.31852
G1 X48.127 Y147.287 E11.33094
G1 X47.417 Y146.692 E11.36175
G1 X47.12 Y146.434 E11.37483
G1 X46.374 Y145.762 E11.40823
G1 X46.094 Y145.501 E11.42096
G1 X45.419 Y144.849 E11.45217
G1 X45.149 Y144.579 E11.46487
G1 X44.496 Y143.903 E11.49613
G1 X44.234 Y143.623 E11.50889
G1 X43.563 Y142.878 E11.54223
G1 X43.304 Y142.579 E11.55539
G1 X42.711 Y141.871 E11.58611
G1 X42.48 Y141.586 E11.59831
G1 X41.88 Y140.819 E11.6307
G1 X41.641 Y140.502 E11.6439
G1 X41.096 Y139.751 E11.67477
G1 X40.884 Y139.447 E11.68709
G1 X40.299 Y138.581 E11.72185
G1 X40.081 Y138.246 E11.73514
G1 X39.625 Y137.515 E11.7638
G1 X39.428 Y137.186 E11.77655
G1 X38.915 Y136.296 E11.81072
G1 X38.736 Y135.973 E11.823
G1 X38.318 Y135.188 E11.85258
G1 X38.138 Y134.835 E11.86576
G1 X37.668 Y133.87 E11.90146
G1 X37.51 Y133.532 E11.91387
G1 X37.185 Y132.803 E11.94042
G1 X37.039 Y132.458 E11.95288
G1 X36.618 Y131.42 E11.99014
G1 X36.467 Y131.028 E12.00411
G1 X36.17 Y130.207 E12.03315
G1 X36.053 Y129.865 E12.04517
G1 X35.754 Y128.945 E12.07734
G1 X35.641 Y128.576 E12.09018
G1 X35.367 Y127.62 E12.12326
G1 X35.267 Y127.245 E12.13616
G1 X35.048 Y126.365 E12.16633
G1 X34.965 Y126.006 E12.17858
G1 X34.754 Y125.018 E12.21218
G1 X34.676 Y124.617 E12.22577
G1 X34.518 Y123.714 E12.25626
G1 X34.461 Y123.353 E12.26842
G1 X34.323 Y122.374 E12.3013
G1 X34.276 Y121.997 E12.31394
G1 X34.177 Y121.062 E12.34521
G1 X34.143 Y120.669 E12.35833
G1 X34.075 Y119.693 E12.39087
G1 X34.055 Y119.311 E12.40359
G1 X34.023 Y118.392 E12.43418
G1 X34.016 Y118.009 E12.44692
G1 X34.016 Y116.981 E12.48111
G1 X34.023 Y116.594 E12.49398
G1 X34.055 Y115.685 E12.52423
G1 X34.075 Y115.302 E12.53699
G1 X34.144 Y114.319 E12.56977
G1 X34.178 Y113.933 E12.58265
G1 X34.276 Y113.006 E12.61366
G1 X34.322 Y112.63 E12.62626
G1 X34.46 Y111.649 E12.65921
G1 X34.518 Y111.281 E12.6716
G1 X34.676 Y110.38 E12.70202
G1 X34.751 Y109.993 E12.71513
G1 X34.961 Y109.005 E12.74873
G1 X35.051 Y108.618 E12.76194
G1 X35.272 Y107.736 E12.79219
G1 X35.364 Y107.392 E12.80403
G1 X35.637 Y106.435 E12.83713
G1 X35.754 Y106.053 E12.85042
G1 X36.052 Y105.136 E12.88249
G1 X36.177 Y104.771 E12.89532
G1 X36.479 Y103.942 E12.92466
G1 X36.614 Y103.591 E12.93717
G1 X37.032 Y102.555 E12.97433
G1 X37.193 Y102.178 E12.98796
G1 X37.517 Y101.454 E13.01434
G1 X37.668 Y101.13 E13.02623
G1 X38.138 Y100.165 E13.06193
G1 X38.315 Y99.817 E13.07492
G1 X38.733 Y99.031 E13.10453
G1 X38.92 Y98.693 E13.11738
G1 X39.433 Y97.805 E13.15149
G1 X39.624 Y97.488 E13.1638
G1 X40.081 Y96.755 E13.19253
G1 X40.296 Y96.423 E13.20568
G1 X40.885 Y95.55 E13.24071
G1 X41.107 Y95.233 E13.25358
G1 X41.648 Y94.489 E13.28418
G1 X41.879 Y94.183 E13.29693
G1 X42.477 Y93.418 E13.32922
G1 X42.712 Y93.128 E13.34164
G1 X43.307 Y92.418 E13.37245
G1 X43.565 Y92.121 E13.38553
G1 X44.237 Y91.375 E13.41893
G1 X44.502 Y91.091 E13.43185
G1 X45.143 Y90.428 E13.46252
G1 X45.404 Y90.166 E13.47482
G1 X46.131 Y89.463 E13.50846
G1 X46.424 Y89.191 E13.52175
G1 X47.078 Y88.603 E13.551
G1 X47.355 Y88.362 E13.56322
G1 X48.132 Y87.709 E13.59697
G1 X48.438 Y87.461 E13.61007
G1 X49.187 Y86.876 E13.64168
G1 X49.497 Y86.642 E13.6546
G1 X50.248 Y86.097 E13.68546
G1 X50.552 Y85.885 E13.69779
G1 X51.418 Y85.3 E13.73255
G1 X51.75 Y85.084 E13.74572
G1 X51.803 Y85.051 E13.7478
G0 F1350 X52.482 Y84.627
G0 F7500 X52.693 Y84.966
G1 F1500 X53.009 Y84.777 E13.76005
G1 X53.898 Y84.264 E13.79419
G1 X54.219 Y84.086 E13.80639
G1 X55.005 Y83.668 E13.836
G1 X55.341 Y83.497 E13.84854
G1 X56.306 Y83.027 E13.88424
G1 X56.64 Y82.872 E13.89649
G1 X57.409 Y82.53 E13.92448
G1 X57.726 Y82.395 E13.93594
G1 X58.649 Y82.02 E13.96908
G1 X59.027 Y81.875 E13.98254
G1 X59.976 Y81.531 E14.01612
G1 X60.308 Y81.416 E14.0278
G1 X61.15 Y81.142 E14.05725
G1 X61.511 Y81.032 E14.06981
G1 X62.492 Y80.751 E14.10375
G1 X62.843 Y80.657 E14.11583
G1 X63.724 Y80.437 E14.14603
G1 X64.074 Y80.356 E14.15798
G1 X65.06 Y80.145 E14.19152
G1 X65.462 Y80.067 E14.20514
G1 X66.365 Y79.91 E14.23562
G1 X66.703 Y79.857 E14.247
G1 X67.683 Y79.719 E14.27992
G1 X68.044 Y79.674 E14.29202
G1 X68.978 Y79.575 E14.32326
G1 X69.36 Y79.542 E14.33601
G1 X70.338 Y79.474 E14.36862
G1 X70.704 Y79.454 E14.38081
G1 X71.623 Y79.422 E14.41139
G1 X71.992 Y79.416 E14.42367
G1 X73.007 Y79.416 E14.45743
G1 X73.375 Y79.422 E14.46967
G1 X74.296 Y79.454 E14.50032
G1 X74.665 Y79.474 E14.51261
G1 X75.641 Y79.542 E14.54515
G1 X76.02 Y79.575 E14.55781
G1 X76.955 Y79.674 E14.58908
G1 X77.317 Y79.719 E14.60121
G1 X78.297 Y79.857 E14.63413
G1 X78.648 Y79.912 E14.64594
G1 X79.55 Y80.07 E14.6764
G1 X79.925 Y80.143 E14.68911
G1 X80.913 Y80.353 E14.7227
G1 X81.28 Y80.437 E14.73522
G1 X82.16 Y80.657 E14.76539
G1 X82.508 Y80.751 E14.77738
G1 X83.489 Y81.032 E14.81132
G1 X83.847 Y81.141 E14.82377
G1 X84.69 Y81.415 E14.85325
G1 X85.023 Y81.53 E14.86497
G1 X85.97 Y81.873 E14.89847
G1 X86.346 Y82.017 E14.91186
G1 X87.27 Y82.392 E14.94503
G1 X87.607 Y82.535 E14.9572
G1 X88.375 Y82.878 E14.98518
G1 X88.694 Y83.028 E14.9969
G1 X90.332 Y83.826 E15.05751
G1 X92.696 Y84.938 E15.1444
G1 X95.012 Y85.947 E15.22842
G1 X97.377 Y86.901 E15.31324
G1 X99.739 Y87.776 E15.39702
G1 X102.132 Y88.586 E15.48105
G1 X104.551 Y89.33 E15.56522
G1 X106.974 Y90 E15.64883
