;FLAVOR:Marlin
;TIME:5085
;Filament used: 4.66154m
;Layer height: 0.2
;MINX:39.462
;MINY:84.262
;MINZ:0.2
;MAXX:195.55
;MAXY:150.735
;MAXZ:13.4
;Generated with Cura_SteamEngine 4.5.0
M140 S60
M105
M190 S60
M104 S205
M105
M109 S205
M82 ;absolute extrusion mode
; Ender 3 Custom Start G-code
G92 E0 ; Reset Extruder
G28 ; Home all axes
G1 Z2.0 F3000 ; Move Z Axis up little to prevent scratching of Heat Bed
G1 X0.1 Y20 Z0.3 F5000.0 ; Move to start position
G1 X0.1 Y200.0 Z0.3 F1500.0 E15 ; Draw the first line
G1 X0.4 Y200.0 Z0.3 F5000.0 ; Move to side a little
G1 X0.4 Y20 Z0.3 F1500.0 E30 ; Draw the second line
G92 E0 ; Reset Extruder
G1 Z2.0 F3000 ; Move Z Axis up little to prevent scratching of Heat Bed
G1 X5 Y20 Z0.3 F5000.0 ; Move over to prevent blob squish
G92 E0
G92 E0
G1 F1500 E-6
;LAYER_COUNT:67
;LAYER:0
M107
M204 S500
M205 X20 Y20
G0 F7500 X54.025 Y86.537 Z0.2
;TYPE:SKIRT
G1 F1500 E0
G1 X54.831 Y86.059 E0.03117
G1 X55.555 Y85.704 E0.05799
G1 X56.161 Y85.434 E0.08005
G1 X57.033 Y85.089 E0.11124
G1 X57.74 Y84.871 E0.13585
G1 X58.271 Y84.726 E0.15416
G1 X59.186 Y84.517 E0.18537
G1 X59.811 Y84.421 E0.20641
G1 X60.398 Y84.348 E0.22608
G1 X61.551 Y84.266 E0.26453
G1 X61.766 Y84.262 E0.27168
G1 X62.287 Y84.265 E0.28901
G1 X63.157 Y84.31 E0.31798
G1 X63.37 Y84.329 E0.32509
G1 X64.086 Y84.416 E0.34908
G1 X64.407 Y84.466 E0.35989
G1 X65.728 Y84.756 E0.40487
G1 X66.402 Y84.948 E0.42818
G1 X67.292 Y85.243 E0.45937
G1 X67.896 Y85.493 E0.48111
G1 X68.419 Y85.728 E0.50018
G1 X68.773 Y85.895 E0.5132
G1 X69.072 Y86.042 E0.52428
G1 X71.385 Y87.143 E0.60948
G1 X73.702 Y88.165 E0.69371
G1 X76.024 Y89.113 E0.77713
G1 X78.383 Y90 E0.86095
G1 X80.769 Y90.821 E0.94488
G1 X83.159 Y91.567 E1.02815
G1 X85.588 Y92.25 E1.11207
G1 X88.058 Y92.871 E1.19678
G1 X90.494 Y93.41 E1.27976
G1 X92.983 Y93.887 E1.36405
G1 X95.425 Y94.284 E1.44634
G1 X97.95 Y94.622 E1.53107
G1 X100.44 Y94.883 E1.61434
G1 X102.97 Y95.077 E1.69874
G1 X105.459 Y95.197 E1.78162
G1 X108.566 Y95.25 E1.88497
G1 X183.843 Y95.25 E4.3887
G1 X184.016 Y95.251 E4.39445
G1 X184.714 Y95.262 E4.41767
G1 X185.651 Y95.317 E4.44889
G1 X186.579 Y95.451 E4.48007
G1 X187.492 Y95.664 E4.51125
G1 X188.384 Y95.954 E4.54245
G1 X189.248 Y96.319 E4.57365
G1 X190.078 Y96.756 E4.60485
G1 X190.867 Y97.262 E4.63602
G1 X191.611 Y97.834 E4.66723
G1 X192.303 Y98.467 E4.69843
G1 X192.939 Y99.156 E4.72961
G1 X193.514 Y99.898 E4.76084
G1 X194.023 Y100.685 E4.79201
G1 X194.464 Y101.513 E4.82321
G1 X194.832 Y102.375 E4.85438
G1 X195.125 Y103.266 E4.88558
G1 X195.342 Y104.179 E4.91679
G1 X195.48 Y105.106 E4.94797
G1 X195.537 Y105.951 E4.97613
G1 X195.55 Y106.58 E4.99706
G1 X195.549 Y111.7 E5.16735
G1 X195.531 Y112.903 E5.20737
G1 X195.474 Y114.948 E5.27541
G1 X195.474 Y117.501 E5.36032
G1 X195.502 Y118.77 E5.40254
G1 X195.55 Y120.562 E5.46216
G1 X195.549 Y125.665 E5.63189
G1 X195.539 Y126.392 E5.65607
G1 X195.486 Y127.329 E5.68729
G1 X195.354 Y128.257 E5.71846
G1 X195.143 Y129.171 E5.74966
G1 X194.854 Y130.063 E5.78085
G1 X194.491 Y130.928 E5.81205
G1 X194.056 Y131.759 E5.84325
G1 X193.551 Y132.549 E5.87443
G1 X192.981 Y133.294 E5.90563
G1 X192.35 Y133.988 E5.93683
G1 X191.661 Y134.625 E5.96804
G1 X190.921 Y135.201 E5.99923
G1 X190.135 Y135.712 E6.03041
G1 X189.308 Y136.154 E6.0616
G1 X188.446 Y136.524 E6.0928
G1 X187.556 Y136.819 E6.12398
G1 X186.644 Y137.038 E6.15518
G1 X185.717 Y137.178 E6.18636
G1 X184.849 Y137.237 E6.2153
G1 X184.22 Y137.25 E6.23622
G1 X133.172 Y137.25 E7.93409
G1 X130.564 Y137.287 E8.02084
G1 X128.043 Y137.394 E8.10476
G1 X125.548 Y137.571 E8.18795
G1 X123.048 Y137.819 E8.27151
G1 X120.555 Y138.138 E8.35511
G1 X118.062 Y138.529 E8.43904
G1 X115.572 Y138.992 E8.52327
G1 X113.109 Y139.522 E8.60707
G1 X110.713 Y140.11 E8.68912
G1 X108.243 Y140.789 E8.77432
G1 X105.84 Y141.525 E8.85791
G1 X103.448 Y142.332 E8.94188
G1 X101.108 Y143.195 E9.02483
G1 X98.752 Y144.141 E9.10927
G1 X96.454 Y145.141 E9.19263
G1 X94.149 Y146.221 E9.27729
G1 X93.417 Y146.585 E9.30448
G1 X91.629 Y147.457 E9.37065
G1 X91.276 Y147.621 E9.38359
G1 X90.617 Y147.914 E9.40758
G1 X90.262 Y148.065 E9.42041
G1 X89.471 Y148.384 E9.44878
G1 X89.123 Y148.517 E9.46117
G1 X88.382 Y148.787 E9.4874
G1 X88.019 Y148.912 E9.50017
G1 X87.232 Y149.168 E9.52769
G1 X86.868 Y149.28 E9.54036
G1 X86.068 Y149.51 E9.56805
G1 X85.676 Y149.615 E9.58154
G1 X84.841 Y149.822 E9.61016
G1 X84.503 Y149.9 E9.62169
G1 X83.795 Y150.052 E9.64578
G1 X83.39 Y150.131 E9.6595
G1 X82.491 Y150.289 E9.68986
G1 X82.114 Y150.349 E9.70256
G1 X81.322 Y150.46 E9.72916
G1 X80.948 Y150.505 E9.74169
G1 X80.189 Y150.585 E9.76707
G1 X79.805 Y150.619 E9.77989
G1 X78.963 Y150.678 E9.80797
G1 X78.573 Y150.698 E9.82096
G1 X77.702 Y150.728 E9.84994
G1 X77.323 Y150.735 E9.86255
G1 X76.578 Y150.735 E9.88733
G1 X76.2 Y150.729 E9.8999
G1 X75.327 Y150.699 E9.92896
G1 X74.934 Y150.678 E9.94205
G1 X74.094 Y150.619 E9.97005
G1 X73.713 Y150.586 E9.98277
G1 X72.953 Y150.506 E10.00819
G1 X72.578 Y150.46 E10.02076
G1 X71.786 Y150.349 E10.04736
G1 X71.395 Y150.287 E10.06052
G1 X70.497 Y150.128 E10.09086
G1 X70.127 Y150.055 E10.1034
G1 X69.417 Y149.904 E10.12754
G1 X69.055 Y149.821 E10.13989
G1 X68.221 Y149.614 E10.16848
G1 X67.832 Y149.51 E10.18187
G1 X67.032 Y149.28 E10.20955
G1 X66.672 Y149.17 E10.22207
G1 X65.884 Y148.914 E10.24963
G1 X65.517 Y148.787 E10.26255
G1 X64.776 Y148.517 E10.28878
G1 X64.423 Y148.382 E10.30135
G1 X63.633 Y148.063 E10.32969
G1 X63.276 Y147.911 E10.34259
G1 X62.616 Y147.617 E10.36662
G1 X62.273 Y147.457 E10.37921
G1 X61.405 Y147.034 E10.41133
G1 X61.064 Y146.861 E10.42404
G1 X60.437 Y146.528 E10.44766
G1 X60.09 Y146.335 E10.46086
G1 X59.317 Y145.888 E10.49056
G1 X58.995 Y145.695 E10.50305
G1 X58.342 Y145.287 E10.52866
G1 X58.019 Y145.077 E10.54147
G1 X57.349 Y144.625 E10.56835
G1 X57.037 Y144.406 E10.58103
G1 X56.332 Y143.894 E10.61001
G1 X56.026 Y143.664 E10.62274
G1 X55.378 Y143.158 E10.65009
G1 X55.072 Y142.91 E10.66319
G1 X54.509 Y142.437 E10.68765
G1 X54.225 Y142.19 E10.70016
G1 X53.513 Y141.549 E10.73203
G1 X53.222 Y141.277 E10.74528
G1 X52.689 Y140.761 E10.76995
G1 X52.432 Y140.504 E10.78204
G1 X51.908 Y139.962 E10.80711
G1 X51.647 Y139.683 E10.81982
G1 X51.041 Y139.011 E10.84992
G1 X50.786 Y138.718 E10.86284
G1 X50.257 Y138.088 E10.8902
G1 X50.009 Y137.782 E10.9033
G1 X49.547 Y137.19 E10.92827
G1 X49.318 Y136.885 E10.94096
G1 X48.793 Y136.162 E10.97068
G1 X48.577 Y135.854 E10.98319
G1 X48.124 Y135.183 E11.01012
G1 X47.91 Y134.853 E11.0232
G1 X47.503 Y134.201 E11.04876
G1 X47.308 Y133.877 E11.06134
G1 X46.861 Y133.103 E11.09107
G1 X46.674 Y132.764 E11.10395
G1 X45.311 Y130.199 E11.20055
G1 X44.039 Y127.934 E11.28696
G1 X42.762 Y125.798 E11.36973
G1 X41.716 Y124.153 E11.43456
G1 X41.337 Y123.51 E11.45939
G1 X41.239 Y123.33 E11.46621
G1 X40.791 Y122.408 E11.5003
G1 X40.573 Y121.9 E11.51869
G1 X40.241 Y121.023 E11.54988
G1 X40.071 Y120.46 E11.56944
G1 X39.926 Y119.929 E11.58774
G1 X39.717 Y119.014 E11.61896
G1 X39.621 Y118.389 E11.63999
G1 X39.548 Y117.802 E11.65967
G1 X39.466 Y116.64 E11.69841
G1 X39.462 Y116.415 E11.7059
G1 X39.471 Y115.689 E11.73004
G1 X39.506 Y115.084 E11.7502
G1 X39.524 Y114.873 E11.75724
G1 X39.587 Y114.308 E11.77615
G1 X39.617 Y114.09 E11.78347
G1 X39.734 Y113.403 E11.80665
G1 X39.777 Y113.191 E11.81384
G1 X40.022 Y112.214 E11.84735
G1 X40.192 Y111.648 E11.867
G1 X40.668 Y110.361 E11.91264
G1 X40.822 Y110.013 E11.9253
G1 X41.127 Y109.379 E11.9487
G1 X41.428 Y108.805 E11.97026
G1 X42.313 Y107.17 E12.03209
G1 X43.457 Y104.901 E12.11661
G1 X44.534 Y102.609 E12.20084
G1 X45.519 Y100.346 E12.28293
G1 X46.462 Y98.007 E12.36681
G1 X47.796 Y94.313 E12.49743
G1 X48.132 Y93.447 E12.52833
G1 X48.303 Y93.056 E12.54252
G1 X48.715 Y92.214 E12.5737
G1 X49.057 Y91.627 E12.5963
G1 X49.452 Y90.996 E12.62106
G1 X49.983 Y90.223 E12.65225
G1 X50.283 Y89.843 E12.66835
G1 X50.497 Y89.583 E12.67955
G1 X51.104 Y88.904 E12.70984
G1 X51.316 Y88.686 E12.71996
G1 X51.998 Y88.042 E12.75116
G1 X52.378 Y87.728 E12.76755
G1 X52.823 Y87.376 E12.78642
G1 X53.364 Y86.987 E12.80859
G0 F1350 X53.64 Y86.788
G0 X54.025 Y86.537
G0 F7500 X54.243 Y86.872
G1 F1500 X55.035 Y86.404 E12.83918
G1 X55.718 Y86.07 E12.86447
G1 X56.324 Y85.8 E12.88654
G1 X57.18 Y85.462 E12.91715
G1 X57.846 Y85.256 E12.94033
G1 X58.377 Y85.111 E12.95864
G1 X59.275 Y84.908 E12.98926
G1 X59.861 Y84.818 E13.00898
G1 X60.448 Y84.745 E13.02866
G1 X61.559 Y84.666 E13.0657
G1 X61.774 Y84.662 E13.07285
G1 X62.275 Y84.664 E13.08952
G1 X63.122 Y84.708 E13.11773
G1 X63.335 Y84.727 E13.12484
G1 X64.024 Y84.811 E13.14792
G1 X64.345 Y84.861 E13.15873
G1 X65.618 Y85.141 E13.20208
G1 X66.292 Y85.333 E13.22539
G1 X67.166 Y85.623 E13.25602
G1 X67.732 Y85.858 E13.2764
G1 X68.255 Y86.093 E13.29547
G1 X68.597 Y86.254 E13.30804
G1 X68.873 Y86.39 E13.31828
G1 X71.231 Y87.512 E13.40513
G1 X73.539 Y88.53 E13.48903
G1 X75.88 Y89.486 E13.57314
G1 X78.248 Y90.376 E13.65727
G1 X80.657 Y91.205 E13.74201
G1 X83.046 Y91.951 E13.82525
G1 X85.479 Y92.635 E13.90931
G1 X87.98 Y93.264 E13.99509
G1 X90.411 Y93.801 E14.07789
G1 X92.875 Y94.274 E14.16134
G1 X95.414 Y94.687 E14.2469
G1 X97.888 Y95.018 E14.32992
G1 X100.405 Y95.282 E14.41409
G1 X102.922 Y95.475 E14.49805
G1 X105.466 Y95.597 E14.58276
G1 X108.559 Y95.65 E14.68565
G1 X183.843 Y95.65 E17.18961
G1 X184.01 Y95.651 E17.19516
G1 X184.708 Y95.662 E17.21838
G1 X185.627 Y95.717 E17.249
G1 X186.538 Y95.851 E17.27963
G1 X187.434 Y96.063 E17.31025
G1 X188.308 Y96.353 E17.34088
G1 X189.153 Y96.717 E17.37148
G1 X189.964 Y97.153 E17.40211
G1 X190.734 Y97.658 E17.43273
G1 X191.457 Y98.228 E17.46335
G1 X192.128 Y98.858 E17.49397
G1 X192.742 Y99.545 E17.52461
G1 X193.293 Y100.282 E17.55522
G1 X193.779 Y101.064 E17.58584
G1 X194.195 Y101.885 E17.61645
G1 X194.539 Y102.739 E17.64708
G1 X194.807 Y103.62 E17.6777
G1 X194.997 Y104.521 E17.70833
G1 X195.109 Y105.434 E17.73892
G1 X195.137 Y105.962 E17.75651
G1 X195.15 Y106.58 E17.77707
G1 X195.149 Y111.694 E17.94716
G1 X195.131 Y112.891 E17.98698
G1 X195.074 Y114.936 E18.05502
G1 X195.074 Y117.51 E18.14063
G1 X195.102 Y118.781 E18.18292
G1 X195.15 Y120.562 E18.24217
G1 X195.149 Y125.66 E18.41173
G1 X195.139 Y126.387 E18.43592
G1 X195.086 Y127.306 E18.46653
G1 X194.954 Y128.217 E18.49715
G1 X194.743 Y129.113 E18.52777
G1 X194.456 Y129.988 E18.5584
G1 X194.093 Y130.834 E18.58901
G1 X193.659 Y131.646 E18.61964
G1 X193.155 Y132.417 E18.65027
G1 X192.587 Y133.141 E18.68088
G1 X191.958 Y133.813 E18.71149
G1 X191.273 Y134.428 E18.74211
G1 X190.537 Y134.981 E18.77273
G1 X189.756 Y135.469 E18.80336
G1 X188.936 Y135.887 E18.83397
G1 X188.082 Y136.232 E18.86461
G1 X187.202 Y136.501 E18.89521
G1 X186.301 Y136.694 E18.92586
G1 X185.388 Y136.807 E18.95646
G1 X184.838 Y136.837 E18.97478
G1 X184.22 Y136.85 E18.99534
G1 X133.166 Y136.85 E20.6934
G1 X130.541 Y136.887 E20.78072
G1 X128.033 Y136.994 E20.86421
G1 X125.513 Y137.172 E20.94824
G1 X122.998 Y137.421 E21.03229
G1 X120.509 Y137.74 E21.11576
G1 X117.957 Y138.141 E21.20168
G1 X115.526 Y138.593 E21.28392
G1 X113.027 Y139.131 E21.36894
G1 X110.591 Y139.728 E21.45236
G1 X108.125 Y140.406 E21.53742
G1 X105.732 Y141.139 E21.62066
G1 X103.318 Y141.953 E21.70539
G1 X100.968 Y142.82 E21.78871
G1 X98.58 Y143.779 E21.8743
G1 X96.303 Y144.77 E21.95689
G1 X93.979 Y145.859 E22.04225
G1 X93.241 Y146.225 E22.06965
G1 X91.453 Y147.097 E22.13582
G1 X91.113 Y147.256 E22.1483
G1 X90.454 Y147.549 E22.17229
G1 X90.113 Y147.694 E22.18461
G1 X89.322 Y148.013 E22.21298
G1 X88.986 Y148.141 E22.22494
G1 X88.245 Y148.411 E22.25117
G1 X87.895 Y148.532 E22.26349
G1 X87.108 Y148.788 E22.29101
G1 X86.758 Y148.895 E22.30319
G1 X85.958 Y149.125 E22.33087
G1 X85.58 Y149.227 E22.34389
G1 X84.745 Y149.434 E22.37251
G1 X84.419 Y149.509 E22.38363
G1 X83.711 Y149.661 E22.40772
G1 X83.321 Y149.737 E22.42093
G1 X82.422 Y149.895 E22.45129
G1 X82.058 Y149.952 E22.46355
G1 X81.266 Y150.063 E22.49015
G1 X80.906 Y150.108 E22.50221
G1 X80.147 Y150.188 E22.5276
G1 X79.777 Y150.22 E22.53995
G1 X78.935 Y150.279 E22.56802
G1 X78.559 Y150.299 E22.58055
G1 X77.688 Y150.329 E22.60953
G1 X77.323 Y150.335 E22.62167
G1 X76.578 Y150.335 E22.64645
G1 X76.214 Y150.329 E22.65856
G1 X75.341 Y150.299 E22.68761
G1 X74.962 Y150.279 E22.70024
G1 X74.122 Y150.22 E22.72825
G1 X73.755 Y150.188 E22.7405
G1 X72.995 Y150.108 E22.76592
G1 X72.634 Y150.063 E22.77802
G1 X71.842 Y149.952 E22.80461
G1 X71.465 Y149.893 E22.81731
G1 X70.567 Y149.734 E22.84764
G1 X70.21 Y149.664 E22.85974
G1 X69.5 Y149.513 E22.88388
G1 X69.152 Y149.433 E22.89576
G1 X68.318 Y149.226 E22.92434
G1 X67.942 Y149.125 E22.93729
G1 X67.142 Y148.895 E22.96497
G1 X66.796 Y148.789 E22.97701
G1 X66.008 Y148.533 E23.00457
G1 X65.654 Y148.411 E23.01702
G1 X64.913 Y148.141 E23.04325
G1 X64.573 Y148.011 E23.05536
G1 X63.783 Y147.692 E23.0837
G1 X63.439 Y147.546 E23.09612
G1 X62.779 Y147.252 E23.12016
G1 X62.448 Y147.098 E23.1323
G1 X61.58 Y146.675 E23.16441
G1 X61.252 Y146.508 E23.17666
G1 X60.625 Y146.175 E23.20027
G1 X60.291 Y145.989 E23.21298
G1 X59.518 Y145.542 E23.24268
G1 X59.207 Y145.356 E23.25474
G1 X58.554 Y144.948 E23.28034
G1 X58.243 Y144.745 E23.2927
G1 X57.573 Y144.293 E23.31958
G1 X57.272 Y144.083 E23.33179
G1 X56.567 Y143.571 E23.36077
G1 X56.272 Y143.349 E23.37304
G1 X55.624 Y142.843 E23.40039
G1 X55.329 Y142.604 E23.41302
G1 X54.766 Y142.131 E23.43747
G1 X54.493 Y141.893 E23.44952
G1 X53.781 Y141.252 E23.48138
G1 X53.5 Y140.99 E23.49416
G1 X52.967 Y140.474 E23.51884
G1 X52.719 Y140.226 E23.5305
G1 X52.195 Y139.684 E23.55558
G1 X51.944 Y139.415 E23.56781
G1 X51.338 Y138.743 E23.59791
G1 X51.092 Y138.46 E23.61038
G1 X50.563 Y137.83 E23.63774
G1 X50.325 Y137.535 E23.65035
G1 X49.863 Y136.943 E23.67533
G1 X49.642 Y136.65 E23.68753
G1 X49.117 Y135.927 E23.71725
G1 X48.909 Y135.63 E23.72931
G1 X48.456 Y134.959 E23.75624
G1 X48.249 Y134.641 E23.76886
G1 X47.842 Y133.989 E23.79442
G1 X47.655 Y133.677 E23.80652
G1 X47.208 Y132.903 E23.83625
G1 X47.027 Y132.577 E23.84865
G1 X45.651 Y129.988 E23.94617
G1 X44.389 Y127.739 E24.03194
G1 X43.083 Y125.557 E24.11652
G1 X42.054 Y123.938 E24.18033
G1 X41.688 Y123.319 E24.20424
G1 X41.59 Y123.139 E24.21106
G1 X41.159 Y122.25 E24.24392
G1 X40.941 Y121.742 E24.26231
G1 X40.615 Y120.881 E24.29293
G1 X40.456 Y120.354 E24.31124
G1 X40.311 Y119.823 E24.32954
G1 X40.108 Y118.925 E24.36016
G1 X40.018 Y118.339 E24.37988
G1 X39.945 Y117.752 E24.39956
G1 X39.866 Y116.632 E24.4369
G1 X39.862 Y116.407 E24.44439
G1 X39.871 Y115.701 E24.46787
G1 X39.904 Y115.118 E24.48729
G1 X39.922 Y114.907 E24.49433
G1 X39.983 Y114.363 E24.51254
G1 X40.013 Y114.145 E24.51986
G1 X40.126 Y113.483 E24.5422
G1 X40.169 Y113.271 E24.54939
G1 X40.405 Y112.329 E24.58169
G1 X40.575 Y111.763 E24.60135
G1 X41.034 Y110.522 E24.64536
G1 X41.188 Y110.174 E24.65801
G1 X41.482 Y109.564 E24.68054
G1 X41.78 Y108.995 E24.7019
G1 X42.677 Y107.339 E24.76454
G1 X43.798 Y105.116 E24.84734
G1 X44.885 Y102.802 E24.93238
G1 X45.904 Y100.463 E25.01724
G1 X46.842 Y98.134 E25.10074
G1 X48.175 Y94.442 E25.2313
G1 X48.498 Y93.608 E25.26105
G1 X48.669 Y93.217 E25.27524
G1 X49.074 Y92.39 E25.30587
G1 X49.396 Y91.84 E25.32707
G1 X49.791 Y91.209 E25.35183
G1 X50.592 Y90.097 E25.39741
G1 X50.806 Y89.837 E25.40861
G1 X51.391 Y89.183 E25.43779
G1 X51.603 Y88.965 E25.44791
G1 X52.626 Y88.041 E25.49375
G1 X53.071 Y87.689 E25.51263
G1 X53.582 Y87.322 E25.53355
G0 F1350 X53.858 Y87.123
G0 X54.243 Y86.872
G0 F7500 X54.461 Y87.207
G1 F1500 X55.239 Y86.748 E25.5636
G1 X55.881 Y86.435 E25.58735
G1 X56.487 Y86.165 E25.60942
G1 X57.327 Y85.834 E25.63945
G1 X57.951 Y85.642 E25.66116
G1 X58.482 Y85.497 E25.67947
G1 X59.363 Y85.298 E25.70951
G1 X59.91 Y85.215 E25.72791
G1 X60.497 Y85.142 E25.74758
G1 X61.566 Y85.066 E25.78323
G1 X61.781 Y85.062 E25.79038
G1 X62.264 Y85.064 E25.80645
G1 X63.086 Y85.106 E25.83382
G1 X63.299 Y85.125 E25.84093
G1 X63.963 Y85.207 E25.86319
G1 X64.284 Y85.257 E25.87399
G1 X65.508 Y85.525 E25.91567
G1 X66.182 Y85.717 E25.93898
G1 X67.039 Y86.003 E25.96903
G1 X67.569 Y86.223 E25.98811
G1 X68.092 Y86.458 E26.00718
G1 X68.674 Y86.738 E26.02866
G1 X71.076 Y87.881 E26.11714
G1 X73.362 Y88.889 E26.20023
