;FLAVOR:Marlin
;TIME:6640
;Filament used: 7.36867m
;Layer height: 0.28
;MINX:28.767
;MINY:79.016
;MINZ:0.28
;MAXX:206.231
;MAXY:155.984
;MAXZ:7.56
;Generated with Cura_SteamEngine 4.5.0
M140 S60
M105
M190 S60
M104 S205
M105
M109 S205
M82 ;absolute extrusion mode
; Ender 3 Custom Start G-code
G92 E0 ; Reset Extruder
G28 ; Home all axes
G1 Z2.0 F3000 ; Move Z Axis up little to prevent scratching of Heat Bed
G1 X0.1 Y20 Z0.3 F5000.0 ; Move to start position
G1 X0.1 Y200.0 Z0.3 F1500.0 E15 ; Draw the first line
G1 X0.4 Y200.0 Z0.3 F5000.0 ; Move to side a little
G1 X0.4 Y20 Z0.3 F1500.0 E30 ; Draw the second line
G92 E0 ; Reset Extruder
G1 Z2.0 F3000 ; Move Z Axis up little to prevent scratching of Heat Bed
G1 X5 Y20 Z0.3 F5000.0 ; Move over to prevent blob squish
G92 E0
G92 E0
G1 F1500 E-6
;LAYER_COUNT:27
;LAYER:0
M107
G0 F7500 X48.455 Y83.913 Z0.28
;TYPE:SKIRT
G1 F1500 E0
G1 X48.798 Y83.723 E0.01826
G1 X49.574 Y83.311 E0.05917
G1 X49.915 Y83.138 E0.07697
G1 X50.88 Y82.668 E0.12695
G1 X51.229 Y82.505 E0.14489
G1 X51.958 Y82.181 E0.18204
G1 X52.296 Y82.038 E0.19913
G1 X53.328 Y81.62 E0.25097
G1 X53.7 Y81.477 E0.26953
G1 X54.528 Y81.176 E0.31055
G1 X54.879 Y81.055 E0.32784
G1 X55.797 Y80.756 E0.3728
G1 X56.176 Y80.64 E0.39125
G1 X57.133 Y80.366 E0.43761
G1 X57.496 Y80.269 E0.4551
G1 X58.377 Y80.049 E0.49739
G1 X58.74 Y79.965 E0.51474
G1 X59.726 Y79.754 E0.56169
G1 X60.144 Y79.673 E0.58151
G1 X61.397 Y79.46 E0.64069
G1 X62.377 Y79.322 E0.68678
G1 X62.752 Y79.276 E0.70437
G1 X63.686 Y79.177 E0.7481
G1 X64.082 Y79.142 E0.76662
G1 X65.06 Y79.074 E0.81227
G1 X65.44 Y79.055 E0.82998
G1 X66.359 Y79.023 E0.8728
G1 X66.742 Y79.016 E0.89064
G1 X67.757 Y79.016 E0.9379
G1 X68.139 Y79.023 E0.95569
G1 X69.443 Y79.075 E1.01646
G1 X70.419 Y79.143 E1.06202
G1 X70.812 Y79.177 E1.08038
G1 X71.747 Y79.276 E1.12416
G1 X72.123 Y79.322 E1.1418
G1 X73.103 Y79.46 E1.18789
G1 X73.467 Y79.518 E1.20505
G1 X74.369 Y79.676 E1.24769
G1 X74.758 Y79.751 E1.26614
G1 X75.746 Y79.961 E1.31317
G1 X76.127 Y80.049 E1.33138
G1 X77.007 Y80.269 E1.37362
G1 X77.367 Y80.366 E1.39098
G1 X78.324 Y80.64 E1.43733
G1 X78.699 Y80.755 E1.45559
G1 X79.618 Y81.054 E1.50059
G1 X79.973 Y81.176 E1.51807
G1 X80.801 Y81.477 E1.5591
G1 X81.167 Y81.618 E1.57736
G1 X82.198 Y82.035 E1.62915
G1 X82.552 Y82.185 E1.64705
G1 X83.279 Y82.509 E1.68411
G1 X83.621 Y82.668 E1.70167
G1 X85.306 Y83.489 E1.78895
G1 X87.597 Y84.567 E1.90685
G1 X89.935 Y85.586 E2.02561
G1 X92.267 Y86.526 E2.14268
G1 X94.619 Y87.398 E2.25949
G1 X96.99 Y88.2 E2.37604
G1 X99.419 Y88.947 E2.49437
G1 X101.846 Y89.618 E2.61162
G1 X104.294 Y90.223 E2.72904
G1 X106.76 Y90.755 E2.84651
G1 X109.19 Y91.21 E2.96162
G1 X111.69 Y91.606 E3.07949
G1 X114.206 Y91.93 E3.19761
G1 X116.699 Y92.181 E3.31428
G1 X119.242 Y92.364 E3.433
G1 X121.704 Y92.472 E3.54775
G1 X124.256 Y92.511 E3.6666
G1 X126.751 Y92.478 E3.78278
G1 X129.296 Y92.374 E3.90139
G1 X131.792 Y92.199 E4.0179
G1 X134.281 Y91.955 E4.13435
G1 X136.791 Y91.638 E4.25216
G1 X139.268 Y91.252 E4.36889
G1 X141.766 Y90.791 E4.48717
G1 X144.171 Y90.276 E4.6017
G1 X146.696 Y89.661 E4.72271
G1 X147.349 Y89.485 E4.7542
G1 X147.884 Y89.35 E4.77989
G1 X148.802 Y89.16 E4.82354
G1 X149.733 Y89.048 E4.86721
G1 X150.383 Y89.018 E4.89751
G1 X151.493 Y89 E4.9492
G1 X167.253 Y89.004 E5.68305
G1 X167.637 Y89.011 E5.70093
G1 X168.545 Y89.043 E5.74324
G1 X168.933 Y89.063 E5.76133
G1 X169.542 Y89.106 E5.78976
G1 X169.89 Y89.137 E5.80603
G1 X170.455 Y89.195 E5.83248
G1 X170.875 Y89.246 E5.85218
G1 X171.609 Y89.35 E5.8867
G1 X171.967 Y89.406 E5.90357
G1 X172.423 Y89.486 E5.92513
G1 X172.804 Y89.56 E5.9432
G1 X173.502 Y89.708 E5.97642
G1 X173.888 Y89.797 E5.99487
G1 X174.444 Y89.936 E6.02156
G1 X174.816 Y90.036 E6.03949
G1 X175.362 Y90.193 E6.06595
G1 X175.71 Y90.3 E6.0829
G1 X176.371 Y90.514 E6.11525
G1 X176.749 Y90.644 E6.13386
G1 X177.265 Y90.832 E6.15944
G1 X177.621 Y90.969 E6.1772
G1 X178.237 Y91.218 E6.20814
G1 X178.602 Y91.373 E6.2266
G1 X179.137 Y91.612 E6.25389
G1 X179.459 Y91.762 E6.27043
G1 X179.928 Y91.99 E6.29471
G1 X180.277 Y92.167 E6.31293
G1 X180.974 Y92.537 E6.34968
G1 X181.324 Y92.731 E6.36831
G1 X181.668 Y92.93 E6.38681
G1 X181.984 Y93.12 E6.40398
G1 X182.649 Y93.535 E6.44048
G1 X182.983 Y93.752 E6.45903
G1 X184.027 Y94.457 E6.51769
G1 X186.166 Y95.858 E6.63675
G1 X188.302 Y97.172 E6.75353
G1 X190.526 Y98.453 E6.87304
G1 X192.717 Y99.636 E6.98898
G1 X194.905 Y100.739 E7.10308
G1 X196.315 Y101.426 E7.17611
G1 X196.913 Y101.741 E7.20758
G1 X197.309 Y101.965 E7.22877
G1 X197.946 Y102.354 E7.26352
G1 X198.339 Y102.613 E7.28544
G1 X198.988 Y103.075 E7.32253
G1 X199.411 Y103.4 E7.34737
G1 X199.956 Y103.848 E7.38022
G1 X200.27 Y104.123 E7.39966
G1 X200.682 Y104.503 E7.42576
G1 X200.849 Y104.665 E7.43659
G1 X201.247 Y105.068 E7.46297
G1 X201.705 Y105.566 E7.49447
G1 X202.118 Y106.054 E7.52424
G1 X202.496 Y106.528 E7.55247
G1 X202.972 Y107.172 E7.58976
G1 X203.213 Y107.524 E7.60962
G1 X203.596 Y108.123 E7.64273
G1 X203.821 Y108.502 E7.66325
G1 X204.193 Y109.182 E7.69934
G1 X204.444 Y109.682 E7.7254
G1 X204.68 Y110.182 E7.75114
G1 X204.78 Y110.409 E7.76269
G1 X205.05 Y111.083 E7.7965
G1 X205.229 Y111.575 E7.82088
G1 X205.462 Y112.29 E7.8559
G1 X205.596 Y112.755 E7.87843
G1 X205.742 Y113.319 E7.90556
G1 X205.808 Y113.604 E7.91918
G1 X205.923 Y114.165 E7.94584
G1 X205.995 Y114.571 E7.96504
G1 X206.101 Y115.317 E8.00013
G1 X206.156 Y115.829 E8.02411
G1 X206.211 Y116.592 E8.05973
G1 X206.229 Y117.072 E8.0821
G1 X206.231 Y117.847 E8.11818
G1 X206.215 Y118.332 E8.14078
G1 X206.161 Y119.114 E8.17728
G1 X206.109 Y119.611 E8.20055
G1 X206.01 Y120.329 E8.2343
G1 X205.933 Y120.777 E8.25546
G1 X205.807 Y121.401 E8.28511
G1 X205.742 Y121.681 E8.29849
G1 X205.602 Y122.222 E8.32451
G1 X205.468 Y122.69 E8.34718
G1 X205.228 Y123.428 E8.38332
G1 X205.048 Y123.922 E8.4078
G1 X204.772 Y124.607 E8.44219
G1 X204.672 Y124.833 E8.45369
G1 X204.495 Y125.213 E8.47321
G1 X204.319 Y125.573 E8.49187
G1 X204.014 Y126.153 E8.52239
G1 X203.788 Y126.553 E8.54378
G1 X203.407 Y127.178 E8.57786
G1 X203.151 Y127.568 E8.59959
G1 X202.681 Y128.23 E8.63739
G1 X202.354 Y128.656 E8.6624
G1 X201.903 Y129.205 E8.69548
G1 X201.628 Y129.519 E8.71492
G1 X201.248 Y129.932 E8.74105
G1 X201.085 Y130.1 E8.75195
G1 X200.684 Y130.495 E8.77816
G1 X200.397 Y130.764 E8.79647
G1 X200.204 Y130.938 E8.80857
G1 X199.696 Y131.368 E8.83957
G1 X199.222 Y131.746 E8.8678
G1 X198.578 Y132.222 E8.90509
G1 X198.226 Y132.463 E8.92495
G1 X197.621 Y132.85 E8.95839
G1 X197.238 Y133.077 E8.97912
G1 X196.48 Y133.486 E9.01923
G1 X194.983 Y134.222 E9.0969
G1 X192.649 Y135.4 E9.21864
G1 X190.407 Y136.613 E9.33734
G1 X188.221 Y137.876 E9.4549
G1 X186.101 Y139.184 E9.57089
G1 X184.016 Y140.55 E9.68696
G1 X182.983 Y141.248 E9.74501
G1 X182.642 Y141.469 E9.76393
G1 X181.976 Y141.884 E9.80047
G1 X181.679 Y142.063 E9.81662
G1 X181.336 Y142.262 E9.83508
G1 X180.974 Y142.463 E9.85436
G1 X180.277 Y142.833 E9.89111
G1 X179.937 Y143.006 E9.90887
G1 X179.469 Y143.234 E9.93311
G1 X179.115 Y143.398 E9.95128
G1 X178.579 Y143.636 E9.97859
G1 X178.246 Y143.778 E9.99544
G1 X177.629 Y144.028 E10.02644
G1 X177.264 Y144.168 E10.04465
G1 X176.748 Y144.356 E10.07022
G1 X176.375 Y144.485 E10.0886
G1 X175.715 Y144.699 E10.1209
G1 X175.362 Y144.807 E10.13809
G1 X174.816 Y144.964 E10.16455
G1 X174.439 Y145.065 E10.18272
G1 X173.882 Y145.204 E10.20945
G1 X173.522 Y145.287 E10.22665
G1 X172.826 Y145.436 E10.2598
G1 X172.397 Y145.519 E10.28014
G1 X171.94 Y145.598 E10.30174
G1 X171.609 Y145.65 E10.31734
G1 X170.875 Y145.754 E10.35186
G1 X170.457 Y145.805 E10.37147
G1 X169.893 Y145.863 E10.39787
G1 X169.54 Y145.894 E10.41437
G1 X168.929 Y145.937 E10.44289
G1 X168.545 Y145.957 E10.4608
G1 X167.351 Y145.996 E10.51642
G1 X166.911 Y146 E10.53691
G1 X116.824 Y146 E12.86917
G1 X114.216 Y146.037 E12.99062
G1 X111.695 Y146.144 E13.10812
G1 X109.2 Y146.321 E13.22459
G1 X106.7 Y146.569 E13.34157
G1 X104.207 Y146.888 E13.4586
G1 X101.714 Y147.279 E13.57611
G1 X99.224 Y147.742 E13.69404
G1 X96.761 Y148.272 E13.81135
G1 X94.365 Y148.86 E13.92623
G1 X91.895 Y149.539 E14.04551
G1 X89.492 Y150.275 E14.16253
G1 X87.1 Y151.082 E14.28008
G1 X84.755 Y151.946 E14.39645
G1 X83.365 Y152.505 E14.46621
G1 X81.123 Y153.4 E14.57862
G1 X80.801 Y153.523 E14.59467
G1 X79.973 Y153.824 E14.6357
G1 X79.618 Y153.946 E14.65317
G1 X78.699 Y154.245 E14.69817
G1 X78.324 Y154.36 E14.71644
G1 X77.367 Y154.634 E14.76279
G1 X77.004 Y154.731 E14.78029
G1 X76.123 Y154.951 E14.82257
G1 X75.76 Y155.035 E14.83992
G1 X74.774 Y155.246 E14.88687
G1 X74.356 Y155.327 E14.9067
G1 X73.103 Y155.54 E14.96588
G1 X72.123 Y155.678 E15.01196
G1 X71.748 Y155.724 E15.02955
G1 X70.814 Y155.823 E15.07329
G1 X70.418 Y155.858 E15.0918
G1 X69.44 Y155.926 E15.13745
G1 X69.06 Y155.945 E15.15517
G1 X68.141 Y155.977 E15.19799
G1 X67.758 Y155.984 E15.21582
G1 X66.743 Y155.984 E15.26309
G1 X66.361 Y155.977 E15.28088
G1 X65.44 Y155.945 E15.32379
G1 X65.057 Y155.925 E15.34165
G1 X64.081 Y155.857 E15.3872
G1 X63.688 Y155.823 E15.40557
G1 X62.753 Y155.724 E15.44935
G1 X62.377 Y155.678 E15.46699
G1 X61.397 Y155.54 E15.51307
G1 X61.033 Y155.482 E15.53024
G1 X60.131 Y155.324 E15.57288
G1 X59.742 Y155.249 E15.59132
G1 X58.754 Y155.039 E15.63836
G1 X58.373 Y154.951 E15.65656
G1 X57.493 Y154.731 E15.6988
G1 X57.133 Y154.634 E15.71616
G1 X56.176 Y154.36 E15.76252
G1 X55.801 Y154.245 E15.78078
G1 X54.882 Y153.946 E15.82578
G1 X54.527 Y153.824 E15.84326
G1 X53.699 Y153.523 E15.88428
G1 X53.333 Y153.382 E15.90255
G1 X52.302 Y152.965 E15.95433
G1 X51.953 Y152.818 E15.97197
G1 X51.243 Y152.502 E16.00815
G1 X50.881 Y152.333 E16.02676
G1 X49.853 Y151.83 E16.08005
G1 X49.506 Y151.652 E16.09821
G1 X48.729 Y151.237 E16.13922
G1 X48.386 Y151.046 E16.1575
G1 X47.458 Y150.507 E16.20748
G1 X47.139 Y150.314 E16.22484
G1 X46.407 Y149.855 E16.26507
G1 X46.074 Y149.638 E16.28358
G1 X45.265 Y149.089 E16.3291
G1 X44.953 Y148.869 E16.34688
G1 X44.14 Y148.275 E16.39376
G1 X43.842 Y148.05 E16.41115
G1 X43.129 Y147.491 E16.45334
G1 X42.825 Y147.243 E16.47161
G1 X42.072 Y146.608 E16.51747
G1 X41.779 Y146.352 E16.53559
G1 X41.058 Y145.699 E16.58089
G1 X40.778 Y145.436 E16.59877
G1 X40.114 Y144.791 E16.64188
G1 X39.845 Y144.522 E16.65959
G1 X39.161 Y143.81 E16.70556
G1 X38.91 Y143.539 E16.72276
G1 X38.275 Y142.832 E16.76701
G1 X38.007 Y142.522 E16.7861
G1 X37.364 Y141.75 E16.83288
G1 X37.132 Y141.462 E16.8501
G1 X36.601 Y140.779 E16.89038
G1 X36.372 Y140.474 E16.90814
G1 X35.797 Y139.679 E16.95383
G1 X35.577 Y139.363 E16.97176
G1 X34.989 Y138.487 E17.02089
G1 X34.78 Y138.163 E17.03884
G1 X34.33 Y137.439 E17.07853
G1 X34.127 Y137.099 E17.09697
G1 X33.635 Y136.24 E17.14307
G1 X33.456 Y135.916 E17.1603
G1 X32.998 Y135.05 E17.20592
G1 X32.817 Y134.692 E17.2246
G1 X32.389 Y133.806 E17.27042
G1 X32.238 Y133.48 E17.28715
G1 X31.885 Y132.684 E17.32769
G1 X31.738 Y132.335 E17.34533
G1 X31.332 Y131.327 E17.39593
G1 X31.183 Y130.937 E17.41537
G1 X30.916 Y130.194 E17.45213
G1 X30.799 Y129.85 E17.46905
G1 X30.462 Y128.805 E17.52018
G1 X30.35 Y128.435 E17.53818
G1 X30.102 Y127.562 E17.58044
G1 X30.003 Y127.192 E17.59827
G1 X29.77 Y126.248 E17.64355
G1 X29.685 Y125.876 E17.66132
G1 X29.493 Y124.963 E17.70476
G1 X29.418 Y124.569 E17.72343
G1 X29.246 Y123.572 E17.77054
G1 X29.189 Y123.201 E17.78802
G1 X29.063 Y122.285 E17.83108
G1 X29.019 Y121.921 E17.84815
G1 X28.922 Y120.986 E17.89192
G1 X28.888 Y120.586 E17.91061
G1 X28.819 Y119.555 E17.95873
G1 X28.8 Y119.171 E17.97663
G1 X28.773 Y118.326 E18.016
G1 X28.767 Y117.945 E18.03374
G1 X28.77 Y116.852 E18.08464
G1 X28.778 Y116.475 E18.10219
G1 X28.81 Y115.611 E18.14245
G1 X28.83 Y115.227 E18.16036
G1 X28.9 Y114.256 E18.20569
G1 X28.936 Y113.865 E18.22397
G1 X29.044 Y112.866 E18.27076
G1 X29.092 Y112.484 E18.28869
G1 X29.222 Y111.579 E18.33126
G1 X29.279 Y111.221 E18.34814
G1 X29.446 Y110.28 E18.39264
G1 X29.523 Y109.888 E18.41125
G1 X29.724 Y108.954 E18.45573
G1 X29.812 Y108.579 E18.47367
G1 X30.057 Y107.607 E18.52034
G1 X30.156 Y107.239 E18.53809
G1 X30.41 Y106.361 E18.58065
G1 X30.525 Y105.989 E18.59878
G1 X30.838 Y105.035 E18.64553
G1 X30.961 Y104.682 E18.66294
G1 X31.266 Y103.849 E18.70424
G1 X31.403 Y103.493 E18.72201
G1 X31.798 Y102.52 E18.7709
G1 X31.958 Y102.145 E18.78989
G1 X32.326 Y101.327 E18.83166
G1 X32.484 Y100.991 E18.84895
G1 X32.923 Y100.097 E18.89532
G1 X33.097 Y99.758 E18.91306
G1 X33.527 Y98.954 E18.95552
G1 X33.713 Y98.621 E18.97328
G1 X34.237 Y97.718 E19.0219
G1 X34.436 Y97.389 E19.0398
G1 X34.902 Y96.647 E19.0806
G1 X35.112 Y96.325 E19.0985
G1 X35.657 Y95.521 E19.14373
G1 X35.88 Y95.204 E19.16177
G1 X36.474 Y94.391 E19.20866
G1 X36.702 Y94.089 E19.22628
G1 X37.267 Y93.369 E19.2689
G1 X37.511 Y93.069 E19.2869
G1 X38.14 Y92.323 E19.33234
G1 X38.397 Y92.03 E19.35049
G1 X39.05 Y91.309 E19.39578
G1 X39.313 Y91.029 E19.41367
G1 X39.958 Y90.365 E19.45677
G1 X40.227 Y90.096 E19.47449
G1 X40.939 Y89.412 E19.52046
G1 X41.21 Y89.161 E19.53766
G1 X41.917 Y88.526 E19.58191
G1 X42.226 Y88.259 E19.60093
G1 X42.987 Y87.625 E19.64705
G1 X43.273 Y87.394 E19.66417
G1 X43.967 Y86.854 E19.70511
G1 X44.275 Y86.623 E19.72304
G1 X45.07 Y86.048 E19.76873
G1 X45.386 Y85.828 E19.78666
G1 X46.305 Y85.211 E19.8382
G1 X46.619 Y85.008 E19.85561
G1 X47.216 Y84.636 E19.88836
G1 X47.532 Y84.446 E19.90553
G1 X47.961 Y84.198 E19.92861
G0 F1350 X48.455 Y83.913
G0 F7500 X48.655 Y84.26
G1 F1500 X48.985 Y84.077 E19.94618
G1 X49.761 Y83.665 E19.98709
G1 X50.091 Y83.497 E20.00433
G1 X51.056 Y83.027 E20.05431
G1 X51.392 Y82.871 E20.07156
G1 X52.121 Y82.547 E20.10871
G1 X52.447 Y82.408 E20.12521
G1 X53.479 Y81.99 E20.17706
G1 X53.836 Y81.853 E20.19486
G1 X54.664 Y81.552 E20.23589
G1 X55.003 Y81.435 E20.25258
G1 X55.921 Y81.136 E20.29754
G1 X56.286 Y81.024 E20.31532
G1 X57.243 Y80.75 E20.36167
G1 X57.593 Y80.657 E20.37853
G1 X58.474 Y80.437 E20.42082
G1 X58.824 Y80.356 E20.43754
G1 X59.81 Y80.145 E20.4845
G1 X60.212 Y80.067 E20.50356
G1 X61.115 Y79.91 E20.54624
G1 X61.453 Y79.857 E20.56217
G1 X62.433 Y79.719 E20.60826
G1 X62.794 Y79.674 E20.6252
G1 X63.728 Y79.575 E20.66893
G1 X64.11 Y79.542 E20.68679
G1 X65.088 Y79.474 E20.73243
G1 X65.454 Y79.454 E20.7495
G1 X66.373 Y79.422 E20.79232
G1 X66.742 Y79.416 E20.80951
G1 X67.757 Y79.416 E20.85677
G1 X68.125 Y79.422 E20.87391
G1 X69.046 Y79.454 E20.91682
G1 X69.415 Y79.474 E20.93402
G1 X70.391 Y79.542 E20.97958
G1 X70.77 Y79.575 E20.9973
G1 X71.705 Y79.674 E21.04108
G1 X72.067 Y79.719 E21.05806
G1 X73.047 Y79.857 E21.10415
G1 X73.398 Y79.912 E21.12069
G1 X74.3 Y80.07 E21.16333
G1 X74.675 Y80.143 E21.18112
G1 X75.663 Y80.353 E21.22815
G1 X76.03 Y80.437 E21.24568
G1 X76.91 Y80.657 E21.28792
G1 X77.257 Y80.75 E21.30465
G1 X78.214 Y81.024 E21.351
G1 X78.576 Y81.135 E21.36863
G1 X79.495 Y81.434 E21.41363
G1 X79.837 Y81.552 E21.43048
G1 X80.665 Y81.853 E21.4715
G1 X81.018 Y81.988 E21.4891
G1 X82.049 Y82.405 E21.54089
G1 X82.389 Y82.55 E21.5581
G1 X83.116 Y82.874 E21.59516
G1 X83.446 Y83.028 E21.61212
G1 X85.11 Y83.839 E21.69831
G1 X87.446 Y84.938 E21.81852
G1 X89.762 Y85.947 E21.93616
G1 X92.127 Y86.901 E22.0549
G1 X94.489 Y87.776 E22.17219
G1 X96.882 Y88.586 E22.28983
G1 X99.301 Y89.33 E22.40768
G1 X101.724 Y90 E22.52473
G1 X104.211 Y90.614 E22.64402
G1 X106.674 Y91.146 E22.76135
G1 X109.132 Y91.606 E22.87779
G1 X111.643 Y92.003 E22.99617
G1 X114.151 Y92.327 E23.11392
G1 X116.664 Y92.579 E23.23152
G1 X119.197 Y92.762 E23.34978
G1 X121.716 Y92.872 E23.46718
G1 X124.255 Y92.911 E23.58542
G1 X126.773 Y92.878 E23.70268
G1 X129.307 Y92.774 E23.82078
G1 X131.823 Y92.598 E23.93822
G1 X134.334 Y92.352 E24.0557
G1 X136.832 Y92.036 E24.17294
G1 X139.336 Y91.646 E24.29095
G1 X141.851 Y91.181 E24.41004
G1 X144.278 Y90.662 E24.52561
G1 X146.781 Y90.052 E24.64557
G1 X147.447 Y89.873 E24.67768
G1 X147.982 Y89.738 E24.70337
G1 X148.883 Y89.552 E24.74621
G1 X149.798 Y89.445 E24.78911
G1 X150.39 Y89.418 E24.8167
G1 X151.493 Y89.4 E24.86807
G1 X167.253 Y89.404 E25.60192
G1 X167.623 Y89.411 E25.61915
G1 X168.531 Y89.443 E25.66146
G1 X168.905 Y89.462 E25.6789
G1 X169.514 Y89.505 E25.70733
G1 X169.849 Y89.534 E25.72298
G1 X170.414 Y89.592 E25.74943
